haminh109/Revision-Aware-DFM/outputs/full_state_space_release_revision_dfm/sensitivity_window_rolling_max_iter100_journal_evidence/common_sample_spf_point.csv
timing_mode,checkpoint_id,outcome_id,anchor_model,model_id,n_common_forecasts,RMSE,MAE,bias,first_target_quarter,last_target_quarter
exact,pre_advance,A,spf,ar,80,10.72104304228959,3.4011703704033414,-1.1711265950973533,2005:Q1,2024:Q4
exact,pre_advance,A,spf,bridge,80,3.362991299609968,1.836683365630212,0.058741529772414626,2005:Q1,2024:Q4
exact,pre_advance,A,spf,indicator_revision_only_dfm_kalman_em,80,4.665980313680302,2.1553946856271127,0.07555105846125548,2005:Q1,2024:Q4
exact,pre_advance,A,spf,joint_indicator_revision_dfm_full_kalman_em,80,5.422518183252353,2.2559431849181273,-0.19240570320617906,2005:Q1,2024:Q4
exact,pre_advance,A,spf,midas_umidas,80,5.501671454809658,3.184157997785811,0.6503205071504807,2005:Q1,2024:Q4
exact,pre_advance,A,spf,monthly_mixed_frequency_kalman_em,80,4.127346754223465,2.025673723536858,0.5308575067446184,2005:Q1,2024:Q4
exact,pre_advance,A,spf,no_revision,80,14.710645176623602,4.4905598702092675,-1.7562350816714123,2005:Q1,2024:Q4
exact,pre_advance,A,spf,release_dfm,80,3.1621960691878805,1.73249406919753,0.4722232857208805,2005:Q1,2024:Q4
exact,pre_advance,A,spf,revision_dfm_kalman_em,80,3.1555963473886504,1.7513316578364926,0.47202619163628545,2005:Q1,2024:Q4
exact,pre_advance,A,spf,spf,80,2.2249600782092696,1.3380662499999998,0.03248624999999996,2005:Q1,2024:Q4
exact,pre_advance,A,spf,standard_dfm,80,3.1621960691878805,1.73249406919753,0.4722232857208805,2005:Q1,2024:Q4
exact,pre_second,S,spf,ar,79,10.52352274012095,3.721687839399284,-1.3763187874229739,2005:Q1,2024:Q4
exact,pre_second,S,spf,bridge,79,3.143626045612042,1.8324738277903312,0.02378942702553561,2005:Q1,2024:Q4
exact,pre_second,S,spf,indicator_revision_only_dfm_kalman_em,79,0.6153531024990829,0.46005234666177197,-0.027736293669302525,2005:Q1,2024:Q4
exact,pre_second,S,spf,joint_indicator_revision_dfm_full_kalman_em,79,1.4220252610604824,0.6819470671439897,0.05280014180285296,2005:Q1,2024:Q4
exact,pre_second,S,spf,midas_umidas,79,1.2590846818661632,0.9400420981680343,0.12183621808544799,2005:Q1,2024:Q4
exact,pre_second,S,spf,monthly_mixed_frequency_kalman_em,79,0.6418434135064038,0.4444882565897801,0.02916919459528039,2005:Q1,2024:Q4
exact,pre_second,S,spf,no_revision,79,0.5696627235545563,0.3997025316455695,-0.0657987341772152,2005:Q1,2024:Q4
exact,pre_second,S,spf,release_dfm,79,0.7045962087029917,0.4666561692281911,-0.03849373297165302,2005:Q1,2024:Q4
exact,pre_second,S,spf,revision_dfm_kalman_em,79,0.7358455363283256,0.5154101476492555,-0.004447120427357362,2005:Q1,2024:Q4
exact,pre_second,S,spf,spf,79,2.3374416593545337,1.447506329113924,-0.03323291139240504,2005:Q1,2024:Q4
exact,pre_second,S,spf,standard_dfm,79,2.974551504155842,1.7837194132587042,0.4671255860244321,2005:Q1,2024:Q4
exact,pre_third,T,spf,ar,80,9.303774668339019,3.1302810760180955,-0.6683067658678221,2005:Q1,2024:Q4
exact,pre_third,T,spf,bridge,80,3.206902077259027,1.9232704305480746,-0.03035036338664989,2005:Q1,2024:Q4
exact,pre_third,T,spf,indicator_revision_only_dfm_kalman_em,80,0.3733064914059443,0.2422711705329653,-0.05292199325645787,2005:Q1,2024:Q4
exact,pre_third,T,spf,joint_indicator_revision_dfm_full_kalman_em,80,0.3731718934948411,0.24778158779761267,-0.05163251603586718,2005:Q1,2024:Q4
exact,pre_third,T,spf,midas_umidas,80,1.485223711031883,0.7454679511596708,-0.03245797480067085,2005:Q1,2024:Q4
exact,pre_third,T,spf,monthly_mixed_frequency_kalman_em,80,0.3732625498056657,0.2587141780635164,-0.008282520142963731,2005:Q1,2024:Q4
exact,pre_third,T,spf,no_revision,80,0.36218671255306983,0.24027250000000003,-0.04849250000000001,2005:Q1,2024:Q4
exact,pre_third,T,spf,release_dfm,80,0.5320494386555976,0.3546928377478256,-0.03986536524548291,2005:Q1,2024:Q4
exact,pre_third,T,spf,revision_dfm_kalman_em,80,0.3688826026578689,0.2418625058921693,-0.04976351920753912,2005:Q1,2024:Q4
exact,pre_third,T,spf,spf,80,2.380187605841187,1.481165,-0.08098250000000004,2005:Q1,2024:Q4
exact,pre_third,T,spf,standard_dfm,80,2.9948535386028827,1.7984215966386592,0.49230020891371246,2005:Q1,2024:Q4
pseudo,pre_advance,A,spf,ar,80,10.72104304228959,3.4011703704033414,-1.1711265950973533,2005:Q1,2024:Q4
pseudo,pre_advance,A,spf,bridge,80,3.383503761721389,1.8406570292931623,0.07908281001233315,2005:Q1,2024:Q4
pseudo,pre_advance,A,spf,indicator_revision_only_dfm_kalman_em,80,4.667869824870315,2.1532360687347216,0.07587762510146558,2005:Q1,2024:Q4
pseudo,pre_advance,A,spf,joint_indicator_revision_dfm_full_kalman_em,80,5.422527698394964,2.253349542235496,-0.19488736197203174,2005:Q1,2024:Q4
pseudo,pre_advance,A,spf,midas_umidas,80,5.618481580100391,3.202705500745401,0.66820673980128,2005:Q1,2024:Q4
pseudo,pre_advance,A,spf,monthly_mixed_frequency_kalman_em,80,4.129357355650728,2.024615918072611,0.5366594490318933,2005:Q1,2024:Q4
pseudo,pre_advance,A,spf,no_revision,80,14.710645176623602,4.4905598702092675,-1.7562350816714123,2005:Q1,2024:Q4
pseudo,pre_advance,A,spf,release_dfm,80,3.1436275639771267,1.7175158625998068,0.49812976183735413,2005:Q1,2024:Q4
pseudo,pre_advance,A,spf,revision_dfm_kalman_em,80,3.1537773980473056,1.7511445188857322,0.4717541541934164,2005:Q1,2024:Q4
pseudo,pre_advance,A,spf,spf,80,2.2249600782092696,1.3380662499999998,0.03248624999999996,2005:Q1,2024:Q4
pseudo,pre_advance,A,spf,standard_dfm,80,3.1436275639771267,1.7175158625998068,0.49812976183735413,2005:Q1,2024:Q4
pseudo,pre_second,S,spf,ar,79,10.52352274012095,3.721687839399284,-1.3763187874229739,2005:Q1,2024:Q4
pseudo,pre_second,S,spf,bridge,79,3.142070214836336,1.819504789973236,0.0226077063871849,2005:Q1,2024:Q4
pseudo,pre_second,S,spf,indicator_revision_only_dfm_kalman_em,79,0.6153870358922733,0.4601040392040303,-0.02779151269478747,2005:Q1,2024:Q4
pseudo,pre_second,S,spf,joint_indicator_revision_dfm_full_kalman_em,79,1.4223592883034235,0.6825722543016811,0.053069314283897835,2005:Q1,2024:Q4
pseudo,pre_second,S,spf,midas_umidas,79,1.2595385221601436,0.9345947304845559,0.12378512193630214,2005:Q1,2024:Q4
pseudo,pre_second,S,spf,monthly_mixed_frequency_kalman_em,79,0.645040092040123,0.44621125379238463,0.026308077933567042,2005:Q1,2024:Q4
pseudo,pre_second,S,spf,no_revision,79,0.5696627235545563,0.3997025316455695,-0.0657987341772152,2005:Q1,2024:Q4
pseudo,pre_second,S,spf,release_dfm,79,0.7032625622383578,0.4658484165040855,-0.03929222843078033,2005:Q1,2024:Q4
pseudo,pre_second,S,spf,revision_dfm_kalman_em,79,0.7368387270232143,0.5154949705901057,-0.005407913184272049,2005:Q1,2024:Q4
pseudo,pre_second,S,spf,spf,79,2.3374416593545337,1.447506329113924,-0.03323291139240504,2005:Q1,2024:Q4
pseudo,pre_second,S,spf,standard_dfm,79,2.9652978257814717,1.775332032770703,0.4708719097717953,2005:Q1,2024:Q4
pseudo,pre_third,T,spf,ar,80,9.303774668339019,3.1302810760180955,-0.6683067658678221,2005:Q1,2024:Q4
pseudo,pre_third,T,spf,bridge,80,3.199181849149245,1.9129557674379327,-0.02774649805379441,2005:Q1,2024:Q4
pseudo,pre_third,T,spf,indicator_revision_only_dfm_kalman_em,80,0.3733259481052106,0.24233575673020663,-0.05281854836441666,2005:Q1,2024:Q4
pseudo,pre_third,T,spf,joint_indicator_revision_dfm_full_kalman_em,80,0.37313654321076295,0.24775866375226224,-0.0515399540793421,2005:Q1,2024:Q4
pseudo,pre_third,T,spf,midas_umidas,80,1.48973091987058,0.7524779744676219,-0.028132656923946796,2005:Q1,2024:Q4
pseudo,pre_third,T,spf,monthly_mixed_frequency_kalman_em,80,0.37298664063241216,0.25806099548652756,-0.008385311927961709,2005:Q1,2024:Q4
pseudo,pre_third,T,spf,no_revision,80,0.36218671255306983,0.24027250000000003,-0.04849250000000001,2005:Q1,2024:Q4
pseudo,pre_third,T,spf,release_dfm,80,0.5320452943478182,0.3547837802503985,-0.04016496890806437,2005:Q1,2024:Q4
pseudo,pre_third,T,spf,revision_dfm_kalman_em,80,0.3689075601339819,0.2419905583980917,-0.04972254092973405,2005:Q1,2024:Q4
pseudo,pre_third,T,spf,spf,80,2.380187605841187,1.481165,-0.08098250000000004,2005:Q1,2024:Q4
pseudo,pre_third,T,spf,standard_dfm,80,2.9918734241719878,1.7968380545012628,0.4961975622246838,2005:Q1,2024:Q4
