haminh109/Revision-Aware-DFM/outputs/full_state_space_release_revision_dfm/sensitivity_window_rolling_max_iter100_journal_evidence/cumulative_loss_revision.csv
timing_mode,checkpoint_id,outcome_id,baseline_model,model_id,target_quarter,loss_diff_baseline_minus_model,cumulative_loss_diff
exact,pre_advance,DELTA_SA,ar,bridge,2005:Q1,-0.042231031922894915,-0.042231031922894915
exact,pre_advance,DELTA_SA,ar,bridge,2005:Q2,-0.023369086730293462,-0.06560011865318838
exact,pre_advance,DELTA_SA,ar,bridge,2005:Q3,0.01063527877809664,-0.05496483987509174
exact,pre_advance,DELTA_SA,ar,bridge,2005:Q4,-0.007917577137597623,-0.06288241701268936
exact,pre_advance,DELTA_SA,ar,bridge,2006:Q1,-0.03850201724780672,-0.10138443426049608
exact,pre_advance,DELTA_SA,ar,bridge,2006:Q2,-0.04834696102868438,-0.14973139528918045
exact,pre_advance,DELTA_SA,ar,bridge,2006:Q3,0.08833781954903219,-0.061393575740148254
exact,pre_advance,DELTA_SA,ar,bridge,2006:Q4,-0.004330646303319696,-0.06572422204346795
exact,pre_advance,DELTA_SA,ar,bridge,2007:Q1,-0.2919124728119963,-0.35763669485546423
exact,pre_advance,DELTA_SA,ar,bridge,2007:Q2,0.5572689915582782,0.19963229670281402
exact,pre_advance,DELTA_SA,ar,bridge,2007:Q3,0.051011684052124195,0.2506439807549382
exact,pre_advance,DELTA_SA,ar,bridge,2007:Q4,0.018435322287814915,0.2690793030427531
exact,pre_advance,DELTA_SA,ar,bridge,2008:Q1,0.1451758917411648,0.4142551947839179
exact,pre_advance,DELTA_SA,ar,bridge,2008:Q2,-0.7704383444427152,-0.35618314965879727
exact,pre_advance,DELTA_SA,ar,bridge,2008:Q3,0.4488709255989261,0.09268777594012884
exact,pre_advance,DELTA_SA,ar,bridge,2008:Q4,1.7318365922683605,1.8245243682084893
exact,pre_advance,DELTA_SA,ar,bridge,2009:Q1,-0.19376126672637017,1.6307631014821191
exact,pre_advance,DELTA_SA,ar,bridge,2009:Q2,-0.23664290292004034,1.3941201985620788
exact,pre_advance,DELTA_SA,ar,bridge,2009:Q3,-0.2953361347770765,1.0987840637850024
exact,pre_advance,DELTA_SA,ar,bridge,2009:Q4,0.3100520849099628,1.4088361486949652
exact,pre_advance,DELTA_SA,ar,bridge,2010:Q1,-0.1644480706721107,1.2443880780228544
exact,pre_advance,DELTA_SA,ar,bridge,2010:Q2,-0.4736101548567063,0.7707779231661481
exact,pre_advance,DELTA_SA,ar,bridge,2010:Q3,0.8122180321879826,1.5829959553541308
exact,pre_advance,DELTA_SA,ar,bridge,2010:Q4,-0.2581275773162531,1.3248683780378778
exact,pre_advance,DELTA_SA,ar,bridge,2011:Q1,0.05703937734918775,1.3819077553870656
exact,pre_advance,DELTA_SA,ar,bridge,2011:Q2,-0.1892149146527509,1.1926928407343147
exact,pre_advance,DELTA_SA,ar,bridge,2011:Q3,-0.2899949269152853,0.9026979138190294
exact,pre_advance,DELTA_SA,ar,bridge,2011:Q4,0.20782355912977948,1.1105214729488089
exact,pre_advance,DELTA_SA,ar,bridge,2012:Q1,0.04479035579385257,1.1553118287426614
exact,pre_advance,DELTA_SA,ar,bridge,2012:Q2,0.06657576547097893,1.2218875942136402
exact,pre_advance,DELTA_SA,ar,bridge,2012:Q3,-0.1640009207710753,1.057886673442565
exact,pre_advance,DELTA_SA,ar,bridge,2012:Q4,-0.0293927224709494,1.0284939509716156
exact,pre_advance,DELTA_SA,ar,bridge,2013:Q1,0.01845188754637067,1.0469458385179862
exact,pre_advance,DELTA_SA,ar,bridge,2013:Q2,0.19095911123496512,1.2379049497529513
exact,pre_advance,DELTA_SA,ar,bridge,2013:Q3,-0.5524638745674804,0.6854410751854709
exact,pre_advance,DELTA_SA,ar,bridge,2013:Q4,0.08083155351181626,0.7662726286972872
exact,pre_advance,DELTA_SA,ar,bridge,2014:Q1,-0.6682655397265149,0.09800708897077226
exact,pre_advance,DELTA_SA,ar,bridge,2014:Q2,0.6204663705445473,0.7184734595153196
exact,pre_advance,DELTA_SA,ar,bridge,2014:Q3,-0.007871326011418059,0.7106021335039016
exact,pre_advance,DELTA_SA,ar,bridge,2014:Q4,0.18163416461341103,0.8922362981173126
exact,pre_advance,DELTA_SA,ar,bridge,2015:Q1,-0.20069634128733904,0.6915399568299736
exact,pre_advance,DELTA_SA,ar,bridge,2015:Q2,1.5271396198199576,2.218679576649931
exact,pre_advance,DELTA_SA,ar,bridge,2015:Q3,-0.2358789582563266,1.9828006183936047
exact,pre_advance,DELTA_SA,ar,bridge,2015:Q4,-0.02307276336857483,1.9597278550250299
exact,pre_advance,DELTA_SA,ar,bridge,2016:Q1,-0.12104381546713981,1.83868403955789
exact,pre_advance,DELTA_SA,ar,bridge,2016:Q2,0.0844556114218376,1.9231396509797276
exact,pre_advance,DELTA_SA,ar,bridge,2016:Q3,0.006692379439633973,1.9298320304193617
exact,pre_advance,DELTA_SA,ar,bridge,2016:Q4,-0.10455630192326357,1.825275728496098
exact,pre_advance,DELTA_SA,ar,bridge,2017:Q1,0.1376863031019393,1.9629620315980374
exact,pre_advance,DELTA_SA,ar,bridge,2017:Q2,-0.1254197221849995,1.8375423094130379
exact,pre_advance,DELTA_SA,ar,bridge,2017:Q3,0.0014528612781356393,1.8389951706911736
exact,pre_advance,DELTA_SA,ar,bridge,2017:Q4,-0.008337750203616823,1.8306574204875568
exact,pre_advance,DELTA_SA,ar,bridge,2018:Q1,-0.12447573730296127,1.7061816831845955
exact,pre_advance,DELTA_SA,ar,bridge,2018:Q2,0.06308163926155727,1.7692633224461527
exact,pre_advance,DELTA_SA,ar,bridge,2018:Q3,-0.004711231778951073,1.7645520906672016
exact,pre_advance,DELTA_SA,ar,bridge,2019:Q1,0.11303540062424434,1.877587491291446
exact,pre_advance,DELTA_SA,ar,bridge,2019:Q2,0.39969980921465215,2.277287300506098
exact,pre_advance,DELTA_SA,ar,bridge,2019:Q3,0.19602455693471546,2.4733118574408137
exact,pre_advance,DELTA_SA,ar,bridge,2019:Q4,0.01424680413425029,2.487558661575064
exact,pre_advance,DELTA_SA,ar,bridge,2020:Q1,0.22063329602201187,2.7081919575970756
exact,pre_advance,DELTA_SA,ar,bridge,2020:Q2,-3.6640697370266877,-0.955877779429612
exact,pre_advance,DELTA_SA,ar,bridge,2020:Q3,70.77474632787406,69.81886854844444
exact,pre_advance,DELTA_SA,ar,bridge,2020:Q4,-0.15402958679247541,69.66483896165197
exact,pre_advance,DELTA_SA,ar,bridge,2021:Q1,0.0009470777186569811,69.66578603937063
exact,pre_advance,DELTA_SA,ar,bridge,2021:Q2,500.69844483962953,570.3642308790002
exact,pre_advance,DELTA_SA,ar,bridge,2021:Q3,3.0921624054281667,573.4563932844284
exact,pre_advance,DELTA_SA,ar,bridge,2021:Q4,5.323579631295733,578.7799729157241
exact,pre_advance,DELTA_SA,ar,bridge,2022:Q1,-0.1947698536742759,578.5852030620498
exact,pre_advance,DELTA_SA,ar,bridge,2022:Q2,-1.5260266442052588,577.0591764178446
exact,pre_advance,DELTA_SA,ar,bridge,2022:Q3,-0.26665433036105607,576.7925220874836
exact,pre_advance,DELTA_SA,ar,bridge,2022:Q4,-1.1331081735533943,575.6594139139302
exact,pre_advance,DELTA_SA,ar,bridge,2023:Q1,0.0019623762225932408,575.6613762901527
exact,pre_advance,DELTA_SA,ar,bridge,2023:Q2,-0.6967607846514479,574.9646155055012
exact,pre_advance,DELTA_SA,ar,bridge,2023:Q3,-0.08752072429711161,574.8770947812042
exact,pre_advance,DELTA_SA,ar,bridge,2023:Q4,-0.05510083760206297,574.8219939436021
exact,pre_advance,DELTA_SA,ar,bridge,2024:Q1,0.19606160040269754,575.0180555440048
exact,pre_advance,DELTA_SA,ar,bridge,2024:Q2,0.01989482391285847,575.0379503679177
exact,pre_advance,DELTA_SA,ar,bridge,2024:Q3,-0.11600492037359696,574.9219454475441
exact,pre_advance,DELTA_SA,ar,bridge,2024:Q4,-0.04694738404471455,574.8749980634993
exact,pre_advance,DELTA_SA,ar,indicator_revision_only_dfm_kalman_em,2005:Q1,-0.11632901865208346,-0.11632901865208346
exact,pre_advance,DELTA_SA,ar,indicator_revision_only_dfm_kalman_em,2005:Q2,0.04182387868422602,-0.07450513996785744
exact,pre_advance,DELTA_SA,ar,indicator_revision_only_dfm_kalman_em,2005:Q3,-0.007240210519856322,-0.08174535048771377
exact,pre_advance,DELTA_SA,ar,indicator_revision_only_dfm_kalman_em,2005:Q4,-0.1345375372572688,-0.21628288774498255
exact,pre_advance,DELTA_SA,ar,indicator_revision_only_dfm_kalman_em,2006:Q1,0.010308342025816625,-0.20597454571916593
exact,pre_advance,DELTA_SA,ar,indicator_revision_only_dfm_kalman_em,2006:Q2,-0.16582658669868577,-0.37180113241785173
exact,pre_advance,DELTA_SA,ar,indicator_revision_only_dfm_kalman_em,2006:Q3,-0.07592492189707306,-0.4477260543149248
exact,pre_advance,DELTA_SA,ar,indicator_revision_only_dfm_kalman_em,2006:Q4,0.18172964621901322,-0.2659964080959116
exact,pre_advance,DELTA_SA,ar,indicator_revision_only_dfm_kalman_em,2007:Q1,-0.26366327814451584,-0.5296596862404275
exact,pre_advance,DELTA_SA,ar,indicator_revision_only_dfm_kalman_em,2007:Q2,0.5564177290499455,0.02675804280951799
exact,pre_advance,DELTA_SA,ar,indicator_revision_only_dfm_kalman_em,2007:Q3,-0.3079891652925121,-0.2812311224829941
exact,pre_advance,DELTA_SA,ar,indicator_revision_only_dfm_kalman_em,2007:Q4,0.18658844743413622,-0.09464267504885787
exact,pre_advance,DELTA_SA,ar,indicator_revision_only_dfm_kalman_em,2008:Q1,0.08235629380562569,-0.012286381243232183
exact,pre_advance,DELTA_SA,ar,indicator_revision_only_dfm_kalman_em,2008:Q2,0.11548856399183616,0.10320218274860397
exact,pre_advance,DELTA_SA,ar,indicator_revision_only_dfm_kalman_em,2008:Q3,0.39905779082618503,0.502259973574789
exact,pre_advance,DELTA_SA,ar,indicator_revision_only_dfm_kalman_em,2008:Q4,-0.32598990174292464,0.17627007183186438
exact,pre_advance,DELTA_SA,ar,indicator_revision_only_dfm_kalman_em,2009:Q1,4.946822535653589,5.123092607485454
exact,pre_advance,DELTA_SA,ar,indicator_revision_only_dfm_kalman_em,2009:Q2,0.0099748484242222,5.133067455909676
exact,pre_advance,DELTA_SA,ar,indicator_revision_only_dfm_kalman_em,2009:Q3,-0.12365458310047178,5.009412872809204
exact,pre_advance,DELTA_SA,ar,indicator_revision_only_dfm_kalman_em,2009:Q4,0.27989254490452065,5.289305417713725
exact,pre_advance,DELTA_SA,ar,indicator_revision_only_dfm_kalman_em,2010:Q1,0.14501980130288764,5.434325219016612
exact,pre_advance,DELTA_SA,ar,indicator_revision_only_dfm_kalman_em,2010:Q2,-0.1260101328572193,5.308315086159393
exact,pre_advance,DELTA_SA,ar,indicator_revision_only_dfm_kalman_em,2010:Q3,0.6896924511273879,5.998007537286781
exact,pre_advance,DELTA_SA,ar,indicator_revision_only_dfm_kalman_em,2010:Q4,0.26691842314690295,6.2649259604336835
exact,pre_advance,DELTA_SA,ar,indicator_revision_only_dfm_kalman_em,2011:Q1,0.0731714065172056,6.3380973669508895
exact,pre_advance,DELTA_SA,ar,indicator_revision_only_dfm_kalman_em,2011:Q2,0.019008607494207658,6.357105974445097
exact,pre_advance,DELTA_SA,ar,indicator_revision_only_dfm_kalman_em,2011:Q3,-0.1640881147024434,6.193017859742653
exact,pre_advance,DELTA_SA,ar,indicator_revision_only_dfm_kalman_em,2011:Q4,0.2177581462050425,6.410776005947696
exact,pre_advance,DELTA_SA,ar,indicator_revision_only_dfm_kalman_em,2012:Q1,0.09038082944581234,6.501156835393508
exact,pre_advance,DELTA_SA,ar,indicator_revision_only_dfm_kalman_em,2012:Q2,0.1297793502747528,6.6309361856682605
exact,pre_advance,DELTA_SA,ar,indicator_revision_only_dfm_kalman_em,2012:Q3,-0.061753564726004184,6.569182620942256
exact,pre_advance,DELTA_SA,ar,indicator_revision_only_dfm_kalman_em,2012:Q4,-0.06922998217976675,6.4999526387624895
exact,pre_advance,DELTA_SA,ar,indicator_revision_only_dfm_kalman_em,2013:Q1,0.015048149252141306,6.515000788014631
exact,pre_advance,DELTA_SA,ar,indicator_revision_only_dfm_kalman_em,2013:Q2,0.07139610023897291,6.586396888253604
exact,pre_advance,DELTA_SA,ar,indicator_revision_only_dfm_kalman_em,2013:Q3,-0.4571876546417575,6.129209233611846
exact,pre_advance,DELTA_SA,ar,indicator_revision_only_dfm_kalman_em,2013:Q4,0.8669466509162678,6.996155884528114
exact,pre_advance,DELTA_SA,ar,indicator_revision_only_dfm_kalman_em,2014:Q1,-0.8568339500573967,6.139321934470717
exact,pre_advance,DELTA_SA,ar,indicator_revision_only_dfm_kalman_em,2014:Q2,0.7332771538423399,6.8725990883130565
exact,pre_advance,DELTA_SA,ar,indicator_revision_only_dfm_kalman_em,2014:Q3,-0.05810572687657281,6.814493361436484
exact,pre_advance,DELTA_SA,ar,indicator_revision_only_dfm_kalman_em,2014:Q4,0.18412702461772798,6.9986203860542116
exact,pre_advance,DELTA_SA,ar,indicator_revision_only_dfm_kalman_em,2015:Q1,-0.45519956257364835,6.543420823480563
exact,pre_advance,DELTA_SA,ar,indicator_revision_only_dfm_kalman_em,2015:Q2,1.9854843111265403,8.528905134607104
exact,pre_advance,DELTA_SA,ar,indicator_revision_only_dfm_kalman_em,2015:Q3,-0.3331552167452849,8.19574991786182
exact,pre_advance,DELTA_SA,ar,indicator_revision_only_dfm_kalman_em,2015:Q4,-0.09839733326873266,8.097352584593088
exact,pre_advance,DELTA_SA,ar,indicator_revision_only_dfm_kalman_em,2016:Q1,-0.08530862740632958,8.012043957186759
exact,pre_advance,DELTA_SA,ar,indicator_revision_only_dfm_kalman_em,2016:Q2,0.10979260732032509,8.121836564507083
exact,pre_advance,DELTA_SA,ar,indicator_revision_only_dfm_kalman_em,2016:Q3,0.002209250832198445,8.124045815339281
exact,pre_advance,DELTA_SA,ar,indicator_revision_only_dfm_kalman_em,2016:Q4,0.013121604012334392,8.137167419351616
exact,pre_advance,DELTA_SA,ar,indicator_revision_only_dfm_kalman_em,2017:Q1,-0.010102894336734947,8.127064525014882
exact,pre_advance,DELTA_SA,ar,indicator_revision_only_dfm_kalman_em,2017:Q2,-0.18145115361172084,7.945613371403161
exact,pre_advance,DELTA_SA,ar,indicator_revision_only_dfm_kalman_em,2017:Q3,-0.08256266271898119,7.86305070868418
exact,pre_advance,DELTA_SA,ar,indicator_revision_only_dfm_kalman_em,2017:Q4,0.016933551288049794,7.87998425997223
exact,pre_advance,DELTA_SA,ar,indicator_revision_only_dfm_kalman_em,2018:Q1,-0.007251107136294999,7.872733152835935
exact,pre_advance,DELTA_SA,ar,indicator_revision_only_dfm_kalman_em,2018:Q2,0.0364046662060403,7.909137819041976
exact,pre_advance,DELTA_SA,ar,indicator_revision_only_dfm_kalman_em,2018:Q3,0.0039629988929927315,7.913100817934969
exact,pre_advance,DELTA_SA,ar,indicator_revision_only_dfm_kalman_em,2019:Q1,0.11068817267039295,8.023788990605361
exact,pre_advance,DELTA_SA,ar,indicator_revision_only_dfm_kalman_em,2019:Q2,0.40984208733457184,8.433631077939932
exact,pre_advance,DELTA_SA,ar,indicator_revision_only_dfm_kalman_em,2019:Q3,0.2217856389393293,8.65541671687926
exact,pre_advance,DELTA_SA,ar,indicator_revision_only_dfm_kalman_em,2019:Q4,0.02564850858982479,8.681065225469085
exact,pre_advance,DELTA_SA,ar,indicator_revision_only_dfm_kalman_em,2020:Q1,0.17907496959759137,8.860140195066677
exact,pre_advance,DELTA_SA,ar,indicator_revision_only_dfm_kalman_em,2020:Q2,-0.739686519716818,8.120453675349859
exact,pre_advance,DELTA_SA,ar,indicator_revision_only_dfm_kalman_em,2020:Q3,71.63586037243095,79.75631404778082
exact,pre_advance,DELTA_SA,ar,indicator_revision_only_dfm_kalman_em,2020:Q4,0.3498375920524172,80.10615163983324
exact,pre_advance,DELTA_SA,ar,indicator_revision_only_dfm_kalman_em,2021:Q1,0.0009655161093106185,80.10711715594255
exact,pre_advance,DELTA_SA,ar,indicator_revision_only_dfm_kalman_em,2021:Q2,500.86964920725126,580.9767663631937
exact,pre_advance,DELTA_SA,ar,indicator_revision_only_dfm_kalman_em,2021:Q3,3.0949840303002456,584.071750393494
exact,pre_advance,DELTA_SA,ar,indicator_revision_only_dfm_kalman_em,2021:Q4,5.4284074389217345,589.5001578324157
exact,pre_advance,DELTA_SA,ar,indicator_revision_only_dfm_kalman_em,2022:Q1,0.019207986530776426,589.5193658189464
exact,pre_advance,DELTA_SA,ar,indicator_revision_only_dfm_kalman_em,2022:Q2,-0.06592113362522665,589.4534446853212
exact,pre_advance,DELTA_SA,ar,indicator_revision_only_dfm_kalman_em,2022:Q3,-0.02806894309987941,589.4253757422213
exact,pre_advance,DELTA_SA,ar,indicator_revision_only_dfm_kalman_em,2022:Q4,0.02541265942602927,589.4507884016473
exact,pre_advance,DELTA_SA,ar,indicator_revision_only_dfm_kalman_em,2023:Q1,-0.04185803365140289,589.4089303679959
exact,pre_advance,DELTA_SA,ar,indicator_revision_only_dfm_kalman_em,2023:Q2,0.04398017756209707,589.452910545558
exact,pre_advance,DELTA_SA,ar,indicator_revision_only_dfm_kalman_em,2023:Q3,-0.07569811218053961,589.3772124333774
exact,pre_advance,DELTA_SA,ar,indicator_revision_only_dfm_kalman_em,2023:Q4,0.0644552429856816,589.4416676763631
exact,pre_advance,DELTA_SA,ar,indicator_revision_only_dfm_kalman_em,2024:Q1,0.1109319692620745,589.5525996456252
exact,pre_advance,DELTA_SA,ar,indicator_revision_only_dfm_kalman_em,2024:Q2,0.02858372171363778,589.5811833673388
exact,pre_advance,DELTA_SA,ar,indicator_revision_only_dfm_kalman_em,2024:Q3,0.03174914051024891,589.612932507849
exact,pre_advance,DELTA_SA,ar,indicator_revision_only_dfm_kalman_em,2024:Q4,-0.0030966468649467893,589.609835860984
exact,pre_advance,DELTA_SA,ar,joint_indicator_revision_dfm_full_kalman_em,2005:Q1,0.03666133051259135,0.03666133051259135
exact,pre_advance,DELTA_SA,ar,joint_indicator_revision_dfm_full_kalman_em,2005:Q2,-0.21560037204378302,-0.17893904153119167
exact,pre_advance,DELTA_SA,ar,joint_indicator_revision_dfm_full_kalman_em,2005:Q3,0.1789109985770167,-2.804295417496716e-05
exact,pre_advance,DELTA_SA,ar,joint_indicator_revision_dfm_full_kalman_em,2005:Q4,0.11525403199891385,0.11522598904473888
exact,pre_advance,DELTA_SA,ar,joint_indicator_revision_dfm_full_kalman_em,2006:Q1,0.23123125778889964,0.34645724683363854
exact,pre_advance,DELTA_SA,ar,joint_indicator_revision_dfm_full_kalman_em,2006:Q2,0.030682432066760457,0.377139678900399
exact,pre_advance,DELTA_SA,ar,joint_indicator_revision_dfm_full_kalman_em,2006:Q3,0.25705220645269067,0.6341918853530897
exact,pre_advance,DELTA_SA,ar,joint_indicator_revision_dfm_full_kalman_em,2006:Q4,0.5107091409363251,1.1449010262894148
exact,pre_advance,DELTA_SA,ar,joint_indicator_revision_dfm_full_kalman_em,2007:Q1,-0.2266955166405189,0.9182055096488959
exact,pre_advance,DELTA_SA,ar,joint_indicator_revision_dfm_full_kalman_em,2007:Q2,0.6142099551190157,1.5324154647679116
exact,pre_advance,DELTA_SA,ar,joint_indicator_revision_dfm_full_kalman_em,2007:Q3,-1.0444380686013717,0.4879773961665399
exact,pre_advance,DELTA_SA,ar,joint_indicator_revision_dfm_full_kalman_em,2007:Q4,0.1544292613942914,0.6424066575608313
exact,pre_advance,DELTA_SA,ar,joint_indicator_revision_dfm_full_kalman_em,2008:Q1,-0.0729068285167799,0.5694998290440514
exact,pre_advance,DELTA_SA,ar,joint_indicator_revision_dfm_full_kalman_em,2008:Q2,0.5367994676034917,1.1062992966475431
exact,pre_advance,DELTA_SA,ar,joint_indicator_revision_dfm_full_kalman_em,2008:Q3,0.4118551113022315,1.5181544079497746
exact,pre_advance,DELTA_SA,ar,joint_indicator_revision_dfm_full_kalman_em,2008:Q4,2.7625919080155255,4.2807463159653
exact,pre_advance,DELTA_SA,ar,joint_indicator_revision_dfm_full_kalman_em,2009:Q1,2.3141178961577875,6.594864212123087
exact,pre_advance,DELTA_SA,ar,joint_indicator_revision_dfm_full_kalman_em,2009:Q2,-1.1107786073531623,5.484085604769925
exact,pre_advance,DELTA_SA,ar,joint_indicator_revision_dfm_full_kalman_em,2009:Q3,-1.684614970742731,3.799470634027194
exact,pre_advance,DELTA_SA,ar,joint_indicator_revision_dfm_full_kalman_em,2009:Q4,-0.545991062332589,3.253479571694605
exact,pre_advance,DELTA_SA,ar,joint_indicator_revision_dfm_full_kalman_em,2010:Q1,0.04801084691607352,3.3014904186106784
exact,pre_advance,DELTA_SA,ar,joint_indicator_revision_dfm_full_kalman_em,2010:Q2,-0.270984525345186,3.0305058932654925
exact,pre_advance,DELTA_SA,ar,joint_indicator_revision_dfm_full_kalman_em,2010:Q3,0.8479030573834634,3.878408950648956
exact,pre_advance,DELTA_SA,ar,joint_indicator_revision_dfm_full_kalman_em,2010:Q4,-0.22270252933494844,3.6557064213140076
exact,pre_advance,DELTA_SA,ar,joint_indicator_revision_dfm_full_kalman_em,2011:Q1,-0.23770037948548756,3.41800604182852
exact,pre_advance,DELTA_SA,ar,joint_indicator_revision_dfm_full_kalman_em,2011:Q2,-0.6535200524969975,2.764485989331522
exact,pre_advance,DELTA_SA,ar,joint_indicator_revision_dfm_full_kalman_em,2011:Q3,-1.0663455023599262,1.698140486971596
exact,pre_advance,DELTA_SA,ar,joint_indicator_revision_dfm_full_kalman_em,2011:Q4,0.24041777262776984,1.9385582595993658
exact,pre_advance,DELTA_SA,ar,joint_indicator_revision_dfm_full_kalman_em,2012:Q1,-0.1414423704218263,1.7971158891775394
exact,pre_advance,DELTA_SA,ar,joint_indicator_revision_dfm_full_kalman_em,2012:Q2,0.10476222047349776,1.901878109651037
exact,pre_advance,DELTA_SA,ar,joint_indicator_revision_dfm_full_kalman_em,2012:Q3,0.16170662301402303,2.0635847326650603
exact,pre_advance,DELTA_SA,ar,joint_indicator_revision_dfm_full_kalman_em,2012:Q4,-0.017193651457758252,2.046391081207302
exact,pre_advance,DELTA_SA,ar,joint_indicator_revision_dfm_full_kalman_em,2013:Q1,-0.1855547304783587,1.8608363507289434
exact,pre_advance,DELTA_SA,ar,joint_indicator_revision_dfm_full_kalman_em,2013:Q2,-0.0032844935174168866,1.8575518572115266
exact,pre_advance,DELTA_SA,ar,joint_indicator_revision_dfm_full_kalman_em,2013:Q3,-0.22039095223311106,1.6371609049784155
exact,pre_advance,DELTA_SA,ar,joint_indicator_revision_dfm_full_kalman_em,2013:Q4,-0.0005925945772669028,1.6365683104011486
exact,pre_advance,DELTA_SA,ar,joint_indicator_revision_dfm_full_kalman_em,2014:Q1,-0.7237278299325058,0.9128404804686427
exact,pre_advance,DELTA_SA,ar,joint_indicator_revision_dfm_full_kalman_em,2014:Q2,0.7301514435930946,1.6429919240617372
exact,pre_advance,DELTA_SA,ar,joint_indicator_revision_dfm_full_kalman_em,2014:Q3,0.006916108282444398,1.6499080323441817
exact,pre_advance,DELTA_SA,ar,joint_indicator_revision_dfm_full_kalman_em,2014:Q4,-0.00380594232376269,1.646102090020419
exact,pre_advance,DELTA_SA,ar,joint_indicator_revision_dfm_full_kalman_em,2015:Q1,0.016294633748350384,1.6623967237687696
exact,pre_advance,DELTA_SA,ar,joint_indicator_revision_dfm_full_kalman_em,2015:Q2,2.3424993317635185,4.004896055532289
exact,pre_advance,DELTA_SA,ar,joint_indicator_revision_dfm_full_kalman_em,2015:Q3,-0.3442690741871523,3.6606269813451364
exact,pre_advance,DELTA_SA,ar,joint_indicator_revision_dfm_full_kalman_em,2015:Q4,-0.1615529172571423,3.4990740640879943
exact,pre_advance,DELTA_SA,ar,joint_indicator_revision_dfm_full_kalman_em,2016:Q1,-0.04313076024013057,3.4559433038478637
exact,pre_advance,DELTA_SA,ar,joint_indicator_revision_dfm_full_kalman_em,2016:Q2,0.058042639147382835,3.5139859429952467
exact,pre_advance,DELTA_SA,ar,joint_indicator_revision_dfm_full_kalman_em,2016:Q3,0.06614057632307145,3.580126519318318
exact,pre_advance,DELTA_SA,ar,joint_indicator_revision_dfm_full_kalman_em,2016:Q4,0.005005164361951685,3.58513168368027
exact,pre_advance,DELTA_SA,ar,joint_indicator_revision_dfm_full_kalman_em,2017:Q1,0.10225505716069487,3.6873867408409646
exact,pre_advance,DELTA_SA,ar,joint_indicator_revision_dfm_full_kalman_em,2017:Q2,-0.028862109748018575,3.6585246310929462
exact,pre_advance,DELTA_SA,ar,joint_indicator_revision_dfm_full_kalman_em,2017:Q3,-0.0829091915275365,3.57561543956541
exact,pre_advance,DELTA_SA,ar,joint_indicator_revision_dfm_full_kalman_em,2017:Q4,0.009357763309968854,3.584973202875379
exact,pre_advance,DELTA_SA,ar,joint_indicator_revision_dfm_full_kalman_em,2018:Q1,-0.21695680229040462,3.3680164005849744
exact,pre_advance,DELTA_SA,ar,joint_indicator_revision_dfm_full_kalman_em,2018:Q2,0.06396879291725861,3.431985193502233
exact,pre_advance,DELTA_SA,ar,joint_indicator_revision_dfm_full_kalman_em,2018:Q3,-0.027348232267757903,3.404636961234475
exact,pre_advance,DELTA_SA,ar,joint_indicator_revision_dfm_full_kalman_em,2019:Q1,0.12164069277939679,3.526277654013872
exact,pre_advance,DELTA_SA,ar,joint_indicator_revision_dfm_full_kalman_em,2019:Q2,0.3472515074530065,3.8735291614668785
exact,pre_advance,DELTA_SA,ar,joint_indicator_revision_dfm_full_kalman_em,2019:Q3,0.20308677831731514,4.076615939784194
exact,pre_advance,DELTA_SA,ar,joint_indicator_revision_dfm_full_kalman_em,2019:Q4,0.016292279905067743,4.092908219689262
exact,pre_advance,DELTA_SA,ar,joint_indicator_revision_dfm_full_kalman_em,2020:Q1,0.2490246073018486,4.34193282699111
exact,pre_advance,DELTA_SA,ar,joint_indicator_revision_dfm_full_kalman_em,2020:Q2,0.45838679135873767,4.800319618349848
exact,pre_advance,DELTA_SA,ar,joint_indicator_revision_dfm_full_kalman_em,2020:Q3,48.633422516968565,53.43374213531841
exact,pre_advance,DELTA_SA,ar,joint_indicator_revision_dfm_full_kalman_em,2020:Q4,-0.9220482102000183,52.511693925118394
exact,pre_advance,DELTA_SA,ar,joint_indicator_revision_dfm_full_kalman_em,2021:Q1,-0.010847098788389974,52.500846826330005
exact,pre_advance,DELTA_SA,ar,joint_indicator_revision_dfm_full_kalman_em,2021:Q2,500.87038414730023,553.3712309736302
exact,pre_advance,DELTA_SA,ar,joint_indicator_revision_dfm_full_kalman_em,2021:Q3,3.071814178920984,556.4430451525511
exact,pre_advance,DELTA_SA,ar,joint_indicator_revision_dfm_full_kalman_em,2021:Q4,5.4356983963149,561.878743548866
exact,pre_advance,DELTA_SA,ar,joint_indicator_revision_dfm_full_kalman_em,2022:Q1,0.027969561947297893,561.9067131108134
exact,pre_advance,DELTA_SA,ar,joint_indicator_revision_dfm_full_kalman_em,2022:Q2,-0.1145110090246977,561.7922021017887
exact,pre_advance,DELTA_SA,ar,joint_indicator_revision_dfm_full_kalman_em,2022:Q3,-0.2197054896035876,561.5724966121851
exact,pre_advance,DELTA_SA,ar,joint_indicator_revision_dfm_full_kalman_em,2022:Q4,0.06728370587050755,561.6397803180556
exact,pre_advance,DELTA_SA,ar,joint_indicator_revision_dfm_full_kalman_em,2023:Q1,-0.22929012212296354,561.4104901959327
exact,pre_advance,DELTA_SA,ar,joint_indicator_revision_dfm_full_kalman_em,2023:Q2,-0.03242296830308844,561.3780672276296
exact,pre_advance,DELTA_SA,ar,joint_indicator_revision_dfm_full_kalman_em,2023:Q3,-0.06227139448308277,561.3157958331465
exact,pre_advance,DELTA_SA,ar,joint_indicator_revision_dfm_full_kalman_em,2023:Q4,0.06248994150875707,561.3782857746552
exact,pre_advance,DELTA_SA,ar,joint_indicator_revision_dfm_full_kalman_em,2024:Q1,0.0508336321266695,561.4291194067819
exact,pre_advance,DELTA_SA,ar,joint_indicator_revision_dfm_full_kalman_em,2024:Q2,0.04084162443565929,561.4699610312175
exact,pre_advance,DELTA_SA,ar,joint_indicator_revision_dfm_full_kalman_em,2024:Q3,0.023269118786706337,561.4932301500043
exact,pre_advance,DELTA_SA,ar,joint_indicator_revision_dfm_full_kalman_em,2024:Q4,0.005649542563832408,561.498879692568
exact,pre_advance,DELTA_SA,ar,midas_umidas,2005:Q1,-0.14504237420880634,-0.14504237420880634
exact,pre_advance,DELTA_SA,ar,midas_umidas,2005:Q2,-2.541006338373252,-2.6860487125820582
exact,pre_advance,DELTA_SA,ar,midas_umidas,2005:Q3,-4.746135949079055,-7.432184661661113
exact,pre_advance,DELTA_SA,ar,midas_umidas,2005:Q4,-2.034488846558635,-9.466673508219747
exact,pre_advance,DELTA_SA,ar,midas_umidas,2006:Q1,-1.2188287220794174,-10.685502230299164
exact,pre_advance,DELTA_SA,ar,midas_umidas,2006:Q2,-4.332930631330501,-15.018432861629666
exact,pre_advance,DELTA_SA,ar,midas_umidas,2006:Q3,0.11252114976861285,-14.905911711861053
exact,pre_advance,DELTA_SA,ar,midas_umidas,2006:Q4,-0.08447294779961378,-14.990384659660666
exact,pre_advance,DELTA_SA,ar,midas_umidas,2007:Q1,-0.11183379094513715,-15.102218450605804
exact,pre_advance,DELTA_SA,ar,midas_umidas,2007:Q2,-1.5702757309142887,-16.672494181520094
exact,pre_advance,DELTA_SA,ar,midas_umidas,2007:Q3,0.6957793372627467,-15.976714844257346
exact,pre_advance,DELTA_SA,ar,midas_umidas,2007:Q4,-3.177604056047648,-19.154318900304993
exact,pre_advance,DELTA_SA,ar,midas_umidas,2008:Q1,-1.4165996070129834,-20.570918507317977
exact,pre_advance,DELTA_SA,ar,midas_umidas,2008:Q2,2.046745085649486,-18.52417342166849
exact,pre_advance,DELTA_SA,ar,midas_umidas,2008:Q3,-6.239158994574877,-24.763332416243365
exact,pre_advance,DELTA_SA,ar,midas_umidas,2008:Q4,-2.85319377794165,-27.616526194185013
exact,pre_advance,DELTA_SA,ar,midas_umidas,2009:Q1,-13.567687067254568,-41.18421326143958
exact,pre_advance,DELTA_SA,ar,midas_umidas,2009:Q2,-6.577221841988233,-47.761435103427814
exact,pre_advance,DELTA_SA,ar,midas_umidas,2009:Q3,-0.6019370487985864,-48.363372152226404
exact,pre_advance,DELTA_SA,ar,midas_umidas,2009:Q4,-0.022224002233628692,-48.38559615446003
exact,pre_advance,DELTA_SA,ar,midas_umidas,2010:Q1,-0.91623670989135,-49.30183286435138
exact,pre_advance,DELTA_SA,ar,midas_umidas,2010:Q2,-1.1772109384500415,-50.47904380280142
exact,pre_advance,DELTA_SA,ar,midas_umidas,2010:Q3,-0.09450964633787351,-50.5735534491393
exact,pre_advance,DELTA_SA,ar,midas_umidas,2010:Q4,0.3341740200078112,-50.23937942913149
exact,pre_advance,DELTA_SA,ar,midas_umidas,2011:Q1,-1.46743743092857,-51.70681686006006
exact,pre_advance,DELTA_SA,ar,midas_umidas,2011:Q2,-1.3704224895990833,-53.077239349659145
exact,pre_advance,DELTA_SA,ar,midas_umidas,2011:Q3,-1.4714070498001164,-54.54864639945926
exact,pre_advance,DELTA_SA,ar,midas_umidas,2011:Q4,-0.5083283388232533,-55.05697473828251
exact,pre_advance,DELTA_SA,ar,midas_umidas,2012:Q1,-1.2607398798864928,-56.317714618169006
exact,pre_advance,DELTA_SA,ar,midas_umidas,2012:Q2,-0.06466225774635703,-56.38237687591536
exact,pre_advance,DELTA_SA,ar,midas_umidas,2012:Q3,0.10340363239364742,-56.27897324352171
exact,pre_advance,DELTA_SA,ar,midas_umidas,2012:Q4,-0.7836236033881118,-57.06259684690983
exact,pre_advance,DELTA_SA,ar,midas_umidas,2013:Q1,-10.30670380742536,-67.36930065433519
exact,pre_advance,DELTA_SA,ar,midas_umidas,2013:Q2,-1.0466716535461589,-68.41597230788135
exact,pre_advance,DELTA_SA,ar,midas_umidas,2013:Q3,-4.661393902877514,-73.07736621075887
exact,pre_advance,DELTA_SA,ar,midas_umidas,2013:Q4,1.554447775968301,-71.52291843479057
exact,pre_advance,DELTA_SA,ar,midas_umidas,2014:Q1,-6.732457893659972,-78.25537632845054
exact,pre_advance,DELTA_SA,ar,midas_umidas,2014:Q2,0.7687427799902297,-77.4866335484603
exact,pre_advance,DELTA_SA,ar,midas_umidas,2014:Q3,-0.039210084022312186,-77.52584363248262
exact,pre_advance,DELTA_SA,ar,midas_umidas,2014:Q4,0.38634664360594934,-77.13949698887667
exact,pre_advance,DELTA_SA,ar,midas_umidas,2015:Q1,-6.229615430726769,-83.36911241960344
exact,pre_advance,DELTA_SA,ar,midas_umidas,2015:Q2,3.7312503840244458,-79.63786203557899
exact,pre_advance,DELTA_SA,ar,midas_umidas,2015:Q3,-3.468856419442279,-83.10671845502127
exact,pre_advance,DELTA_SA,ar,midas_umidas,2015:Q4,-0.1781834690212663,-83.28490192404253
exact,pre_advance,DELTA_SA,ar,midas_umidas,2016:Q1,-0.02675083610089688,-83.31165276014343
exact,pre_advance,DELTA_SA,ar,midas_umidas,2016:Q2,-0.16176578230619318,-83.47341854244962
exact,pre_advance,DELTA_SA,ar,midas_umidas,2016:Q3,0.03687492827882727,-83.43654361417079
exact,pre_advance,DELTA_SA,ar,midas_umidas,2016:Q4,-1.6600264310032362,-85.09657004517402
exact,pre_advance,DELTA_SA,ar,midas_umidas,2017:Q1,-0.010254491592193882,-85.10682453676621
exact,pre_advance,DELTA_SA,ar,midas_umidas,2017:Q2,-0.1967295941729348,-85.30355413093915
exact,pre_advance,DELTA_SA,ar,midas_umidas,2017:Q3,-0.21897022291352833,-85.52252435385267
exact,pre_advance,DELTA_SA,ar,midas_umidas,2017:Q4,0.014666692204159327,-85.50785766164852
exact,pre_advance,DELTA_SA,ar,midas_umidas,2018:Q1,-0.0576505276435294,-85.56550818929205
exact,pre_advance,DELTA_SA,ar,midas_umidas,2018:Q2,-2.9858568067328166,-88.55136499602486
exact,pre_advance,DELTA_SA,ar,midas_umidas,2018:Q3,-0.2820041524834372,-88.8333691485083
exact,pre_advance,DELTA_SA,ar,midas_umidas,2019:Q1,0.11991760885683275,-88.71345153965146
exact,pre_advance,DELTA_SA,ar,midas_umidas,2019:Q2,0.2560619346161317,-88.45738960503533
exact,pre_advance,DELTA_SA,ar,midas_umidas,2019:Q3,0.205405847957778,-88.25198375707755
exact,pre_advance,DELTA_SA,ar,midas_umidas,2019:Q4,-0.20469964448189615,-88.45668340155945
exact,pre_advance,DELTA_SA,ar,midas_umidas,2020:Q1,-4.487516979691169,-92.94420038125061
exact,pre_advance,DELTA_SA,ar,midas_umidas,2020:Q2,0.42516794012969966,-92.51903244112091
exact,pre_advance,DELTA_SA,ar,midas_umidas,2020:Q3,58.514954743743424,-34.00407769737749
exact,pre_advance,DELTA_SA,ar,midas_umidas,2020:Q4,-0.268708457742821,-34.27278615512031
exact,pre_advance,DELTA_SA,ar,midas_umidas,2021:Q1,-0.0027480654084263132,-34.27553422052873
exact,pre_advance,DELTA_SA,ar,midas_umidas,2021:Q2,500.5483642250884,466.27283000455964
exact,pre_advance,DELTA_SA,ar,midas_umidas,2021:Q3,2.575589618609317,468.848419623169
exact,pre_advance,DELTA_SA,ar,midas_umidas,2021:Q4,5.312782412065002,474.161202035234
exact,pre_advance,DELTA_SA,ar,midas_umidas,2022:Q1,-0.0278688104497092,474.1333332247843
exact,pre_advance,DELTA_SA,ar,midas_umidas,2022:Q2,0.005018897359878642,474.13835212214417
exact,pre_advance,DELTA_SA,ar,midas_umidas,2022:Q3,-2.2303110183032717,471.9080411038409
exact,pre_advance,DELTA_SA,ar,midas_umidas,2022:Q4,-6.367033007526615,465.5410080963143
exact,pre_advance,DELTA_SA,ar,midas_umidas,2023:Q1,-1.3563401318789434,464.18466796443533
exact,pre_advance,DELTA_SA,ar,midas_umidas,2023:Q2,-0.01858118785539259,464.16608677657996
exact,pre_advance,DELTA_SA,ar,midas_umidas,2023:Q3,-2.66794882978069,461.49813794679926
exact,pre_advance,DELTA_SA,ar,midas_umidas,2023:Q4,-1.4553871706833401,460.0427507761159
exact,pre_advance,DELTA_SA,ar,midas_umidas,2024:Q1,-1.3557889558871228,458.68696182022876
exact,pre_advance,DELTA_SA,ar,midas_umidas,2024:Q2,0.03889746594312709,458.7258592861719
exact,pre_advance,DELTA_SA,ar,midas_umidas,2024:Q3,-1.1262232429371497,457.59963604323474
exact,pre_advance,DELTA_SA,ar,midas_umidas,2024:Q4,-0.39663774564552434,457.2029982975892
exact,pre_advance,DELTA_SA,ar,monthly_mixed_frequency_kalman_em,2005:Q1,-0.022480828474921284,-0.022480828474921284
exact,pre_advance,DELTA_SA,ar,monthly_mixed_frequency_kalman_em,2005:Q2,-0.023789761582675498,-0.04627059005759678
exact,pre_advance,DELTA_SA,ar,monthly_mixed_frequency_kalman_em,2005:Q3,-0.02557014143930561,-0.0718407314969024
exact,pre_advance,DELTA_SA,ar,monthly_mixed_frequency_kalman_em,2005:Q4,0.028271300621620588,-0.04356943087528181
exact,pre_advance,DELTA_SA,ar,monthly_mixed_frequency_kalman_em,2006:Q1,0.14515085123453686,0.10158142035925505
exact,pre_advance,DELTA_SA,ar,monthly_mixed_frequency_kalman_em,2006:Q2,0.005579668302080638,0.10716108866133568
exact,pre_advance,DELTA_SA,ar,monthly_mixed_frequency_kalman_em,2006:Q3,0.006446682828619654,0.11360777148995534
exact,pre_advance,DELTA_SA,ar,monthly_mixed_frequency_kalman_em,2006:Q4,0.015143454898491227,0.12875122638844655
exact,pre_advance,DELTA_SA,ar,monthly_mixed_frequency_kalman_em,2007:Q1,-0.3062096394473416,-0.17745841305889504
exact,pre_advance,DELTA_SA,ar,monthly_mixed_frequency_kalman_em,2007:Q2,0.5784111308150112,0.40095271775611613
exact,pre_advance,DELTA_SA,ar,monthly_mixed_frequency_kalman_em,2007:Q3,-0.05366828154463188,0.34728443621148425
exact,pre_advance,DELTA_SA,ar,monthly_mixed_frequency_kalman_em,2007:Q4,0.18530731625485442,0.5325917524663386
exact,pre_advance,DELTA_SA,ar,monthly_mixed_frequency_kalman_em,2008:Q1,0.08045902267538649,0.6130507751417251
exact,pre_advance,DELTA_SA,ar,monthly_mixed_frequency_kalman_em,2008:Q2,0.19144755621253862,0.8044983313542637
exact,pre_advance,DELTA_SA,ar,monthly_mixed_frequency_kalman_em,2008:Q3,0.45769036386056905,1.262188695214833
exact,pre_advance,DELTA_SA,ar,monthly_mixed_frequency_kalman_em,2008:Q4,2.1625802577935107,3.4247689530083436
exact,pre_advance,DELTA_SA,ar,monthly_mixed_frequency_kalman_em,2009:Q1,4.129935440028528,7.554704393036872
exact,pre_advance,DELTA_SA,ar,monthly_mixed_frequency_kalman_em,2009:Q2,-0.06873088211825275,7.485973510918619
exact,pre_advance,DELTA_SA,ar,monthly_mixed_frequency_kalman_em,2009:Q3,-0.4204571122025054,7.065516398716113
exact,pre_advance,DELTA_SA,ar,monthly_mixed_frequency_kalman_em,2009:Q4,0.31588360885146416,7.381400007567577
exact,pre_advance,DELTA_SA,ar,monthly_mixed_frequency_kalman_em,2010:Q1,0.09737041849326496,7.478770426060842
exact,pre_advance,DELTA_SA,ar,monthly_mixed_frequency_kalman_em,2010:Q2,-0.2924185302109873,7.186351895849854
exact,pre_advance,DELTA_SA,ar,monthly_mixed_frequency_kalman_em,2010:Q3,0.7865479682334992,7.972899864083353
exact,pre_advance,DELTA_SA,ar,monthly_mixed_frequency_kalman_em,2010:Q4,0.09048467344715116,8.063384537530505
exact,pre_advance,DELTA_SA,ar,monthly_mixed_frequency_kalman_em,2011:Q1,0.06336119426672468,8.126745731797229
exact,pre_advance,DELTA_SA,ar,monthly_mixed_frequency_kalman_em,2011:Q2,-0.05848303948076586,8.068262692316463
exact,pre_advance,DELTA_SA,ar,monthly_mixed_frequency_kalman_em,2011:Q3,-0.34552821522939464,7.722734477087068
exact,pre_advance,DELTA_SA,ar,monthly_mixed_frequency_kalman_em,2011:Q4,0.2662873073278227,7.9890217844148905
exact,pre_advance,DELTA_SA,ar,monthly_mixed_frequency_kalman_em,2012:Q1,0.01650205736375654,8.005523841778647
exact,pre_advance,DELTA_SA,ar,monthly_mixed_frequency_kalman_em,2012:Q2,0.15453786640378553,8.160061708182432
exact,pre_advance,DELTA_SA,ar,monthly_mixed_frequency_kalman_em,2012:Q3,0.11837106123510532,8.278432769417538
exact,pre_advance,DELTA_SA,ar,monthly_mixed_frequency_kalman_em,2012:Q4,-0.018168945405853655,8.260263824011684
exact,pre_advance,DELTA_SA,ar,monthly_mixed_frequency_kalman_em,2013:Q1,-0.004629880738178705,8.255633943273505
exact,pre_advance,DELTA_SA,ar,monthly_mixed_frequency_kalman_em,2013:Q2,0.18274644230235593,8.438380385575861
exact,pre_advance,DELTA_SA,ar,monthly_mixed_frequency_kalman_em,2013:Q3,-0.28772651138560007,8.150653874190262
exact,pre_advance,DELTA_SA,ar,monthly_mixed_frequency_kalman_em,2013:Q4,0.7220579282603969,8.87271180245066
exact,pre_advance,DELTA_SA,ar,monthly_mixed_frequency_kalman_em,2014:Q1,-1.1117704068167664,7.760941395633893
exact,pre_advance,DELTA_SA,ar,monthly_mixed_frequency_kalman_em,2014:Q2,0.7206789289457882,8.48162032457968
exact,pre_advance,DELTA_SA,ar,monthly_mixed_frequency_kalman_em,2014:Q3,0.0620911238737326,8.543711448453413
exact,pre_advance,DELTA_SA,ar,monthly_mixed_frequency_kalman_em,2014:Q4,0.24210994598361246,8.785821394437026
exact,pre_advance,DELTA_SA,ar,monthly_mixed_frequency_kalman_em,2015:Q1,-0.3914763488912397,8.394345045545785
exact,pre_advance,DELTA_SA,ar,monthly_mixed_frequency_kalman_em,2015:Q2,2.3491600828562844,10.74350512840207
exact,pre_advance,DELTA_SA,ar,monthly_mixed_frequency_kalman_em,2015:Q3,-0.12724531559181698,10.616259812810252
exact,pre_advance,DELTA_SA,ar,monthly_mixed_frequency_kalman_em,2015:Q4,-0.1942383846942236,10.422021428116029
exact,pre_advance,DELTA_SA,ar,monthly_mixed_frequency_kalman_em,2016:Q1,-0.02245707237608351,10.399564355739946
exact,pre_advance,DELTA_SA,ar,monthly_mixed_frequency_kalman_em,2016:Q2,0.08124377505348604,10.480808130793433
exact,pre_advance,DELTA_SA,ar,monthly_mixed_frequency_kalman_em,2016:Q3,0.06130155456829162,10.542109685361725
exact,pre_advance,DELTA_SA,ar,monthly_mixed_frequency_kalman_em,2016:Q4,0.003785579940349818,10.545895265302075
exact,pre_advance,DELTA_SA,ar,monthly_mixed_frequency_kalman_em,2017:Q1,0.06392146626408379,10.60981673156616
exact,pre_advance,DELTA_SA,ar,monthly_mixed_frequency_kalman_em,2017:Q2,-0.043122776839546184,10.566693954726613
exact,pre_advance,DELTA_SA,ar,monthly_mixed_frequency_kalman_em,2017:Q3,-0.042232514894586265,10.524461439832027
exact,pre_advance,DELTA_SA,ar,monthly_mixed_frequency_kalman_em,2017:Q4,0.017086322331695807,10.541547762163724
exact,pre_advance,DELTA_SA,ar,monthly_mixed_frequency_kalman_em,2018:Q1,-0.026633517857444926,10.51491424430628
exact,pre_advance,DELTA_SA,ar,monthly_mixed_frequency_kalman_em,2018:Q2,0.05400740977078456,10.568921654077064
exact,pre_advance,DELTA_SA,ar,monthly_mixed_frequency_kalman_em,2018:Q3,0.003972902130162218,10.572894556207226
exact,pre_advance,DELTA_SA,ar,monthly_mixed_frequency_kalman_em,2019:Q1,0.09586663353625935,10.668761189743485
exact,pre_advance,DELTA_SA,ar,monthly_mixed_frequency_kalman_em,2019:Q2,0.40682929051351785,11.075590480257002
exact,pre_advance,DELTA_SA,ar,monthly_mixed_frequency_kalman_em,2019:Q3,0.08935658089551146,11.164947061152514
exact,pre_advance,DELTA_SA,ar,monthly_mixed_frequency_kalman_em,2019:Q4,0.022715213880784353,11.187662275033299
exact,pre_advance,DELTA_SA,ar,monthly_mixed_frequency_kalman_em,2020:Q1,0.24864877141140526,11.436311046444704
exact,pre_advance,DELTA_SA,ar,monthly_mixed_frequency_kalman_em,2020:Q2,-2.759613147792632,8.676697898652073
exact,pre_advance,DELTA_SA,ar,monthly_mixed_frequency_kalman_em,2020:Q3,71.09217956206527,79.76887746071733
exact,pre_advance,DELTA_SA,ar,monthly_mixed_frequency_kalman_em,2020:Q4,-0.2889583267593577,79.47991913395798
exact,pre_advance,DELTA_SA,ar,monthly_mixed_frequency_kalman_em,2021:Q1,-0.0708368646343483,79.40908226932363
exact,pre_advance,DELTA_SA,ar,monthly_mixed_frequency_kalman_em,2021:Q2,500.8503306169561,580.2594128862797
exact,pre_advance,DELTA_SA,ar,monthly_mixed_frequency_kalman_em,2021:Q3,3.102731250265404,583.3621441365451
exact,pre_advance,DELTA_SA,ar,monthly_mixed_frequency_kalman_em,2021:Q4,5.42216164377016,588.7843057803153
exact,pre_advance,DELTA_SA,ar,monthly_mixed_frequency_kalman_em,2022:Q1,0.008568110644119789,588.7928738909594
exact,pre_advance,DELTA_SA,ar,monthly_mixed_frequency_kalman_em,2022:Q2,-0.023087420462601635,588.7697864704968
exact,pre_advance,DELTA_SA,ar,monthly_mixed_frequency_kalman_em,2022:Q3,0.038877880045528584,588.8086643505424
exact,pre_advance,DELTA_SA,ar,monthly_mixed_frequency_kalman_em,2022:Q4,-0.31911995876697397,588.4895443917754
exact,pre_advance,DELTA_SA,ar,monthly_mixed_frequency_kalman_em,2023:Q1,-0.05019468193631732,588.4393497098391
exact,pre_advance,DELTA_SA,ar,monthly_mixed_frequency_kalman_em,2023:Q2,-0.17553063202710187,588.2638190778121
exact,pre_advance,DELTA_SA,ar,monthly_mixed_frequency_kalman_em,2023:Q3,-0.02481130726393579,588.2390077705481
exact,pre_advance,DELTA_SA,ar,monthly_mixed_frequency_kalman_em,2023:Q4,0.014114421516508421,588.2531221920647
exact,pre_advance,DELTA_SA,ar,monthly_mixed_frequency_kalman_em,2024:Q1,0.014476451083459296,588.2675986431482
exact,pre_advance,DELTA_SA,ar,monthly_mixed_frequency_kalman_em,2024:Q2,0.029496258516995798,588.2970949016652
exact,pre_advance,DELTA_SA,ar,monthly_mixed_frequency_kalman_em,2024:Q3,0.018184839381475137,588.3152797410467
exact,pre_advance,DELTA_SA,ar,monthly_mixed_frequency_kalman_em,2024:Q4,0.005581376784418093,588.3208611178311
exact,pre_advance,DELTA_SA,ar,no_revision,2005:Q1,-0.11632901865208346,-0.11632901865208346
exact,pre_advance,DELTA_SA,ar,no_revision,2005:Q2,0.04182387868422602,-0.07450513996785744
exact,pre_advance,DELTA_SA,ar,no_revision,2005:Q3,-0.007240210519856322,-0.08174535048771377
exact,pre_advance,DELTA_SA,ar,no_revision,2005:Q4,-0.1345375372572688,-0.21628288774498255
exact,pre_advance,DELTA_SA,ar,no_revision,2006:Q1,0.010308342025816625,-0.20597454571916593
exact,pre_advance,DELTA_SA,ar,no_revision,2006:Q2,-0.16582658669868577,-0.37180113241785173
exact,pre_advance,DELTA_SA,ar,no_revision,2006:Q3,-0.07592492189707306,-0.4477260543149248
exact,pre_advance,DELTA_SA,ar,no_revision,2006:Q4,0.18172964621901322,-0.2659964080959116
exact,pre_advance,DELTA_SA,ar,no_revision,2007:Q1,-0.26366327814451584,-0.5296596862404275
exact,pre_advance,DELTA_SA,ar,no_revision,2007:Q2,0.5564177290499455,0.02675804280951799
exact,pre_advance,DELTA_SA,ar,no_revision,2007:Q3,-0.3079891652925121,-0.2812311224829941
exact,pre_advance,DELTA_SA,ar,no_revision,2007:Q4,0.18658844743413622,-0.09464267504885787
exact,pre_advance,DELTA_SA,ar,no_revision,2008:Q1,0.08235629380562569,-0.012286381243232183
exact,pre_advance,DELTA_SA,ar,no_revision,2008:Q2,0.11548856399183616,0.10320218274860397
exact,pre_advance,DELTA_SA,ar,no_revision,2008:Q3,0.39905779082618503,0.502259973574789
exact,pre_advance,DELTA_SA,ar,no_revision,2008:Q4,-0.32598990174292464,0.17627007183186438
exact,pre_advance,DELTA_SA,ar,no_revision,2009:Q1,4.946822535653589,5.123092607485454
exact,pre_advance,DELTA_SA,ar,no_revision,2009:Q2,0.0099748484242222,5.133067455909676
exact,pre_advance,DELTA_SA,ar,no_revision,2009:Q3,-0.12365458310047178,5.009412872809204
exact,pre_advance,DELTA_SA,ar,no_revision,2009:Q4,0.27989254490452065,5.289305417713725
exact,pre_advance,DELTA_SA,ar,no_revision,2010:Q1,0.14501980130288764,5.434325219016612
exact,pre_advance,DELTA_SA,ar,no_revision,2010:Q2,-0.1260101328572193,5.308315086159393
exact,pre_advance,DELTA_SA,ar,no_revision,2010:Q3,0.6896924511273879,5.998007537286781
exact,pre_advance,DELTA_SA,ar,no_revision,2010:Q4,0.26691842314690295,6.2649259604336835
exact,pre_advance,DELTA_SA,ar,no_revision,2011:Q1,0.0731714065172056,6.3380973669508895
exact,pre_advance,DELTA_SA,ar,no_revision,2011:Q2,0.019008607494207658,6.357105974445097
exact,pre_advance,DELTA_SA,ar,no_revision,2011:Q3,-0.1640881147024434,6.193017859742653
exact,pre_advance,DELTA_SA,ar,no_revision,2011:Q4,0.2177581462050425,6.410776005947696
exact,pre_advance,DELTA_SA,ar,no_revision,2012:Q1,0.09038082944581234,6.501156835393508
exact,pre_advance,DELTA_SA,ar,no_revision,2012:Q2,0.1297793502747528,6.6309361856682605
exact,pre_advance,DELTA_SA,ar,no_revision,2012:Q3,-0.061753564726004184,6.569182620942256
exact,pre_advance,DELTA_SA,ar,no_revision,2012:Q4,-0.06922998217976675,6.4999526387624895
exact,pre_advance,DELTA_SA,ar,no_revision,2013:Q1,0.015048149252141306,6.515000788014631
exact,pre_advance,DELTA_SA,ar,no_revision,2013:Q2,0.07139610023897291,6.586396888253604
exact,pre_advance,DELTA_SA,ar,no_revision,2013:Q3,-0.4571876546417575,6.129209233611846
exact,pre_advance,DELTA_SA,ar,no_revision,2013:Q4,0.8669466509162678,6.996155884528114
exact,pre_advance,DELTA_SA,ar,no_revision,2014:Q1,-0.8568339500573967,6.139321934470717
exact,pre_advance,DELTA_SA,ar,no_revision,2014:Q2,0.7332771538423399,6.8725990883130565
exact,pre_advance,DELTA_SA,ar,no_revision,2014:Q3,-0.05810572687657281,6.814493361436484
exact,pre_advance,DELTA_SA,ar,no_revision,2014:Q4,0.18412702461772798,6.9986203860542116
exact,pre_advance,DELTA_SA,ar,no_revision,2015:Q1,-0.45519956257364835,6.543420823480563
exact,pre_advance,DELTA_SA,ar,no_revision,2015:Q2,1.9854843111265403,8.528905134607104
exact,pre_advance,DELTA_SA,ar,no_revision,2015:Q3,-0.3331552167452849,8.19574991786182
exact,pre_advance,DELTA_SA,ar,no_revision,2015:Q4,-0.09839733326873266,8.097352584593088
exact,pre_advance,DELTA_SA,ar,no_revision,2016:Q1,-0.08530862740632958,8.012043957186759
exact,pre_advance,DELTA_SA,ar,no_revision,2016:Q2,0.10979260732032509,8.121836564507083
exact,pre_advance,DELTA_SA,ar,no_revision,2016:Q3,0.002209250832198445,8.124045815339281
exact,pre_advance,DELTA_SA,ar,no_revision,2016:Q4,0.013121604012334392,8.137167419351616
exact,pre_advance,DELTA_SA,ar,no_revision,2017:Q1,-0.010102894336734947,8.127064525014882
exact,pre_advance,DELTA_SA,ar,no_revision,2017:Q2,-0.18145115361172084,7.945613371403161
exact,pre_advance,DELTA_SA,ar,no_revision,2017:Q3,-0.08256266271898119,7.86305070868418
exact,pre_advance,DELTA_SA,ar,no_revision,2017:Q4,0.016933551288049794,7.87998425997223
exact,pre_advance,DELTA_SA,ar,no_revision,2018:Q1,-0.007251107136294999,7.872733152835935
exact,pre_advance,DELTA_SA,ar,no_revision,2018:Q2,0.0364046662060403,7.909137819041976
exact,pre_advance,DELTA_SA,ar,no_revision,2018:Q3,0.0039629988929927315,7.913100817934969
exact,pre_advance,DELTA_SA,ar,no_revision,2019:Q1,0.11068817267039295,8.023788990605361
exact,pre_advance,DELTA_SA,ar,no_revision,2019:Q2,0.40984208733457184,8.433631077939932
exact,pre_advance,DELTA_SA,ar,no_revision,2019:Q3,0.2217856389393293,8.65541671687926
exact,pre_advance,DELTA_SA,ar,no_revision,2019:Q4,0.02564850858982479,8.681065225469085
exact,pre_advance,DELTA_SA,ar,no_revision,2020:Q1,0.17907496959759137,8.860140195066677
exact,pre_advance,DELTA_SA,ar,no_revision,2020:Q2,-0.739686519716818,8.120453675349859
exact,pre_advance,DELTA_SA,ar,no_revision,2020:Q3,71.63586037243095,79.75631404778082
exact,pre_advance,DELTA_SA,ar,no_revision,2020:Q4,0.3498375920524172,80.10615163983324
exact,pre_advance,DELTA_SA,ar,no_revision,2021:Q1,0.0009655161093106185,80.10711715594255
exact,pre_advance,DELTA_SA,ar,no_revision,2021:Q2,500.86964920725126,580.9767663631937
exact,pre_advance,DELTA_SA,ar,no_revision,2021:Q3,3.0949840303002456,584.071750393494
exact,pre_advance,DELTA_SA,ar,no_revision,2021:Q4,5.4284074389217345,589.5001578324157
exact,pre_advance,DELTA_SA,ar,no_revision,2022:Q1,0.019207986530776426,589.5193658189464
exact,pre_advance,DELTA_SA,ar,no_revision,2022:Q2,-0.06592113362522665,589.4534446853212
exact,pre_advance,DELTA_SA,ar,no_revision,2022:Q3,-0.02806894309987941,589.4253757422213
exact,pre_advance,DELTA_SA,ar,no_revision,2022:Q4,0.02541265942602927,589.4507884016473
exact,pre_advance,DELTA_SA,ar,no_revision,2023:Q1,-0.04185803365140289,589.4089303679959
exact,pre_advance,DELTA_SA,ar,no_revision,2023:Q2,0.04398017756209707,589.452910545558
exact,pre_advance,DELTA_SA,ar,no_revision,2023:Q3,-0.07569811218053961,589.3772124333774
exact,pre_advance,DELTA_SA,ar,no_revision,2023:Q4,0.0644552429856816,589.4416676763631
exact,pre_advance,DELTA_SA,ar,no_revision,2024:Q1,0.1109319692620745,589.5525996456252
exact,pre_advance,DELTA_SA,ar,no_revision,2024:Q2,0.02858372171363778,589.5811833673388
exact,pre_advance,DELTA_SA,ar,no_revision,2024:Q3,0.03174914051024891,589.612932507849
exact,pre_advance,DELTA_SA,ar,no_revision,2024:Q4,-0.0030966468649467893,589.609835860984
exact,pre_advance,DELTA_SA,ar,release_dfm,2005:Q1,-0.069203861668881,-0.069203861668881
exact,pre_advance,DELTA_SA,ar,release_dfm,2005:Q2,0.014102952517732435,-0.05510090915114856
exact,pre_advance,DELTA_SA,ar,release_dfm,2005:Q3,0.0339567690792901,-0.021144140071858462
exact,pre_advance,DELTA_SA,ar,release_dfm,2005:Q4,-0.03489133426201822,-0.056035474333876685
exact,pre_advance,DELTA_SA,ar,release_dfm,2006:Q1,0.0725201580164859,0.016484683682609212
exact,pre_advance,DELTA_SA,ar,release_dfm,2006:Q2,-0.08090756499971653,-0.06442288131710733
exact,pre_advance,DELTA_SA,ar,release_dfm,2006:Q3,0.02328826932416672,-0.041134611992940606
exact,pre_advance,DELTA_SA,ar,release_dfm,2006:Q4,0.23197553573352914,0.19084092374058853
exact,pre_advance,DELTA_SA,ar,release_dfm,2007:Q1,-0.2157431581126788,-0.02490223437209027
exact,pre_advance,DELTA_SA,ar,release_dfm,2007:Q2,0.5915065377650364,0.5666043033929461
exact,pre_advance,DELTA_SA,ar,release_dfm,2007:Q3,-0.30337586057766164,0.26322844281528446
exact,pre_advance,DELTA_SA,ar,release_dfm,2007:Q4,0.17706704756963076,0.4402954903849152
exact,pre_advance,DELTA_SA,ar,release_dfm,2008:Q1,0.02803288496870726,0.4683283753536225
exact,pre_advance,DELTA_SA,ar,release_dfm,2008:Q2,0.023676538188365015,0.4920049135419875
exact,pre_advance,DELTA_SA,ar,release_dfm,2008:Q3,0.40985999294051095,0.9018649064824984
exact,pre_advance,DELTA_SA,ar,release_dfm,2008:Q4,1.1987133953161013,2.1005783017986
exact,pre_advance,DELTA_SA,ar,release_dfm,2009:Q1,2.054807842323833,4.155386144122433
exact,pre_advance,DELTA_SA,ar,release_dfm,2009:Q2,-0.04015537067392405,4.115230773448509
exact,pre_advance,DELTA_SA,ar,release_dfm,2009:Q3,-0.38174362559617087,3.733487147852338
exact,pre_advance,DELTA_SA,ar,release_dfm,2009:Q4,0.31596592596411877,4.049453073816457
exact,pre_advance,DELTA_SA,ar,release_dfm,2010:Q1,-0.11811995824658056,3.9313331155698763
exact,pre_advance,DELTA_SA,ar,release_dfm,2010:Q2,-0.41095504240774217,3.520378073162134
exact,pre_advance,DELTA_SA,ar,release_dfm,2010:Q3,0.7373622057220571,4.257740278884191
exact,pre_advance,DELTA_SA,ar,release_dfm,2010:Q4,0.22716839762235558,4.484908676506547
exact,pre_advance,DELTA_SA,ar,release_dfm,2011:Q1,0.0656954489633869,4.550604125469934
exact,pre_advance,DELTA_SA,ar,release_dfm,2011:Q2,-0.012051087805345792,4.538553037664588
exact,pre_advance,DELTA_SA,ar,release_dfm,2011:Q3,-0.21908191404394411,4.3194711236206444
exact,pre_advance,DELTA_SA,ar,release_dfm,2011:Q4,0.24824193139883832,4.567713055019483
exact,pre_advance,DELTA_SA,ar,release_dfm,2012:Q1,0.02977666725983369,4.597489722279317
exact,pre_advance,DELTA_SA,ar,release_dfm,2012:Q2,0.11960389251901352,4.717093614798331
exact,pre_advance,DELTA_SA,ar,release_dfm,2012:Q3,-0.0947290494445377,4.622364565353793
exact,pre_advance,DELTA_SA,ar,release_dfm,2012:Q4,-0.042120201058716764,4.580244364295076
exact,pre_advance,DELTA_SA,ar,release_dfm,2013:Q1,0.007121839324773803,4.58736620361985
exact,pre_advance,DELTA_SA,ar,release_dfm,2013:Q2,0.11804423473820269,4.705410438358053
exact,pre_advance,DELTA_SA,ar,release_dfm,2013:Q3,-0.3942597189387015,4.311150719419351
exact,pre_advance,DELTA_SA,ar,release_dfm,2013:Q4,0.5979049798922544,4.9090556993116055
exact,pre_advance,DELTA_SA,ar,release_dfm,2014:Q1,-0.8910409814947367,4.018014717816869
exact,pre_advance,DELTA_SA,ar,release_dfm,2014:Q2,0.7663616405071203,4.784376358323989
exact,pre_advance,DELTA_SA,ar,release_dfm,2014:Q3,-0.03436598828632137,4.750010370037668
exact,pre_advance,DELTA_SA,ar,release_dfm,2014:Q4,0.17621626833789503,4.926226638375563
exact,pre_advance,DELTA_SA,ar,release_dfm,2015:Q1,-0.2839223036790771,4.642304334696486
exact,pre_advance,DELTA_SA,ar,release_dfm,2015:Q2,1.90277670058414,6.545081035280626
exact,pre_advance,DELTA_SA,ar,release_dfm,2015:Q3,-0.38449245094088824,6.160588584339738
exact,pre_advance,DELTA_SA,ar,release_dfm,2015:Q4,-0.08409848544976013,6.076490098889978
exact,pre_advance,DELTA_SA,ar,release_dfm,2016:Q1,-0.06542845769320853,6.011061641196769
exact,pre_advance,DELTA_SA,ar,release_dfm,2016:Q2,0.09445366253445368,6.105515303731223
exact,pre_advance,DELTA_SA,ar,release_dfm,2016:Q3,0.03261793843981359,6.138133242171037
exact,pre_advance,DELTA_SA,ar,release_dfm,2016:Q4,-0.0121991139895376,6.125934128181499
exact,pre_advance,DELTA_SA,ar,release_dfm,2017:Q1,0.06805496372165418,6.193989091903154
exact,pre_advance,DELTA_SA,ar,release_dfm,2017:Q2,-0.09894031844952456,6.095048773453629
exact,pre_advance,DELTA_SA,ar,release_dfm,2017:Q3,-0.051177902750664764,6.043870870702965
exact,pre_advance,DELTA_SA,ar,release_dfm,2017:Q4,-0.029940332035876212,6.013930538667089
exact,pre_advance,DELTA_SA,ar,release_dfm,2018:Q1,-0.07607138472765737,5.937859153939431
exact,pre_advance,DELTA_SA,ar,release_dfm,2018:Q2,0.05487304789344062,5.992732201832872
exact,pre_advance,DELTA_SA,ar,release_dfm,2018:Q3,-0.003385118535902556,5.98934708329697
exact,pre_advance,DELTA_SA,ar,release_dfm,2019:Q1,0.11194440372266579,6.101291487019635
exact,pre_advance,DELTA_SA,ar,release_dfm,2019:Q2,0.4071629507042502,6.508454437723885
exact,pre_advance,DELTA_SA,ar,release_dfm,2019:Q3,0.2335712634759815,6.742025701199867
exact,pre_advance,DELTA_SA,ar,release_dfm,2019:Q4,0.024747892701224235,6.766773593901092
exact,pre_advance,DELTA_SA,ar,release_dfm,2020:Q1,0.23439572901569772,7.001169322916789
exact,pre_advance,DELTA_SA,ar,release_dfm,2020:Q2,-9.197419216533623,-2.1962498936168338
exact,pre_advance,DELTA_SA,ar,release_dfm,2020:Q3,71.63397668950645,69.43772679588962
exact,pre_advance,DELTA_SA,ar,release_dfm,2020:Q4,0.3167807691181433,69.75450756500776
exact,pre_advance,DELTA_SA,ar,release_dfm,2021:Q1,-0.0006125360085123327,69.75389502899924
exact,pre_advance,DELTA_SA,ar,release_dfm,2021:Q2,500.86882746813353,570.6227224971328
exact,pre_advance,DELTA_SA,ar,release_dfm,2021:Q3,3.0991576644009657,573.7218801615338
exact,pre_advance,DELTA_SA,ar,release_dfm,2021:Q4,5.428802408372677,579.1506825699065
exact,pre_advance,DELTA_SA,ar,release_dfm,2022:Q1,0.025672189632585427,579.1763547595391
exact,pre_advance,DELTA_SA,ar,release_dfm,2022:Q2,-0.07409827828636152,579.1022564812528
exact,pre_advance,DELTA_SA,ar,release_dfm,2022:Q3,-0.00447849891743364,579.0977779823353
exact,pre_advance,DELTA_SA,ar,release_dfm,2022:Q4,-0.01525401316069111,579.0825239691746
exact,pre_advance,DELTA_SA,ar,release_dfm,2023:Q1,-0.015533944423757442,579.0669900247509
exact,pre_advance,DELTA_SA,ar,release_dfm,2023:Q2,-0.010353243114056637,579.0566367816368
exact,pre_advance,DELTA_SA,ar,release_dfm,2023:Q3,-0.04083840995728149,579.0157983716796
exact,pre_advance,DELTA_SA,ar,release_dfm,2023:Q4,0.039493346096013196,579.0552917177756
exact,pre_advance,DELTA_SA,ar,release_dfm,2024:Q1,0.013835100546100237,579.0691268183217
exact,pre_advance,DELTA_SA,ar,release_dfm,2024:Q2,0.04001466422361949,579.1091414825453
exact,pre_advance,DELTA_SA,ar,release_dfm,2024:Q3,0.024312539777710192,579.133454022323
exact,pre_advance,DELTA_SA,ar,release_dfm,2024:Q4,0.005235071478662764,579.1386890938016
exact,pre_advance,DELTA_SA,ar,revision_dfm_kalman_em,2005:Q1,0.021158018692294424,0.021158018692294424
exact,pre_advance,DELTA_SA,ar,revision_dfm_kalman_em,2005:Q2,-0.07622780193203105,-0.055069783239736624
exact,pre_advance,DELTA_SA,ar,revision_dfm_kalman_em,2005:Q3,0.1286264067546451,0.07355662351490846
exact,pre_advance,DELTA_SA,ar,revision_dfm_kalman_em,2005:Q4,0.041483985518398866,0.11504060903330733
exact,pre_advance,DELTA_SA,ar,revision_dfm_kalman_em,2006:Q1,0.1974233633813474,0.31246397241465473
exact,pre_advance,DELTA_SA,ar,revision_dfm_kalman_em,2006:Q2,-0.018438406812139353,0.29402556560251536
exact,pre_advance,DELTA_SA,ar,revision_dfm_kalman_em,2006:Q3,0.13691753499104295,0.43094310059355834
exact,pre_advance,DELTA_SA,ar,revision_dfm_kalman_em,2006:Q4,-0.4737511522621547,-0.04280805166859636
exact,pre_advance,DELTA_SA,ar,revision_dfm_kalman_em,2007:Q1,-0.45864287223180067,-0.501450923900397
exact,pre_advance,DELTA_SA,ar,revision_dfm_kalman_em,2007:Q2,0.7088829015521992,0.2074319776518022
exact,pre_advance,DELTA_SA,ar,revision_dfm_kalman_em,2007:Q3,-0.010224327077021034,0.19720765057478118
exact,pre_advance,DELTA_SA,ar,revision_dfm_kalman_em,2007:Q4,0.18527128635275017,0.3824789369275313
exact,pre_advance,DELTA_SA,ar,revision_dfm_kalman_em,2008:Q1,0.1360200880164887,0.51849902494402
exact,pre_advance,DELTA_SA,ar,revision_dfm_kalman_em,2008:Q2,0.46841590933016164,0.9869149342741816
exact,pre_advance,DELTA_SA,ar,revision_dfm_kalman_em,2008:Q3,0.3543592754628419,1.3412742097370236
exact,pre_advance,DELTA_SA,ar,revision_dfm_kalman_em,2008:Q4,1.8121420736117897,3.1534162833488133
exact,pre_advance,DELTA_SA,ar,revision_dfm_kalman_em,2009:Q1,1.250206507309561,4.403622790658375
exact,pre_advance,DELTA_SA,ar,revision_dfm_kalman_em,2009:Q2,-0.76514859518874,3.6384741954696347
exact,pre_advance,DELTA_SA,ar,revision_dfm_kalman_em,2009:Q3,-4.948699184599229,-1.310224989129594
exact,pre_advance,DELTA_SA,ar,revision_dfm_kalman_em,2009:Q4,0.15660980952646172,-1.1536151796031324
exact,pre_advance,DELTA_SA,ar,revision_dfm_kalman_em,2010:Q1,-0.08718616511273347,-1.240801344715866
exact,pre_advance,DELTA_SA,ar,revision_dfm_kalman_em,2010:Q2,-1.0270342788118072,-2.267835623527673
exact,pre_advance,DELTA_SA,ar,revision_dfm_kalman_em,2010:Q3,0.9440205568780475,-1.3238150666496253
exact,pre_advance,DELTA_SA,ar,revision_dfm_kalman_em,2010:Q4,-0.1214525462721277,-1.445267612921753
exact,pre_advance,DELTA_SA,ar,revision_dfm_kalman_em,2011:Q1,0.04806285584773148,-1.3972047570740216
exact,pre_advance,DELTA_SA,ar,revision_dfm_kalman_em,2011:Q2,-0.269778773319296,-1.6669835303933176
exact,pre_advance,DELTA_SA,ar,revision_dfm_kalman_em,2011:Q3,-0.5871731426011777,-2.2541566729944953
exact,pre_advance,DELTA_SA,ar,revision_dfm_kalman_em,2011:Q4,0.2690854516660728,-1.9850712213284225
exact,pre_advance,DELTA_SA,ar,revision_dfm_kalman_em,2012:Q1,-0.1681362955805101,-2.1532075169089326
exact,pre_advance,DELTA_SA,ar,revision_dfm_kalman_em,2012:Q2,0.1677637430722932,-1.9854437738366395
exact,pre_advance,DELTA_SA,ar,revision_dfm_kalman_em,2012:Q3,0.10290937380635456,-1.882534400030285
exact,pre_advance,DELTA_SA,ar,revision_dfm_kalman_em,2012:Q4,-0.008056701463677504,-1.8905911014939625
exact,pre_advance,DELTA_SA,ar,revision_dfm_kalman_em,2013:Q1,-0.2814299621226282,-2.1720210636165906
exact,pre_advance,DELTA_SA,ar,revision_dfm_kalman_em,2013:Q2,0.2578862502996556,-1.914134813316935
exact,pre_advance,DELTA_SA,ar,revision_dfm_kalman_em,2013:Q3,-0.21293081468120528,-2.12706562799814
exact,pre_advance,DELTA_SA,ar,revision_dfm_kalman_em,2013:Q4,0.3980604188284089,-1.7290052091697312
exact,pre_advance,DELTA_SA,ar,revision_dfm_kalman_em,2014:Q1,-1.0797924078981713,-2.8087976170679028
exact,pre_advance,DELTA_SA,ar,revision_dfm_kalman_em,2014:Q2,0.7726457695330289,-2.0361518475348737
exact,pre_advance,DELTA_SA,ar,revision_dfm_kalman_em,2014:Q3,0.01759001744690246,-2.0185618300879713
exact,pre_advance,DELTA_SA,ar,revision_dfm_kalman_em,2014:Q4,0.07588379590278116,-1.9426780341851901
exact,pre_advance,DELTA_SA,ar,revision_dfm_kalman_em,2015:Q1,-0.18770840716474735,-2.1303864413499376
exact,pre_advance,DELTA_SA,ar,revision_dfm_kalman_em,2015:Q2,1.346645349448195,-0.7837410919017427
exact,pre_advance,DELTA_SA,ar,revision_dfm_kalman_em,2015:Q3,-0.14693697166193692,-0.9306780635636795
exact,pre_advance,DELTA_SA,ar,revision_dfm_kalman_em,2015:Q4,-0.02236064796399829,-0.9530387115276778
exact,pre_advance,DELTA_SA,ar,revision_dfm_kalman_em,2016:Q1,-0.10368898389797637,-1.0567276954256541
exact,pre_advance,DELTA_SA,ar,revision_dfm_kalman_em,2016:Q2,-0.013099315879702783,-1.069827011305357
exact,pre_advance,DELTA_SA,ar,revision_dfm_kalman_em,2016:Q3,0.06259696053676364,-1.0072300507685934
exact,pre_advance,DELTA_SA,ar,revision_dfm_kalman_em,2016:Q4,-0.0002519018146860865,-1.0074819525832794
exact,pre_advance,DELTA_SA,ar,revision_dfm_kalman_em,2017:Q1,-0.06491608290851406,-1.0723980354917935
exact,pre_advance,DELTA_SA,ar,revision_dfm_kalman_em,2017:Q2,0.0008100034638067535,-1.0715880320279867
exact,pre_advance,DELTA_SA,ar,revision_dfm_kalman_em,2017:Q3,-0.002971305969041195,-1.074559337997028
exact,pre_advance,DELTA_SA,ar,revision_dfm_kalman_em,2017:Q4,-0.25093588836837727,-1.3254952263654052
exact,pre_advance,DELTA_SA,ar,revision_dfm_kalman_em,2018:Q1,-0.1179176337103531,-1.4434128600757583
exact,pre_advance,DELTA_SA,ar,revision_dfm_kalman_em,2018:Q2,0.028374970156350536,-1.4150378899194078
exact,pre_advance,DELTA_SA,ar,revision_dfm_kalman_em,2018:Q3,-0.019062670817217096,-1.4341005607366248
exact,pre_advance,DELTA_SA,ar,revision_dfm_kalman_em,2019:Q1,0.12153791777186639,-1.3125626429647586
exact,pre_advance,DELTA_SA,ar,revision_dfm_kalman_em,2019:Q2,0.1747496899322403,-1.1378129530325183
exact,pre_advance,DELTA_SA,ar,revision_dfm_kalman_em,2019:Q3,-0.24774233083779545,-1.3855552838703138
exact,pre_advance,DELTA_SA,ar,revision_dfm_kalman_em,2019:Q4,0.020535400782989172,-1.3650198830873246
exact,pre_advance,DELTA_SA,ar,revision_dfm_kalman_em,2020:Q1,0.1882468420419294,-1.1767730410453952
exact,pre_advance,DELTA_SA,ar,revision_dfm_kalman_em,2020:Q2,0.5785220039332197,-0.5982510371121754
exact,pre_advance,DELTA_SA,ar,revision_dfm_kalman_em,2020:Q3,70.65782835064165,70.05957731352947
exact,pre_advance,DELTA_SA,ar,revision_dfm_kalman_em,2020:Q4,-0.3491878540643189,69.71038945946515
exact,pre_advance,DELTA_SA,ar,revision_dfm_kalman_em,2021:Q1,0.0010060637987346598,69.71139552326389
exact,pre_advance,DELTA_SA,ar,revision_dfm_kalman_em,2021:Q2,500.8703895618718,570.5817850851356
exact,pre_advance,DELTA_SA,ar,revision_dfm_kalman_em,2021:Q3,3.0971570196735083,573.6789421048092
exact,pre_advance,DELTA_SA,ar,revision_dfm_kalman_em,2021:Q4,5.4307650584056075,579.1097071632148
exact,pre_advance,DELTA_SA,ar,revision_dfm_kalman_em,2022:Q1,0.027945541088440846,579.1376527043033
exact,pre_advance,DELTA_SA,ar,revision_dfm_kalman_em,2022:Q2,0.015917627489868122,579.1535703317932
exact,pre_advance,DELTA_SA,ar,revision_dfm_kalman_em,2022:Q3,0.022826676853491365,579.1763970086466
exact,pre_advance,DELTA_SA,ar,revision_dfm_kalman_em,2022:Q4,-0.09802367157494223,579.0783733370716
exact,pre_advance,DELTA_SA,ar,revision_dfm_kalman_em,2023:Q1,-0.01085524724907964,579.0675180898226
exact,pre_advance,DELTA_SA,ar,revision_dfm_kalman_em,2023:Q2,-0.09320838731648226,578.974309702506
exact,pre_advance,DELTA_SA,ar,revision_dfm_kalman_em,2023:Q3,-0.02590022429851611,578.9484094782075
exact,pre_advance,DELTA_SA,ar,revision_dfm_kalman_em,2023:Q4,0.01652547181905356,578.9649349500265
exact,pre_advance,DELTA_SA,ar,revision_dfm_kalman_em,2024:Q1,0.011944692497136478,578.9768796425236
exact,pre_advance,DELTA_SA,ar,revision_dfm_kalman_em,2024:Q2,0.0326770430919939,579.0095566856156
exact,pre_advance,DELTA_SA,ar,revision_dfm_kalman_em,2024:Q3,0.0184632447171902,579.0280199303328
exact,pre_advance,DELTA_SA,ar,revision_dfm_kalman_em,2024:Q4,0.004812631994725626,579.0328325623275
exact,pre_advance,DELTA_SA,ar,spf,2005:Q1,-0.11632901865208346,-0.11632901865208346
exact,pre_advance,DELTA_SA,ar,spf,2005:Q2,0.04182387868422602,-0.07450513996785744
exact,pre_advance,DELTA_SA,ar,spf,2005:Q3,-0.007240210519856322,-0.08174535048771377
exact,pre_advance,DELTA_SA,ar,spf,2005:Q4,-0.1345375372572688,-0.21628288774498255
exact,pre_advance,DELTA_SA,ar,spf,2006:Q1,0.010308342025816625,-0.20597454571916593
exact,pre_advance,DELTA_SA,ar,spf,2006:Q2,-0.16582658669868577,-0.37180113241785173
exact,pre_advance,DELTA_SA,ar,spf,2006:Q3,-0.07592492189707306,-0.4477260543149248
exact,pre_advance,DELTA_SA,ar,spf,2006:Q4,0.18172964621901322,-0.2659964080959116
exact,pre_advance,DELTA_SA,ar,spf,2007:Q1,-0.26366327814451584,-0.5296596862404275
exact,pre_advance,DELTA_SA,ar,spf,2007:Q2,0.5564177290499455,0.02675804280951799
exact,pre_advance,DELTA_SA,ar,spf,2007:Q3,-0.3079891652925121,-0.2812311224829941
exact,pre_advance,DELTA_SA,ar,spf,2007:Q4,0.18658844743413622,-0.09464267504885787
exact,pre_advance,DELTA_SA,ar,spf,2008:Q1,0.08235629380562569,-0.012286381243232183
exact,pre_advance,DELTA_SA,ar,spf,2008:Q2,0.11548856399183616,0.10320218274860397
exact,pre_advance,DELTA_SA,ar,spf,2008:Q3,0.39905779082618503,0.502259973574789
exact,pre_advance,DELTA_SA,ar,spf,2008:Q4,-0.32598990174292464,0.17627007183186438
exact,pre_advance,DELTA_SA,ar,spf,2009:Q1,4.946822535653589,5.123092607485454
exact,pre_advance,DELTA_SA,ar,spf,2009:Q2,0.0099748484242222,5.133067455909676
exact,pre_advance,DELTA_SA,ar,spf,2009:Q3,-0.12365458310047178,5.009412872809204
exact,pre_advance,DELTA_SA,ar,spf,2009:Q4,0.27989254490452065,5.289305417713725
exact,pre_advance,DELTA_SA,ar,spf,2010:Q1,0.14501980130288764,5.434325219016612
exact,pre_advance,DELTA_SA,ar,spf,2010:Q2,-0.1260101328572193,5.308315086159393
exact,pre_advance,DELTA_SA,ar,spf,2010:Q3,0.6896924511273879,5.998007537286781
exact,pre_advance,DELTA_SA,ar,spf,2010:Q4,0.26691842314690295,6.2649259604336835
exact,pre_advance,DELTA_SA,ar,spf,2011:Q1,0.0731714065172056,6.3380973669508895
exact,pre_advance,DELTA_SA,ar,spf,2011:Q2,0.019008607494207658,6.357105974445097
exact,pre_advance,DELTA_SA,ar,spf,2011:Q3,-0.1640881147024434,6.193017859742653
exact,pre_advance,DELTA_SA,ar,spf,2011:Q4,0.2177581462050425,6.410776005947696
exact,pre_advance,DELTA_SA,ar,spf,2012:Q1,0.09038082944581234,6.501156835393508
exact,pre_advance,DELTA_SA,ar,spf,2012:Q2,0.1297793502747528,6.6309361856682605
exact,pre_advance,DELTA_SA,ar,spf,2012:Q3,-0.061753564726004184,6.569182620942256
exact,pre_advance,DELTA_SA,ar,spf,2012:Q4,-0.06922998217976675,6.4999526387624895
exact,pre_advance,DELTA_SA,ar,spf,2013:Q1,0.015048149252141306,6.515000788014631
exact,pre_advance,DELTA_SA,ar,spf,2013:Q2,0.07139610023897291,6.586396888253604
exact,pre_advance,DELTA_SA,ar,spf,2013:Q3,-0.4571876546417575,6.129209233611846
exact,pre_advance,DELTA_SA,ar,spf,2013:Q4,0.8669466509162678,6.996155884528114
exact,pre_advance,DELTA_SA,ar,spf,2014:Q1,-0.8568339500573967,6.139321934470717
exact,pre_advance,DELTA_SA,ar,spf,2014:Q2,0.7332771538423399,6.8725990883130565
exact,pre_advance,DELTA_SA,ar,spf,2014:Q3,-0.05810572687657281,6.814493361436484
exact,pre_advance,DELTA_SA,ar,spf,2014:Q4,0.18412702461772798,6.9986203860542116
exact,pre_advance,DELTA_SA,ar,spf,2015:Q1,-0.45519956257364835,6.543420823480563
exact,pre_advance,DELTA_SA,ar,spf,2015:Q2,1.9854843111265403,8.528905134607104
exact,pre_advance,DELTA_SA,ar,spf,2015:Q3,-0.3331552167452849,8.19574991786182
exact,pre_advance,DELTA_SA,ar,spf,2015:Q4,-0.09839733326873266,8.097352584593088
exact,pre_advance,DELTA_SA,ar,spf,2016:Q1,-0.08530862740632958,8.012043957186759
exact,pre_advance,DELTA_SA,ar,spf,2016:Q2,0.10979260732032509,8.121836564507083
exact,pre_advance,DELTA_SA,ar,spf,2016:Q3,0.002209250832198445,8.124045815339281
exact,pre_advance,DELTA_SA,ar,spf,2016:Q4,0.013121604012334392,8.137167419351616
exact,pre_advance,DELTA_SA,ar,spf,2017:Q1,-0.010102894336734947,8.127064525014882
exact,pre_advance,DELTA_SA,ar,spf,2017:Q2,-0.18145115361172084,7.945613371403161
exact,pre_advance,DELTA_SA,ar,spf,2017:Q3,-0.08256266271898119,7.86305070868418
exact,pre_advance,DELTA_SA,ar,spf,2017:Q4,0.016933551288049794,7.87998425997223
exact,pre_advance,DELTA_SA,ar,spf,2018:Q1,-0.007251107136294999,7.872733152835935
exact,pre_advance,DELTA_SA,ar,spf,2018:Q2,0.0364046662060403,7.909137819041976
exact,pre_advance,DELTA_SA,ar,spf,2018:Q3,0.0039629988929927315,7.913100817934969
exact,pre_advance,DELTA_SA,ar,spf,2019:Q1,0.11068817267039295,8.023788990605361
exact,pre_advance,DELTA_SA,ar,spf,2019:Q2,0.40984208733457184,8.433631077939932
exact,pre_advance,DELTA_SA,ar,spf,2019:Q3,0.2217856389393293,8.65541671687926
exact,pre_advance,DELTA_SA,ar,spf,2019:Q4,0.02564850858982479,8.681065225469085
exact,pre_advance,DELTA_SA,ar,spf,2020:Q1,0.17907496959759137,8.860140195066677
exact,pre_advance,DELTA_SA,ar,spf,2020:Q2,-0.739686519716818,8.120453675349859
exact,pre_advance,DELTA_SA,ar,spf,2020:Q3,71.63586037243095,79.75631404778082
exact,pre_advance,DELTA_SA,ar,spf,2020:Q4,0.3498375920524172,80.10615163983324
exact,pre_advance,DELTA_SA,ar,spf,2021:Q1,0.0009655161093106185,80.10711715594255
exact,pre_advance,DELTA_SA,ar,spf,2021:Q2,500.86964920725126,580.9767663631937
exact,pre_advance,DELTA_SA,ar,spf,2021:Q3,3.0949840303002456,584.071750393494
exact,pre_advance,DELTA_SA,ar,spf,2021:Q4,5.4284074389217345,589.5001578324157
exact,pre_advance,DELTA_SA,ar,spf,2022:Q1,0.019207986530776426,589.5193658189464
exact,pre_advance,DELTA_SA,ar,spf,2022:Q2,-0.06592113362522665,589.4534446853212
exact,pre_advance,DELTA_SA,ar,spf,2022:Q3,-0.02806894309987941,589.4253757422213
exact,pre_advance,DELTA_SA,ar,spf,2022:Q4,0.02541265942602927,589.4507884016473
exact,pre_advance,DELTA_SA,ar,spf,2023:Q1,-0.04185803365140289,589.4089303679959
exact,pre_advance,DELTA_SA,ar,spf,2023:Q2,0.04398017756209707,589.452910545558
exact,pre_advance,DELTA_SA,ar,spf,2023:Q3,-0.07569811218053961,589.3772124333774
exact,pre_advance,DELTA_SA,ar,spf,2023:Q4,0.0644552429856816,589.4416676763631
exact,pre_advance,DELTA_SA,ar,spf,2024:Q1,0.1109319692620745,589.5525996456252
exact,pre_advance,DELTA_SA,ar,spf,2024:Q2,0.02858372171363778,589.5811833673388
exact,pre_advance,DELTA_SA,ar,spf,2024:Q3,0.03174914051024891,589.612932507849
exact,pre_advance,DELTA_SA,ar,spf,2024:Q4,-0.0030966468649467893,589.609835860984
exact,pre_advance,DELTA_SA,ar,standard_dfm,2005:Q1,-0.069203861668881,-0.069203861668881
exact,pre_advance,DELTA_SA,ar,standard_dfm,2005:Q2,0.014102952517732435,-0.05510090915114856
exact,pre_advance,DELTA_SA,ar,standard_dfm,2005:Q3,0.0339567690792901,-0.021144140071858462
exact,pre_advance,DELTA_SA,ar,standard_dfm,2005:Q4,-0.03489133426201822,-0.056035474333876685
exact,pre_advance,DELTA_SA,ar,standard_dfm,2006:Q1,0.0725201580164859,0.016484683682609212
exact,pre_advance,DELTA_SA,ar,standard_dfm,2006:Q2,-0.08090756499971653,-0.06442288131710733
exact,pre_advance,DELTA_SA,ar,standard_dfm,2006:Q3,0.02328826932416672,-0.041134611992940606
exact,pre_advance,DELTA_SA,ar,standard_dfm,2006:Q4,0.23197553573352914,0.19084092374058853
exact,pre_advance,DELTA_SA,ar,standard_dfm,2007:Q1,-0.2157431581126788,-0.02490223437209027
exact,pre_advance,DELTA_SA,ar,standard_dfm,2007:Q2,0.5915065377650364,0.5666043033929461
exact,pre_advance,DELTA_SA,ar,standard_dfm,2007:Q3,-0.30337586057766164,0.26322844281528446
exact,pre_advance,DELTA_SA,ar,standard_dfm,2007:Q4,0.17706704756963076,0.4402954903849152
exact,pre_advance,DELTA_SA,ar,standard_dfm,2008:Q1,0.02803288496870726,0.4683283753536225
exact,pre_advance,DELTA_SA,ar,standard_dfm,2008:Q2,0.023676538188365015,0.4920049135419875
exact,pre_advance,DELTA_SA,ar,standard_dfm,2008:Q3,0.40985999294051095,0.9018649064824984
exact,pre_advance,DELTA_SA,ar,standard_dfm,2008:Q4,1.1987133953161013,2.1005783017986
exact,pre_advance,DELTA_SA,ar,standard_dfm,2009:Q1,2.054807842323833,4.155386144122433
exact,pre_advance,DELTA_SA,ar,standard_dfm,2009:Q2,-0.04015537067392405,4.115230773448509
exact,pre_advance,DELTA_SA,ar,standard_dfm,2009:Q3,-0.38174362559617087,3.733487147852338
exact,pre_advance,DELTA_SA,ar,standard_dfm,2009:Q4,0.31596592596411877,4.049453073816457
exact,pre_advance,DELTA_SA,ar,standard_dfm,2010:Q1,-0.11811995824658056,3.9313331155698763
exact,pre_advance,DELTA_SA,ar,standard_dfm,2010:Q2,-0.41095504240774217,3.520378073162134
exact,pre_advance,DELTA_SA,ar,standard_dfm,2010:Q3,0.7373622057220571,4.257740278884191
exact,pre_advance,DELTA_SA,ar,standard_dfm,2010:Q4,0.22716839762235558,4.484908676506547
exact,pre_advance,DELTA_SA,ar,standard_dfm,2011:Q1,0.0656954489633869,4.550604125469934
exact,pre_advance,DELTA_SA,ar,standard_dfm,2011:Q2,-0.012051087805345792,4.538553037664588
exact,pre_advance,DELTA_SA,ar,standard_dfm,2011:Q3,-0.21908191404394411,4.3194711236206444
exact,pre_advance,DELTA_SA,ar,standard_dfm,2011:Q4,0.24824193139883832,4.567713055019483
exact,pre_advance,DELTA_SA,ar,standard_dfm,2012:Q1,0.02977666725983369,4.597489722279317
exact,pre_advance,DELTA_SA,ar,standard_dfm,2012:Q2,0.11960389251901352,4.717093614798331
exact,pre_advance,DELTA_SA,ar,standard_dfm,2012:Q3,-0.0947290494445377,4.622364565353793
exact,pre_advance,DELTA_SA,ar,standard_dfm,2012:Q4,-0.042120201058716764,4.580244364295076
exact,pre_advance,DELTA_SA,ar,standard_dfm,2013:Q1,0.007121839324773803,4.58736620361985
exact,pre_advance,DELTA_SA,ar,standard_dfm,2013:Q2,0.11804423473820269,4.705410438358053
exact,pre_advance,DELTA_SA,ar,standard_dfm,2013:Q3,-0.3942597189387015,4.311150719419351
exact,pre_advance,DELTA_SA,ar,standard_dfm,2013:Q4,0.5979049798922544,4.9090556993116055
exact,pre_advance,DELTA_SA,ar,standard_dfm,2014:Q1,-0.8910409814947367,4.018014717816869
exact,pre_advance,DELTA_SA,ar,standard_dfm,2014:Q2,0.7663616405071203,4.784376358323989
exact,pre_advance,DELTA_SA,ar,standard_dfm,2014:Q3,-0.03436598828632137,4.750010370037668
exact,pre_advance,DELTA_SA,ar,standard_dfm,2014:Q4,0.17621626833789503,4.926226638375563
exact,pre_advance,DELTA_SA,ar,standard_dfm,2015:Q1,-0.2839223036790771,4.642304334696486
exact,pre_advance,DELTA_SA,ar,standard_dfm,2015:Q2,1.90277670058414,6.545081035280626
exact,pre_advance,DELTA_SA,ar,standard_dfm,2015:Q3,-0.38449245094088824,6.160588584339738
exact,pre_advance,DELTA_SA,ar,standard_dfm,2015:Q4,-0.08409848544976013,6.076490098889978
exact,pre_advance,DELTA_SA,ar,standard_dfm,2016:Q1,-0.06542845769320853,6.011061641196769
exact,pre_advance,DELTA_SA,ar,standard_dfm,2016:Q2,0.09445366253445368,6.105515303731223
exact,pre_advance,DELTA_SA,ar,standard_dfm,2016:Q3,0.03261793843981359,6.138133242171037
exact,pre_advance,DELTA_SA,ar,standard_dfm,2016:Q4,-0.0121991139895376,6.125934128181499
exact,pre_advance,DELTA_SA,ar,standard_dfm,2017:Q1,0.06805496372165418,6.193989091903154
exact,pre_advance,DELTA_SA,ar,standard_dfm,2017:Q2,-0.09894031844952456,6.095048773453629
exact,pre_advance,DELTA_SA,ar,standard_dfm,2017:Q3,-0.051177902750664764,6.043870870702965
exact,pre_advance,DELTA_SA,ar,standard_dfm,2017:Q4,-0.029940332035876212,6.013930538667089
exact,pre_advance,DELTA_SA,ar,standard_dfm,2018:Q1,-0.07607138472765737,5.937859153939431
exact,pre_advance,DELTA_SA,ar,standard_dfm,2018:Q2,0.05487304789344062,5.992732201832872
exact,pre_advance,DELTA_SA,ar,standard_dfm,2018:Q3,-0.003385118535902556,5.98934708329697
exact,pre_advance,DELTA_SA,ar,standard_dfm,2019:Q1,0.11194440372266579,6.101291487019635
exact,pre_advance,DELTA_SA,ar,standard_dfm,2019:Q2,0.4071629507042502,6.508454437723885
exact,pre_advance,DELTA_SA,ar,standard_dfm,2019:Q3,0.2335712634759815,6.742025701199867
exact,pre_advance,DELTA_SA,ar,standard_dfm,2019:Q4,0.024747892701224235,6.766773593901092
exact,pre_advance,DELTA_SA,ar,standard_dfm,2020:Q1,0.23439572901569772,7.001169322916789
exact,pre_advance,DELTA_SA,ar,standard_dfm,2020:Q2,-9.197419216533623,-2.1962498936168338
exact,pre_advance,DELTA_SA,ar,standard_dfm,2020:Q3,71.63397668950645,69.43772679588962
exact,pre_advance,DELTA_SA,ar,standard_dfm,2020:Q4,0.3167807691181433,69.75450756500776
exact,pre_advance,DELTA_SA,ar,standard_dfm,2021:Q1,-0.0006125360085123327,69.75389502899924
exact,pre_advance,DELTA_SA,ar,standard_dfm,2021:Q2,500.86882746813353,570.6227224971328
exact,pre_advance,DELTA_SA,ar,standard_dfm,2021:Q3,3.0991576644009657,573.7218801615338
exact,pre_advance,DELTA_SA,ar,standard_dfm,2021:Q4,5.428802408372677,579.1506825699065
exact,pre_advance,DELTA_SA,ar,standard_dfm,2022:Q1,0.025672189632585427,579.1763547595391
exact,pre_advance,DELTA_SA,ar,standard_dfm,2022:Q2,-0.07409827828636152,579.1022564812528
exact,pre_advance,DELTA_SA,ar,standard_dfm,2022:Q3,-0.00447849891743364,579.0977779823353
exact,pre_advance,DELTA_SA,ar,standard_dfm,2022:Q4,-0.01525401316069111,579.0825239691746
exact,pre_advance,DELTA_SA,ar,standard_dfm,2023:Q1,-0.015533944423757442,579.0669900247509
exact,pre_advance,DELTA_SA,ar,standard_dfm,2023:Q2,-0.010353243114056637,579.0566367816368
exact,pre_advance,DELTA_SA,ar,standard_dfm,2023:Q3,-0.04083840995728149,579.0157983716796
exact,pre_advance,DELTA_SA,ar,standard_dfm,2023:Q4,0.039493346096013196,579.0552917177756
exact,pre_advance,DELTA_SA,ar,standard_dfm,2024:Q1,0.013835100546100237,579.0691268183217
exact,pre_advance,DELTA_SA,ar,standard_dfm,2024:Q2,0.04001466422361949,579.1091414825453
exact,pre_advance,DELTA_SA,ar,standard_dfm,2024:Q3,0.024312539777710192,579.133454022323
exact,pre_advance,DELTA_SA,ar,standard_dfm,2024:Q4,0.005235071478662764,579.1386890938016
exact,pre_advance,DELTA_SA,no_revision,ar,2005:Q1,0.11632901865208346,0.11632901865208346
exact,pre_advance,DELTA_SA,no_revision,ar,2005:Q2,-0.04182387868422602,0.07450513996785744
exact,pre_advance,DELTA_SA,no_revision,ar,2005:Q3,0.007240210519856322,0.08174535048771377
exact,pre_advance,DELTA_SA,no_revision,ar,2005:Q4,0.1345375372572688,0.21628288774498255
exact,pre_advance,DELTA_SA,no_revision,ar,2006:Q1,-0.010308342025816625,0.20597454571916593
exact,pre_advance,DELTA_SA,no_revision,ar,2006:Q2,0.16582658669868577,0.37180113241785173
exact,pre_advance,DELTA_SA,no_revision,ar,2006:Q3,0.07592492189707306,0.4477260543149248
exact,pre_advance,DELTA_SA,no_revision,ar,2006:Q4,-0.18172964621901322,0.2659964080959116
exact,pre_advance,DELTA_SA,no_revision,ar,2007:Q1,0.26366327814451584,0.5296596862404275
exact,pre_advance,DELTA_SA,no_revision,ar,2007:Q2,-0.5564177290499455,-0.02675804280951799
exact,pre_advance,DELTA_SA,no_revision,ar,2007:Q3,0.3079891652925121,0.2812311224829941
exact,pre_advance,DELTA_SA,no_revision,ar,2007:Q4,-0.18658844743413622,0.09464267504885787
exact,pre_advance,DELTA_SA,no_revision,ar,2008:Q1,-0.08235629380562569,0.012286381243232183
exact,pre_advance,DELTA_SA,no_revision,ar,2008:Q2,-0.11548856399183616,-0.10320218274860397
exact,pre_advance,DELTA_SA,no_revision,ar,2008:Q3,-0.39905779082618503,-0.502259973574789
exact,pre_advance,DELTA_SA,no_revision,ar,2008:Q4,0.32598990174292464,-0.17627007183186438
exact,pre_advance,DELTA_SA,no_revision,ar,2009:Q1,-4.946822535653589,-5.123092607485454
exact,pre_advance,DELTA_SA,no_revision,ar,2009:Q2,-0.0099748484242222,-5.133067455909676
exact,pre_advance,DELTA_SA,no_revision,ar,2009:Q3,0.12365458310047178,-5.009412872809204
exact,pre_advance,DELTA_SA,no_revision,ar,2009:Q4,-0.27989254490452065,-5.289305417713725
exact,pre_advance,DELTA_SA,no_revision,ar,2010:Q1,-0.14501980130288764,-5.434325219016612
exact,pre_advance,DELTA_SA,no_revision,ar,2010:Q2,0.1260101328572193,-5.308315086159393
exact,pre_advance,DELTA_SA,no_revision,ar,2010:Q3,-0.6896924511273879,-5.998007537286781
exact,pre_advance,DELTA_SA,no_revision,ar,2010:Q4,-0.26691842314690295,-6.2649259604336835
exact,pre_advance,DELTA_SA,no_revision,ar,2011:Q1,-0.0731714065172056,-6.3380973669508895
exact,pre_advance,DELTA_SA,no_revision,ar,2011:Q2,-0.019008607494207658,-6.357105974445097
exact,pre_advance,DELTA_SA,no_revision,ar,2011:Q3,0.1640881147024434,-6.193017859742653
exact,pre_advance,DELTA_SA,no_revision,ar,2011:Q4,-0.2177581462050425,-6.410776005947696
exact,pre_advance,DELTA_SA,no_revision,ar,2012:Q1,-0.09038082944581234,-6.501156835393508
exact,pre_advance,DELTA_SA,no_revision,ar,2012:Q2,-0.1297793502747528,-6.6309361856682605
exact,pre_advance,DELTA_SA,no_revision,ar,2012:Q3,0.061753564726004184,-6.569182620942256
exact,pre_advance,DELTA_SA,no_revision,ar,2012:Q4,0.06922998217976675,-6.4999526387624895
exact,pre_advance,DELTA_SA,no_revision,ar,2013:Q1,-0.015048149252141306,-6.515000788014631
exact,pre_advance,DELTA_SA,no_revision,ar,2013:Q2,-0.07139610023897291,-6.586396888253604
exact,pre_advance,DELTA_SA,no_revision,ar,2013:Q3,0.4571876546417575,-6.129209233611846
exact,pre_advance,DELTA_SA,no_revision,ar,2013:Q4,-0.8669466509162678,-6.996155884528114
exact,pre_advance,DELTA_SA,no_revision,ar,2014:Q1,0.8568339500573967,-6.139321934470717
exact,pre_advance,DELTA_SA,no_revision,ar,2014:Q2,-0.7332771538423399,-6.8725990883130565
exact,pre_advance,DELTA_SA,no_revision,ar,2014:Q3,0.05810572687657281,-6.814493361436484
exact,pre_advance,DELTA_SA,no_revision,ar,2014:Q4,-0.18412702461772798,-6.9986203860542116
exact,pre_advance,DELTA_SA,no_revision,ar,2015:Q1,0.45519956257364835,-6.543420823480563
exact,pre_advance,DELTA_SA,no_revision,ar,2015:Q2,-1.9854843111265403,-8.528905134607104
exact,pre_advance,DELTA_SA,no_revision,ar,2015:Q3,0.3331552167452849,-8.19574991786182
exact,pre_advance,DELTA_SA,no_revision,ar,2015:Q4,0.09839733326873266,-8.097352584593088
exact,pre_advance,DELTA_SA,no_revision,ar,2016:Q1,0.08530862740632958,-8.012043957186759
exact,pre_advance,DELTA_SA,no_revision,ar,2016:Q2,-0.10979260732032509,-8.121836564507083
exact,pre_advance,DELTA_SA,no_revision,ar,2016:Q3,-0.002209250832198445,-8.124045815339281
exact,pre_advance,DELTA_SA,no_revision,ar,2016:Q4,-0.013121604012334392,-8.137167419351616
exact,pre_advance,DELTA_SA,no_revision,ar,2017:Q1,0.010102894336734947,-8.127064525014882
exact,pre_advance,DELTA_SA,no_revision,ar,2017:Q2,0.18145115361172084,-7.945613371403161
exact,pre_advance,DELTA_SA,no_revision,ar,2017:Q3,0.08256266271898119,-7.86305070868418
exact,pre_advance,DELTA_SA,no_revision,ar,2017:Q4,-0.016933551288049794,-7.87998425997223
exact,pre_advance,DELTA_SA,no_revision,ar,2018:Q1,0.007251107136294999,-7.872733152835935
exact,pre_advance,DELTA_SA,no_revision,ar,2018:Q2,-0.0364046662060403,-7.909137819041976
exact,pre_advance,DELTA_SA,no_revision,ar,2018:Q3,-0.0039629988929927315,-7.913100817934969
exact,pre_advance,DELTA_SA,no_revision,ar,2019:Q1,-0.11068817267039295,-8.023788990605361
exact,pre_advance,DELTA_SA,no_revision,ar,2019:Q2,-0.40984208733457184,-8.433631077939932
exact,pre_advance,DELTA_SA,no_revision,ar,2019:Q3,-0.2217856389393293,-8.65541671687926
exact,pre_advance,DELTA_SA,no_revision,ar,2019:Q4,-0.02564850858982479,-8.681065225469085
exact,pre_advance,DELTA_SA,no_revision,ar,2020:Q1,-0.17907496959759137,-8.860140195066677
exact,pre_advance,DELTA_SA,no_revision,ar,2020:Q2,0.739686519716818,-8.120453675349859
exact,pre_advance,DELTA_SA,no_revision,ar,2020:Q3,-71.63586037243095,-79.75631404778082
exact,pre_advance,DELTA_SA,no_revision,ar,2020:Q4,-0.3498375920524172,-80.10615163983324
exact,pre_advance,DELTA_SA,no_revision,ar,2021:Q1,-0.0009655161093106185,-80.10711715594255
exact,pre_advance,DELTA_SA,no_revision,ar,2021:Q2,-500.86964920725126,-580.9767663631937
exact,pre_advance,DELTA_SA,no_revision,ar,2021:Q3,-3.0949840303002456,-584.071750393494
exact,pre_advance,DELTA_SA,no_revision,ar,2021:Q4,-5.4284074389217345,-589.5001578324157
exact,pre_advance,DELTA_SA,no_revision,ar,2022:Q1,-0.019207986530776426,-589.5193658189464
exact,pre_advance,DELTA_SA,no_revision,ar,2022:Q2,0.06592113362522665,-589.4534446853212
exact,pre_advance,DELTA_SA,no_revision,ar,2022:Q3,0.02806894309987941,-589.4253757422213
exact,pre_advance,DELTA_SA,no_revision,ar,2022:Q4,-0.02541265942602927,-589.4507884016473
exact,pre_advance,DELTA_SA,no_revision,ar,2023:Q1,0.04185803365140289,-589.4089303679959
exact,pre_advance,DELTA_SA,no_revision,ar,2023:Q2,-0.04398017756209707,-589.452910545558
exact,pre_advance,DELTA_SA,no_revision,ar,2023:Q3,0.07569811218053961,-589.3772124333774
exact,pre_advance,DELTA_SA,no_revision,ar,2023:Q4,-0.0644552429856816,-589.4416676763631
exact,pre_advance,DELTA_SA,no_revision,ar,2024:Q1,-0.1109319692620745,-589.5525996456252
exact,pre_advance,DELTA_SA,no_revision,ar,2024:Q2,-0.02858372171363778,-589.5811833673388
exact,pre_advance,DELTA_SA,no_revision,ar,2024:Q3,-0.03174914051024891,-589.612932507849
exact,pre_advance,DELTA_SA,no_revision,ar,2024:Q4,0.0030966468649467893,-589.609835860984
exact,pre_advance,DELTA_SA,no_revision,bridge,2005:Q1,0.07409798672918855,0.07409798672918855
exact,pre_advance,DELTA_SA,no_revision,bridge,2005:Q2,-0.06519296541451948,0.008905021314669068
exact,pre_advance,DELTA_SA,no_revision,bridge,2005:Q3,0.017875489297952962,0.02678051061262203
exact,pre_advance,DELTA_SA,no_revision,bridge,2005:Q4,0.12661996011967117,0.15340047073229318
exact,pre_advance,DELTA_SA,no_revision,bridge,2006:Q1,-0.048810359273623344,0.10459011145866984
exact,pre_advance,DELTA_SA,no_revision,bridge,2006:Q2,0.1174796256700014,0.22206973712867123
exact,pre_advance,DELTA_SA,no_revision,bridge,2006:Q3,0.16426274144610525,0.3863324785747765
exact,pre_advance,DELTA_SA,no_revision,bridge,2006:Q4,-0.18606029252233292,0.20027218605244357
exact,pre_advance,DELTA_SA,no_revision,bridge,2007:Q1,-0.028249194667480437,0.17202299138496313
exact,pre_advance,DELTA_SA,no_revision,bridge,2007:Q2,0.000851262508332673,0.1728742538932958
exact,pre_advance,DELTA_SA,no_revision,bridge,2007:Q3,0.3590008493446363,0.5318751032379321
exact,pre_advance,DELTA_SA,no_revision,bridge,2007:Q4,-0.1681531251463213,0.3637219780916108
exact,pre_advance,DELTA_SA,no_revision,bridge,2008:Q1,0.0628195979355391,0.42654157602714987
exact,pre_advance,DELTA_SA,no_revision,bridge,2008:Q2,-0.8859269084345514,-0.4593853324074015
exact,pre_advance,DELTA_SA,no_revision,bridge,2008:Q3,0.04981313477274105,-0.40957219763466046
exact,pre_advance,DELTA_SA,no_revision,bridge,2008:Q4,2.057826494011285,1.6482542963766247
exact,pre_advance,DELTA_SA,no_revision,bridge,2009:Q1,-5.140583802379959,-3.4923295060033346
exact,pre_advance,DELTA_SA,no_revision,bridge,2009:Q2,-0.24661775134426253,-3.738947257347597
exact,pre_advance,DELTA_SA,no_revision,bridge,2009:Q3,-0.1716815516766047,-3.910628809024202
exact,pre_advance,DELTA_SA,no_revision,bridge,2009:Q4,0.03015954000544213,-3.88046926901876
exact,pre_advance,DELTA_SA,no_revision,bridge,2010:Q1,-0.3094678719749983,-4.1899371409937585
exact,pre_advance,DELTA_SA,no_revision,bridge,2010:Q2,-0.34760002199948703,-4.537537162993246
exact,pre_advance,DELTA_SA,no_revision,bridge,2010:Q3,0.12252558106059463,-4.415011581932651
exact,pre_advance,DELTA_SA,no_revision,bridge,2010:Q4,-0.525046000463156,-4.9400575823958075
exact,pre_advance,DELTA_SA,no_revision,bridge,2011:Q1,-0.016132029168017856,-4.9561896115638255
exact,pre_advance,DELTA_SA,no_revision,bridge,2011:Q2,-0.20822352214695855,-5.164413133710784
exact,pre_advance,DELTA_SA,no_revision,bridge,2011:Q3,-0.1259068122128419,-5.290319945923626
exact,pre_advance,DELTA_SA,no_revision,bridge,2011:Q4,-0.00993458707526302,-5.300254532998889
exact,pre_advance,DELTA_SA,no_revision,bridge,2012:Q1,-0.04559047365195977,-5.345845006650849
exact,pre_advance,DELTA_SA,no_revision,bridge,2012:Q2,-0.06320358480377386,-5.409048591454623
exact,pre_advance,DELTA_SA,no_revision,bridge,2012:Q3,-0.10224735604507112,-5.511295947499694
exact,pre_advance,DELTA_SA,no_revision,bridge,2012:Q4,0.03983725970881735,-5.471458687790877
exact,pre_advance,DELTA_SA,no_revision,bridge,2013:Q1,0.003403738294229363,-5.468054949496647
exact,pre_advance,DELTA_SA,no_revision,bridge,2013:Q2,0.1195630109959922,-5.348491938500655
exact,pre_advance,DELTA_SA,no_revision,bridge,2013:Q3,-0.09527621992572288,-5.443768158426378
exact,pre_advance,DELTA_SA,no_revision,bridge,2013:Q4,-0.7861150974044515,-6.2298832558308295
exact,pre_advance,DELTA_SA,no_revision,bridge,2014:Q1,0.18856841033088179,-6.041314845499947
exact,pre_advance,DELTA_SA,no_revision,bridge,2014:Q2,-0.11281078329779254,-6.15412562879774
exact,pre_advance,DELTA_SA,no_revision,bridge,2014:Q3,0.05023440086515475,-6.103891227932585
exact,pre_advance,DELTA_SA,no_revision,bridge,2014:Q4,-0.002492860004316949,-6.106384087936902
exact,pre_advance,DELTA_SA,no_revision,bridge,2015:Q1,0.2545032212863093,-5.851880866650593
exact,pre_advance,DELTA_SA,no_revision,bridge,2015:Q2,-0.45834469130658273,-6.3102255579571755
exact,pre_advance,DELTA_SA,no_revision,bridge,2015:Q3,0.09727625848895832,-6.212949299468217
exact,pre_advance,DELTA_SA,no_revision,bridge,2015:Q4,0.07532456990015783,-6.13762472956806
exact,pre_advance,DELTA_SA,no_revision,bridge,2016:Q1,-0.03573518806081023,-6.17335991762887
exact,pre_advance,DELTA_SA,no_revision,bridge,2016:Q2,-0.025336995898487494,-6.198696913527358
exact,pre_advance,DELTA_SA,no_revision,bridge,2016:Q3,0.004483128607435528,-6.194213784919922
exact,pre_advance,DELTA_SA,no_revision,bridge,2016:Q4,-0.11767790593559796,-6.3118916908555205
exact,pre_advance,DELTA_SA,no_revision,bridge,2017:Q1,0.14778919743867425,-6.164102493416847
exact,pre_advance,DELTA_SA,no_revision,bridge,2017:Q2,0.056031431426721345,-6.108071061990126
exact,pre_advance,DELTA_SA,no_revision,bridge,2017:Q3,0.08401552399711683,-6.024055537993009
exact,pre_advance,DELTA_SA,no_revision,bridge,2017:Q4,-0.025271301491666617,-6.049326839484675
exact,pre_advance,DELTA_SA,no_revision,bridge,2018:Q1,-0.11722463016666626,-6.166551469651342
exact,pre_advance,DELTA_SA,no_revision,bridge,2018:Q2,0.026676973055516966,-6.139874496595825
exact,pre_advance,DELTA_SA,no_revision,bridge,2018:Q3,-0.008674230671943804,-6.148548727267769
exact,pre_advance,DELTA_SA,no_revision,bridge,2019:Q1,0.0023472279538513958,-6.146201499313917
exact,pre_advance,DELTA_SA,no_revision,bridge,2019:Q2,-0.010142278119919725,-6.156343777433837
exact,pre_advance,DELTA_SA,no_revision,bridge,2019:Q3,-0.025761082004613814,-6.182104859438451
exact,pre_advance,DELTA_SA,no_revision,bridge,2019:Q4,-0.0114017044555745,-6.193506563894025
exact,pre_advance,DELTA_SA,no_revision,bridge,2020:Q1,0.04155832642442052,-6.151948237469605
exact,pre_advance,DELTA_SA,no_revision,bridge,2020:Q2,-2.9243832173098694,-9.076331454779474
exact,pre_advance,DELTA_SA,no_revision,bridge,2020:Q3,-0.8611140445568967,-9.937445499336372
exact,pre_advance,DELTA_SA,no_revision,bridge,2020:Q4,-0.5038671788448926,-10.441312678181264
exact,pre_advance,DELTA_SA,no_revision,bridge,2021:Q1,-1.8438390653637465e-05,-10.441331116571918
exact,pre_advance,DELTA_SA,no_revision,bridge,2021:Q2,-0.17120436762170704,-10.612535484193625
exact,pre_advance,DELTA_SA,no_revision,bridge,2021:Q3,-0.002821624872078734,-10.615357109065704
exact,pre_advance,DELTA_SA,no_revision,bridge,2021:Q4,-0.10482780762600205,-10.720184916691705
exact,pre_advance,DELTA_SA,no_revision,bridge,2022:Q1,-0.21397784020505234,-10.934162756896757
exact,pre_advance,DELTA_SA,no_revision,bridge,2022:Q2,-1.4601055105800322,-12.39426826747679
exact,pre_advance,DELTA_SA,no_revision,bridge,2022:Q3,-0.23858538726117665,-12.632853654737966
exact,pre_advance,DELTA_SA,no_revision,bridge,2022:Q4,-1.1585208329794234,-13.79137448771739
exact,pre_advance,DELTA_SA,no_revision,bridge,2023:Q1,0.04382040987399613,-13.747554077843393
exact,pre_advance,DELTA_SA,no_revision,bridge,2023:Q2,-0.7407409622135449,-14.488295040056938
exact,pre_advance,DELTA_SA,no_revision,bridge,2023:Q3,-0.011822612116571998,-14.50011765217351
exact,pre_advance,DELTA_SA,no_revision,bridge,2023:Q4,-0.11955608058774457,-14.619673732761253
exact,pre_advance,DELTA_SA,no_revision,bridge,2024:Q1,0.08512963114062305,-14.53454410162063
exact,pre_advance,DELTA_SA,no_revision,bridge,2024:Q2,-0.008688897800779314,-14.54323299942141
exact,pre_advance,DELTA_SA,no_revision,bridge,2024:Q3,-0.14775406088384585,-14.690987060305256
exact,pre_advance,DELTA_SA,no_revision,bridge,2024:Q4,-0.043850737179767764,-14.734837797485023
exact,pre_advance,DELTA_SA,no_revision,indicator_revision_only_dfm_kalman_em,2005:Q1,0.0,0.0
exact,pre_advance,DELTA_SA,no_revision,indicator_revision_only_dfm_kalman_em,2005:Q2,0.0,0.0
exact,pre_advance,DELTA_SA,no_revision,indicator_revision_only_dfm_kalman_em,2005:Q3,0.0,0.0
exact,pre_advance,DELTA_SA,no_revision,indicator_revision_only_dfm_kalman_em,2005:Q4,0.0,0.0
exact,pre_advance,DELTA_SA,no_revision,indicator_revision_only_dfm_kalman_em,2006:Q1,0.0,0.0
exact,pre_advance,DELTA_SA,no_revision,indicator_revision_only_dfm_kalman_em,2006:Q2,0.0,0.0
exact,pre_advance,DELTA_SA,no_revision,indicator_revision_only_dfm_kalman_em,2006:Q3,0.0,0.0
exact,pre_advance,DELTA_SA,no_revision,indicator_revision_only_dfm_kalman_em,2006:Q4,0.0,0.0
exact,pre_advance,DELTA_SA,no_revision,indicator_revision_only_dfm_kalman_em,2007:Q1,0.0,0.0
exact,pre_advance,DELTA_SA,no_revision,indicator_revision_only_dfm_kalman_em,2007:Q2,0.0,0.0
exact,pre_advance,DELTA_SA,no_revision,indicator_revision_only_dfm_kalman_em,2007:Q3,0.0,0.0
exact,pre_advance,DELTA_SA,no_revision,indicator_revision_only_dfm_kalman_em,2007:Q4,0.0,0.0
exact,pre_advance,DELTA_SA,no_revision,indicator_revision_only_dfm_kalman_em,2008:Q1,0.0,0.0
exact,pre_advance,DELTA_SA,no_revision,indicator_revision_only_dfm_kalman_em,2008:Q2,0.0,0.0
exact,pre_advance,DELTA_SA,no_revision,indicator_revision_only_dfm_kalman_em,2008:Q3,0.0,0.0
exact,pre_advance,DELTA_SA,no_revision,indicator_revision_only_dfm_kalman_em,2008:Q4,0.0,0.0
exact,pre_advance,DELTA_SA,no_revision,indicator_revision_only_dfm_kalman_em,2009:Q1,0.0,0.0
exact,pre_advance,DELTA_SA,no_revision,indicator_revision_only_dfm_kalman_em,2009:Q2,0.0,0.0
exact,pre_advance,DELTA_SA,no_revision,indicator_revision_only_dfm_kalman_em,2009:Q3,0.0,0.0
exact,pre_advance,DELTA_SA,no_revision,indicator_revision_only_dfm_kalman_em,2009:Q4,0.0,0.0
exact,pre_advance,DELTA_SA,no_revision,indicator_revision_only_dfm_kalman_em,2010:Q1,0.0,0.0
exact,pre_advance,DELTA_SA,no_revision,indicator_revision_only_dfm_kalman_em,2010:Q2,0.0,0.0
exact,pre_advance,DELTA_SA,no_revision,indicator_revision_only_dfm_kalman_em,2010:Q3,0.0,0.0
exact,pre_advance,DELTA_SA,no_revision,indicator_revision_only_dfm_kalman_em,2010:Q4,0.0,0.0
exact,pre_advance,DELTA_SA,no_revision,indicator_revision_only_dfm_kalman_em,2011:Q1,0.0,0.0
exact,pre_advance,DELTA_SA,no_revision,indicator_revision_only_dfm_kalman_em,2011:Q2,0.0,0.0
exact,pre_advance,DELTA_SA,no_revision,indicator_revision_only_dfm_kalman_em,2011:Q3,0.0,0.0
exact,pre_advance,DELTA_SA,no_revision,indicator_revision_only_dfm_kalman_em,2011:Q4,0.0,0.0
exact,pre_advance,DELTA_SA,no_revision,indicator_revision_only_dfm_kalman_em,2012:Q1,0.0,0.0
exact,pre_advance,DELTA_SA,no_revision,indicator_revision_only_dfm_kalman_em,2012:Q2,0.0,0.0
exact,pre_advance,DELTA_SA,no_revision,indicator_revision_only_dfm_kalman_em,2012:Q3,0.0,0.0
exact,pre_advance,DELTA_SA,no_revision,indicator_revision_only_dfm_kalman_em,2012:Q4,0.0,0.0
exact,pre_advance,DELTA_SA,no_revision,indicator_revision_only_dfm_kalman_em,2013:Q1,0.0,0.0
exact,pre_advance,DELTA_SA,no_revision,indicator_revision_only_dfm_kalman_em,2013:Q2,0.0,0.0
exact,pre_advance,DELTA_SA,no_revision,indicator_revision_only_dfm_kalman_em,2013:Q3,0.0,0.0
exact,pre_advance,DELTA_SA,no_revision,indicator_revision_only_dfm_kalman_em,2013:Q4,0.0,0.0
exact,pre_advance,DELTA_SA,no_revision,indicator_revision_only_dfm_kalman_em,2014:Q1,0.0,0.0
exact,pre_advance,DELTA_SA,no_revision,indicator_revision_only_dfm_kalman_em,2014:Q2,0.0,0.0
exact,pre_advance,DELTA_SA,no_revision,indicator_revision_only_dfm_kalman_em,2014:Q3,0.0,0.0
exact,pre_advance,DELTA_SA,no_revision,indicator_revision_only_dfm_kalman_em,2014:Q4,0.0,0.0
exact,pre_advance,DELTA_SA,no_revision,indicator_revision_only_dfm_kalman_em,2015:Q1,0.0,0.0
exact,pre_advance,DELTA_SA,no_revision,indicator_revision_only_dfm_kalman_em,2015:Q2,0.0,0.0
exact,pre_advance,DELTA_SA,no_revision,indicator_revision_only_dfm_kalman_em,2015:Q3,0.0,0.0
exact,pre_advance,DELTA_SA,no_revision,indicator_revision_only_dfm_kalman_em,2015:Q4,0.0,0.0
exact,pre_advance,DELTA_SA,no_revision,indicator_revision_only_dfm_kalman_em,2016:Q1,0.0,0.0
exact,pre_advance,DELTA_SA,no_revision,indicator_revision_only_dfm_kalman_em,2016:Q2,0.0,0.0
exact,pre_advance,DELTA_SA,no_revision,indicator_revision_only_dfm_kalman_em,2016:Q3,0.0,0.0
exact,pre_advance,DELTA_SA,no_revision,indicator_revision_only_dfm_kalman_em,2016:Q4,0.0,0.0
exact,pre_advance,DELTA_SA,no_revision,indicator_revision_only_dfm_kalman_em,2017:Q1,0.0,0.0
exact,pre_advance,DELTA_SA,no_revision,indicator_revision_only_dfm_kalman_em,2017:Q2,0.0,0.0
exact,pre_advance,DELTA_SA,no_revision,indicator_revision_only_dfm_kalman_em,2017:Q3,0.0,0.0
exact,pre_advance,DELTA_SA,no_revision,indicator_revision_only_dfm_kalman_em,2017:Q4,0.0,0.0
exact,pre_advance,DELTA_SA,no_revision,indicator_revision_only_dfm_kalman_em,2018:Q1,0.0,0.0
exact,pre_advance,DELTA_SA,no_revision,indicator_revision_only_dfm_kalman_em,2018:Q2,0.0,0.0
exact,pre_advance,DELTA_SA,no_revision,indicator_revision_only_dfm_kalman_em,2018:Q3,0.0,0.0
exact,pre_advance,DELTA_SA,no_revision,indicator_revision_only_dfm_kalman_em,2019:Q1,0.0,0.0
exact,pre_advance,DELTA_SA,no_revision,indicator_revision_only_dfm_kalman_em,2019:Q2,0.0,0.0
exact,pre_advance,DELTA_SA,no_revision,indicator_revision_only_dfm_kalman_em,2019:Q3,0.0,0.0
exact,pre_advance,DELTA_SA,no_revision,indicator_revision_only_dfm_kalman_em,2019:Q4,0.0,0.0
exact,pre_advance,DELTA_SA,no_revision,indicator_revision_only_dfm_kalman_em,2020:Q1,0.0,0.0
exact,pre_advance,DELTA_SA,no_revision,indicator_revision_only_dfm_kalman_em,2020:Q2,0.0,0.0
exact,pre_advance,DELTA_SA,no_revision,indicator_revision_only_dfm_kalman_em,2020:Q3,0.0,0.0
exact,pre_advance,DELTA_SA,no_revision,indicator_revision_only_dfm_kalman_em,2020:Q4,0.0,0.0
exact,pre_advance,DELTA_SA,no_revision,indicator_revision_only_dfm_kalman_em,2021:Q1,0.0,0.0
exact,pre_advance,DELTA_SA,no_revision,indicator_revision_only_dfm_kalman_em,2021:Q2,0.0,0.0
exact,pre_advance,DELTA_SA,no_revision,indicator_revision_only_dfm_kalman_em,2021:Q3,0.0,0.0
exact,pre_advance,DELTA_SA,no_revision,indicator_revision_only_dfm_kalman_em,2021:Q4,0.0,0.0
exact,pre_advance,DELTA_SA,no_revision,indicator_revision_only_dfm_kalman_em,2022:Q1,0.0,0.0
exact,pre_advance,DELTA_SA,no_revision,indicator_revision_only_dfm_kalman_em,2022:Q2,0.0,0.0
exact,pre_advance,DELTA_SA,no_revision,indicator_revision_only_dfm_kalman_em,2022:Q3,0.0,0.0
exact,pre_advance,DELTA_SA,no_revision,indicator_revision_only_dfm_kalman_em,2022:Q4,0.0,0.0
exact,pre_advance,DELTA_SA,no_revision,indicator_revision_only_dfm_kalman_em,2023:Q1,0.0,0.0
exact,pre_advance,DELTA_SA,no_revision,indicator_revision_only_dfm_kalman_em,2023:Q2,0.0,0.0
exact,pre_advance,DELTA_SA,no_revision,indicator_revision_only_dfm_kalman_em,2023:Q3,0.0,0.0
exact,pre_advance,DELTA_SA,no_revision,indicator_revision_only_dfm_kalman_em,2023:Q4,0.0,0.0
exact,pre_advance,DELTA_SA,no_revision,indicator_revision_only_dfm_kalman_em,2024:Q1,0.0,0.0
exact,pre_advance,DELTA_SA,no_revision,indicator_revision_only_dfm_kalman_em,2024:Q2,0.0,0.0
exact,pre_advance,DELTA_SA,no_revision,indicator_revision_only_dfm_kalman_em,2024:Q3,0.0,0.0
exact,pre_advance,DELTA_SA,no_revision,indicator_revision_only_dfm_kalman_em,2024:Q4,0.0,0.0
exact,pre_advance,DELTA_SA,no_revision,joint_indicator_revision_dfm_full_kalman_em,2005:Q1,0.15299034916467483,0.15299034916467483
exact,pre_advance,DELTA_SA,no_revision,joint_indicator_revision_dfm_full_kalman_em,2005:Q2,-0.257424250728009,-0.10443390156333418
exact,pre_advance,DELTA_SA,no_revision,joint_indicator_revision_dfm_full_kalman_em,2005:Q3,0.18615120909687305,0.08171730753353887
exact,pre_advance,DELTA_SA,no_revision,joint_indicator_revision_dfm_full_kalman_em,2005:Q4,0.24979156925618262,0.3315088767897215
exact,pre_advance,DELTA_SA,no_revision,joint_indicator_revision_dfm_full_kalman_em,2006:Q1,0.220922915763083,0.5524317925528045
exact,pre_advance,DELTA_SA,no_revision,joint_indicator_revision_dfm_full_kalman_em,2006:Q2,0.19650901876544624,0.7489408113182507
exact,pre_advance,DELTA_SA,no_revision,joint_indicator_revision_dfm_full_kalman_em,2006:Q3,0.33297712834976373,1.0819179396680145
exact,pre_advance,DELTA_SA,no_revision,joint_indicator_revision_dfm_full_kalman_em,2006:Q4,0.3289794947173119,1.4108974343853264
exact,pre_advance,DELTA_SA,no_revision,joint_indicator_revision_dfm_full_kalman_em,2007:Q1,0.03696776150399694,1.4478651958893234
exact,pre_advance,DELTA_SA,no_revision,joint_indicator_revision_dfm_full_kalman_em,2007:Q2,0.05779222606907014,1.5056574219583936
exact,pre_advance,DELTA_SA,no_revision,joint_indicator_revision_dfm_full_kalman_em,2007:Q3,-0.7364489033088595,0.7692085186495341
