haminh109/Revision-Aware-DFM/outputs/full_state_space_release_revision_dfm/sensitivity_window_rolling_max_iter100_journal_evidence/density_point_records.csv
model_id,timing_mode,checkpoint_id,outcome_id,forecast_origin,forecast_origin_date,target_quarter,forecast_value,realized_value,forecast_error,calibration_n,predictive_variance,predictive_sd,log_score,crps,pit,prob_below_zero,prob_large_positive_revision_gt_0p2,prob_large_negative_revision_lt_minus_0p2,realized_below_zero,realized_large_positive_revision_gt_0p2,realized_large_negative_revision_lt_minus_0p2,lower_68,upper_68,covered_68,lower_90,upper_90,covered_90,density_method
ar,exact,pre_advance,A,2008:Q1:pre_advance:exact,2008-04-29,2008:Q1,2.7319890136779006,0.5974,2.1345890136779007,12,2.0687308677458356,1.4383083354224975,-2.38367806755997,1.410518560988909,0.0688916011365022,0.028752930150711845,0.9608294663954541,0.020750065178228756,False,True,False,1.2936806782554031,4.170297349100398,False,0.36618233148367096,5.09779569587213,True,expanding_residual_calibrated_gaussian
ar,exact,pre_advance,A,2008:Q2:pre_advance:exact,2008-07-30,2008:Q2,2.5461698499277396,1.8886,0.6575698499277396,13,2.113968881875824,1.4539494082930893,-1.3954937518065702,0.4564426471394915,0.3255391869082488,0.03995492468465083,0.946698644951209,0.029461611759889556,False,True,False,1.0922204416346504,4.000119258220829,True,0.15463589229290475,4.937703807562574,True,expanding_residual_calibrated_gaussian
ar,exact,pre_advance,A,2008:Q3:pre_advance:exact,2008-10-29,2008:Q3,2.804543912975318,-0.2522,3.0567439129753176,14,1.9517643725746228,1.3970556082613972,-3.6469558712705084,2.282668303461008,0.014335159828788692,0.022349946912978105,0.9688608667468467,0.015752871419775008,True,False,True,1.4074883047139206,4.201599521236715,False,0.5065919286736635,5.102495897276972,False,expanding_residual_calibrated_gaussian
ar,exact,pre_advance,A,2008:Q4:pre_advance:exact,2009-01-29,2008:Q4,2.0768982144343724,-3.8037,5.8805982144343725,15,2.2188800212645003,1.4895905549057769,-9.109982685848738,5.040213535433064,3.943714120719904e-05,0.08161735516712433,0.8961670280526818,0.06318930436967217,True,False,True,0.5873076595285955,3.5664887693401495,False,-0.3732602124750506,4.527056641343796,False,expanding_residual_calibrated_gaussian
ar,exact,pre_advance,A,2009:Q1:pre_advance:exact,2009-04-28,2009:Q1,0.2564005347388802,-6.1437,6.40010053473888,16,3.7148779337268585,1.9274018609845893,-7.088251792003892,5.313134095802601,0.00044914598284607056,0.4470851833109581,0.5116723697521071,0.4064076313468002,True,False,True,-1.671001326245709,2.1838023957234696,False,-2.9138934068946387,3.4266944763723988,False,expanding_residual_calibrated_gaussian
ar,exact,pre_advance,A,2009:Q2:pre_advance:exact,2009-07-30,2009:Q2,-2.9468790082839846,-1.0173,-1.9295790082839843,17,5.152296580264016,2.2698670842725606,-2.0999817068614077,1.148110145854253,0.8023609681522967,0.9029011001901168,0.08281674892881363,0.8868892755647139,True,False,True,-5.216746092556545,-0.6770119240114241,True,-6.680478114547469,0.7867200979794995,True,expanding_residual_calibrated_gaussian
ar,exact,pre_advance,A,2009:Q3:pre_advance:exact,2009-10-28,2009:Q3,0.4775747904211116,3.5339,-3.0563252095788886,18,5.459909903509521,2.3366450101608334,-2.623083059187815,1.9471875637235605,0.9045628762298625,0.4190263924036111,0.5472799361175475,0.3859166743336322,False,True,False,-1.8590702197397218,2.814219800581945,False,-3.3658642294399943,4.321013810282218,True,expanding_residual_calibrated_gaussian
ar,exact,pre_advance,A,2009:Q4:pre_advance:exact,2010-01-28,2009:Q4,3.019708487597444,5.7309,-2.7111915124025563,19,6.110836839488192,2.4720106875756405,-2.42540679603631,1.6579469814949794,0.8636258733253821,0.11093709939078904,0.8729929990068626,0.09637866239745849,False,True,False,0.5476978000218033,5.491719175173085,False,-1.0463872577241506,7.085804232919038,True,expanding_residual_calibrated_gaussian
ar,exact,pre_advance,A,2010:Q1:pre_advance:exact,2010-04-29,2010:Q1,4.210257744416058,3.2387,0.971557744416058,20,6.469573485209306,2.5435356268802893,-1.9254446826152467,0.7406877168755475,0.35124130677813054,0.04893409244402717,0.9425616108804455,0.04146717016328649,False,True,False,1.6667221175357687,6.753793371296347,True,0.026513943261727846,8.394001545570388,True,expanding_residual_calibrated_gaussian
ar,exact,pre_advance,A,2010:Q2:pre_advance:exact,2010-07-29,2010:Q2,2.9341587511800564,2.3866,0.5475587511800564,21,6.147610294180938,2.4794374955180736,-1.8513553840616588,0.6274782072112756,0.41260854383721257,0.11832593425996431,0.8649285396698534,0.10310417441311164,False,True,False,0.45472125566198285,5.41359624669813,True,-1.144153006122321,7.0124705084824335,True,expanding_residual_calibrated_gaussian
ar,exact,pre_advance,A,2010:Q3:pre_advance:exact,2010-10-28,2010:Q3,2.4487355063388465,2.0097,0.4390355063388464,22,5.857801755654434,2.420289601608542,-1.8192783395000707,0.597294502355204,0.42802762459396837,0.15582805987923623,0.8235861248474392,0.13689245766694205,False,True,False,0.028445904730304505,4.8690251079473885,True,-1.5322866231398975,6.429757635817591,True,expanding_residual_calibrated_gaussian
ar,exact,pre_advance,A,2010:Q4:pre_advance:exact,2011-01-27,2010:Q4,2.1879521466825325,3.173,-0.9850478533174676,23,5.596896782237384,2.365776147955969,-1.8667283670866537,0.714171949396128,0.661431851719853,0.1775259189021783,0.7996287678436839,0.15639773114300354,False,True,False,-0.17782400127343667,4.553728294638502,True,-1.703403330838126,6.0793076242031905,True,expanding_residual_calibrated_gaussian
ar,exact,pre_advance,A,2011:Q1:pre_advance:exact,2011-04-27,2011:Q1,2.799159520319973,1.7482,1.0509595203199729,24,5.482604084027366,2.341496120865325,-1.8704577592862432,0.7322856497252664,0.3267731706946816,0.11595413070220802,0.8665095802610545,0.10011911193876678,False,True,False,0.45766339945464773,5.1406556411852975,True,-1.05225886657816,6.650577907218105,True,expanding_residual_calibrated_gaussian
ar,exact,pre_advance,A,2011:Q2:pre_advance:exact,2011-07-28,2011:Q2,2.0670081015346065,1.2822,0.7848081015346065,25,5.259046731505477,2.2932611564114276,-1.8074719216072166,0.6420378590270264,0.36609131093027125,0.18370377560985185,0.7922141843985894,0.16144116916070822,False,True,False,-0.22625305487682112,4.360269257946034,True,-1.7050708291356576,5.839087032204871,True,expanding_residual_calibrated_gaussian
ar,exact,pre_advance,A,2011:Q3:pre_advance:exact,2011-10-26,2011:Q3,1.7519927287947346,2.4637,-0.7117072712052652,26,5.048869659730374,2.246968993940587,-1.7786831671599224,0.6142932921868975,0.6242799430807875,0.21777967760425898,0.7551245280931445,0.19249944062838922,False,True,False,-0.49497626514585247,3.998961722735322,True,-1.9439423705359407,5.44792782812541,True,expanding_residual_calibrated_gaussian
ar,exact,pre_advance,A,2011:Q4:pre_advance:exact,2012-01-26,2011:Q4,2.334889125571628,2.7523,-0.4174108744283717,27,4.9304051226601775,2.2204515582782203,-1.7343182328896798,0.550120260062239,0.5745556694507703,0.14650578984078366,0.8318410941916955,0.12680813686424003,False,True,False,0.11443756729340793,4.555340683849849,True,-1.3174286735323508,5.987206924675608,True,expanding_residual_calibrated_gaussian
ar,exact,pre_advance,A,2012:Q1:pre_advance:exact,2012-04-26,2012:Q1,2.448956893792074,2.2043,0.2446568937920741,28,4.78965631797567,2.1885283452529625,-1.7084164316475206,0.5223479400657071,0.4554947210091056,0.1315706859484864,0.8479336935557109,0.11306603451059627,False,True,False,0.26042854853911157,4.637485239045036,True,-1.1508518925833648,6.048765680167513,True,expanding_residual_calibrated_gaussian
ar,exact,pre_advance,A,2012:Q2:pre_advance:exact,2012-07-26,2012:Q2,2.1498979572008614,1.5369,0.6129979572008615,29,4.623625822286066,2.150261803196547,-1.7251636153753525,0.5717537242498593,0.38779119055760125,0.15869620128386477,0.8177487026544941,0.13723143068866958,False,True,False,-0.0003638459956856188,4.300159760397408,True,-1.3869679686821916,5.6867638830839145,True,expanding_residual_calibrated_gaussian
ar,exact,pre_advance,A,2012:Q3:pre_advance:exact,2012-10-25,2012:Q3,1.8404114779885057,2.0138,-0.1733885220114941,30,4.464190453644868,2.112863093918976,-1.6703496702243807,0.49943879292067456,0.5327018122613232,0.19186315775619905,0.7812414226207836,0.16709483955724455,False,True,False,-0.2724516159304704,3.9532745719074818,True,-1.634939045296031,5.315762001273042,True,expanding_residual_calibrated_gaussian
ar,exact,pre_advance,A,2012:Q4:pre_advance:exact,2013-01-29,2012:Q4,2.089820549979912,-0.1435,2.233320549979912,31,4.335350717354818,2.0821505030508285,-2.2275782183589863,1.3601672604342683,0.14172467422286908,0.15776554472659463,0.8179629134796333,0.13572309201343072,True,False,False,0.007670046929083352,4.17197105303074,False,-1.335012256822076,5.514653356781899,True,expanding_residual_calibrated_gaussian
ar,exact,pre_advance,A,2013:Q1:pre_advance:exact,2013-04-25,2013:Q1,1.015657371890139,2.5024,-1.4867426281098612,32,4.280099409859869,2.0688401122029387,-1.9041453781848772,0.8922795337941694,0.7638173341301451,0.3117376890721202,0.6533048241151596,0.2783992823754733,False,True,False,-1.0531827403127998,3.0844974840930774,True,-2.3872817902495553,4.418596534029834,True,expanding_residual_calibrated_gaussian
ar,exact,pre_advance,A,2013:Q2:pre_advance:exact,2013-07-30,2013:Q2,2.322549914965965,1.6737,0.6488499149659652,33,4.283329712882863,2.069620668838341,-1.6954486074849873,0.5641553246119138,0.376946036159781,0.13088648803838554,0.8474538733625779,0.1114512287564956,False,True,False,0.252929246127624,4.392170583804306,True,-1.0816731485865119,5.726772978518442,True,expanding_residual_calibrated_gaussian
ar,exact,pre_advance,A,2013:Q3:pre_advance:exact,2013-11-06,2013:Q3,1.973622837344077,2.8463,-0.8726771626559229,34,4.153692402772873,2.038060941869225,-1.7226106764461342,0.6231214047294693,0.6657435747404172,0.1664266528393723,0.8079181421470516,0.14309542068819692,False,True,False,-0.06443810452514809,4.0116837792133015,True,-1.3786890948376516,5.325934769525805,True,expanding_residual_calibrated_gaussian
ar,exact,pre_advance,A,2013:Q4:pre_advance:exact,2014-01-29,2013:Q4,2.526725205379879,3.2279,-0.7011747946201208,35,4.0915810688463115,2.022765697960669,-1.683484474716785,0.5687162393081104,0.6355697159484088,0.1058062437766708,0.8749835064660656,0.0888262461754228,False,True,False,0.5039595074192103,4.549490903340548,True,-0.8004282893837531,5.853878700143511,True,expanding_residual_calibrated_gaussian
ar,exact,pre_advance,A,2014:Q1:pre_advance:exact,2014-04-29,2014:Q1,2.762877953985167,0.1079,2.654977953985167,36,4.017175833906937,2.0042893588269477,-2.491574300485535,1.6973234080234572,0.09264395858083822,0.08402717225086398,0.8994980382332918,0.06966795406416297,False,False,False,0.7585885951582192,4.767167312812115,False,-0.5338846673415789,6.059640575311913,True,expanding_residual_calibrated_gaussian
ar,exact,pre_advance,A,2014:Q2:pre_advance:exact,2014-07-29,2014:Q2,1.0963036479406214,3.9481,-2.8517963520593788,37,4.030941288198136,2.007720420825105,-2.624727985280543,1.8598041899467634,0.9222565616957346,0.29251785325293694,0.6723561308996805,0.2592499659056243,False,True,False,-0.9114167728844835,3.1040240687657263,False,-2.2061025681580886,4.398709864039331,True,expanding_residual_calibrated_gaussian
ar,exact,pre_advance,A,2014:Q3:pre_advance:exact,2014-10-29,2014:Q3,3.0618715488271215,3.549,-0.4871284511728784,38,4.228243464759819,2.0562693074497367,-1.6678924619764186,0.5263637672712593,0.5936324853010413,0.06823814268020757,0.9180052688143663,0.05633499957230619,False,True,False,1.0056022413773849,5.118140856276858,True,-0.32039047952056965,6.444133577174813,True,expanding_residual_calibrated_gaussian
ar,exact,pre_advance,A,2014:Q4:pre_advance:exact,2015-01-29,2014:Q4,2.9326451519940946,2.6422,0.2904451519940947,39,4.140453194591819,2.034810358385228,-1.639528253528128,0.49203613230520615,0.4432484762682125,0.07475878778330952,0.9103556456574438,0.061837865842852786,False,True,False,0.8978347936088666,4.967455510379322,True,-0.4143200461542724,6.279610350142462,True,expanding_residual_calibrated_gaussian
ar,exact,pre_advance,A,2015:Q1:pre_advance:exact,2015-04-28,2015:Q1,2.46464677385953,0.2482,2.2164467738595297,40,4.03488686799011,2.008702782392186,-2.2251976828893936,1.3569700474943525,0.13492198088958401,0.10991424626522933,0.8702170092722712,0.09232861963194511,False,True,False,0.45594399146734377,4.473349556251716,False,-0.8393752832257713,5.768668830944831,True,expanding_residual_calibrated_gaussian
ar,exact,pre_advance,A,2015:Q2:pre_advance:exact,2015-07-29,2015:Q2,1.2030703538987095,2.3219,-1.1188296461012903,41,4.0108647127594965,2.002714336284508,-1.7694905780629027,0.7110914364759658,0.7118019589396304,0.2740132815001738,0.6917635647553904,0.24178121891469212,False,True,False,-0.7996439823857984,3.2057846901832177,True,-2.091101585886574,4.497242293683993,True,expanding_residual_calibrated_gaussian
ar,exact,pre_advance,A,2015:Q3:pre_advance:exact,2015-10-28,2015:Q3,2.164634655212163,1.4923,0.6723346552121632,42,3.974258624357224,1.9935542692280097,-1.6657278592321783,0.5554951205723657,0.36796262131301366,0.13878003296437372,0.8378091240111033,0.11778348889208581,False,True,False,0.17108038598415343,4.158188924440173,True,-1.1144703150521202,5.4437396254764465,True,expanding_residual_calibrated_gaussian
ar,exact,pre_advance,A,2015:Q4:pre_advance:exact,2016-01-28,2015:Q4,1.747271446569462,0.6914,1.055871446569462,43,3.8808195092399105,1.9699795707671464,-1.7405994746394475,0.68089298738564,0.2959858713922407,0.18755317449056688,0.7838978221673751,0.16146054673298574,False,True,False,-0.22270812419768427,3.7172510173366087,True,-1.493056595427183,4.987599488566107,True,expanding_residual_calibrated_gaussian
ar,exact,pre_advance,A,2016:Q1:pre_advance:exact,2016-04-27,2016:Q1,1.3101484954956142,0.5378,0.7723484954956142,44,3.7988624809340426,1.9490670796393956,-1.6648026362828363,0.5760125806703194,0.34595450172286063,0.2507305411667305,0.7155185047361986,0.2192272080978966,False,True,False,-0.6389185841437814,3.25921557513501,True,-1.8957815596209597,4.516078550612188,True,expanding_residual_calibrated_gaussian
ar,exact,pre_advance,A,2016:Q2:pre_advance:exact,2016-07-28,2016:Q2,1.2102208837316333,1.2182,-0.0079791162683666,45,3.7146173158410063,1.9273342511980132,-1.5750849340640698,0.4504215123757027,0.5016516064842903,0.2650266173204859,0.6999144509989892,0.23217736672492267,False,True,False,-0.7171133674663799,3.1375551349296464,True,-1.9599618496992184,4.380403617162485,True,expanding_residual_calibrated_gaussian
ar,exact,pre_advance,A,2016:Q3:pre_advance:exact,2016-10-27,2016:Q3,1.5281283001420678,2.9014,-1.3732716998579324,46,3.6370847867149236,1.9071142563346652,-1.8237861921428988,0.8239808285723106,0.7642616237680867,0.21148542230913125,0.756913105316961,0.18242868734113565,False,True,False,-0.37898595619259745,3.435242556476733,True,-1.608795501400866,4.665052101685001,True,expanding_residual_calibrated_gaussian
ar,exact,pre_advance,A,2016:Q4:pre_advance:exact,2017-01-26,2016:Q4,2.366732744435772,1.8735,0.493232744435772,47,3.6296710288417082,1.905169553830238,-1.5970220203451422,0.4958884140911243,0.3978593688109755,0.1070686966470312,0.8722917331989138,0.08895045089811993,False,True,False,0.46156319060553397,4.27190229826601,True,-0.766992306139413,5.500457795010957,True,expanding_residual_calibrated_gaussian
ar,exact,pre_advance,A,2017:Q1:pre_advance:exact,2017-04-27,2017:Q1,1.847500729837228,0.6941,1.153400729837228,48,3.552547294555475,1.8848202287102807,-1.740007508399157,0.7135835977081478,0.27028805392460264,0.16349370990554568,0.8089651208533327,0.1386707365329744,False,True,False,-0.03731949887305275,3.7323209585475086,True,-1.2527526595083807,4.947754119182837,True,expanding_residual_calibrated_gaussian
ar,exact,pre_advance,A,2017:Q2:pre_advance:exact,2017-07-27,2017:Q2,1.2486664470815905,2.5683,-1.3196335529184091,49,3.489385193968623,1.8679896129177547,-1.7933341982235784,0.7937249699235089,0.7600445490431769,0.25192169262491143,0.7127333763681153,0.21901572921281967,False,True,False,-0.6193231658361642,3.116656059999345,True,-1.8239030428338547,4.321235936997036,True,expanding_residual_calibrated_gaussian
ar,exact,pre_advance,A,2017:Q3:pre_advance:exact,2017-10-26,2017:Q3,2.11358099391883,2.9875,-0.8739190060811697,50,3.4800404075809417,1.8654866409548319,-1.6521911698440208,0.5963600029583956,0.6802746822116097,0.12860885668157265,0.8475026186172602,0.10745027198844025,False,True,False,0.2480943529639983,3.9790676348736618,True,-0.9548714734852437,5.182033461322904,True,expanding_residual_calibrated_gaussian
ar,exact,pre_advance,A,2017:Q4:pre_advance:exact,2018-01-25,2017:Q4,2.3798472755885087,2.555,-0.1751527244114914,51,3.442459964099629,1.855386742460889,-1.5414875885396404,0.44018610497609434,0.5376051945675725,0.09980401191598463,0.8799776114964974,0.08219410970121484,False,True,False,0.5244605331276198,4.235234018049398,True,-0.6719923371459617,5.431686888322979,True,expanding_residual_calibrated_gaussian
ar,exact,pre_advance,A,2018:Q1:pre_advance:exact,2018-04-26,2018:Q1,2.1193665757039524,2.3176,-0.1982334242960477,52,3.380864700900372,1.8387127836887336,-1.5338158894642824,0.4382157838416947,0.542927182944851,0.12452990714615099,0.851725904179884,0.1035809867706812,False,True,False,0.2806537920152188,3.958079359392686,True,-0.905046815468499,5.143779966876403,True,expanding_residual_calibrated_gaussian
ar,exact,pre_advance,A,2018:Q2:pre_advance:exact,2018-07-26,2018:Q2,2.032663493362063,4.0595,-2.026836506637937,53,3.3219033384687373,1.8226089373392025,-2.1375376768477983,1.2427697505173805,0.8669421733648763,0.13237178467744845,0.8426759134580426,0.11029096488353952,False,True,False,0.2100545560228606,3.8552724307012656,False,-0.9652614277344926,5.030588414458618,True,expanding_residual_calibrated_gaussian
ar,exact,pre_advance,A,2018:Q3:pre_advance:exact,2018-10-25,2018:Q3,2.9761627347803863,3.5002,-0.5240372652196137,54,3.3645122210563345,1.8342606742380796,-1.5663905614206293,0.48798191228219245,0.6124437489164375,0.052343804998557,0.9349242862535901,0.04167449392722719,False,True,False,1.1419020605423067,4.810423409018465,True,-0.040927588014571636,5.993253057575345,True,expanding_residual_calibrated_gaussian
ar,exact,pre_advance,A,2018:Q4:pre_advance:exact,2019-02-27,2018:Q4,2.6808791780622605,2.5878,0.0930791780622604,55,3.314958219661187,1.8207026719542065,-1.5194678068607945,0.42738700542145236,0.4796138866136264,0.07045077225733451,0.9134948051255208,0.05679171964743876,False,True,False,0.860176506108054,4.501581850016467,True,-0.3139102155018527,5.675668571626374,True,expanding_residual_calibrated_gaussian
ar,exact,pre_advance,A,2019:Q1:pre_advance:exact,2019-04-25,2019:Q1,1.7785040240746544,3.1705,-1.3919959759253455,56,3.2554375926443084,1.8042831243029207,-1.8067043949806252,0.8300335751094313,0.7797933006222852,0.1621371619811118,0.8091762977279621,0.13641697288870808,False,True,False,-0.02577910022826635,3.582787148377575,True,-1.189277616982339,4.746285665131648,True,expanding_residual_calibrated_gaussian
ar,exact,pre_advance,A,2019:Q2:pre_advance:exact,2019-07-25,2019:Q2,2.667027515178709,2.055,0.6120275151787089,57,3.2472065001151256,1.8020006937055062,-1.5655129881585246,0.5032576496454323,0.36706466164847823,0.06943170009979625,0.914508043870592,0.055802014683415425,False,True,False,0.8650268214732029,4.4690282088842155,True,-0.2969998616318619,5.6310548919892796,True,expanding_residual_calibrated_gaussian
ar,exact,pre_advance,A,2019:Q3:pre_advance:exact,2019-10-29,2019:Q3,1.9081796084108744,1.9188,-0.0106203915891254,58,3.1923149091895877,1.7867050425824593,-1.4993293647352584,0.4175691789996268,0.5023713473618976,0.14276295441238757,0.8304765486692969,0.11901483795628046,False,True,False,0.1214745658284151,3.694884650993334,True,-1.0306886611733683,4.847047877995117,True,expanding_residual_calibrated_gaussian
ar,exact,pre_advance,A,2019:Q4:pre_advance:exact,2020-01-29,2019:Q4,1.810372996780889,2.0808,-0.2704270032191109,59,3.138618606468502,1.7716146890530406,-1.50248006906856,0.43045355476931063,0.5606606325201644,0.15341946716127966,0.8183212490879568,0.1282361102231059,False,True,False,0.038758307727848385,3.58198768583393,True,-1.1036738500685095,4.7244198436302876,True,expanding_residual_calibrated_gaussian
ar,exact,pre_advance,A,2020:Q1:pre_advance:exact,2020-04-28,2020:Q1,1.992879335693204,-4.7832,6.776079335693204,60,3.090220477638588,1.7579022946792544,-8.912181962597803,5.784336559394986,5.795018020352324e-05,0.12846670899284204,0.8461113517204648,0.10611792683434505,True,False,True,0.23497704101394956,3.750781630372458,False,-0.8986126295362833,4.884371300922691,False,expanding_residual_calibrated_gaussian
ar,exact,pre_advance,A,2020:Q2:pre_advance:exact,2020-07-29,2020:Q2,-1.8955238476054277,-32.9038,31.00827615239457,61,3.7353650244704992,1.9327092446797318,-130.28190811809526,29.917861728519814,3.1511605827770114e-58,0.8366444369450096,0.13912883604975335,0.8098322474823407,True,False,True,-3.8282330922851595,0.03718539707430413,False,-5.074547658559525,1.2834999633486694,False,expanding_residual_calibrated_gaussian
ar,exact,pre_advance,A,2020:Q3:pre_advance:exact,2020-10-28,2020:Q3,-50.26802337853819,33.0826,-83.35062337853819,62,18.820362169542808,4.3382441343869536,-186.95582179148195,80.90303122702991,1.0,1.0,0.0,1.0,False,True,False,-54.60626751292514,-45.929779244151234,False,-57.40379997758552,-43.132246779490856,False,expanding_residual_calibrated_gaussian
ar,exact,pre_advance,A,2020:Q4:pre_advance:exact,2021-01-27,2020:Q4,-16.145812834354427,4.0124,-20.158212834354423,63,131.07475435396526,11.44878833562597,-4.906905617608264,14.059538206788124,0.9608578531054146,0.9207691124018055,0.07668436300100379,0.9181590739922398,False,True,False,-27.594601169980397,-4.697024498728457,False,-34.97739385240851,2.6857681836996576,False,expanding_residual_calibrated_gaussian
ar,exact,pre_advance,A,2021:Q1:pre_advance:exact,2021-04-28,2021:Q1,1.30872631611495,6.3877,-5.078973683885049,64,135.0457468018001,11.620918500781258,-3.4672536051555314,3.5874857524148496,0.6689640555943549,0.455166648399593,0.5380045412203294,0.4483510604550483,False,True,False,-10.312192184666308,12.929644816896207,True,-17.80598362840257,20.423436260632467,True,expanding_residual_calibrated_gaussian
ar,exact,pre_advance,A,2021:Q2:pre_advance:exact,2021-07-28,2021:Q2,0.7134615610238813,6.5026,-5.789138438976119,65,133.21921578518408,11.542062891233268,-3.490722160478167,3.832024017282178,0.6920145586284502,0.47535546046285365,0.517741541002908,0.4684598516498436,False,True,False,-10.828601330209388,12.255524452257148,True,-18.271542448123157,19.698465570170917,True,expanding_residual_calibrated_gaussian
ar,exact,pre_advance,A,2021:Q3:pre_advance:exact,2021-10-27,2021:Q3,-20.57575256632904,2.0163,-22.59205256632904,66,131.5390349391441,11.46904681911902,-5.2987020503550415,16.332416478243783,0.9755709718359025,0.9635953817899146,0.035034615133845426,0.9621818423131897,False,True,False,-32.04479938544806,-9.10670574721002,False,-39.44065582443321,-1.7108493082248728,False,expanding_residual_calibrated_gaussian
ar,exact,pre_advance,A,2021:Q4:pre_advance:exact,2022-01-26,2021:Q4,-0.1512885174403884,6.8881,-7.039388517440388,67,136.55182972202016,11.685539342367564,-3.558734548250089,4.373221309799322,0.7265466036022854,0.5051648193837188,0.4880088772381628,0.49833700327518526,False,True,False,-11.836827859807952,11.534250824927176,True,-19.372290287617798,19.06971325273702,True,expanding_residual_calibrated_gaussian
ar,exact,pre_advance,A,2022:Q1:pre_advance:exact,2022-04-27,2022:Q1,-1.084169710924213,-1.4142,0.3300302890757869,68,135.00663621278667,11.61923561224174,-3.372003887932997,2.7190964795027077,0.4886700520655676,0.5371706325491363,0.45599809228501087,0.5303283771389729,True,False,True,-12.703405323165953,10.535065901317527,True,-20.196111550123746,18.027772128275323,True,expanding_residual_calibrated_gaussian
ar,exact,pre_advance,A,2022:Q2:pre_advance:exact,2022-07-27,2022:Q2,1.82797116543252,-0.9335,2.76147116543252,69,133.0614308762978,11.535225653462433,-3.392998883407146,2.9582052534100405,0.40539979384240665,0.43704377718201803,0.556116541167629,0.43022286170322466,True,False,True,-9.707254488029914,13.363196818894952,True,-17.14578658836883,20.801728919233867,True,expanding_residual_calibrated_gaussian
ar,exact,pre_advance,A,2022:Q3:pre_advance:exact,2022-10-26,2022:Q3,3.539730002209642,2.5656,0.974130002209642,70,131.36993637273866,11.461672494568088,-3.3615588440454394,2.711544462490574,0.46613458518607387,0.3787247039414186,0.6146205752932316,0.37210574777176825,False,True,False,-7.921942492358446,15.001402496777729,True,-15.313043571410606,22.39250357582989,True,expanding_residual_calibrated_gaussian
ar,exact,pre_advance,A,2022:Q4:pre_advance:exact,2023-01-25,2022:Q4,2.495816377928808,2.891,-0.3951836220711922,71,129.56307417215848,11.382577659395015,-3.3516251239088684,2.6655242051658883,0.5138478114438736,0.41322128231152866,0.5799226674972162,0.40639159469908653,False,True,False,-8.886761281466207,13.878394037323822,True,-16.22685776918388,21.218490525041496,True,expanding_residual_calibrated_gaussian
ar,exact,pre_advance,A,2023:Q1:pre_advance:exact,2023-04-26,2023:Q1,2.710751270429888,1.0626,1.648151270429888,72,127.7477250596887,11.302553917574944,-3.3545991458817563,2.7370604535876177,0.44203129442394756,0.4052289747927389,0.5878976168387655,0.3983846740043828,False,True,False,-8.591802647145055,14.013305188004832,True,-15.88029553470783,21.301798075567607,True,expanding_residual_calibrated_gaussian
ar,exact,pre_advance,A,2023:Q2:pre_advance:exact,2023-07-26,2023:Q2,2.6942490766337985,2.4137,0.2805490766337986,73,126.08535609539187,11.228773579309179,-3.3377302077066617,2.6269042158742355,0.49003352911156234,0.40518779364775137,0.5878937132335889,0.39829880415927466,False,True,False,-8.53452450267538,13.923022655942978,True,-15.775439871509768,21.163938024777366,True,expanding_residual_calibrated_gaussian
ar,exact,pre_advance,A,2023:Q3:pre_advance:exact,2023-10-25,2023:Q3,2.0067283474778135,4.8777,-2.8709716525221864,74,124.38662658894566,11.152875261068138,-3.363768362459104,2.8995898974669747,0.6015726655855264,0.4286040605801661,0.5643457511114849,0.4215765831292233,False,True,False,-9.146146913590325,13.15960360854595,True,-16.33811897662746,20.351575671583088,True,expanding_residual_calibrated_gaussian
ar,exact,pre_advance,A,2023:Q4:pre_advance:exact,2024-01-24,2023:Q4,0.9558790082678984,3.28,-2.3241209917321015,75,122.74515926046983,11.079041441409533,-3.3459967589916806,2.782908759552055,0.5830788879468216,0.4656226605904013,0.5271971466524895,0.4584536419885545,False,True,False,-10.123162433141635,12.034920449677431,True,-17.267522489780237,19.179280506316037,True,expanding_residual_calibrated_gaussian
ar,exact,pre_advance,A,2024:Q1:pre_advance:exact,2024-04-24,2024:Q1,1.176983216489404,1.5897,-0.4127167835105958,76,121.12595698016553,11.005723828088978,-3.318057150968586,2.578156069780069,0.5149569074418805,0.457417168582026,0.5353678345481696,0.45021617936328917,False,True,False,-9.828740611599574,12.182707044578382,True,-16.925821539368993,19.2797879723478,True,expanding_residual_calibrated_gaussian
ar,exact,pre_advance,A,2024:Q2:pre_advance:exact,2024-07-24,2024:Q2,1.7082535981098548,2.8401,-1.1318464018901453,77,119.54002662743187,10.933436176583822,-3.316122523279596,2.6017916877808265,0.5412254816802862,0.437921436521589,0.5548595298836028,0.43072300521663065,False,True,False,-9.225182578473968,12.641689774693676,True,-16.27564855198648,19.692155748206194,True,expanding_residual_calibrated_gaussian
ar,exact,pre_advance,A,2024:Q3:pre_advance:exact,2024-10-29,2024:Q3,1.5459074527393204,2.8248,-1.2788925472606798,78,117.98758751572296,10.862209145276248,-3.3111593415157743,2.5984447531005412,0.5468622902893334,0.44341370307502415,0.5493056797725703,0.4361521389593821,False,True,False,-9.316301692536928,12.408116598015567,True,-16.320836656573764,19.412651562052407,True,expanding_residual_calibrated_gaussian
ar,exact,pre_advance,A,2024:Q4:pre_advance:exact,2025-01-29,2024:Q4,1.771373112359251,2.2512,-0.4798268876407485,79,116.47505344150758,10.792360883583703,-3.2987654311823604,2.5306297803192006,0.5177310775449318,0.4348135668052387,0.5578816123341661,0.42753093015477495,False,True,False,-9.020987771224451,12.563733995942954,True,-15.980480830372597,19.5232270550911,True,expanding_residual_calibrated_gaussian
ar,exact,pre_second,S,2008:Q1:pre_second:exact,2008-05-28,2008:Q1,2.617712626554478,0.9006,1.7171126265544785,12,2.8720461456026753,1.6947112277915302,-1.9597566721499693,1.0363286669044336,0.1554779228662336,0.061217119916043665,0.9231555862875316,0.04819119881881697,False,True,False,0.923001398762948,4.312423854346008,False,-0.1698392831138027,5.405264536222759,True,expanding_residual_calibrated_gaussian
ar,exact,pre_second,S,2008:Q2:pre_second:exact,2008-08-27,2008:Q2,2.505224378506692,3.2784,-0.7731756214933081,13,2.785602638807822,1.6690124741318808,-1.5384724854757896,0.5304298457103518,0.678408610535235,0.06667494063203122,0.9163898213734074,0.052524552045067334,False,True,False,0.8362119043748111,4.174236852638573,True,-0.24005684299638252,5.250505600009767,True,expanding_residual_calibrated_gaussian
ar,exact,pre_second,S,2008:Q3:pre_second:exact,2008-11-24,2008:Q3,3.226554581820273,-0.514,3.7405545818202737,14,2.6722898996002105,1.6347140115629433,-4.0283387980822525,2.8306574427084272,0.011062903098710513,0.02420377305524589,0.9679459667286601,0.018035832008220957,True,False,True,1.5918405702573297,4.861268593383216,False,0.5376893108725751,5.915419852767971,False,expanding_residual_calibrated_gaussian
ar,exact,pre_second,S,2008:Q4:pre_second:exact,2009-02-26,2008:Q4,2.0092820620438,-6.2481,8.2573820620438,15,3.2565025633928144,1.8045782231293868,-11.978220569305286,7.239259550216795,2.3720617817310266e-06,0.13276064567719015,0.841974648327438,0.11042612701880675,True,False,True,0.20470383891441335,3.813860285173187,False,-0.958984973388215,4.977549097475816,False,expanding_residual_calibrated_gaussian
ar,exact,pre_second,S,2009:Q1:pre_second:exact,2009-05-28,2009:Q1,-1.5833924643346915,-5.7192,4.135807535665308,16,6.7443110392539705,2.5969811395645466,-3.1413868923094292,2.7934738884599652,0.055631227689801756,0.7289713891268931,0.24613037512645786,0.7028767824568108,True,False,True,-4.180373603899238,1.013588675229855,False,-5.8550463108720034,2.6882613822026205,True,expanding_residual_calibrated_gaussian
ar,exact,pre_second,S,2009:Q2:pre_second:exact,2009-08-26,2009:Q2,-2.8439597987984095,-1.0143,-1.8296597987984096,17,6.886801840751409,2.6242716781521325,-2.126790526647289,1.1025354244072807,0.7571632769742984,0.8607541734536266,0.12303955733279293,0.8431532778202736,True,False,True,-5.4682314769505425,-0.21968812064627707,True,-7.160502586712971,1.4725829891161517,True,expanding_residual_calibrated_gaussian
ar,exact,pre_second,S,2009:Q3:pre_second:exact,2009-11-23,2009:Q3,0.3903185902264247,2.7817,-2.391381409773575,18,6.998886247633841,2.645540823278643,-2.3003579819879723,1.4263685471560525,0.8169835086566128,0.44135357653811685,0.5286749282983292,0.4117143606512661,False,True,False,-2.2552222330522183,3.035859413505068,True,-3.9612088281916353,4.741846008644485,True,expanding_residual_calibrated_gaussian
ar,exact,pre_second,S,2009:Q4:pre_second:exact,2010-02-25,2009:Q4,2.6516505812243736,5.9271,-3.2754494187756267,19,7.2340937403482775,2.6896270634324524,-2.6498692704476934,2.0489206678198095,0.8883515327587014,0.16209590516969502,0.8189894421377291,0.14451768147156605,False,True,False,-0.03797648220807881,5.3412776446568255,False,-1.7723922492093331,7.07569341165808,True,expanding_residual_calibrated_gaussian
ar,exact,pre_second,S,2010:Q1:pre_second:exact,2010-05-26,2010:Q1,4.439171254527798,3.0364,1.402771254527798,20,7.712895945974265,2.7772101011580426,-2.067948843663123,0.9258272456983874,0.30674399311960593,0.054973843935322876,0.9365465529877631,0.04741587112595998,False,True,False,1.6619611533697554,7.21638135568584,True,-0.12893285316827363,9.007275362223869,True,expanding_residual_calibrated_gaussian
ar,exact,pre_second,S,2010:Q2:pre_second:exact,2010-08-26,2010:Q2,2.8477681572828883,1.6141,1.2336681572828885,21,7.353280953704923,2.711693373835789,-2.0199987763608536,0.8538319430255429,0.32457482630125145,0.14681751114100602,0.8355733210476948,0.1305202176280498,False,True,False,0.13607478344709945,5.559461531118677,True,-1.6125705238511836,7.30810683841696,True,expanding_residual_calibrated_gaussian
ar,exact,pre_second,S,2010:Q3:pre_second:exact,2010-11-22,2010:Q3,1.98644211718539,2.5245,-0.5380578828146101,22,7.0161364868152685,2.648799065013288,-1.9136763479475651,0.662464989262655,0.5804843693133144,0.22664522247870356,0.7499825197392198,0.20455905087602547,False,True,False,-0.6623569478278979,4.635241182198678,True,-2.3704446319673846,6.343328866338165,True,expanding_residual_calibrated_gaussian
ar,exact,pre_second,S,2010:Q4:pre_second:exact,2011-02-24,2010:Q4,2.4472683913535036,2.788,-0.3407316086464962,23,6.766358418868602,2.6012224854611348,-1.8834991173575022,0.6256728467502067,0.5521080070547277,0.17339990933714738,0.8061862200253136,0.15440988365793878,False,True,False,-0.15395409410763117,5.048490876814638,True,-1.831361848364967,6.725898631071974,True,expanding_residual_calibrated_gaussian
ar,exact,pre_second,S,2011:Q1:pre_second:exact,2011-05-25,2011:Q1,2.606722976167457,1.8421,0.764622976167457,24,6.514577276974337,2.552366994962585,-1.9008320077227236,0.687180214695556,0.3822510315984746,0.15355703870257473,0.8271436061955206,0.1357412471602886,False,True,False,0.05435598120487217,5.159089971130042,True,-1.5915471328079804,6.804993085142895,True,expanding_residual_calibrated_gaussian
ar,exact,pre_second,S,2011:Q2:pre_second:exact,2011-08-25,2011:Q2,2.0978443904365274,0.9894,1.1084443904365275,25,6.243904173589034,2.4987805372999516,-1.933129239196417,0.7769577302640788,0.32866802350031704,0.2005811360973188,0.7762257045006724,0.17889448997265645,False,True,False,-0.40093614686342427,4.596624927736479,True,-2.0122838392970466,6.207972620170102,True,expanding_residual_calibrated_gaussian
ar,exact,pre_second,S,2011:Q3:pre_second:exact,2011-11-21,2011:Q3,1.5095195242336126,2.0041,-0.4945804757663876,26,6.002892140843179,2.4500800274364876,-1.8354335544983005,0.6122660928762983,0.5799880812548552,0.2689108644975881,0.7034953644945532,0.24266981645697497,False,True,False,-0.940560503202875,3.9595995516701,True,-2.5205034952166563,5.539542543683881,True,expanding_residual_calibrated_gaussian
ar,exact,pre_second,S,2011:Q4:pre_second:exact,2012-02-28,2011:Q4,2.044585169218889,2.9822,-0.937614830781111,27,5.820530335473072,2.4125775294222302,-1.8751532501051205,0.7073757874812474,0.6512273376462042,0.1983668214086438,0.7777362752828471,0.17609026494197325,False,True,False,-0.36799236020334103,4.4571626986411195,True,-1.9237517303528882,6.012922068790667,True,expanding_residual_calibrated_gaussian
ar,exact,pre_second,S,2012:Q1:pre_second:exact,2012-05-30,2012:Q1,2.5616395775983287,1.8596,0.7020395775983288,28,5.690227824090766,2.3854198423109434,-1.8316212192282124,0.63929759731862,0.38426265182698244,0.14143965126126418,0.8389205150083043,0.12348990264072776,False,True,False,0.17621973528738533,4.947059419909272,True,-1.3620269018288353,6.485306057025493,True,expanding_residual_calibrated_gaussian
ar,exact,pre_second,S,2012:Q2:pre_second:exact,2012-08-28,2012:Q2,1.9352062577308249,1.7318,0.2034062577308248,29,5.487777570667325,2.3426005999033053,-1.7739698724406459,0.5544955346798177,0.4654036178627317,0.20437563274839185,0.7705677560141342,0.18102433240318938,False,True,False,-0.4073943421724804,4.27780685763413,True,-1.9180288355188215,5.788441350980471,True,expanding_residual_calibrated_gaussian
ar,exact,pre_second,S,2012:Q3:pre_second:exact,2012-11-28,2012:Q3,1.889149065101765,2.6717,-0.7825509348982349,30,5.302724622006853,2.3027645606980434,-1.810791493882814,0.6432279332349403,0.63300812419707,0.2059988812009496,0.7683826695262101,0.1821412167486715,False,True,False,-0.4136154955962783,4.191913625799808,True,-1.898561574577725,5.676859704781255,True,expanding_residual_calibrated_gaussian
ar,exact,pre_second,S,2012:Q4:pre_second:exact,2013-02-27,2012:Q4,2.417632365422695,0.126,2.291632365422695,31,5.1828829049919785,2.276594585118742,-2.2482464556595025,1.3818048493313095,0.15706222318577714,0.1441289184913826,0.8349967275197299,0.12511277372412455,False,False,False,0.14103778030395286,4.694226950541437,False,-1.3270324950079502,6.16229722585334,True,expanding_residual_calibrated_gaussian
ar,exact,pre_second,S,2013:Q1:pre_second:exact,2013-05-29,2013:Q1,1.0684265680536449,2.3862,-1.3177734319463554,32,5.115679091192829,2.2617867032929584,-1.9048195442737836,0.8264842587362108,0.7199271071441412,0.3183271946487293,0.649494469064917,0.287464443716655,False,True,False,-1.1933601352393135,3.3302132713466035,True,-2.651881494248391,4.78873463035568,True,expanding_residual_calibrated_gaussian
ar,exact,pre_second,S,2013:Q2:pre_second:exact,2013-08-28,2013:Q2,2.281169985242082,2.5157,-0.2345300147579179,33,5.062527239686617,2.25000605325555,-1.7353039367273377,0.5355589563329719,0.5415086821385666,0.15532702339658053,0.8225071497614697,0.1350702085048301,False,True,False,0.03116393198653178,4.531176038497632,True,-1.4197606321180771,5.982100602602241,True,expanding_residual_calibrated_gaussian
ar,exact,pre_second,S,2013:Q3:pre_second:exact,2013-12-04,2013:Q3,2.3927101323770827,3.6013,-1.2085898676229174,34,4.925069717346455,2.219249809585765,-1.864398996204941,0.7749053824057957,0.7069835680768028,0.1404808018753126,0.8384337520920272,0.12134646895637403,False,True,False,0.17346032279131762,4.611959941962848,True,-1.257630966031427,6.043051230785593,True,expanding_residual_calibrated_gaussian
ar,exact,pre_second,S,2013:Q4:pre_second:exact,2014-02-27,2013:Q4,2.939716070292234,2.3848,0.5549160702922342,35,4.8617079704084905,2.2049281100318194,-1.741302539779364,0.5707031603110818,0.4006477558643094,0.09122521028690214,0.8929816968157877,0.07722990286997497,False,True,False,0.7347879602604146,5.144644180324054,True,-0.6870679286608588,6.566500069245327,True,expanding_residual_calibrated_gaussian
ar,exact,pre_second,S,2014:Q1:pre_second:exact,2014-05-28,2014:Q1,2.2509203508043067,-0.9849,3.235820350804307,36,4.723221558694648,2.17329739306305,-2.8035942238733584,2.140311783132433,0.06825698131621534,0.15016717022548756,0.8273361140594278,0.12971429153290845,True,False,True,0.07762295774125683,4.424217743867357,False,-1.3238357486196302,5.825676450228244,True,expanding_residual_calibrated_gaussian
ar,exact,pre_second,S,2014:Q2:pre_second:exact,2014-08-27,2014:Q2,0.4350253497983948,4.1719,-3.7368746502016057,37,4.803971152245704,2.191796330010091,-3.1570650625849535,2.5794927510260406,0.9558969122093613,0.42133519136350195,0.5426965662978918,0.38601206516572195,False,True,False,-1.7567709802116962,2.6268216798084856,False,-3.170158793157629,4.0402094927544185,False,expanding_residual_calibrated_gaussian
ar,exact,pre_second,S,2014:Q3:pre_second:exact,2014-11-24,2014:Q3,3.1593825379871023,3.8957,-0.7363174620128978,38,5.149014864622163,2.269144081944151,-1.7909885317733363,0.624778638447224,0.6272169375686183,0.08191223534409921,0.9039146581528401,0.06937494134440061,False,True,False,0.8902384560429515,5.428526619931253,True,-0.5730273352742028,6.8917924112484075,True,expanding_residual_calibrated_gaussian
ar,exact,pre_second,S,2014:Q4:pre_second:exact,2015-02-26,2014:Q4,3.104493818539538,2.1924,0.912093818539538,39,5.04658369054721,2.2464602579496504,-1.810717886263293,0.6707273067869424,0.3423662381084802,0.0834936592446917,0.9019806677360462,0.07064852119166408,False,True,False,0.8580335605898877,5.350954076489188,True,-0.5906044845512843,6.7995921216303605,True,expanding_residual_calibrated_gaussian
ar,exact,pre_second,S,2015:Q1:pre_second:exact,2015-05-28,2015:Q1,2.201790595690956,-0.7491,2.950890595690956,40,4.924524987870819,2.2191270779004113,-2.6001737882247324,1.8884966215623982,0.09179985484155904,0.16055298526153783,0.8164880793994309,0.1395566846062249,True,False,True,-0.017336482209455273,4.420917673591367,False,-1.4483486270597576,5.85192981844167,True,expanding_residual_calibrated_gaussian
ar,exact,pre_second,S,2015:Q2:pre_second:exact,2015-08-26,2015:Q2,0.6055572019362654,3.6846,-3.0790427980637345,41,4.962147496790632,2.2275878202195827,-2.675140259668984,1.9921228651409317,0.9165497357465618,0.3928708445293644,0.5722326318211629,0.3588151743262775,False,True,False,-1.6220306182833173,2.833145022155848,False,-3.0584987035048394,4.26961310737737,True,expanding_residual_calibrated_gaussian
ar,exact,pre_second,S,2015:Q3:pre_second:exact,2015-11-23,2015:Q3,2.849779480390324,2.078,0.771779480390324,42,5.137037464990668,2.266503356492257,-1.7951522018818538,0.633512194813078,0.36673418326681045,0.10431414291708159,0.8788192528491832,0.0892177288454076,False,True,False,0.5832761238980666,5.116282836882581,True,-0.8782867860336512,6.577845746814299,True,expanding_residual_calibrated_gaussian
ar,exact,pre_second,S,2015:Q4:pre_second:exact,2016-02-25,2015:Q4,2.075366365202336,1.0054,1.069966365202336,43,5.018623876171818,2.2402285321305544,-1.8395743791344814,0.7236134450928027,0.31646218753910516,0.17711690930643523,0.7987407339469323,0.1548897227281425,False,True,False,-0.1648621669282182,4.315594897332891,True,-1.609481661072779,5.760214391477451,True,expanding_residual_calibrated_gaussian
ar,exact,pre_second,S,2016:Q1:pre_second:exact,2016-05-26,2016:Q1,1.5333584798101807,0.8405,0.6928584798101807,44,4.912984908134763,2.216525413374447,-1.763734894715324,0.6036966538074757,0.37729697940944007,0.24453625735125045,0.7262642841857002,0.21710256644981799,False,True,False,-0.6831669335642663,3.7498838931846277,True,-2.1125013856088897,5.179218345229251,True,expanding_residual_calibrated_gaussian
ar,exact,pre_second,S,2016:Q2:pre_second:exact,2016-08-25,2016:Q2,1.4428945945309564,1.0986,0.3442945945309563,45,4.803393934261087,2.191664649133413,-1.715938965790069,0.5337140195488739,0.43758588145532384,0.25515484403090094,0.7146771221912224,0.22674469537751157,False,True,False,-0.7487700546024567,3.6345592436643694,True,-2.162072952657464,5.047862141719376,True,expanding_residual_calibrated_gaussian
ar,exact,pre_second,S,2016:Q3:pre_second:exact,2016-11-28,2016:Q3,1.5238589634384252,3.158,-1.6341410365615747,46,4.696706852863027,2.16718869802863,-1.9766554277639974,0.9760075402015429,0.7745865768697867,0.24098110445303805,0.7293554051272326,0.21318008977228767,False,True,False,-0.6433297345902047,3.691047661467055,True,-2.0408492268022056,5.088567153679056,True,expanding_residual_calibrated_gaussian
ar,exact,pre_second,S,2016:Q4:pre_second:exact,2017-02-27,2016:Q4,2.465536906763101,1.8565,0.6090369067631012,47,4.6820798510173685,2.163811417618774,-1.7304209825981514,0.5736116063024306,0.3891769332113829,0.12725949095828323,0.8524530193836953,0.1089986058421633,False,True,False,0.30172548914432706,4.629348324381875,True,-1.0936161515461462,6.024689965072349,True,expanding_residual_calibrated_gaussian
ar,exact,pre_second,S,2017:Q1:pre_second:exact,2017-05-25,2017:Q1,1.85861643999934,1.1541,0.7045164399993402,48,4.5838551500773885,2.1409939631109167,-1.7343491134956246,0.5920001351736902,0.3710549981282714,0.1926672924380717,0.7807399256647687,0.16814445708599954,False,True,False,-0.2823775231115768,3.999610403110257,True,-1.663005245504858,5.380238125503538,True,expanding_residual_calibrated_gaussian
ar,exact,pre_second,S,2017:Q2:pre_second:exact,2017-08-29,2017:Q2,1.5254164896039517,3.0345,-1.5090835103960485,49,4.490840567349011,2.1191603448887513,-1.923511573739118,0.9067177381214531,0.7618028722207417,0.23581755280553027,0.7341602109953993,0.20776571482506936,False,True,False,-0.5937438552847996,3.644576834492703,True,-1.9602920897780434,5.011125068985947,True,expanding_residual_calibrated_gaussian
ar,exact,pre_second,S,2017:Q3:pre_second:exact,2017-11-28,2017:Q3,2.3112054413150895,3.2952,-0.9839945586849104,50,4.469274832644397,2.1140659480357744,-1.775874031599847,0.6735341370167429,0.6791958164686607,0.13714172947921258,0.8410171180877744,0.1174451182847973,False,True,False,0.19713949327931513,4.425271389350864,True,-1.1661236009261566,5.788534483556336,True,expanding_residual_calibrated_gaussian
ar,exact,pre_second,S,2017:Q4:pre_second:exact,2018-02-27,2017:Q4,2.229338525734935,2.536,-0.306661474265065,51,4.413508763196058,2.100835253701741,-1.671927336502618,0.5087811564345346,0.5580279439070687,0.1443068465094228,0.8329697718161573,0.12376534555120006,False,True,False,0.128503272033194,4.3301737794366755,True,-1.22622796094389,5.6849050124137595,True,expanding_residual_calibrated_gaussian
ar,exact,pre_second,S,2018:Q1:pre_second:exact,2018-05-29,2018:Q1,2.091370440850124,2.1741,-0.0827295591498762,52,4.33404130056284,2.081836040749329,-1.6529783335276373,0.48782600395889114,0.5158492954458117,0.15754961315783633,0.8181957839159897,0.13552475834760616,False,True,False,0.009534400100795093,4.173206481599452,True,-1.3329451214947023,5.515686003194951,True,expanding_residual_calibrated_gaussian
ar,exact,pre_second,S,2018:Q2:pre_second:exact,2018-08-28,2018:Q2,1.9459305646066576,4.226,-2.2800694353933424,53,4.253288861343855,2.0623503245917885,-2.253925589970771,1.3964457055632915,0.8655433223343767,0.17269983701833644,0.8013834783016227,0.14904763445856195,False,True,False,-0.11641975998513088,4.008280889198446,False,-1.4463338468426916,5.338194976056007,True,expanding_residual_calibrated_gaussian
ar,exact,pre_second,S,2018:Q3:pre_second:exact,2018-11-27,2018:Q3,2.917456800883543,3.5046,-0.5871431991164568,54,4.294511599535423,2.0723203419199994,-1.687744394023657,0.5502157713473164,0.6115367044528508,0.07959198983902618,0.9051236710200812,0.06624801409019718,False,True,False,0.8451364589635437,4.9897771428035425,True,-0.49120682972888297,6.326120431495969,True,expanding_residual_calibrated_gaussian
ar,exact,pre_second,S,2019:Q1:pre_second:exact,2019-05-29,2019:Q1,2.0225880011584545,3.0658,-1.0432119988415454,55,4.227233227086718,2.056023644583573,-1.768436207696258,0.6872335369946271,0.6940604507853483,0.1626222455344471,0.8123158419880683,0.13984569650744322,False,True,False,-0.0334356434251184,4.078611645742027,True,-1.35926994773282,5.404445950049729,True,expanding_residual_calibrated_gaussian
ar,exact,pre_second,S,2019:Q2:pre_second:exact,2019-08-28,2019:Q2,2.009510075273633,2.0379,-0.0283899247263672,56,4.178812484942195,2.0442143930963295,-1.6340485264604143,0.4778799275527565,0.5055403079432408,0.1627980221554882,0.8119718540458143,0.13987964190014704,False,True,False,-0.03470431782269667,4.053724468369962,True,-1.3529233834772674,5.371943534024533,True,expanding_residual_calibrated_gaussian
ar,exact,pre_second,S,2019:Q3:pre_second:exact,2019-11-26,2019:Q3,1.5995546100518294,2.1238,-0.5242453899481707,57,4.105075820685413,2.026098670027058,-1.6585254451808304,0.5273043073766243,0.6020844757852802,0.2149171656659966,0.7551428498211226,0.18722007053178627,False,True,False,-0.4265440599752286,3.6256532800788874,True,-1.7330811359037308,4.932190356007389,True,expanding_residual_calibrated_gaussian
ar,exact,pre_second,S,2019:Q4:pre_second:exact,2020-02-26,2019:Q4,1.9860069129485456,2.0956,-0.1095930870514543,58,4.041908517872872,2.0104498297328566,-1.6187827901729706,0.4722147615630146,0.5217362661230224,0.16161500113732755,0.8128269278493536,0.13844720050589834,False,True,False,-0.024442916784310986,3.996456742681402,True,-1.320888781291513,5.292902607188604,True,expanding_residual_calibrated_gaussian
ar,exact,pre_second,S,2020:Q1:pre_second:exact,2020-05-27,2020:Q1,2.2274136226891894,-5.0477,7.275113622689189,59,3.973641023327372,1.9933993637320575,-8.268576068160964,6.150585759049241,0.00013132364201067968,0.1319128281503463,0.8454383755107943,0.11166411490696929,True,False,True,0.2340142589571319,4.220812986421247,False,-1.0514365507082424,5.506263796086621,False,expanding_residual_calibrated_gaussian
ar,exact,pre_second,S,2020:Q2:pre_second:exact,2020-08-26,2020:Q2,0.1405932554497211,-31.7041,31.844693255449723,60,4.74648302687943,2.1786424733947123,-108.5224708813912,30.615525865685704,1.0980322834391867e-48,0.4742731130543543,0.48912307740930117,0.4378853558495307,True,False,True,-2.0380492179449914,2.319235728844433,False,-3.442954718744098,3.7241412296435397,False,expanding_residual_calibrated_gaussian
ar,exact,pre_second,S,2020:Q3:pre_second:exact,2020-11-24,2020:Q3,-41.81851425601948,33.0683,-74.88681425601948,61,20.986846224051206,4.58114027552652,-136.04921640902296,72.30218263179631,1.0,1.0,0.0,1.0,False,True,False,-46.399654531546005,-37.23737398049296,False,-49.353819453792745,-34.28320905824622,False,expanding_residual_calibrated_gaussian
ar,exact,pre_second,S,2020:Q4:pre_second:exact,2021-02-24,2020:Q4,-15.46918318357255,4.0922,-19.561383183572552,62,113.06368876409725,10.633141058224387,-4.975091900352991,13.836848141575588,0.9670910458060634,0.9271388472747484,0.07029229784579172,0.924498730673435,False,True,False,-26.102324241796936,-4.836042125348163,False,-32.95914381907955,2.0207774519344497,False,expanding_residual_calibrated_gaussian
ar,exact,pre_second,S,2021:Q1:pre_second:exact,2021-05-26,2021:Q1,1.3529559408374725,6.3989,-5.045944059162528,63,117.06170222795501,10.819505636948252,-3.4090418119054626,3.4506416358291943,0.6795263531729535,0.45024283355635797,0.5424320520465372,0.4429346313173177,False,True,False,-9.466549696110778,12.172461577785725,True,-16.44354714791876,19.149459029593704,True,expanding_residual_calibrated_gaussian
ar,exact,pre_second,S,2021:Q2:pre_second:exact,2021-08-25,2021:Q2,-21.613917996952217,6.5554,-28.169317996952216,64,115.4967495994643,10.746941406719602,-6.7287666880740655,22.135415473603118,0.9956182824250464,0.9778462082594606,0.021189494709486167,0.9768451369233591,False,True,False,-32.36085940367182,-10.866976590232616,False,-39.29106354842991,-3.9367724454745243,False,expanding_residual_calibrated_gaussian
ar,exact,pre_second,S,2021:Q3:pre_second:exact,2021-11-23,2021:Q3,-22.24911378937661,2.1044,-24.353513789376613,65,125.23156533085749,11.19069101221446,-5.702008590836382,18.156845559582404,0.985230954232572,0.9766041352703319,0.022425322969041095,0.9755984884228742,False,True,False,-33.43980480159107,-11.058422777162152,False,-40.65616248891081,-3.8420650898424142,False,expanding_residual_calibrated_gaussian
ar,exact,pre_second,S,2021:Q4:pre_second:exact,2022-02-23,2021:Q4,2.2800209012630903,6.9874,-4.70737909873691,66,131.42507349304535,11.464077524731126,-3.4424613635126464,3.439575349101055,0.6593243886860215,0.4211767664723639,0.5719881578169745,0.41436536465649837,False,True,False,-9.184056623468035,13.744098425994217,True,-16.57670859494376,21.13675039746994,True,expanding_residual_calibrated_gaussian
ar,exact,pre_second,S,2022:Q1:pre_second:exact,2022-05-25,2022:Q1,-1.011532484974643,-1.5101,0.498567515025357,67,129.58218838193716,11.38341725414373,-3.352055322122964,2.6689573920912966,0.4825328294898035,0.5354034842229427,0.4576207566117245,0.5284168261272609,True,False,True,-12.394949739118372,10.371884769169087,True,-19.735587642554925,17.712522672605637,True,expanding_residual_calibrated_gaussian
ar,exact,pre_second,S,2022:Q2:pre_second:exact,2022-08-24,2022:Q2,1.936096213783091,-0.5746,2.510696213783091,68,127.71296327168832,11.301016028290922,-3.368509930216042,2.8626059797302803,0.4120925133876011,0.431985863744146,0.5610465075527818,0.42503932799567856,True,False,True,-9.36491981450783,13.237112242074014,True,-16.652420988587952,20.524613416154136,True,expanding_residual_calibrated_gaussian
ar,exact,pre_second,S,2022:Q3:pre_second:exact,2022-11-29,2022:Q3,3.580679638516875,2.9288,0.651879638516875,69,126.07620172582371,11.228365941926889,-3.3390670617338505,2.639106794085192,0.47685181154541834,0.374902734298874,0.6183247218067154,0.3681685496337122,False,True,False,-7.647686303410014,14.809045580443764,True,-14.888338805799952,22.0496980828337,True,expanding_residual_calibrated_gaussian
ar,exact,pre_second,S,2022:Q4:pre_second:exact,2023-02-22,2022:Q4,2.5483115501291835,2.6752,-0.1268884498708162,70,124.31584938173789,11.14970176200861,-3.3304160400951166,2.606205384334564,0.5045400384652169,0.4096076993250067,0.5834067456240906,0.4026507238232066,False,True,False,-8.601390211879426,13.698013312137792,True,-15.791315832537899,20.887938932796267,True,expanding_residual_calibrated_gaussian
ar,exact,pre_second,S,2023:Q1:pre_second:exact,2023-05-24,2023:Q1,2.8737473649571337,1.2725,1.6012473649571335,71,122.56570594279329,11.07093970459569,-3.333721831571342,2.6794559872788732,0.4424994595406162,0.3975955258920312,0.5954202316089717,0.39064395716418215,False,True,False,-8.197192339638555,13.944687069552824,True,-15.336327961908147,21.083822691822412,True,expanding_residual_calibrated_gaussian
ar,exact,pre_second,S,2023:Q2:pre_second:exact,2023-08-29,2023:Q2,2.751859231882237,2.0608,0.6910592318822371,72,120.96968610243788,10.998622009253609,-3.3186824210419683,2.58763919539211,0.47495036588785516,0.401216201828734,0.5917373107560855,0.394201699889972,False,True,False,-8.246762777371371,13.750481241135846,True,-15.339264071506848,20.84298253527132,True,expanding_residual_calibrated_gaussian
ar,exact,pre_second,S,2023:Q3:pre_second:exact,2023-11-28,2023:Q3,2.3083971830730943,5.154,-2.8456028169269056,73,119.350523093427,10.924766500636387,-3.3438939001885766,2.847099205781534,0.6027503929753973,0.41632680496071045,0.5765175498551693,0.4091987854697678,False,True,False,-8.616369317563294,13.233163683709481,True,-15.66124461909661,20.278038985242798,True,expanding_residual_calibrated_gaussian
ar,exact,pre_second,S,2023:Q4:pre_second:exact,2024-02-27,2023:Q4,1.148500409117074,3.209,-2.0604995908829262,74,117.74422597727069,10.851001150920162,-3.321225039148755,2.69145079413379,0.575302443315513,0.4578535366433742,0.5348277168728716,0.45054905353792696,False,True,False,-9.702500741803087,11.999501560037237,True,-16.699808190028556,18.9968090082627,True,expanding_residual_calibrated_gaussian
ar,exact,pre_second,S,2024:Q1:pre_second:exact,2024-05-29,2024:Q1,1.3127942695441013,1.2492,0.0635942695441011,75,116.15873959643532,10.777696395632757,-3.2964347916311683,2.518843213014929,0.4976460372640067,0.451526103859584,0.5411176150081974,0.4441864312082601,False,True,False,-9.464902126088656,12.090490665176858,True,-16.414938736994248,19.040527276082454,True,expanding_residual_calibrated_gaussian
ar,exact,pre_second,S,2024:Q2:pre_second:exact,2024-08-28,2024:Q2,2.021967559371517,2.9514,-0.9294324406284828,76,114.63884408318933,10.706953071868268,-3.293599562130108,2.5343279077741174,0.5345873142749186,0.4251066746601266,0.5675605056249784,0.41779967546684593,False,True,False,-8.684985512496752,12.728920631239784,True,-15.58940303449021,19.633338153233247,True,expanding_residual_calibrated_gaussian
ar,exact,pre_second,S,2024:Q3:pre_second:exact,2024-11-26,2024:Q3,1.7331075102231923,2.8336,-1.1004924897768076,77,113.1332971530923,10.636413735516888,-3.288574369014561,2.531060367435081,0.541202885466658,0.4352824584985425,0.5573041063247756,0.42789170142053334,False,True,False,-8.903306225293695,12.36952124574008,True,-15.762236200398217,19.2284512208446,True,expanding_residual_calibrated_gaussian
ar,exact,pre_second,S,2024:Q4:pre_second:exact,2025-02-26,2024:Q4,1.9409075167996463,2.3451,-0.4041924832003536,78,111.66512693254901,10.56717213508652,-3.277422284953819,2.4756620639111953,0.5152557522693928,0.42713487285837193,0.5654283500825391,0.41972390261639203,False,True,False,-8.626264618286875,12.508079651886167,True,-15.440543896217951,19.322358929817245,True,expanding_residual_calibrated_gaussian
ar,exact,pre_third,T,2008:Q1:pre_third:exact,2008-06-25,2008:Q1,2.795134737332451,0.9593,1.835834737332451,12,3.0608491219469056,1.7495282569729778,-2.0288327921749083,1.1139219859435743,0.14701283554825295,0.05506038768957856,0.9310071526045003,0.04345136999710451,False,True,False,1.0456064803594733,4.544662994305429,False,-0.08258316160363854,5.672852636268541,True,expanding_residual_calibrated_gaussian
ar,exact,pre_third,T,2008:Q2:pre_third:exact,2008-09-25,2008:Q2,2.706176588769142,2.8253,-0.1191234112308579,13,2.964791773765999,1.7218570712361694,-1.4647350848748444,0.40567585212531576,0.527578062737571,0.05801452952544419,0.9272356491371855,0.0457233515450214,False,True,False,0.9843195175329726,4.428033660005312,True,-0.1260262599457107,5.538379437483995,True,expanding_residual_calibrated_gaussian
ar,exact,pre_third,T,2008:Q3:pre_third:exact,2008-12-22,2008:Q3,3.195869243285,-0.5106,3.706469243285,14,2.76488218051568,1.6627934870318923,-3.9117955307961,2.7832956919074325,0.012904900570928543,0.02730362951611289,0.9642043639454964,0.02056249769448478,True,False,True,1.5330757562531079,4.858662730316892,False,0.4608173452693065,5.9309211413006935,False,expanding_residual_calibrated_gaussian
ar,exact,pre_third,T,2008:Q4:pre_third:exact,2009-03-25,2008:Q4,2.185727157352531,-6.3424,8.52812715735253,15,3.2683742257622166,1.807864548510816,-12.637251553756599,7.508149658608161,1.1953404556184701e-06,0.11332941257201404,0.863981294899226,0.09347791766208749,True,False,True,0.37786260884171496,3.9935917058633468,False,-0.7879454023024706,5.159399717007533,False,expanding_residual_calibrated_gaussian
ar,exact,pre_third,T,2009:Q1:pre_third:exact,2009-06-24,2009:Q1,-1.1221108409930018,-5.4932,4.371089159006998,16,6.9000518953506305,2.626794985405338,-3.2692158065127175,2.9939009142947635,0.048052323336931345,0.6653754092861469,0.3073706720024426,0.6372209341948097,True,False,True,-3.7489058263983397,1.5046841444123362,False,-5.442804099994912,3.1985824180089084,False,expanding_residual_calibrated_gaussian
ar,exact,pre_third,T,2009:Q2:pre_third:exact,2009-09-29,2009:Q2,-2.1526195577371996,-0.7376,-1.4150195577371996,17,7.071370617165935,2.659204884390433,-2.0385422341658046,0.9149389631836281,0.7026790067519486,0.7908854638539249,0.18815709801922453,0.7686130781577744,True,False,True,-4.811824442127632,0.5065853266532332,True,-6.526622356633874,2.2213832411594745,True,expanding_residual_calibrated_gaussian
ar,exact,pre_third,T,2009:Q3:pre_third:exact,2009-12-21,2009:Q3,0.7669771023416124,2.2353,-1.4683228976583875,18,7.082849141104107,2.661362271676689,-2.04997332887823,0.9371755247451784,0.7094293960151844,0.3866007796262921,0.5843521892882466,0.35817577609683293,False,True,False,-1.8943851693350768,3.4283393740183015,True,-3.6105742828575993,5.144528487540824,True,expanding_residual_calibrated_gaussian
ar,exact,pre_third,T,2009:Q4:pre_third:exact,2010-03-25,2009:Q4,2.4190842539745345,5.5541,-3.1350157460254655,19,7.065406426661731,2.6580832241789816,-2.5920681045114335,1.9464080739915888,0.880885952106891,0.1813885860655427,0.7980971646523544,0.16223145226302108,False,True,False,-0.23899897020444705,5.077167478153516,False,-1.9530735780551263,6.791242086004195,True,expanding_residual_calibrated_gaussian
ar,exact,pre_third,T,2010:Q1:pre_third:exact,2010-06-24,2010:Q1,4.183040120628361,2.738,1.4450401206283607,20,7.5751266213690345,2.752294791872599,-2.069202348598645,0.9391055186700724,0.299780816212172,0.06427594350331878,0.926075426490246,0.055635766583165415,False,True,False,1.4307453287557617,6.935334912500959,True,-0.34408195022293153,8.710162191479654,True,expanding_residual_calibrated_gaussian
ar,exact,pre_third,T,2010:Q2:pre_third:exact,2010-09-29,2010:Q2,2.725193691142919,1.7189,1.0062936911429188,21,7.213002585444235,2.6857033688485097,-1.9770757427610597,0.7763186184154898,0.35394724659539467,0.1551234964992317,0.8264516159072339,0.13803895781945397,False,True,False,0.039490322294409186,5.410897059991429,True,-1.6923952360233399,7.142782618309178,True,expanding_residual_calibrated_gaussian
ar,exact,pre_third,T,2010:Q3:pre_third:exact,2010-12-21,2010:Q3,2.130880873602477,2.5585,-0.4276191263975231,22,6.870226404068823,2.6211116733303874,-1.8958450762506898,0.6403107053212539,0.5647975441974249,0.20811809778538426,0.7693369104597152,0.18692849340115192,False,True,False,-0.4902307997279105,4.751992546932865,True,-2.180464168919853,6.442225916124807,True,expanding_residual_calibrated_gaussian
ar,exact,pre_third,T,2010:Q4:pre_third:exact,2011-03-24,2010:Q4,2.52750948512025,3.1144,-0.5868905148797499,23,6.633178049701342,2.5754956900956643,-1.8909440075805355,0.6550042882733834,0.5901282053746332,0.16320560905169773,0.8169262544838787,0.1447946249112581,False,True,False,-0.04798620497541428,5.103005175215914,True,-1.708803941931488,6.763822912171988,True,expanding_residual_calibrated_gaussian
ar,exact,pre_third,T,2011:Q1:pre_third:exact,2011-06-23,2011:Q1,2.8308112747976866,1.9148,0.9160112747976864,24,6.428502903823929,2.5354492508870945,-1.9145715871419535,0.7231294242251608,0.3589444569956217,0.13210558797490832,0.8502745167563655,0.1159703801616532,False,True,False,0.2953620239105921,5.3662605256847815,True,-1.3396316214753439,7.001254171070717,True,expanding_residual_calibrated_gaussian
ar,exact,pre_third,T,2011:Q2:pre_third:exact,2011-09-28,2011:Q2,2.2180880300228853,1.3341,0.8839880300228853,25,6.161483150330903,2.4822335003643197,-1.89151017744431,0.7043662806532495,0.36087308190762424,0.1857718357040114,0.7918946889696203,0.16498900668809569,False,True,False,-0.2641454703414343,4.700321530387205,True,-1.8648227459918143,6.300998806037585,True,expanding_residual_calibrated_gaussian
ar,exact,pre_third,T,2011:Q3:pre_third:exact,2011-12-21,2011:Q3,1.799411010150387,1.8145,-0.0150889898496129,26,5.915461217459136,2.432172119209316,-1.8077425117881165,0.5684237532714208,0.5024749882451629,0.229699441872615,0.7446043351106371,0.20551908188822593,False,True,False,-0.6327611090589291,4.231583129359703,True,-2.201156121501305,5.79997814180208,True,expanding_residual_calibrated_gaussian
ar,exact,pre_third,T,2011:Q4:pre_third:exact,2012-03-28,2011:Q4,2.0136658066106703,2.9546,-0.9409341933893298,27,5.71144246818955,2.389862437084936,-1.8676816561274006,0.7044124696814751,0.6531057353693346,0.19972987424857253,0.7760437107810665,0.17715197953940298,False,True,False,-0.3761966304742659,4.4035282436956065,True,-1.9173080909435716,5.944639704164912,True,expanding_residual_calibrated_gaussian
ar,exact,pre_third,T,2012:Q1:pre_third:exact,2012-06-27,2012:Q1,2.597547085369067,1.8717,0.7258470853690671,28,5.602259299626747,2.3669092292749094,-1.827545078836812,0.6412465403720129,0.3795493686977585,0.13622397371193531,0.8444566037724699,0.1186145540681156,False,True,False,0.23063785609415755,4.964456314643977,True,-1.2956721450686817,6.490766315806816,True,expanding_residual_calibrated_gaussian
ar,exact,pre_third,T,2012:Q2:pre_third:exact,2012-09-26,2012:Q2,2.0099590829701603,1.2527,0.7572590829701604,29,5.402219320037915,2.324267480312435,-1.8154180658952233,0.640734835340278,0.3722857660203828,0.1935822491641464,0.7819283624383121,0.17084797980320843,False,True,False,-0.31430839734227467,4.334226563282595,True,-1.813120712027108,5.833038877967429,True,expanding_residual_calibrated_gaussian
ar,exact,pre_third,T,2012:Q3:pre_third:exact,2012-12-19,2012:Q3,1.7116709842555349,3.106,-1.3943290157444652,30,5.216074943552449,2.2838727949586968,-1.9311728502275658,0.8631627259800448,0.729238255559325,0.22679004181276685,0.7459789177834745,0.2012877371171114,False,True,False,-0.5722018107031619,3.9955437792142314,True,-2.0449654660280734,5.468307434539144,True,expanding_residual_calibrated_gaussian
ar,exact,pre_third,T,2012:Q4:pre_third:exact,2013-03-27,2012:Q4,2.6898587513900067,0.3785,2.311358751390007,31,5.182998210274212,2.276619909048107,-2.257005753721275,1.3953734425392685,0.15499120199013958,0.11869925781341444,0.8629489616405391,0.1021556820672218,False,True,False,0.41323884234189956,4.9664786604381135,False,-1.054847763197703,6.434565265977716,True,expanding_residual_calibrated_gaussian
ar,exact,pre_third,T,2013:Q1:pre_third:exact,2013-06-25,2013:Q1,1.3117896253807857,1.7768,-0.4650103746192144,32,5.104417390635635,2.2592957731637604,-1.7551728223371625,0.5660341678067278,0.5815346072951597,0.2807486957121508,0.6886741368933794,0.25170245958564497,False,True,False,-0.9475061477829747,3.571085398544546,True,-2.404421221463756,5.028000472225328,True,expanding_residual_calibrated_gaussian
ar,exact,pre_third,T,2013:Q2:pre_third:exact,2013-09-25,2013:Q2,2.0373714891158334,2.4817,-0.4443285108841666,33,4.984636970641511,2.232630056825696,-1.741922452725602,0.5569162653540014,0.5788747818279227,0.18074140631531171,0.7947354266603524,0.15814192680973957,False,True,False,-0.1952585677098626,4.270001545941529,True,-1.6349781574947841,5.709721135726451,True,expanding_residual_calibrated_gaussian
ar,exact,pre_third,T,2013:Q3:pre_third:exact,2013-12-19,2013:Q3,2.437610528172204,4.1341,-1.696489471827796,34,4.868511311322841,2.206470328674927,-2.005913393663535,1.0118171626500558,0.779014840593446,0.13463274459419342,0.8447356129057342,0.11596575590613063,False,True,False,0.23114019949727682,4.644080856847131,True,-1.191710194709557,6.0669312510539655,True,expanding_residual_calibrated_gaussian
ar,exact,pre_third,T,2013:Q4:pre_third:exact,2014-03-26,2013:Q4,3.240455181303333,2.6266,0.6138551813033333,35,4.877752973089781,2.2085635542337876,-1.749907068082306,0.5837616612136849,0.39052798756234475,0.07115770491885758,0.9156922903320175,0.059642755432747156,False,True,False,1.0318916270695455,5.449018735537121,True,-0.39230859123094675,6.873218953837613,True,expanding_residual_calibrated_gaussian
ar,exact,pre_third,T,2014:Q1:pre_third:exact,2014-06-24,2014:Q1,2.359220292971079,-2.9304,5.28962029297108,36,4.73851159831256,2.1768122561012375,-4.649212687580058,4.072301956992439,0.007549731874405899,0.13922764209922958,0.8393813519628346,0.11986270356657909,True,False,True,0.18240803686984153,4.536032549072317,False,-1.2213172416694587,5.939757827611617,False,expanding_residual_calibrated_gaussian
ar,exact,pre_third,T,2014:Q2:pre_third:exact,2014-09-25,2014:Q2,-0.4888036639939626,4.592,-5.080803663993962,37,5.214236272688846,2.2834702259256296,-4.220027649721709,3.81327237956686,0.9869605922761446,0.5847505536154985,0.38146030026076916,0.5503223376659817,False,True,False,-2.7722738899195924,1.794666561931667,False,-4.244777947143432,3.2671706191555066,False,expanding_residual_calibrated_gaussian
ar,exact,pre_third,T,2014:Q3:pre_third:exact,2014-12-22,2014:Q3,3.2628473501279034,4.9667,-1.703852649872097,38,5.945825448156998,2.4384063336853843,-2.0544136476709114,1.0263934910037762,0.7576479390769866,0.09043086207105723,0.8954575516637268,0.07778531504085573,False,True,False,0.8244410164425191,5.701253683813288,True,-0.7479741518159431,7.27366885207175,True,expanding_residual_calibrated_gaussian
ar,exact,pre_third,T,2014:Q4:pre_third:exact,2015-03-26,2014:Q4,3.561845690249283,2.2174,1.344445690249283,39,5.916821566893207,2.432451760445252,-1.9605836080969825,0.8575798732885647,0.29023025937246905,0.07155562934194783,0.9165266049130072,0.06098900129954154,False,True,False,1.129393929804031,5.9942974506945355,True,-0.43918141030358315,7.56287279080215,True,expanding_residual_calibrated_gaussian
ar,exact,pre_third,T,2015:Q1:pre_third:exact,2015-06-23,2015:Q1,2.284425488884823,-0.1717,2.456125488884823,40,5.784286534970491,2.405054372560107,-2.3179714166908605,1.484030493453003,0.15357157786754017,0.1710958656333271,0.8069427939240419,0.1508015288376305,True,False,False,-0.12062888367528402,4.68947986144493,False,-1.6715369188361664,6.240387896605812,True,expanding_residual_calibrated_gaussian
ar,exact,pre_third,T,2015:Q2:pre_third:exact,2015-09-24,2015:Q2,1.128026520700345,3.921,-2.792973479299655,41,5.733917419775528,2.394559963704298,-2.4723623970378297,1.7297275030115902,0.8782701388291372,0.3187922189660367,0.6508277501051167,0.28958363526475017,False,True,False,-1.2665334430039528,3.522586484404643,False,-2.8106741205514547,5.066727161952145,True,expanding_residual_calibrated_gaussian
ar,exact,pre_third,T,2015:Q3:pre_third:exact,2015-12-21,2015:Q3,2.842886466746326,1.9835,0.859386466746326,42,5.858308711465075,2.4203943297456876,-1.8659029923280066,0.6861020116735838,0.36127212670337283,0.12008638087367203,0.862566728766162,0.10434310084823488,False,True,False,0.4224921370006385,5.263280796492014,True,-1.1383079251886459,6.824080858681298,True,expanding_residual_calibrated_gaussian
ar,exact,pre_third,T,2015:Q4:pre_third:exact,2016-03-24,2015:Q4,2.0411892218267287,1.3865,0.6546892218267286,43,5.7225513551079645,2.3921854767362762,-1.8285958089293746,0.6300790694240175,0.39216593294838736,0.19675373943448832,0.7792516473025921,0.17441030613228825,False,True,False,-0.35099625490954756,4.433374698563005,True,-1.8936057359235718,5.975984179577029,True,expanding_residual_calibrated_gaussian
ar,exact,pre_third,T,2016:Q1:pre_third:exact,2016-06-27,2016:Q1,1.7649315128738194,1.0729,0.6920315128738195,44,5.590257374853904,2.3643725118631167,-1.8222853265989036,0.632776433520608,0.3848790200075374,0.22769198263614335,0.7459760208690822,0.20297033422043514,False,True,False,-0.5994409989892973,4.129304024736936,True,-2.1241151887285907,5.65397821447623,True,expanding_residual_calibrated_gaussian
ar,exact,pre_third,T,2016:Q2:pre_third:exact,2016-09-28,2016:Q2,1.613670563554876,1.4138,0.1998705635548761,45,5.464275620699517,2.337579008440039,-1.7717097166774336,0.5530940784335431,0.465930662501958,0.2449974250090095,0.7273302340870622,0.2189112143222538,False,True,False,-0.7239084448851631,3.951249571994915,True,-2.2313047467633482,5.458645873873101,True,expanding_residual_calibrated_gaussian
ar,exact,pre_third,T,2016:Q3:pre_third:exact,2016-12-21,2016:Q3,1.7196269574755236,3.5164,-1.7967730425244763,46,5.344523147877933,2.3118224732617194,-2.0590028918342265,1.070935557878104,0.7814827494756518,0.22848651729384878,0.7445151646485977,0.20316983150817283,False,True,False,-0.5921955157861958,4.0314494307372435,True,-2.0829826225369383,5.522236537487986,True,expanding_residual_calibrated_gaussian
ar,exact,pre_third,T,2016:Q4:pre_third:exact,2017-03-29,2016:Q4,2.551839472858481,2.0798,0.4720394728584804,47,5.33780591988151,2.3103692172208126,-1.7772178692959075,0.5782639865225631,0.41905428556616153,0.1346847109531909,0.8456490512050173,0.11681067351832192,False,True,False,0.24147025563766844,4.862208690079294,True,-1.2483797136842063,6.352058659401168,True,expanding_residual_calibrated_gaussian
ar,exact,pre_third,T,2017:Q1:pre_third:exact,2017-06-28,2017:Q1,1.9636013869282904,1.4231,0.5405013869282904,48,5.224285223742767,2.2856695351128007,-1.7735575009692688,0.5849038112874669,0.40653244532358845,0.1951447627007427,0.7798215618528841,0.1719228156817575,False,True,False,-0.32206814818451024,4.249270922041092,True,-1.7959904379144849,5.723193211771066,True,expanding_residual_calibrated_gaussian
ar,exact,pre_third,T,2017:Q2:pre_third:exact,2017-09-27,2017:Q2,1.693498302069496,3.0612,-1.367701697930504,49,5.11572178971513,2.26179614238665,-1.9179271101949125,0.8488158205590163,0.7273098813789239,0.22700682372769646,0.7454742011435165,0.2012496984855569,False,True,False,-0.5682978403171539,3.955294444456146,True,-2.0268252861600335,5.413821890299026,True,expanding_residual_calibrated_gaussian
ar,exact,pre_third,T,2017:Q3:pre_third:exact,2017-12-20,2017:Q3,2.275388604708631,3.1557,-0.8803113952913688,50,5.075710730642442,2.2529338052065446,-1.8075106942691963,0.6620050030979084,0.6520052921234664,0.15625557072673404,0.8215253670547115,0.1359407337374599,False,True,False,0.02245479950208651,4.528322409915176,True,-1.4303577360669353,5.9811349454841976,True,expanding_residual_calibrated_gaussian
ar,exact,pre_third,T,2017:Q4:pre_third:exact,2018-03-27,2017:Q4,2.366941686850571,2.8879,-0.5209583131494293,51,5.0058738117201065,2.237381016215188,-1.7513524368978852,0.5710395272772096,0.5920583055553701,0.14504885573339446,0.8336068987975572,0.1256293397235718,False,True,False,0.1295606706353829,4.604322703065758,True,-1.3132225925433518,6.0471059662444935,True,expanding_residual_calibrated_gaussian
ar,exact,pre_third,T,2018:Q1:pre_third:exact,2018-06-27,2018:Q1,2.203604891085651,1.9908,0.212804891085651,52,4.922841557529092,2.2187477453575233,-1.7204810625876503,0.5266466096403686,0.4617951679940885,0.1603123287760134,0.8167461035139368,0.13933409706513825,False,True,False,-0.015142854271872341,4.422352636443174,True,-1.4459103851560728,5.853120167327375,True,expanding_residual_calibrated_gaussian
ar,exact,pre_third,T,2018:Q2:pre_third:exact,2018-09-26,2018:Q2,1.8774277129816344,4.1585,-2.2810722870183655,53,4.828520241730177,2.1973894151310955,-2.245016570849852,1.381689024629267,0.850384259629541,0.19644444592687602,0.7773795062432313,0.17222552101063227,False,True,False,-0.3199617021494612,4.07481712811273,False,-1.7369562363215223,5.491811662284791,True,expanding_residual_calibrated_gaussian
ar,exact,pre_third,T,2018:Q3:pre_third:exact,2018-12-20,2018:Q3,2.7716594029852715,3.3561,-0.5844405970147286,54,4.865240078515218,2.2057289222647505,-1.7450997460073392,0.5768875417311444,0.6044817237516582,0.10445414885691286,0.8781725653156006,0.08895051338587662,False,True,False,0.565930480720521,4.977388325250022,True,-0.8564418148736652,6.399760620844209,True,expanding_residual_calibrated_gaussian
ar,exact,pre_third,T,2018:Q4:pre_third:exact,2019-04-25,2018:Q4,2.4688585738398445,2.1669,0.3019585738398445,55,4.789286324926349,2.1884438135182607,-1.7116482941455076,0.5280234759169049,0.445128636304068,0.12963159842339014,0.8500726847841477,0.11132278839781662,False,True,False,0.28041476032158386,4.657302387358105,True,-1.130811170205178,6.0685283178848675,True,expanding_residual_calibrated_gaussian
ar,exact,pre_third,T,2019:Q1:pre_third:exact,2019-06-26,2019:Q1,1.5816201299286885,3.1268,-1.5451798700713115,56,4.702215866698669,2.1684593301924453,-1.9468337295407818,0.928329563097931,0.7619441743135666,0.23288613805974037,0.7379843664036666,0.20565046413870178,False,True,False,-0.5868392002637568,3.7500794601211336,True,-1.9851780642351151,5.148418324092492,True,expanding_residual_calibrated_gaussian
ar,exact,pre_third,T,2019:Q2:pre_third:exact,2019-09-25,2019:Q2,2.387157609935242,2.0143,0.3728576099352421,57,4.676810713944079,2.162593515652925,-1.7051097279875347,0.5309699929687816,0.43155672185532057,0.1348312364684759,0.8440775924005357,0.11578551657295127,False,True,False,0.22456409428231705,4.549751125588167,True,-1.169992177908207,5.944307397778691,True,expanding_residual_calibrated_gaussian
ar,exact,pre_third,T,2019:Q3:pre_third:exact,2019-12-19,2019:Q3,1.8806240583404596,2.1024,-0.2217759416595401,58,4.595022446293632,2.1436003466816365,-1.6867772935106038,0.5100941450525788,0.5412008768732457,0.19015634975174958,0.783485609211776,0.16586845883514617,False,True,False,-0.2629762883411768,4.024224405022096,True,-1.6452847466332634,5.406532863314183,True,expanding_residual_calibrated_gaussian
ar,exact,pre_third,T,2019:Q4:pre_third:exact,2020-03-25,2019:Q4,1.9799218273403056,2.1275,-0.1475781726596943,59,4.5196013036852385,2.1259353949932813,-1.6755598536230685,0.5009057797958966,0.5276715472413653,0.1758445556727336,0.7987716472171563,0.15258861147511632,False,True,False,-0.14601356765297568,4.1058572223335865,True,-1.5169307177789038,5.476774372459515,True,expanding_residual_calibrated_gaussian
ar,exact,pre_third,T,2020:Q1:pre_third:exact,2020-06-24,2020:Q1,2.001171390441217,-4.9937,6.994871390441217,60,4.445552188892851,2.108447815074599,-7.167944381414895,5.805809106515041,0.0004540607477497142,0.1712796228695449,0.803520678235851,0.14824797535289844,True,False,True,-0.10727642463338194,4.109619205515816,False,-1.466916645422144,5.469259426304578,False,expanding_residual_calibrated_gaussian
ar,exact,pre_third,T,2020:Q2:pre_third:exact,2020-09-29,2020:Q2,0.7796844146396579,-31.3827,32.16238441463966,61,5.120045017289167,2.262751647284599,-102.75210962637387,30.88576350508616,3.759479136975063e-46,0.3652074889080358,0.601096240859901,0.33252135908323394,True,False,True,-1.4830672326449412,3.0424360619242568,False,-2.942210839286833,4.501579668566149,False,expanding_residual_calibrated_gaussian
ar,exact,pre_third,T,2020:Q3:pre_third:exact,2020-12-21,2020:Q3,-37.61022291220122,33.441,-71.05122291220123,62,21.361029981295115,4.62179943109771,-120.61528586787446,68.44365181592894,1.0,0.9999999999999998,1.1102230246251565e-16,0.9999999999999997,False,True,False,-42.23202234329894,-32.98842348110351,False,-45.21240646948454,-30.008039354917905,False,expanding_residual_calibrated_gaussian
ar,exact,pre_third,T,2020:Q4:pre_third:exact,2021-03-24,2020:Q4,-15.931370674568573,4.3251,-20.256470674568572,63,103.1023624833892,10.153933350351931,-5.226689123403295,14.702507929219502,0.9769751959235138,0.9416743007565714,0.05606610758470032,0.9393437908130673,False,True,False,-26.085304024920504,-5.777437324216642,False,-32.63310477371846,0.7703634245813156,False,expanding_residual_calibrated_gaussian
ar,exact,pre_third,T,2021:Q1:pre_third:exact,2021-06-23,2021:Q1,1.364151358395686,6.361,-4.996848641604314,64,107.70100845131222,10.377909637846738,-3.3745338034790646,3.366969469608924,0.6849154783957786,0.44771061631250075,0.5446580313981781,0.4400985708498813,False,True,False,-9.013758279451052,11.742060996242424,True,-15.70599094959116,18.43429366638253,True,expanding_residual_calibrated_gaussian
ar,exact,pre_third,T,2021:Q2:pre_third:exact,2021-09-29,2021:Q2,0.8851998819162432,6.7251,-5.839900118083757,65,106.3166413922231,10.310996139666774,-3.412540297349859,3.6949874692123763,0.7144308761028999,0.4657927961753753,0.526491537919942,0.4580899674130376,False,True,False,-9.42579625775053,11.196196021583017,True,-16.074879515897276,17.845279279729763,True,expanding_residual_calibrated_gaussian
ar,exact,pre_third,T,2021:Q3:pre_third:exact,2021-12-21,2021:Q3,0.9519591564307236,2.3038,-1.3518408435692764,66,105.0875255720507,10.251220686925567,-3.2550303307023785,2.466674895757796,0.5524569183432242,0.4630061982761527,0.5292374443164951,0.4552638802458735,False,True,False,-9.299261530494844,11.20317984335629,True,-15.909798371138757,17.813716684000205,True,expanding_residual_calibrated_gaussian
ar,exact,pre_third,T,2021:Q4:pre_third:exact,2022-03-29,2021:Q4,2.322745551993055,6.8946,-4.5718544480069445,67,103.50090410652389,10.17353940900235,-3.339702960878027,3.183624255079332,0.6734236786366881,0.40970167916688593,0.5826406649877232,0.4020783155025398,False,True,False,-7.850793857009295,12.496284960995405,True,-14.411237643838199,19.05672874782431,True,expanding_residual_calibrated_gaussian
ar,exact,pre_third,T,2022:Q1:pre_third:exact,2022-06-28,2022:Q1,0.9288542605286438,-1.574,2.502854260528644,68,102.17117494989486,10.107975808731185,-3.262919135513548,2.6081666706559146,0.40221738321720246,0.46339144640324087,0.5287415611721424,0.4555387445303833,True,False,True,-9.179121548202541,11.036830069259828,True,-15.697286409600585,17.554994930657873,True,expanding_residual_calibrated_gaussian
ar,exact,pre_third,T,2022:Q2:pre_third:exact,2022-09-28,2022:Q2,3.600216387562881,-0.5769,4.177116387562881,69,100.82713464976058,10.041271565382573,-3.3121681109127383,3.0299935698935903,0.3387069176003632,0.35996891613267157,0.6325535315501717,0.35254457176515247,True,False,True,-6.441055177819692,13.641487952945454,True,-12.91620556596133,20.116638341087093,True,expanding_residual_calibrated_gaussian
ar,exact,pre_third,T,2022:Q3:pre_third:exact,2022-12-21,2022:Q3,3.1684042395367262,3.2435,-0.0750957604632738,70,99.71352645512896,9.985666049649815,-3.220117480745114,2.333825300676107,0.5030001595677285,0.37550979693793934,0.616868481597397,0.36793635642964273,False,True,False,-6.817261810113089,13.154070289186542,True,-13.256554779755952,19.593363258829406,True,expanding_residual_calibrated_gaussian
ar,exact,pre_third,T,2022:Q4:pre_third:exact,2023-03-29,2022:Q4,1.9429568923877552,2.5735,-0.6305431076122447,71,98.29429608241374,9.914347990786572,-3.2149439526759775,2.332926298109554,0.5253552556588247,0.4223151611148959,0.569775040316714,0.4144365699325812,False,True,False,-7.971391098398817,11.857304883174328,True,-14.36469435911658,18.25060814389209,True,expanding_residual_calibrated_gaussian
ar,exact,pre_third,T,2023:Q1:pre_third:exact,2023-06-28,2023:Q1,2.1697382453410707,2.0027,0.1670382453410708,72,96.9098992851209,9.844282568329746,-3.205973327249311,2.3016900909541618,0.4932310536109729,0.41277751411472363,0.5792947339966077,0.4048851809045788,False,True,False,-7.674544322988675,12.014020813670816,True,-14.022665641911265,18.362142132593405,True,expanding_residual_calibrated_gaussian
ar,exact,pre_third,T,2023:Q2:pre_third:exact,2023-09-27,2023:Q2,2.3687155550722427,2.0617,0.3070155550722426,73,95.57367126606238,9.776178766065112,-3.1993803415459108,2.288490022446833,0.48747349461551326,0.4042759396868222,0.5877795083501973,0.3963706687677188,False,True,False,-7.407463210992869,12.144894321137354,True,-13.711667546015924,18.44909865616041,True,expanding_residual_calibrated_gaussian
ar,exact,pre_third,T,2023:Q3:pre_third:exact,2023-12-20,2023:Q3,2.3598874072442912,4.8609,-2.5010125927557088,74,94.2772040997136,9.70964490080423,-3.2252320325090365,2.5246868221833343,0.6016345564607629,0.403984998947023,0.5880172778781945,0.3960272130988421,False,True,False,-7.349757493559939,12.069532308048522,True,-13.611057224254413,18.330832038742997,True,expanding_residual_calibrated_gaussian
ar,exact,pre_third,T,2023:Q4:pre_third:exact,2024-03-27,2023:Q4,1.516389112476817,3.3967,-1.880310887523183,75,93.04879127200257,9.646180138894493,-3.2044989980204375,2.400025038611913,0.5772753546823572,0.4375432222125871,0.554274102325071,0.42938717251842984,False,True,False,-8.129791026417676,11.16256925137131,True,-14.350165275211046,17.38294350016468,True,expanding_residual_calibrated_gaussian
ar,exact,pre_third,T,2024:Q1:pre_third:exact,2024-06-26,2024:Q1,2.027247167655839,1.4095,0.617747167655839,76,91.82721568553862,9.582651808635156,-3.1809707719603657,2.2552992427051706,0.47429992443809105,0.41622754676714036,0.5756129543081359,0.4081039941770157,False,True,False,-7.555404640979317,11.609898976290994,True,-13.734812415590781,17.78930675090246,True,expanding_residual_calibrated_gaussian
ar,exact,pre_third,T,2024:Q2:pre_third:exact,2024-09-25,2024:Q2,2.665899941618579,2.9895,-0.3236000583814209,77,90.64124533066398,9.520569590663364,-3.17297085657544,2.2292968482830995,0.5135572657427184,0.3897330931416905,0.6021853141893965,0.38169889763153975,False,True,False,-6.8546696490447845,12.186469532281944,True,-12.994043480227948,18.325843363465104,True,expanding_residual_calibrated_gaussian
ar,exact,pre_third,T,2024:Q3:pre_third:exact,2024-12-18,2024:Q3,2.167036711031854,3.073,-0.9059632889681466,78,89.46567037911794,9.45862941335149,-3.1704530872908294,2.2450258301882844,0.5381530108305921,0.4093929380159369,0.5823707312694286,0.4011964093984483,False,True,False,-7.291592702319637,11.625666124383343,True,-13.39102418550922,17.725097607572927,True,expanding_residual_calibrated_gaussian
ar,exact,pre_third,T,2024:Q4:pre_third:exact,2025-03-26,2024:Q4,2.197871738222271,2.4495,-0.251628261777729,79,88.31937580723239,9.39783889025729,-3.159776744275679,2.1989154096228507,0.5106804511716454,0.4075429867867779,0.5841759984644734,0.39930308353035715,False,True,False,-7.199967152035019,11.595710628479562,True,-13.260197645923032,17.655941122367572,True,expanding_residual_calibrated_gaussian
ar,pseudo,pre_advance,A,2008:Q1:pre_advance:pseudo,2008-04-30,2008:Q1,2.7319890136779006,0.5974,2.1345890136779007,12,2.0687308677458356,1.4383083354224975,-2.38367806755997,1.410518560988909,0.0688916011365022,0.028752930150711845,0.9608294663954541,0.020750065178228756,False,True,False,1.2936806782554031,4.170297349100398,False,0.36618233148367096,5.09779569587213,True,expanding_residual_calibrated_gaussian
ar,pseudo,pre_advance,A,2008:Q2:pre_advance:pseudo,2008-07-31,2008:Q2,2.5461698499277396,1.8886,0.6575698499277396,13,2.113968881875824,1.4539494082930893,-1.3954937518065702,0.4564426471394915,0.3255391869082488,0.03995492468465083,0.946698644951209,0.029461611759889556,False,True,False,1.0922204416346504,4.000119258220829,True,0.15463589229290475,4.937703807562574,True,expanding_residual_calibrated_gaussian
ar,pseudo,pre_advance,A,2008:Q3:pre_advance:pseudo,2008-10-31,2008:Q3,2.804543912975318,-0.2522,3.0567439129753176,14,1.9517643725746228,1.3970556082613972,-3.6469558712705084,2.282668303461008,0.014335159828788692,0.022349946912978105,0.9688608667468467,0.015752871419775008,True,False,True,1.4074883047139206,4.201599521236715,False,0.5065919286736635,5.102495897276972,False,expanding_residual_calibrated_gaussian
ar,pseudo,pre_advance,A,2008:Q4:pre_advance:pseudo,2009-01-31,2008:Q4,2.0768982144343724,-3.8037,5.8805982144343725,15,2.2188800212645003,1.4895905549057769,-9.109982685848738,5.040213535433064,3.943714120719904e-05,0.08161735516712433,0.8961670280526818,0.06318930436967217,True,False,True,0.5873076595285955,3.5664887693401495,False,-0.3732602124750506,4.527056641343796,False,expanding_residual_calibrated_gaussian
ar,pseudo,pre_advance,A,2009:Q1:pre_advance:pseudo,2009-04-30,2009:Q1,0.2564005347388802,-6.1437,6.40010053473888,16,3.7148779337268585,1.9274018609845893,-7.088251792003892,5.313134095802601,0.00044914598284607056,0.4470851833109581,0.5116723697521071,0.4064076313468002,True,False,True,-1.671001326245709,2.1838023957234696,False,-2.9138934068946387,3.4266944763723988,False,expanding_residual_calibrated_gaussian
ar,pseudo,pre_advance,A,2009:Q2:pre_advance:pseudo,2009-07-31,2009:Q2,-2.9468790082839846,-1.0173,-1.9295790082839843,17,5.152296580264016,2.2698670842725606,-2.0999817068614077,1.148110145854253,0.8023609681522967,0.9029011001901168,0.08281674892881363,0.8868892755647139,True,False,True,-5.216746092556545,-0.6770119240114241,True,-6.680478114547469,0.7867200979794995,True,expanding_residual_calibrated_gaussian
ar,pseudo,pre_advance,A,2009:Q3:pre_advance:pseudo,2009-10-31,2009:Q3,0.4775747904211116,3.5339,-3.0563252095788886,18,5.459909903509521,2.3366450101608334,-2.623083059187815,1.9471875637235605,0.9045628762298625,0.4190263924036111,0.5472799361175475,0.3859166743336322,False,True,False,-1.8590702197397218,2.814219800581945,False,-3.3658642294399943,4.321013810282218,True,expanding_residual_calibrated_gaussian
ar,pseudo,pre_advance,A,2009:Q4:pre_advance:pseudo,2010-01-31,2009:Q4,3.019708487597444,5.7309,-2.7111915124025563,19,6.110836839488192,2.4720106875756405,-2.42540679603631,1.6579469814949794,0.8636258733253821,0.11093709939078904,0.8729929990068626,0.09637866239745849,False,True,False,0.5476978000218033,5.491719175173085,False,-1.0463872577241506,7.085804232919038,True,expanding_residual_calibrated_gaussian
ar,pseudo,pre_advance,A,2010:Q1:pre_advance:pseudo,2010-04-30,2010:Q1,4.210257744416058,3.2387,0.971557744416058,20,6.469573485209306,2.5435356268802893,-1.9254446826152467,0.7406877168755475,0.35124130677813054,0.04893409244402717,0.9425616108804455,0.04146717016328649,False,True,False,1.6667221175357687,6.753793371296347,True,0.026513943261727846,8.394001545570388,True,expanding_residual_calibrated_gaussian
ar,pseudo,pre_advance,A,2010:Q2:pre_advance:pseudo,2010-07-31,2010:Q2,2.9341587511800564,2.3866,0.5475587511800564,21,6.147610294180938,2.4794374955180736,-1.8513553840616588,0.6274782072112756,0.41260854383721257,0.11832593425996431,0.8649285396698534,0.10310417441311164,False,True,False,0.45472125566198285,5.41359624669813,True,-1.144153006122321,7.0124705084824335,True,expanding_residual_calibrated_gaussian
ar,pseudo,pre_advance,A,2010:Q3:pre_advance:pseudo,2010-10-31,2010:Q3,2.4487355063388465,2.0097,0.4390355063388464,22,5.857801755654434,2.420289601608542,-1.8192783395000707,0.597294502355204,0.42802762459396837,0.15582805987923623,0.8235861248474392,0.13689245766694205,False,True,False,0.028445904730304505,4.8690251079473885,True,-1.5322866231398975,6.429757635817591,True,expanding_residual_calibrated_gaussian
ar,pseudo,pre_advance,A,2010:Q4:pre_advance:pseudo,2011-01-31,2010:Q4,2.1879521466825325,3.173,-0.9850478533174676,23,5.596896782237384,2.365776147955969,-1.8667283670866537,0.714171949396128,0.661431851719853,0.1775259189021783,0.7996287678436839,0.15639773114300354,False,True,False,-0.17782400127343667,4.553728294638502,True,-1.703403330838126,6.0793076242031905,True,expanding_residual_calibrated_gaussian
ar,pseudo,pre_advance,A,2011:Q1:pre_advance:pseudo,2011-04-30,2011:Q1,2.799159520319973,1.7482,1.0509595203199729,24,5.482604084027366,2.341496120865325,-1.8704577592862432,0.7322856497252664,0.3267731706946816,0.11595413070220802,0.8665095802610545,0.10011911193876678,False,True,False,0.45766339945464773,5.1406556411852975,True,-1.05225886657816,6.650577907218105,True,expanding_residual_calibrated_gaussian
ar,pseudo,pre_advance,A,2011:Q2:pre_advance:pseudo,2011-07-31,2011:Q2,2.0670081015346065,1.2822,0.7848081015346065,25,5.259046731505477,2.2932611564114276,-1.8074719216072166,0.6420378590270264,0.36609131093027125,0.18370377560985185,0.7922141843985894,0.16144116916070822,False,True,False,-0.22625305487682112,4.360269257946034,True,-1.7050708291356576,5.839087032204871,True,expanding_residual_calibrated_gaussian
ar,pseudo,pre_advance,A,2011:Q3:pre_advance:pseudo,2011-10-31,2011:Q3,1.7519927287947346,2.4637,-0.7117072712052652,26,5.048869659730374,2.246968993940587,-1.7786831671599224,0.6142932921868975,0.6242799430807875,0.21777967760425898,0.7551245280931445,0.19249944062838922,False,True,False,-0.49497626514585247,3.998961722735322,True,-1.9439423705359407,5.44792782812541,True,expanding_residual_calibrated_gaussian
ar,pseudo,pre_advance,A,2011:Q4:pre_advance:pseudo,2012-01-31,2011:Q4,2.334889125571628,2.7523,-0.4174108744283717,27,4.9304051226601775,2.2204515582782203,-1.7343182328896798,0.550120260062239,0.5745556694507703,0.14650578984078366,0.8318410941916955,0.12680813686424003,False,True,False,0.11443756729340793,4.555340683849849,True,-1.3174286735323508,5.987206924675608,True,expanding_residual_calibrated_gaussian
ar,pseudo,pre_advance,A,2012:Q1:pre_advance:pseudo,2012-04-30,2012:Q1,2.448956893792074,2.2043,0.2446568937920741,28,4.78965631797567,2.1885283452529625,-1.7084164316475206,0.5223479400657071,0.4554947210091056,0.1315706859484864,0.8479336935557109,0.11306603451059627,False,True,False,0.26042854853911157,4.637485239045036,True,-1.1508518925833648,6.048765680167513,True,expanding_residual_calibrated_gaussian
ar,pseudo,pre_advance,A,2012:Q2:pre_advance:pseudo,2012-07-31,2012:Q2,2.1498979572008614,1.5369,0.6129979572008615,29,4.623625822286066,2.150261803196547,-1.7251636153753525,0.5717537242498593,0.38779119055760125,0.15869620128386477,0.8177487026544941,0.13723143068866958,False,True,False,-0.0003638459956856188,4.300159760397408,True,-1.3869679686821916,5.6867638830839145,True,expanding_residual_calibrated_gaussian
ar,pseudo,pre_advance,A,2012:Q3:pre_advance:pseudo,2012-10-31,2012:Q3,1.8404114779885057,2.0138,-0.1733885220114941,30,4.464190453644868,2.112863093918976,-1.6703496702243807,0.49943879292067456,0.5327018122613232,0.19186315775619905,0.7812414226207836,0.16709483955724455,False,True,False,-0.2724516159304704,3.9532745719074818,True,-1.634939045296031,5.315762001273042,True,expanding_residual_calibrated_gaussian
ar,pseudo,pre_advance,A,2012:Q4:pre_advance:pseudo,2013-01-31,2012:Q4,2.089820549979912,-0.1435,2.233320549979912,31,4.335350717354818,2.0821505030508285,-2.2275782183589863,1.3601672604342683,0.14172467422286908,0.15776554472659463,0.8179629134796333,0.13572309201343072,True,False,False,0.007670046929083352,4.17197105303074,False,-1.335012256822076,5.514653356781899,True,expanding_residual_calibrated_gaussian
ar,pseudo,pre_advance,A,2013:Q1:pre_advance:pseudo,2013-04-30,2013:Q1,1.015657371890139,2.5024,-1.4867426281098612,32,4.280099409859869,2.0688401122029387,-1.9041453781848772,0.8922795337941694,0.7638173341301451,0.3117376890721202,0.6533048241151596,0.2783992823754733,False,True,False,-1.0531827403127998,3.0844974840930774,True,-2.3872817902495553,4.418596534029834,True,expanding_residual_calibrated_gaussian
ar,pseudo,pre_advance,A,2013:Q2:pre_advance:pseudo,2013-07-31,2013:Q2,2.322549914965965,1.6737,0.6488499149659652,33,4.283329712882863,2.069620668838341,-1.6954486074849873,0.5641553246119138,0.376946036159781,0.13088648803838554,0.8474538733625779,0.1114512287564956,False,True,False,0.252929246127624,4.392170583804306,True,-1.0816731485865119,5.726772978518442,True,expanding_residual_calibrated_gaussian
ar,pseudo,pre_advance,A,2013:Q3:pre_advance:pseudo,2013-10-31,2013:Q3,1.973622837344077,2.8463,-0.8726771626559229,34,4.153692402772873,2.038060941869225,-1.7226106764461342,0.6231214047294693,0.6657435747404172,0.1664266528393723,0.8079181421470516,0.14309542068819692,False,True,False,-0.06443810452514809,4.0116837792133015,True,-1.3786890948376516,5.325934769525805,True,expanding_residual_calibrated_gaussian
ar,pseudo,pre_advance,A,2013:Q4:pre_advance:pseudo,2014-01-31,2013:Q4,2.526725205379879,3.2279,-0.7011747946201208,35,4.0915810688463115,2.022765697960669,-1.683484474716785,0.5687162393081104,0.6355697159484088,0.1058062437766708,0.8749835064660656,0.0888262461754228,False,True,False,0.5039595074192103,4.549490903340548,True,-0.8004282893837531,5.853878700143511,True,expanding_residual_calibrated_gaussian
ar,pseudo,pre_advance,A,2014:Q1:pre_advance:pseudo,2014-04-30,2014:Q1,2.762877953985167,0.1079,2.654977953985167,36,4.017175833906937,2.0042893588269477,-2.491574300485535,1.6973234080234572,0.09264395858083822,0.08402717225086398,0.8994980382332918,0.06966795406416297,False,False,False,0.7585885951582192,4.767167312812115,False,-0.5338846673415789,6.059640575311913,True,expanding_residual_calibrated_gaussian
ar,pseudo,pre_advance,A,2014:Q2:pre_advance:pseudo,2014-07-31,2014:Q2,1.0963036479406214,3.9481,-2.8517963520593788,37,4.030941288198136,2.007720420825105,-2.624727985280543,1.8598041899467634,0.9222565616957346,0.29251785325293694,0.6723561308996805,0.2592499659056243,False,True,False,-0.9114167728844835,3.1040240687657263,False,-2.2061025681580886,4.398709864039331,True,expanding_residual_calibrated_gaussian
ar,pseudo,pre_advance,A,2014:Q3:pre_advance:pseudo,2014-10-31,2014:Q3,3.0618715488271215,3.549,-0.4871284511728784,38,4.228243464759819,2.0562693074497367,-1.6678924619764186,0.5263637672712593,0.5936324853010413,0.06823814268020757,0.9180052688143663,0.05633499957230619,False,True,False,1.0056022413773849,5.118140856276858,True,-0.32039047952056965,6.444133577174813,True,expanding_residual_calibrated_gaussian
ar,pseudo,pre_advance,A,2014:Q4:pre_advance:pseudo,2015-01-31,2014:Q4,2.9326451519940946,2.6422,0.2904451519940947,39,4.140453194591819,2.034810358385228,-1.639528253528128,0.49203613230520615,0.4432484762682125,0.07475878778330952,0.9103556456574438,0.061837865842852786,False,True,False,0.8978347936088666,4.967455510379322,True,-0.4143200461542724,6.279610350142462,True,expanding_residual_calibrated_gaussian
ar,pseudo,pre_advance,A,2015:Q1:pre_advance:pseudo,2015-04-30,2015:Q1,2.46464677385953,0.2482,2.2164467738595297,40,4.03488686799011,2.008702782392186,-2.2251976828893936,1.3569700474943525,0.13492198088958401,0.10991424626522933,0.8702170092722712,0.09232861963194511,False,True,False,0.45594399146734377,4.473349556251716,False,-0.8393752832257713,5.768668830944831,True,expanding_residual_calibrated_gaussian
ar,pseudo,pre_advance,A,2015:Q2:pre_advance:pseudo,2015-07-31,2015:Q2,1.2030703538987095,2.3219,-1.1188296461012903,41,4.0108647127594965,2.002714336284508,-1.7694905780629027,0.7110914364759658,0.7118019589396304,0.2740132815001738,0.6917635647553904,0.24178121891469212,False,True,False,-0.7996439823857984,3.2057846901832177,True,-2.091101585886574,4.497242293683993,True,expanding_residual_calibrated_gaussian
ar,pseudo,pre_advance,A,2015:Q3:pre_advance:pseudo,2015-10-31,2015:Q3,2.164634655212163,1.4923,0.6723346552121632,42,3.974258624357224,1.9935542692280097,-1.6657278592321783,0.5554951205723657,0.36796262131301366,0.13878003296437372,0.8378091240111033,0.11778348889208581,False,True,False,0.17108038598415343,4.158188924440173,True,-1.1144703150521202,5.4437396254764465,True,expanding_residual_calibrated_gaussian
ar,pseudo,pre_advance,A,2015:Q4:pre_advance:pseudo,2016-01-31,2015:Q4,1.747271446569462,0.6914,1.055871446569462,43,3.8808195092399105,1.9699795707671464,-1.7405994746394475,0.68089298738564,0.2959858713922407,0.18755317449056688,0.7838978221673751,0.16146054673298574,False,True,False,-0.22270812419768427,3.7172510173366087,True,-1.493056595427183,4.987599488566107,True,expanding_residual_calibrated_gaussian
ar,pseudo,pre_advance,A,2016:Q1:pre_advance:pseudo,2016-04-30,2016:Q1,1.3101484954956142,0.5378,0.7723484954956142,44,3.7988624809340426,1.9490670796393956,-1.6648026362828363,0.5760125806703194,0.34595450172286063,0.2507305411667305,0.7155185047361986,0.2192272080978966,False,True,False,-0.6389185841437814,3.25921557513501,True,-1.8957815596209597,4.516078550612188,True,expanding_residual_calibrated_gaussian
ar,pseudo,pre_advance,A,2016:Q2:pre_advance:pseudo,2016-07-31,2016:Q2,1.2102208837316333,1.2182,-0.0079791162683666,45,3.7146173158410063,1.9273342511980132,-1.5750849340640698,0.4504215123757027,0.5016516064842903,0.2650266173204859,0.6999144509989892,0.23217736672492267,False,True,False,-0.7171133674663799,3.1375551349296464,True,-1.9599618496992184,4.380403617162485,True,expanding_residual_calibrated_gaussian
ar,pseudo,pre_advance,A,2016:Q3:pre_advance:pseudo,2016-10-31,2016:Q3,1.5281283001420678,2.9014,-1.3732716998579324,46,3.6370847867149236,1.9071142563346652,-1.8237861921428988,0.8239808285723106,0.7642616237680867,0.21148542230913125,0.756913105316961,0.18242868734113565,False,True,False,-0.37898595619259745,3.435242556476733,True,-1.608795501400866,4.665052101685001,True,expanding_residual_calibrated_gaussian
ar,pseudo,pre_advance,A,2016:Q4:pre_advance:pseudo,2017-01-31,2016:Q4,2.366732744435772,1.8735,0.493232744435772,47,3.6296710288417082,1.905169553830238,-1.5970220203451422,0.4958884140911243,0.3978593688109755,0.1070686966470312,0.8722917331989138,0.08895045089811993,False,True,False,0.46156319060553397,4.27190229826601,True,-0.766992306139413,5.500457795010957,True,expanding_residual_calibrated_gaussian
ar,pseudo,pre_advance,A,2017:Q1:pre_advance:pseudo,2017-04-30,2017:Q1,1.847500729837228,0.6941,1.153400729837228,48,3.552547294555475,1.8848202287102807,-1.740007508399157,0.7135835977081478,0.27028805392460264,0.16349370990554568,0.8089651208533327,0.1386707365329744,False,True,False,-0.03731949887305275,3.7323209585475086,True,-1.2527526595083807,4.947754119182837,True,expanding_residual_calibrated_gaussian
ar,pseudo,pre_advance,A,2017:Q2:pre_advance:pseudo,2017-07-31,2017:Q2,1.2486664470815905,2.5683,-1.3196335529184091,49,3.489385193968623,1.8679896129177547,-1.7933341982235784,0.7937249699235089,0.7600445490431769,0.25192169262491143,0.7127333763681153,0.21901572921281967,False,True,False,-0.6193231658361642,3.116656059999345,True,-1.8239030428338547,4.321235936997036,True,expanding_residual_calibrated_gaussian
ar,pseudo,pre_advance,A,2017:Q3:pre_advance:pseudo,2017-10-31,2017:Q3,2.11358099391883,2.9875,-0.8739190060811697,50,3.4800404075809417,1.8654866409548319,-1.6521911698440208,0.5963600029583956,0.6802746822116097,0.12860885668157265,0.8475026186172602,0.10745027198844025,False,True,False,0.2480943529639983,3.9790676348736618,True,-0.9548714734852437,5.182033461322904,True,expanding_residual_calibrated_gaussian
ar,pseudo,pre_advance,A,2017:Q4:pre_advance:pseudo,2018-01-31,2017:Q4,2.3798472755885087,2.555,-0.1751527244114914,51,3.442459964099629,1.855386742460889,-1.5414875885396404,0.44018610497609434,0.5376051945675725,0.09980401191598463,0.8799776114964974,0.08219410970121484,False,True,False,0.5244605331276198,4.235234018049398,True,-0.6719923371459617,5.431686888322979,True,expanding_residual_calibrated_gaussian
