haminh109/Revision-Aware-DFM/outputs/full_state_space_release_revision_dfm/frozen/q2_manuscript_best_v1/initialization_audit/seed_4/forecast_results.csv
model_id,timing_mode,forecast_origin,forecast_origin_date,checkpoint_id,target_id,target_quarter,forecast_value,forecast_variance,forecast_sd,density_source,realized_value,forecast_error,revision_target_flag,converged,n_iter,loglikelihood,llf_initial,llf_final,llf_last_improvement,llf_relative_last_improvement,llf_history_length,n_indicators,initialization_seed,initialization_jitter
ar,exact,2019:Q1:pre_advance:exact,2019-04-25,pre_advance,A,2019:Q1,2.544004133182678,,,not_available,3.1705,-0.6264958668173222,False,True,0,,,,,,,14,4,0.02
no_revision,exact,2019:Q1:pre_advance:exact,2019-04-25,pre_advance,A,2019:Q1,2.494294354572081,,,not_available,3.1705,-0.676205645427919,False,True,0,,,,,,,14,4,0.02
bridge,exact,2019:Q1:pre_advance:exact,2019-04-25,pre_advance,A,2019:Q1,2.463317526102582,,,not_available,3.1705,-0.7071824738974182,False,True,0,,,,,,,14,4,0.02
midas_umidas,exact,2019:Q1:pre_advance:exact,2019-04-25,pre_advance,A,2019:Q1,4.853686202530027,,,not_available,3.1705,1.683186202530027,False,True,0,,,,,,,14,4,0.02
monthly_mixed_frequency_kalman_em,exact,2019:Q1:pre_advance:exact,2019-04-25,pre_advance,A,2019:Q1,1.6706465197439566,3.1904042636923116,1.7861702784707598,model_implied_state_space,3.1705,-1.4998534802560435,False,True,54,-6285.22325928218,-7334.434583170255,-6285.22325928218,0.6243558635778754,9.931143584166545e-05,54.0,14,4,0.02
standard_dfm,exact,2019:Q1:pre_advance:exact,2019-04-25,pre_advance,A,2019:Q1,1.8414926723620524,,,not_available,3.1705,-1.3290073276379477,False,True,0,,,,,,,14,4,0.02
release_dfm,exact,2019:Q1:pre_advance:exact,2019-04-25,pre_advance,A,2019:Q1,1.8414926723620524,,,not_available,3.1705,-1.3290073276379477,False,True,0,,,,,,,14,4,0.02
revision_dfm_kalman_em,exact,2019:Q1:pre_advance:exact,2019-04-25,pre_advance,A,2019:Q1,1.4809705028924882,3.230061217867654,1.7972371067468127,model_implied_state_space,3.1705,-1.6895294971075119,False,True,21,-1989.6230924931576,-2968.6048694688316,-1989.6230924931576,0.1796618721100458,9.024594310817489e-05,21.0,14,4,0.02
indicator_revision_only_dfm_kalman_em,exact,2019:Q1:pre_advance:exact,2019-04-25,pre_advance,A,2019:Q1,1.4692367530195019,3.7108897021471363,1.9263669697508667,model_implied_state_space,3.1705,-1.7012632469804982,False,True,25,-3681.9151863561087,-4847.571018529528,-3681.9151863561087,0.34278418148005585,9.306548284751961e-05,25.0,14,4,0.02
joint_indicator_revision_dfm_full_kalman_em,exact,2019:Q1:pre_advance:exact,2019-04-25,pre_advance,A,2019:Q1,1.5264902496619424,2.655747463752297,1.629646422925015,model_implied_state_space,3.1705,-1.6440097503380577,False,True,26,-3646.5798163231757,-4861.75939042616,-3646.5798163231757,0.3433998335117394,9.413570767904823e-05,26.0,14,4,0.02
ar,exact,2019:Q1:pre_second:exact,2019-05-29,pre_second,S,2019:Q1,3.0088930533858775,,,not_available,3.0658,-0.05690694661412232,False,True,0,,,,,,,14,4,0.02
no_revision,exact,2019:Q1:pre_second:exact,2019-05-29,pre_second,S,2019:Q1,3.1705,,,not_available,3.0658,0.10470000000000024,False,True,0,,,,,,,14,4,0.02
bridge,exact,2019:Q1:pre_second:exact,2019-05-29,pre_second,S,2019:Q1,1.421798536985786,,,not_available,3.0658,-1.644001463014214,False,True,0,,,,,,,14,4,0.02
midas_umidas,exact,2019:Q1:pre_second:exact,2019-05-29,pre_second,S,2019:Q1,3.776783996287483,,,not_available,3.0658,0.7109839962874833,False,True,0,,,,,,,14,4,0.02
monthly_mixed_frequency_kalman_em,exact,2019:Q1:pre_second:exact,2019-05-29,pre_second,S,2019:Q1,3.3924495359859783,0.35099787842523383,0.5924507392393344,model_implied_state_space,3.0658,0.32664953598597846,False,True,50,-6312.701696013429,-7328.980019682591,-6312.701696013429,0.6195132228340299,9.811240231615679e-05,50.0,14,4,0.02
standard_dfm,exact,2019:Q1:pre_second:exact,2019-05-29,pre_second,S,2019:Q1,1.741965267784774,,,not_available,3.0658,-1.323834732215226,False,True,0,,,,,,,14,4,0.02
release_dfm,exact,2019:Q1:pre_second:exact,2019-05-29,pre_second,S,2019:Q1,3.258302538296523,,,not_available,3.0658,0.19250253829652308,False,True,0,,,,,,,14,4,0.02
revision_dfm_kalman_em,exact,2019:Q1:pre_second:exact,2019-05-29,pre_second,S,2019:Q1,3.338851270895304,0.4019212328039586,0.6339725804827513,model_implied_state_space,3.0658,0.2730512708953041,False,True,21,-1990.4324220453816,-2969.7408229265966,-1990.4324220453816,0.1845339596914073,9.265534676987218e-05,21.0,14,4,0.02
indicator_revision_only_dfm_kalman_em,exact,2019:Q1:pre_second:exact,2019-05-29,pre_second,S,2019:Q1,2.9656690720170285,0.39284424354227443,0.6267728803500311,model_implied_state_space,3.0658,-0.10013092798297141,False,True,25,-3683.1157201980845,-4848.788703584614,-3683.1157201980845,0.3438274090544837,9.331827493608428e-05,25.0,14,4,0.02
joint_indicator_revision_dfm_full_kalman_em,exact,2019:Q1:pre_second:exact,2019-05-29,pre_second,S,2019:Q1,3.282139175344838,0.3901003605158072,0.6245801473916756,model_implied_state_space,3.0658,0.21633917534483826,False,True,26,-3647.7506740728486,-4863.080888567412,-3647.7506740728486,0.3442212053514595,9.433057106760079e-05,26.0,14,4,0.02
ar,exact,2019:Q1:pre_third:exact,2019-06-26,pre_third,T,2019:Q1,2.445392866771208,,,not_available,3.1268,-0.6814071332287917,False,True,0,,,,,,,14,4,0.02
no_revision,exact,2019:Q1:pre_third:exact,2019-06-26,pre_third,T,2019:Q1,3.0658,,,not_available,3.1268,-0.06099999999999994,False,True,0,,,,,,,14,4,0.02
bridge,exact,2019:Q1:pre_third:exact,2019-06-26,pre_third,T,2019:Q1,2.2734338386671746,,,not_available,3.1268,-0.8533661613328252,False,True,0,,,,,,,14,4,0.02
midas_umidas,exact,2019:Q1:pre_third:exact,2019-06-26,pre_third,T,2019:Q1,4.146205141121396,,,not_available,3.1268,1.0194051411213958,False,True,0,,,,,,,14,4,0.02
monthly_mixed_frequency_kalman_em,exact,2019:Q1:pre_third:exact,2019-06-26,pre_third,T,2019:Q1,3.3103944704163646,0.14291941677752384,0.3780468446866391,model_implied_state_space,3.1268,0.18359447041636479,False,True,52,-6328.886922084899,-7349.5487198973715,-6328.886922084899,0.6279233508239486,9.918993417678798e-05,52.0,14,4,0.02
standard_dfm,exact,2019:Q1:pre_third:exact,2019-06-26,pre_third,T,2019:Q1,1.7778168513068795,,,not_available,3.1268,-1.3489831486931203,False,True,0,,,,,,,14,4,0.02
release_dfm,exact,2019:Q1:pre_third:exact,2019-06-26,pre_third,T,2019:Q1,3.178066193022631,,,not_available,3.1268,0.051266193022631246,False,True,0,,,,,,,14,4,0.02
revision_dfm_kalman_em,exact,2019:Q1:pre_third:exact,2019-06-26,pre_third,T,2019:Q1,3.0902254329746652,0.14773394917285676,0.3843617425978511,model_implied_state_space,3.1268,-0.03657456702533457,False,True,23,-1989.4248240253291,-2986.3187083332605,-1989.4248240253291,0.1788029382832974,8.98234765883735e-05,23.0,14,4,0.02
indicator_revision_only_dfm_kalman_em,exact,2019:Q1:pre_third:exact,2019-06-26,pre_third,T,2019:Q1,3.0587571544424206,0.15212772922237383,0.3900355486649567,model_implied_state_space,3.1268,-0.06804284555757922,False,True,25,-3681.8182379662294,-4849.400842981125,-3681.8182379662294,0.34542999629866245,9.378621952191151e-05,25.0,14,4,0.02
joint_indicator_revision_dfm_full_kalman_em,exact,2019:Q1:pre_third:exact,2019-06-26,pre_third,T,2019:Q1,3.0840712230466054,0.14739468716453713,0.38392015727822515,model_implied_state_space,3.1268,-0.04272877695339439,False,True,26,-3646.505162589513,-4863.663479920633,-3646.505162589513,0.3468210816786268,9.50754260948896e-05,26.0,14,4,0.02
ar,pseudo,2019:Q1:pre_advance:pseudo,2019-04-30,pre_advance,A,2019:Q1,2.544004133182678,,,not_available,3.1705,-0.6264958668173222,False,True,0,,,,,,,14,4,0.02
no_revision,pseudo,2019:Q1:pre_advance:pseudo,2019-04-30,pre_advance,A,2019:Q1,2.494294354572081,,,not_available,3.1705,-0.676205645427919,False,True,0,,,,,,,14,4,0.02
bridge,pseudo,2019:Q1:pre_advance:pseudo,2019-04-30,pre_advance,A,2019:Q1,2.4633884141498354,,,not_available,3.1705,-0.7071115858501646,False,True,0,,,,,,,14,4,0.02
midas_umidas,pseudo,2019:Q1:pre_advance:pseudo,2019-04-30,pre_advance,A,2019:Q1,4.923193803822225,,,not_available,3.1705,1.752693803822225,False,True,0,,,,,,,14,4,0.02
monthly_mixed_frequency_kalman_em,pseudo,2019:Q1:pre_advance:pseudo,2019-04-30,pre_advance,A,2019:Q1,1.6594276342989491,3.188071753329054,1.785517222915829,model_implied_state_space,3.1705,-1.511072365701051,False,True,54,-6287.947680874189,-7337.221342752908,-6287.947680874189,0.6241217620436146,9.923120072848489e-05,54.0,14,4,0.02
standard_dfm,pseudo,2019:Q1:pre_advance:pseudo,2019-04-30,pre_advance,A,2019:Q1,1.8406746253161013,,,not_available,3.1705,-1.3298253746838988,False,True,0,,,,,,,14,4,0.02
release_dfm,pseudo,2019:Q1:pre_advance:pseudo,2019-04-30,pre_advance,A,2019:Q1,1.8406746253161013,,,not_available,3.1705,-1.3298253746838988,False,True,0,,,,,,,14,4,0.02
revision_dfm_kalman_em,pseudo,2019:Q1:pre_advance:pseudo,2019-04-30,pre_advance,A,2019:Q1,1.480484291550964,3.230047945365024,1.7972334142690047,model_implied_state_space,3.1705,-1.6900157084490361,False,True,21,-1989.6220683227114,-2968.605105800659,-1989.6220683227114,0.17966068858140716,9.024539509046611e-05,21.0,14,4,0.02
indicator_revision_only_dfm_kalman_em,pseudo,2019:Q1:pre_advance:pseudo,2019-04-30,pre_advance,A,2019:Q1,1.4688387036910944,3.710871721334907,1.9263623027184962,model_implied_state_space,3.1705,-1.7016612963089057,False,True,25,-3681.9153340248163,-4847.570197324803,-3681.9153340248163,0.3427813766957115,9.306471769175615e-05,25.0,14,4,0.02
joint_indicator_revision_dfm_full_kalman_em,pseudo,2019:Q1:pre_advance:pseudo,2019-04-30,pre_advance,A,2019:Q1,1.5260339168482615,2.6557394428610053,1.6296439619932341,model_implied_state_space,3.1705,-1.6444660831517386,False,True,26,-3646.5798378668374,-4861.758568943165,-3646.5798378668374,0.34339966804782307,9.413566176899004e-05,26.0,14,4,0.02
ar,pseudo,2019:Q1:pre_second:pseudo,2019-05-31,pre_second,S,2019:Q1,3.0088930533858775,,,not_available,3.0658,-0.05690694661412232,False,True,0,,,,,,,14,4,0.02
no_revision,pseudo,2019:Q1:pre_second:pseudo,2019-05-31,pre_second,S,2019:Q1,3.1705,,,not_available,3.0658,0.10470000000000024,False,True,0,,,,,,,14,4,0.02
bridge,pseudo,2019:Q1:pre_second:pseudo,2019-05-31,pre_second,S,2019:Q1,1.4218172198520036,,,not_available,3.0658,-1.6439827801479963,False,True,0,,,,,,,14,4,0.02
midas_umidas,pseudo,2019:Q1:pre_second:pseudo,2019-05-31,pre_second,S,2019:Q1,3.7955827815763,,,not_available,3.0658,0.7297827815763003,False,True,0,,,,,,,14,4,0.02
monthly_mixed_frequency_kalman_em,pseudo,2019:Q1:pre_second:pseudo,2019-05-31,pre_second,S,2019:Q1,3.3919479549178164,0.35098859636512447,0.5924429055741359,model_implied_state_space,3.0658,0.32614795491781656,False,True,50,-6314.183496918036,-7330.413930259353,-6314.183496918036,0.6163609765144429,9.759032749335954e-05,50.0,14,4,0.02
standard_dfm,pseudo,2019:Q1:pre_second:pseudo,2019-05-31,pre_second,S,2019:Q1,1.7397240301912387,,,not_available,3.0658,-1.3260759698087612,False,True,0,,,,,,,14,4,0.02
release_dfm,pseudo,2019:Q1:pre_second:pseudo,2019-05-31,pre_second,S,2019:Q1,3.2581766904090235,,,not_available,3.0658,0.1923766904090236,False,True,0,,,,,,,14,4,0.02
revision_dfm_kalman_em,pseudo,2019:Q1:pre_second:pseudo,2019-05-31,pre_second,S,2019:Q1,3.3384445974301924,0.40192050692757275,0.6339720080000163,model_implied_state_space,3.0658,0.27264459743019254,False,True,21,-1990.441008830156,-2969.733302403505,-1990.441008830156,0.18449895876483424,9.263737486956712e-05,21.0,14,4,0.02
indicator_revision_only_dfm_kalman_em,pseudo,2019:Q1:pre_second:pseudo,2019-05-31,pre_second,S,2019:Q1,2.966149825938282,0.39283930765771513,0.6267689427992704,model_implied_state_space,3.0658,-0.09965017406171794,False,True,25,-3683.11848281457,-4848.774371890373,-3683.11848281457,0.3438981807576056,9.33374113225996e-05,25.0,14,4,0.02
joint_indicator_revision_dfm_full_kalman_em,pseudo,2019:Q1:pre_second:pseudo,2019-05-31,pre_second,S,2019:Q1,3.2817360078776328,0.39009958909544845,0.6245795298402346,model_implied_state_space,3.0658,0.2159360078776329,False,True,26,-3647.754035130458,-4863.066624688711,-3647.754035130458,0.3442951445531435,9.435074459262268e-05,26.0,14,4,0.02
ar,pseudo,2019:Q1:pre_third:pseudo,2019-06-30,pre_third,T,2019:Q1,2.445392866771208,,,not_available,3.1268,-0.6814071332287917,False,True,0,,,,,,,14,4,0.02
no_revision,pseudo,2019:Q1:pre_third:pseudo,2019-06-30,pre_third,T,2019:Q1,3.0658,,,not_available,3.1268,-0.06099999999999994,False,True,0,,,,,,,14,4,0.02
bridge,pseudo,2019:Q1:pre_third:pseudo,2019-06-30,pre_third,T,2019:Q1,2.2684052100145555,,,not_available,3.1268,-0.8583947899854443,False,True,0,,,,,,,14,4,0.02
midas_umidas,pseudo,2019:Q1:pre_third:pseudo,2019-06-30,pre_third,T,2019:Q1,4.13209857753133,,,not_available,3.1268,1.0052985775313306,False,True,0,,,,,,,14,4,0.02
monthly_mixed_frequency_kalman_em,pseudo,2019:Q1:pre_third:pseudo,2019-06-30,pre_third,T,2019:Q1,3.310186438213462,0.14291480612390647,0.37804074664499654,model_implied_state_space,3.1268,0.183386438213462,False,True,52,-6330.262917367987,-7350.951155117272,-6330.262917367987,0.6282721687175581,9.922346261347043e-05,52.0,14,4,0.02
standard_dfm,pseudo,2019:Q1:pre_third:pseudo,2019-06-30,pre_third,T,2019:Q1,1.7705413071187412,,,not_available,3.1268,-1.3562586928812586,False,True,0,,,,,,,14,4,0.02
release_dfm,pseudo,2019:Q1:pre_third:pseudo,2019-06-30,pre_third,T,2019:Q1,3.177975883912608,,,not_available,3.1268,0.05117588391260819,False,True,0,,,,,,,14,4,0.02
revision_dfm_kalman_em,pseudo,2019:Q1:pre_third:pseudo,2019-06-30,pre_third,T,2019:Q1,3.090225286954256,0.14773379339870446,0.38436153995776484,model_implied_state_space,3.1268,-0.03657471304574367,False,True,23,-1989.410319382509,-2986.317358281604,-1989.410319382509,0.17878807787337792,8.981666643473092e-05,23.0,14,4,0.02
indicator_revision_only_dfm_kalman_em,pseudo,2019:Q1:pre_third:pseudo,2019-06-30,pre_third,T,2019:Q1,3.0587335043862285,0.15212769079179933,0.3900354993994769,model_implied_state_space,3.1268,-0.06806649561377132,False,True,25,-3681.8246028887643,-4849.412487414695,-3681.8246028887643,0.3454649219502244,9.3795539057356e-05,25.0,14,4,0.02
joint_indicator_revision_dfm_full_kalman_em,pseudo,2019:Q1:pre_third:pseudo,2019-06-30,pre_third,T,2019:Q1,3.0840748203219155,0.14739462914426762,0.38392008171528047,model_implied_state_space,3.1268,-0.04272517967808431,False,True,26,-3646.511780554394,-4863.675118259531,-3646.511780554394,0.34685703786180966,9.508510946321929e-05,26.0,14,4,0.02
ar,exact,2019:Q2:pre_advance:exact,2019-07-25,pre_advance,A,2019:Q2,2.835856491574643,,,not_available,2.055,0.7808564915746428,False,True,0,,,,,,,14,4,0.02
no_revision,exact,2019:Q2:pre_advance:exact,2019-07-25,pre_advance,A,2019:Q2,2.8870145085411787,,,not_available,2.055,0.8320145085411785,False,True,0,,,,,,,14,4,0.02
bridge,exact,2019:Q2:pre_advance:exact,2019-07-25,pre_advance,A,2019:Q2,2.0272387884123937,,,not_available,2.055,-0.02776121158760647,False,True,0,,,,,,,14,4,0.02
midas_umidas,exact,2019:Q2:pre_advance:exact,2019-07-25,pre_advance,A,2019:Q2,1.095853544431865,,,not_available,2.055,-0.9591464555681353,False,True,0,,,,,,,14,4,0.02
monthly_mixed_frequency_kalman_em,exact,2019:Q2:pre_advance:exact,2019-07-25,pre_advance,A,2019:Q2,1.9529338367558156,3.214129048734322,1.792799221534392,model_implied_state_space,2.055,-0.1020661632441846,False,True,50,-6350.581332858644,-7371.17664482267,-6350.581332858644,0.6185725957329851,9.737927095175985e-05,50.0,14,4,0.02
standard_dfm,exact,2019:Q2:pre_advance:exact,2019-07-25,pre_advance,A,2019:Q2,2.2075222586847105,,,not_available,2.055,0.15252225868471037,False,True,0,,,,,,,14,4,0.02
release_dfm,exact,2019:Q2:pre_advance:exact,2019-07-25,pre_advance,A,2019:Q2,2.2075222586847105,,,not_available,2.055,0.15252225868471037,False,True,0,,,,,,,14,4,0.02
revision_dfm_kalman_em,exact,2019:Q2:pre_advance:exact,2019-07-25,pre_advance,A,2019:Q2,1.9965358318697763,3.275128987365722,1.809731744586949,model_implied_state_space,2.055,-0.058464168130223815,False,True,21,-2007.8395310707426,-2991.211904615275,-2007.8395310707426,0.1829004109122252,9.103950660089747e-05,21.0,14,4,0.02
indicator_revision_only_dfm_kalman_em,exact,2019:Q2:pre_advance:exact,2019-07-25,pre_advance,A,2019:Q2,2.564122133388579,3.7366710850717766,1.9330470985135817,model_implied_state_space,2.055,0.5091221333885789,False,True,25,-3718.437131952521,-4888.5429219988455,-3718.437131952521,0.34796460829556963,9.354427722646815e-05,25.0,14,4,0.02
joint_indicator_revision_dfm_full_kalman_em,exact,2019:Q2:pre_advance:exact,2019-07-25,pre_advance,A,2019:Q2,2.536592755895065,2.6825035284351806,1.6378350125806875,model_implied_state_space,2.055,0.4815927558950648,False,True,26,-3683.246568373567,-4902.805051034726,-3683.246568373567,0.34754424901939274,9.432361839497727e-05,26.0,14,4,0.02
ar,exact,2019:Q2:pre_second:exact,2019-08-28,pre_second,S,2019:Q2,2.809602293515929,,,not_available,2.0379,0.7717022935159288,False,True,0,,,,,,,14,4,0.02
no_revision,exact,2019:Q2:pre_second:exact,2019-08-28,pre_second,S,2019:Q2,2.055,,,not_available,2.0379,0.017100000000000115,False,True,0,,,,,,,14,4,0.02
bridge,exact,2019:Q2:pre_second:exact,2019-08-28,pre_second,S,2019:Q2,1.7903441270878622,,,not_available,2.0379,-0.24755587291213788,False,True,0,,,,,,,14,4,0.02
midas_umidas,exact,2019:Q2:pre_second:exact,2019-08-28,pre_second,S,2019:Q2,2.1500769988566333,,,not_available,2.0379,0.11217699885663324,False,True,0,,,,,,,14,4,0.02
monthly_mixed_frequency_kalman_em,exact,2019:Q2:pre_second:exact,2019-08-28,pre_second,S,2019:Q2,2.0583690569770954,0.348651806292067,0.5904674472755183,model_implied_state_space,2.0379,0.020469056977095335,False,True,52,-6368.1541381053285,-7418.865479658013,-6368.1541381053285,0.635894770505729,9.982978516147965e-05,52.0,14,4,0.02
standard_dfm,exact,2019:Q2:pre_second:exact,2019-08-28,pre_second,S,2019:Q2,2.249521942147944,,,not_available,2.0379,0.21162194214794416,False,True,0,,,,,,,14,4,0.02
release_dfm,exact,2019:Q2:pre_second:exact,2019-08-28,pre_second,S,2019:Q2,2.130270211283246,,,not_available,2.0379,0.09237021128324585,False,True,0,,,,,,,14,4,0.02
revision_dfm_kalman_em,exact,2019:Q2:pre_second:exact,2019-08-28,pre_second,S,2019:Q2,2.1059800822158232,0.40032374546806965,0.632711423532142,model_implied_state_space,2.0379,0.06808008221582318,False,True,21,-2009.0567717666338,-2992.368803612846,-2009.0567717666338,0.18530785841244324,9.21818622198015e-05,21.0,14,4,0.02
indicator_revision_only_dfm_kalman_em,exact,2019:Q2:pre_second:exact,2019-08-28,pre_second,S,2019:Q2,2.1032634672359345,0.3908851455937026,0.6252080818365215,model_implied_state_space,2.0379,0.06536346723593445,False,True,25,-3719.772785654003,-4889.810135231654,-3719.772785654003,0.34782994765828334,9.347451576816016e-05,25.0,14,4,0.02
joint_indicator_revision_dfm_full_kalman_em,exact,2019:Q2:pre_second:exact,2019-08-28,pre_second,S,2019:Q2,2.10273268865747,0.3884372269175215,0.6232473240355882,model_implied_state_space,2.0379,0.06483268865747016,False,True,26,-3684.42451076899,-4904.178561421309,-3684.42451076899,0.3469887545702477,9.414277434591403e-05,26.0,14,4,0.02
ar,exact,2019:Q2:pre_third:exact,2019-09-25,pre_third,T,2019:Q2,2.86498901665629,,,not_available,2.0143,0.8506890166562902,False,True,0,,,,,,,14,4,0.02
no_revision,exact,2019:Q2:pre_third:exact,2019-09-25,pre_third,T,2019:Q2,2.0379,,,not_available,2.0143,0.023600000000000065,False,True,0,,,,,,,14,4,0.02
bridge,exact,2019:Q2:pre_third:exact,2019-09-25,pre_third,T,2019:Q2,2.0335288624287204,,,not_available,2.0143,0.01922886242872046,False,True,0,,,,,,,14,4,0.02
midas_umidas,exact,2019:Q2:pre_third:exact,2019-09-25,pre_third,T,2019:Q2,1.7094667106387418,,,not_available,2.0143,-0.3048332893612582,False,True,0,,,,,,,14,4,0.02
monthly_mixed_frequency_kalman_em,exact,2019:Q2:pre_third:exact,2019-09-25,pre_third,T,2019:Q2,2.0327701108691314,0.14315155390113643,0.3783537417564896,model_implied_state_space,2.0143,0.018470110869131418,False,True,54,-6383.975003426527,-7438.317659323553,-6383.975003426527,0.6276238260634273,9.828732896482518e-05,54.0,14,4,0.02
standard_dfm,exact,2019:Q2:pre_third:exact,2019-09-25,pre_third,T,2019:Q2,2.3153784836701568,,,not_available,2.0143,0.30107848367015677,False,True,0,,,,,,,14,4,0.02
release_dfm,exact,2019:Q2:pre_third:exact,2019-09-25,pre_third,T,2019:Q2,2.1127219183232313,,,not_available,2.0143,0.09842191832323133,False,True,0,,,,,,,14,4,0.02
revision_dfm_kalman_em,exact,2019:Q2:pre_third:exact,2019-09-25,pre_third,T,2019:Q2,2.045694772310446,0.14705204224272223,0.3834736526056545,model_implied_state_space,2.0143,0.03139477231044596,False,True,23,-2008.9805053812092,-3009.410257412501,-2008.9805053812092,0.18130954338971605,9.019649166727254e-05,23.0,14,4,0.02
indicator_revision_only_dfm_kalman_em,exact,2019:Q2:pre_third:exact,2019-09-25,pre_third,T,2019:Q2,2.0423392438941805,0.1514417748027395,0.38915520657282676,model_implied_state_space,2.0143,0.028039243894180554,False,True,25,-3719.3081542016407,-4890.840542320782,-3719.3081542016407,0.34860458513321646,9.369436842297942e-05,25.0,14,4,0.02
joint_indicator_revision_dfm_full_kalman_em,exact,2019:Q2:pre_third:exact,2019-09-25,pre_third,T,2019:Q2,2.042368580682183,0.14671733400866827,0.383036987781426,model_implied_state_space,2.0143,0.028068580682182986,False,True,26,-3683.944053267304,-4905.179964377846,-3683.944053267304,0.3478700436817235,9.439416223211586e-05,26.0,14,4,0.02
ar,pseudo,2019:Q2:pre_advance:pseudo,2019-07-31,pre_advance,A,2019:Q2,2.835856491574643,,,not_available,2.055,0.7808564915746428,False,True,0,,,,,,,14,4,0.02
no_revision,pseudo,2019:Q2:pre_advance:pseudo,2019-07-31,pre_advance,A,2019:Q2,2.8870145085411787,,,not_available,2.055,0.8320145085411785,False,True,0,,,,,,,14,4,0.02
bridge,pseudo,2019:Q2:pre_advance:pseudo,2019-07-31,pre_advance,A,2019:Q2,2.0262506423041557,,,not_available,2.055,-0.028749357695844413,False,True,0,,,,,,,14,4,0.02
midas_umidas,pseudo,2019:Q2:pre_advance:pseudo,2019-07-31,pre_advance,A,2019:Q2,1.2162629624178303,,,not_available,2.055,-0.8387370375821699,False,True,0,,,,,,,14,4,0.02
monthly_mixed_frequency_kalman_em,pseudo,2019:Q2:pre_advance:pseudo,2019-07-31,pre_advance,A,2019:Q2,1.9854003780147371,3.2156528952706047,1.793224162025095,model_implied_state_space,2.055,-0.06959962198526304,False,True,49,-6352.49700138712,-7372.402001919866,-6352.49700138712,0.6272247180922932,9.871143461681316e-05,49.0,14,4,0.02
standard_dfm,pseudo,2019:Q2:pre_advance:pseudo,2019-07-31,pre_advance,A,2019:Q2,2.258550549919068,,,not_available,2.055,0.20355054991906796,False,True,0,,,,,,,14,4,0.02
release_dfm,pseudo,2019:Q2:pre_advance:pseudo,2019-07-31,pre_advance,A,2019:Q2,2.258550549919068,,,not_available,2.055,0.20355054991906796,False,True,0,,,,,,,14,4,0.02
revision_dfm_kalman_em,pseudo,2019:Q2:pre_advance:pseudo,2019-07-31,pre_advance,A,2019:Q2,2.021510907891008,3.27448063750879,1.8095526070022916,model_implied_state_space,2.055,-0.03348909210899231,False,True,21,-2007.5785190827246,-2990.8936343104083,-2007.5785190827246,0.18276881664382927,9.098583178838387e-05,21.0,14,4,0.02
indicator_revision_only_dfm_kalman_em,pseudo,2019:Q2:pre_advance:pseudo,2019-07-31,pre_advance,A,2019:Q2,2.5772896584237617,3.735233088059497,1.9326751118746,model_implied_state_space,2.055,0.5222896584237615,False,True,25,-3717.8972103385886,-4888.26528627704,-3717.8972103385886,0.347427797400087,9.341353721066622e-05,25.0,14,4,0.02
joint_indicator_revision_dfm_full_kalman_em,pseudo,2019:Q2:pre_advance:pseudo,2019-07-31,pre_advance,A,2019:Q2,2.55550904131417,2.6805390831541813,1.6372351948190527,model_implied_state_space,2.055,0.50050904131417,False,True,26,-3682.704429009885,-4902.526826304046,-3682.704429009885,0.34682562977150155,9.414245508520352e-05,26.0,14,4,0.02
ar,pseudo,2019:Q2:pre_second:pseudo,2019-08-31,pre_second,S,2019:Q2,2.809602293515929,,,not_available,2.0379,0.7717022935159288,False,True,0,,,,,,,14,4,0.02
no_revision,pseudo,2019:Q2:pre_second:pseudo,2019-08-31,pre_second,S,2019:Q2,2.055,,,not_available,2.0379,0.017100000000000115,False,True,0,,,,,,,14,4,0.02
bridge,pseudo,2019:Q2:pre_second:pseudo,2019-08-31,pre_second,S,2019:Q2,1.7904080390729669,,,not_available,2.0379,-0.24749196092703318,False,True,0,,,,,,,14,4,0.02
midas_umidas,pseudo,2019:Q2:pre_second:pseudo,2019-08-31,pre_second,S,2019:Q2,2.146409259715819,,,not_available,2.0379,0.10850925971581882,False,True,0,,,,,,,14,4,0.02
monthly_mixed_frequency_kalman_em,pseudo,2019:Q2:pre_second:pseudo,2019-08-31,pre_second,S,2019:Q2,2.0577822748534356,0.34864346061422136,0.5904603802239583,model_implied_state_space,2.0379,0.019882274853435522,False,True,52,-6369.468280958436,-7420.230284323025,-6369.468280958436,0.6364165223421878,9.989107895116457e-05,52.0,14,4,0.02
standard_dfm,pseudo,2019:Q2:pre_second:pseudo,2019-08-31,pre_second,S,2019:Q2,2.248397659127057,,,not_available,2.0379,0.2104976591270571,False,True,0,,,,,,,14,4,0.02
release_dfm,pseudo,2019:Q2:pre_second:pseudo,2019-08-31,pre_second,S,2019:Q2,2.1302045363490407,,,not_available,2.0379,0.09230453634904068,False,True,0,,,,,,,14,4,0.02
revision_dfm_kalman_em,pseudo,2019:Q2:pre_second:pseudo,2019-08-31,pre_second,S,2019:Q2,2.10598096997862,0.4003236901209727,0.6327113797941148,model_implied_state_space,2.0379,0.06808096997861979,False,True,21,-2009.0624428653666,-2992.3708488452644,-2009.0624428653666,0.18531354547235424,9.218443093960667e-05,21.0,14,4,0.02
indicator_revision_only_dfm_kalman_em,pseudo,2019:Q2:pre_second:pseudo,2019-08-31,pre_second,S,2019:Q2,2.103175106342616,0.3908843696326088,0.6252074612739429,model_implied_state_space,2.0379,0.0652751063426158,False,True,25,-3719.7795543857906,-4889.814765795665,-3719.7795543857906,0.3478261440955066,9.34733236801951e-05,25.0,14,4,0.02
joint_indicator_revision_dfm_full_kalman_em,pseudo,2019:Q2:pre_second:pseudo,2019-08-31,pre_second,S,2019:Q2,2.102748853711173,0.3884374664076091,0.6232475161664177,model_implied_state_space,2.0379,0.06484885371117288,False,True,26,-3684.431100249881,-4904.183202598928,-3684.431100249881,0.34698420558743237,9.414137195367673e-05,26.0,14,4,0.02
ar,pseudo,2019:Q2:pre_third:pseudo,2019-09-30,pre_third,T,2019:Q2,2.86498901665629,,,not_available,2.0143,0.8506890166562902,False,True,0,,,,,,,14,4,0.02
no_revision,pseudo,2019:Q2:pre_third:pseudo,2019-09-30,pre_third,T,2019:Q2,2.0379,,,not_available,2.0143,0.023600000000000065,False,True,0,,,,,,,14,4,0.02
bridge,pseudo,2019:Q2:pre_third:pseudo,2019-09-30,pre_third,T,2019:Q2,2.0315149833894925,,,not_available,2.0143,0.017214983389492566,False,True,0,,,,,,,14,4,0.02
midas_umidas,pseudo,2019:Q2:pre_third:pseudo,2019-09-30,pre_third,T,2019:Q2,1.7001949812298822,,,not_available,2.0143,-0.31410501877011776,False,True,0,,,,,,,14,4,0.02
monthly_mixed_frequency_kalman_em,pseudo,2019:Q2:pre_third:pseudo,2019-09-30,pre_third,T,2019:Q2,2.0330119011251235,0.14313265104427197,0.3783287605301399,model_implied_state_space,2.0143,0.018711901125123553,False,True,54,-6386.717266298226,-7441.16270349829,-6386.717266298226,0.6266257989755104,9.808892720235168e-05,54.0,14,4,0.02
standard_dfm,pseudo,2019:Q2:pre_third:pseudo,2019-09-30,pre_third,T,2019:Q2,2.3122326767126324,,,not_available,2.0143,0.29793267671263246,False,True,0,,,,,,,14,4,0.02
release_dfm,pseudo,2019:Q2:pre_third:pseudo,2019-09-30,pre_third,T,2019:Q2,2.112680858792247,,,not_available,2.0143,0.09838085879224723,False,True,0,,,,,,,14,4,0.02
revision_dfm_kalman_em,pseudo,2019:Q2:pre_third:pseudo,2019-09-30,pre_third,T,2019:Q2,2.045693450157299,0.14705199515934056,0.3834735912150152,model_implied_state_space,2.0143,0.031393450157299,False,True,23,-2008.969952918515,-3009.4061734832844,-2008.969952918515,0.18129965088360223,9.019204433092431e-05,23.0,14,4,0.02
indicator_revision_only_dfm_kalman_em,pseudo,2019:Q2:pre_third:pseudo,2019-09-30,pre_third,T,2019:Q2,2.0423280750941206,0.1514417850334254,0.38915521971756384,model_implied_state_space,2.0143,0.02802807509412064,False,True,25,-3719.3034571583817,-4890.838361341825,-3719.3034571583817,0.3486149160335117,9.369726308193732e-05,25.0,14,4,0.02
joint_indicator_revision_dfm_full_kalman_em,pseudo,2019:Q2:pre_third:pseudo,2019-09-30,pre_third,T,2019:Q2,2.042369988712138,0.146717340507603,0.3830369962648556,model_implied_state_space,2.0143,0.02806998871213784,False,True,26,-3683.9392573635237,-4905.177792878474,-3683.9392573635237,0.3478801694232061,9.439703242664793e-05,26.0,14,4,0.02
ar,exact,2019:Q3:pre_advance:exact,2019-10-29,pre_advance,A,2019:Q3,2.279256097331871,,,not_available,1.9188,0.3604560973318711,False,True,0,,,,,,,14,4,0.02
no_revision,exact,2019:Q3:pre_advance:exact,2019-10-29,pre_advance,A,2019:Q3,2.317127933697079,,,not_available,1.9188,0.39832793369707886,False,True,0,,,,,,,14,4,0.02
bridge,exact,2019:Q3:pre_advance:exact,2019-10-29,pre_advance,A,2019:Q3,2.5989815132209673,,,not_available,1.9188,0.6801815132209672,False,True,0,,,,,,,14,4,0.02
midas_umidas,exact,2019:Q3:pre_advance:exact,2019-10-29,pre_advance,A,2019:Q3,2.7556857521246303,,,not_available,1.9188,0.8368857521246302,False,True,0,,,,,,,14,4,0.02
monthly_mixed_frequency_kalman_em,exact,2019:Q3:pre_advance:exact,2019-10-29,pre_advance,A,2019:Q3,2.539287744378626,3.0673289327178286,1.751379151616756,model_implied_state_space,1.9188,0.6204877443786261,False,True,88,-6364.134759274062,-7462.623169084342,-6364.134759274062,0.6169100469369369,9.691079372606745e-05,88.0,14,4,0.02
standard_dfm,exact,2019:Q3:pre_advance:exact,2019-10-29,pre_advance,A,2019:Q3,2.3386766974748623,,,not_available,1.9188,0.4198766974748622,False,True,0,,,,,,,14,4,0.02
release_dfm,exact,2019:Q3:pre_advance:exact,2019-10-29,pre_advance,A,2019:Q3,2.3386766974748623,,,not_available,1.9188,0.4198766974748622,False,True,0,,,,,,,14,4,0.02
revision_dfm_kalman_em,exact,2019:Q3:pre_advance:exact,2019-10-29,pre_advance,A,2019:Q3,2.459081169954039,3.2531578462656916,1.8036512540581928,model_implied_state_space,1.9188,0.5402811699540391,False,True,21,-2026.260621186465,-3014.01786753991,-2026.260621186465,0.18296380214655983,9.024359715912271e-05,21.0,14,4,0.02
indicator_revision_only_dfm_kalman_em,exact,2019:Q3:pre_advance:exact,2019-10-29,pre_advance,A,2019:Q3,2.57101530235733,3.6954657297883764,1.9223594174317082,model_implied_state_space,1.9188,0.6522153023573298,False,True,25,-3753.186039278643,-4922.906438430684,-3753.186039278643,0.34499638880515704,9.188801092007128e-05,25.0,14,4,0.02
joint_indicator_revision_dfm_full_kalman_em,exact,2019:Q3:pre_advance:exact,2019-10-29,pre_advance,A,2019:Q3,2.4612817972089447,2.6414607120826035,1.6252571218372198,model_implied_state_space,1.9188,0.5424817972089446,False,True,26,-3717.9991436294727,-4937.568282302712,-3717.9991436294727,0.35172899982035233,9.456730807752675e-05,26.0,14,4,0.02
ar,exact,2019:Q3:pre_second:exact,2019-11-26,pre_second,S,2019:Q3,2.3385524286308836,,,not_available,2.1238,0.2147524286308835,False,True,0,,,,,,,14,4,0.02
no_revision,exact,2019:Q3:pre_second:exact,2019-11-26,pre_second,S,2019:Q3,1.9188,,,not_available,2.1238,-0.20500000000000007,False,True,0,,,,,,,14,4,0.02
bridge,exact,2019:Q3:pre_second:exact,2019-11-26,pre_second,S,2019:Q3,2.759703662352096,,,not_available,2.1238,0.6359036623520957,False,True,0,,,,,,,14,4,0.02
midas_umidas,exact,2019:Q3:pre_second:exact,2019-11-26,pre_second,S,2019:Q3,1.8640393070936114,,,not_available,2.1238,-0.2597606929063887,False,True,0,,,,,,,14,4,0.02
monthly_mixed_frequency_kalman_em,exact,2019:Q3:pre_second:exact,2019-11-26,pre_second,S,2019:Q3,1.6805457182703787,0.34079438783074206,0.5837759740095014,model_implied_state_space,2.1238,-0.44325428172962145,False,True,86,-6380.071972056759,-7481.016055452483,-6380.071972056759,0.6095312175175422,9.551263522079682e-05,86.0,14,4,0.02
standard_dfm,exact,2019:Q3:pre_second:exact,2019-11-26,pre_second,S,2019:Q3,2.4213444454816266,,,not_available,2.1238,0.2975444454816265,False,True,0,,,,,,,14,4,0.02
release_dfm,exact,2019:Q3:pre_second:exact,2019-11-26,pre_second,S,2019:Q3,1.9988734990510797,,,not_available,2.1238,-0.12492650094892044,False,True,0,,,,,,,14,4,0.02
revision_dfm_kalman_em,exact,2019:Q3:pre_second:exact,2019-11-26,pre_second,S,2019:Q3,2.0346974628279266,0.3983915707836515,0.6311826762385446,model_implied_state_space,2.1238,-0.0891025371720735,False,True,21,-2027.1562052225854,-3015.3174895598004,-2027.1562052225854,0.18499347325837334,9.120431679705467e-05,21.0,14,4,0.02
indicator_revision_only_dfm_kalman_em,exact,2019:Q3:pre_second:exact,2019-11-26,pre_second,S,2019:Q3,1.9882592595443778,0.3891045573148127,0.6237824599287901,model_implied_state_space,2.1238,-0.13554074045562237,False,True,25,-3754.1778881169985,-4930.710405639942,-3754.1778881169985,0.3501976129218747,9.324856715957981e-05,25.0,14,4,0.02
joint_indicator_revision_dfm_full_kalman_em,exact,2019:Q3:pre_second:exact,2019-11-26,pre_second,S,2019:Q3,2.0441130500210236,0.3866698190040919,0.6218278049461056,model_implied_state_space,2.1238,-0.07968694997897652,False,True,26,-3718.6325999918427,-4945.136285167965,-3718.6325999918427,0.3483335057326258,9.363851911066598e-05,26.0,14,4,0.02
ar,exact,2019:Q3:pre_third:exact,2019-12-19,pre_third,T,2019:Q3,2.3786343473599274,,,not_available,2.1024,0.2762343473599276,False,True,0,,,,,,,14,4,0.02
no_revision,exact,2019:Q3:pre_third:exact,2019-12-19,pre_third,T,2019:Q3,2.1238,,,not_available,2.1024,0.021400000000000308,False,True,0,,,,,,,14,4,0.02
bridge,exact,2019:Q3:pre_third:exact,2019-12-19,pre_third,T,2019:Q3,2.7361020837181926,,,not_available,2.1024,0.6337020837181928,False,True,0,,,,,,,14,4,0.02
midas_umidas,exact,2019:Q3:pre_third:exact,2019-12-19,pre_third,T,2019:Q3,3.214676894078797,,,not_available,2.1024,1.1122768940787973,False,True,0,,,,,,,14,4,0.02
monthly_mixed_frequency_kalman_em,exact,2019:Q3:pre_third:exact,2019-12-19,pre_third,T,2019:Q3,1.9273133671702225,0.13462476869731857,0.3669124809778465,model_implied_state_space,2.1024,-0.17508663282977732,False,True,84,-6397.344570870017,-7475.925544386487,-6397.344570870017,0.5613095619301021,8.771961526213476e-05,84.0,14,4,0.02
standard_dfm,exact,2019:Q3:pre_third:exact,2019-12-19,pre_third,T,2019:Q3,2.4553317270171258,,,not_available,2.1024,0.35293172701712594,False,True,0,,,,,,,14,4,0.02
release_dfm,exact,2019:Q3:pre_third:exact,2019-12-19,pre_third,T,2019:Q3,2.1495184018457247,,,not_available,2.1024,0.04711840184572491,False,True,0,,,,,,,14,4,0.02
revision_dfm_kalman_em,exact,2019:Q3:pre_third:exact,2019-12-19,pre_third,T,2019:Q3,2.1219646971985315,0.14638002454621155,0.38259642516130693,model_implied_state_space,2.1024,0.01956469719853171,False,True,23,-2026.6450407130403,-3032.379569260877,-2026.6450407130403,0.181101034626181,8.930796920790282e-05,23.0,14,4,0.02
indicator_revision_only_dfm_kalman_em,exact,2019:Q3:pre_third:exact,2019-12-19,pre_third,T,2019:Q3,2.1145425283023758,0.1507373562461117,0.38824909046398515,model_implied_state_space,2.1024,0.012142528302375943,False,True,25,-3753.691863335777,-4925.142637934347,-3753.691863335777,0.34837858520131704,9.277625877668248e-05,25.0,14,4,0.02
joint_indicator_revision_dfm_full_kalman_em,exact,2019:Q3:pre_third:exact,2019-12-19,pre_third,T,2019:Q3,2.1217646368768577,0.14598944918301432,0.38208565686638163,model_implied_state_space,2.1024,0.019364636876857855,False,True,26,-3718.3144573798836,-4939.882908465644,-3718.3144573798836,0.35526503612118177,9.550983356942496e-05,26.0,14,4,0.02
ar,pseudo,2019:Q3:pre_advance:pseudo,2019-10-31,pre_advance,A,2019:Q3,2.279256097331871,,,not_available,1.9188,0.3604560973318711,False,True,0,,,,,,,14,4,0.02
no_revision,pseudo,2019:Q3:pre_advance:pseudo,2019-10-31,pre_advance,A,2019:Q3,2.317127933697079,,,not_available,1.9188,0.39832793369707886,False,True,0,,,,,,,14,4,0.02
bridge,pseudo,2019:Q3:pre_advance:pseudo,2019-10-31,pre_advance,A,2019:Q3,2.5967493981997967,,,not_available,1.9188,0.6779493981997966,False,True,0,,,,,,,14,4,0.02
midas_umidas,pseudo,2019:Q3:pre_advance:pseudo,2019-10-31,pre_advance,A,2019:Q3,2.6690577042540142,,,not_available,1.9188,0.7502577042540142,False,True,0,,,,,,,14,4,0.02
monthly_mixed_frequency_kalman_em,pseudo,2019:Q3:pre_advance:pseudo,2019-10-31,pre_advance,A,2019:Q3,2.585880304249913,3.179203707597051,1.7830321667308897,model_implied_state_space,1.9188,0.6670803042499132,False,True,56,-6405.025629257409,-7464.052371991779,-6405.025629257409,0.6391214492350628,9.975884084844128e-05,56.0,14,4,0.02
standard_dfm,pseudo,2019:Q3:pre_advance:pseudo,2019-10-31,pre_advance,A,2019:Q3,2.3597547953357836,,,not_available,1.9188,0.4409547953357835,False,True,0,,,,,,,14,4,0.02
release_dfm,pseudo,2019:Q3:pre_advance:pseudo,2019-10-31,pre_advance,A,2019:Q3,2.3597547953357836,,,not_available,1.9188,0.4409547953357835,False,True,0,,,,,,,14,4,0.02
revision_dfm_kalman_em,pseudo,2019:Q3:pre_advance:pseudo,2019-10-31,pre_advance,A,2019:Q3,2.4715304274109764,3.2530163902613034,1.803612039841524,model_implied_state_space,1.9188,0.5527304274109763,False,True,21,-2026.2644542126573,-3014.022412441192,-2026.2644542126573,0.18294216498634341,9.023275539143388e-05,21.0,14,4,0.02
indicator_revision_only_dfm_kalman_em,pseudo,2019:Q3:pre_advance:pseudo,2019-10-31,pre_advance,A,2019:Q3,2.580690078279779,3.6953595044643306,1.9223317883404858,model_implied_state_space,1.9188,0.6618900782797787,False,True,25,-3753.1539425127753,-4922.8649480065515,-3753.1539425127753,0.34489451904164525,9.186166623354383e-05,25.0,14,4,0.02
joint_indicator_revision_dfm_full_kalman_em,pseudo,2019:Q3:pre_advance:pseudo,2019-10-31,pre_advance,A,2019:Q3,2.4713060736734787,2.641408573624942,1.6252410816937104,model_implied_state_space,1.9188,0.5525060736734786,False,True,26,-3717.9681632846873,-4937.5267613524275,-3717.9681632846873,0.35163521226422745,9.454288184800081e-05,26.0,14,4,0.02
ar,pseudo,2019:Q3:pre_second:pseudo,2019-11-30,pre_second,S,2019:Q3,2.3385524286308836,,,not_available,2.1238,0.2147524286308835,False,True,0,,,,,,,14,4,0.02
no_revision,pseudo,2019:Q3:pre_second:pseudo,2019-11-30,pre_second,S,2019:Q3,1.9188,,,not_available,2.1238,-0.20500000000000007,False,True,0,,,,,,,14,4,0.02
bridge,pseudo,2019:Q3:pre_second:pseudo,2019-11-30,pre_second,S,2019:Q3,2.755757569281757,,,not_available,2.1238,0.6319575692817567,False,True,0,,,,,,,14,4,0.02
midas_umidas,pseudo,2019:Q3:pre_second:pseudo,2019-11-30,pre_second,S,2019:Q3,1.8794035051159255,,,not_available,2.1238,-0.24439649488407467,False,True,0,,,,,,,14,4,0.02
monthly_mixed_frequency_kalman_em,pseudo,2019:Q3:pre_second:pseudo,2019-11-30,pre_second,S,2019:Q3,1.6809960704656808,0.3407958181701062,0.5837771990837824,model_implied_state_space,2.1238,-0.44280392953431935,False,True,86,-6382.861424006063,-7483.761482383472,-6382.861424006063,0.603163747941835,9.447366175368237e-05,86.0,14,4,0.02
standard_dfm,pseudo,2019:Q3:pre_second:pseudo,2019-11-30,pre_second,S,2019:Q3,2.415863334629673,,,not_available,2.1238,0.29206333462967304,False,True,0,,,,,,,14,4,0.02
release_dfm,pseudo,2019:Q3:pre_second:pseudo,2019-11-30,pre_second,S,2019:Q3,1.9985507776579652,,,not_available,2.1238,-0.12524922234203495,False,True,0,,,,,,,14,4,0.02
revision_dfm_kalman_em,pseudo,2019:Q3:pre_second:pseudo,2019-11-30,pre_second,S,2019:Q3,2.034369141187697,0.3983967166979025,0.6311867526318201,model_implied_state_space,2.1238,-0.08943085881230317,False,True,21,-2027.0392625848174,-3015.278813783375,-2027.0392625848174,0.18500602020799306,9.121576103378189e-05,21.0,14,4,0.02
indicator_revision_only_dfm_kalman_em,pseudo,2019:Q3:pre_second:pseudo,2019-11-30,pre_second,S,2019:Q3,1.988512031199208,0.3891019057827993,0.6237803345592094,model_implied_state_space,2.1238,-0.1352879688007922,False,True,25,-3754.151518257905,-4930.715459389079,-3754.151518257905,0.35038573227438974,9.329930891583592e-05,25.0,14,4,0.02
joint_indicator_revision_dfm_full_kalman_em,pseudo,2019:Q3:pre_second:pseudo,2019-11-30,pre_second,S,2019:Q3,2.043814728316564,0.3866784529607472,0.6218347473089191,model_implied_state_space,2.1238,-0.07998527168343594,False,True,26,-3718.6064081272048,-4945.141353902798,-3718.6064081272048,0.34852826010819626,9.369152746959737e-05,26.0,14,4,0.02
ar,pseudo,2019:Q3:pre_third:pseudo,2019-12-31,pre_third,T,2019:Q3,2.3786343473599274,,,not_available,2.1024,0.2762343473599276,False,True,0,,,,,,,14,4,0.02
no_revision,pseudo,2019:Q3:pre_third:pseudo,2019-12-31,pre_third,T,2019:Q3,2.1238,,,not_available,2.1024,0.021400000000000308,False,True,0,,,,,,,14,4,0.02
bridge,pseudo,2019:Q3:pre_third:pseudo,2019-12-31,pre_third,T,2019:Q3,2.7336186979777626,,,not_available,2.1024,0.6312186979777628,False,True,0,,,,,,,14,4,0.02
midas_umidas,pseudo,2019:Q3:pre_third:pseudo,2019-12-31,pre_third,T,2019:Q3,3.204672467793214,,,not_available,2.1024,1.102272467793214,False,True,0,,,,,,,14,4,0.02
monthly_mixed_frequency_kalman_em,pseudo,2019:Q3:pre_third:pseudo,2019-12-31,pre_third,T,2019:Q3,1.926586040179088,0.13462632467763821,0.3669146013415632,model_implied_state_space,2.1024,-0.17581395982091186,False,True,85,-6400.655898089368,-7478.681402652314,-6400.655898089368,0.5302225945315513,8.281899097224487e-05,85.0,14,4,0.02
standard_dfm,pseudo,2019:Q3:pre_third:pseudo,2019-12-31,pre_third,T,2019:Q3,2.451380048869966,,,not_available,2.1024,0.34898004886996636,False,True,0,,,,,,,14,4,0.02
release_dfm,pseudo,2019:Q3:pre_third:pseudo,2019-12-31,pre_third,T,2019:Q3,2.149466156677759,,,not_available,2.1024,0.04706615667775926,False,True,0,,,,,,,14,4,0.02
revision_dfm_kalman_em,pseudo,2019:Q3:pre_third:pseudo,2019-12-31,pre_third,T,2019:Q3,2.121963543399392,0.14638000317037497,0.38259639722607813,model_implied_state_space,2.1024,0.01956354339939237,False,True,23,-2026.6432115957753,-3032.377983141386,-2026.6432115957753,0.1810956401511703,8.93053897741353e-05,23.0,14,4,0.02
indicator_revision_only_dfm_kalman_em,pseudo,2019:Q3:pre_third:pseudo,2019-12-31,pre_third,T,2019:Q3,2.114529283441469,0.15073735947223807,0.38824909461869717,model_implied_state_space,2.1024,0.01212928344146924,False,True,25,-3753.693826303954,-4925.144998655564,-3753.693826303954,0.3484006185203725,9.278207739514869e-05,25.0,14,4,0.02
joint_indicator_revision_dfm_full_kalman_em,pseudo,2019:Q3:pre_third:pseudo,2019-12-31,pre_third,T,2019:Q3,2.1217663364062993,0.14598944666298314,0.38208565356865093,model_implied_state_space,2.1024,0.019366336406299478,False,True,26,-3718.3163196562714,-4939.885276626141,-3718.3163196562714,0.35528214323494467,9.551438440508187e-05,26.0,14,4,0.02
ar,exact,2019:Q4:pre_advance:exact,2020-01-29,pre_advance,A,2019:Q4,2.2100311607376257,,,not_available,2.0808,0.12923116073762575,False,True,0,,,,,,,14,4,0.02
no_revision,exact,2019:Q4:pre_advance:exact,2020-01-29,pre_advance,A,2019:Q4,2.1968709062412755,,,not_available,2.0808,0.11607090624127547,False,True,0,,,,,,,14,4,0.02
bridge,exact,2019:Q4:pre_advance:exact,2020-01-29,pre_advance,A,2019:Q4,2.510353588287196,,,not_available,2.0808,0.42955358828719614,False,True,0,,,,,,,14,4,0.02
midas_umidas,exact,2019:Q4:pre_advance:exact,2020-01-29,pre_advance,A,2019:Q4,0.14334577927015535,,,not_available,2.0808,-1.9374542207298446,False,True,0,,,,,,,14,4,0.02
monthly_mixed_frequency_kalman_em,exact,2019:Q4:pre_advance:exact,2020-01-29,pre_advance,A,2019:Q4,2.321376306824769,3.1804824465352883,1.783390716173909,model_implied_state_space,2.0808,0.24057630682476905,False,True,50,-6469.2853342069075,-7498.543314628145,-6469.2853342069075,0.6272767151895096,9.693790550203759e-05,50.0,14,4,0.02
standard_dfm,exact,2019:Q4:pre_advance:exact,2020-01-29,pre_advance,A,2019:Q4,1.9184646342382905,,,not_available,2.0808,-0.16233536576170948,False,True,0,,,,,,,14,4,0.02
release_dfm,exact,2019:Q4:pre_advance:exact,2020-01-29,pre_advance,A,2019:Q4,1.9184646342382905,,,not_available,2.0808,-0.16233536576170948,False,True,0,,,,,,,14,4,0.02
revision_dfm_kalman_em,exact,2019:Q4:pre_advance:exact,2020-01-29,pre_advance,A,2019:Q4,1.4371076233295565,3.1639656358892276,1.7787539559728962,model_implied_state_space,2.0808,-0.6436923766704434,False,True,23,-2045.3866608484493,-3053.825412828364,-2045.3866608484493,0.18094199524784926,8.84124203844677e-05,23.0,14,4,0.02
indicator_revision_only_dfm_kalman_em,exact,2019:Q4:pre_advance:exact,2020-01-29,pre_advance,A,2019:Q4,1.6389710408694238,3.693828339757821,1.9219334899412677,model_implied_state_space,2.0808,-0.4418289591305762,False,True,25,-3791.1727334902107,-4972.172919400993,-3791.1727334902107,0.36362308682782896,9.587860277126459e-05,25.0,14,4,0.02
joint_indicator_revision_dfm_full_kalman_em,exact,2019:Q4:pre_advance:exact,2020-01-29,pre_advance,A,2019:Q4,1.5870369616248905,2.644016194168056,1.6260431095663042,model_implied_state_space,2.0808,-0.4937630383751095,False,True,26,-3755.648477248013,-4986.560556432129,-3755.648477248013,0.3588824962680519,9.552350099534516e-05,26.0,14,4,0.02
ar,exact,2019:Q4:pre_second:exact,2020-02-26,pre_second,S,2019:Q4,2.3765756189143223,,,not_available,2.0956,0.2809756189143222,False,True,0,,,,,,,14,4,0.02
no_revision,exact,2019:Q4:pre_second:exact,2020-02-26,pre_second,S,2019:Q4,2.0808,,,not_available,2.0956,-0.014800000000000146,False,True,0,,,,,,,14,4,0.02
bridge,exact,2019:Q4:pre_second:exact,2020-02-26,pre_second,S,2019:Q4,2.8435719314230106,,,not_available,2.0956,0.7479719314230104,False,True,0,,,,,,,14,4,0.02
midas_umidas,exact,2019:Q4:pre_second:exact,2020-02-26,pre_second,S,2019:Q4,2.407347471050032,,,not_available,2.0956,0.31174747105003187,False,True,0,,,,,,,14,4,0.02
monthly_mixed_frequency_kalman_em,exact,2019:Q4:pre_second:exact,2020-02-26,pre_second,S,2019:Q4,1.8308919516610667,0.3409102591919393,0.5838752085779454,model_implied_state_space,2.0956,-0.26470804833893347,False,True,87,-6438.970241778739,-7517.704691580865,-6438.970241778739,0.5797461170295719,9.00150015323434e-05,87.0,14,4,0.02
standard_dfm,exact,2019:Q4:pre_second:exact,2020-02-26,pre_second,S,2019:Q4,2.072184393236813,,,not_available,2.0956,-0.023415606763187213,False,True,0,,,,,,,14,4,0.02
release_dfm,exact,2019:Q4:pre_second:exact,2020-02-26,pre_second,S,2019:Q4,2.146839918234161,,,not_available,2.0956,0.051239918234160964,False,True,0,,,,,,,14,4,0.02
revision_dfm_kalman_em,exact,2019:Q4:pre_second:exact,2020-02-26,pre_second,S,2019:Q4,2.2037107214136795,0.3966571533367588,0.6298072350622521,model_implied_state_space,2.0956,0.10811072141367939,False,True,21,-2045.6247442817373,-3038.8710404578774,-2045.6247442817373,0.18645697284750895,9.10963222857198e-05,21.0,14,4,0.02
indicator_revision_only_dfm_kalman_em,exact,2019:Q4:pre_second:exact,2020-02-26,pre_second,S,2019:Q4,2.046860455683476,0.3873717706108329,0.6223919750533685,model_implied_state_space,2.0956,-0.048739544316524164,False,True,25,-3791.5989787393005,-4973.144331743128,-3791.5989787393005,0.3626597856209628,9.561388175863565e-05,25.0,14,4,0.02
joint_indicator_revision_dfm_full_kalman_em,exact,2019:Q4:pre_second:exact,2020-02-26,pre_second,S,2019:Q4,2.164920372828096,0.38521776269512004,0.620659135673616,model_implied_state_space,2.0956,0.06932037282809578,False,True,26,-3755.9402068995687,-4987.636214211693,-3755.9402068995687,0.35774062055998,9.521220450353e-05,26.0,14,4,0.02
ar,exact,2019:Q4:pre_third:exact,2020-03-25,pre_third,T,2019:Q4,2.41550164741769,,,not_available,2.1275,0.2880016474176901,False,True,0,,,,,,,14,4,0.02
no_revision,exact,2019:Q4:pre_third:exact,2020-03-25,pre_third,T,2019:Q4,2.0956,,,not_available,2.1275,-0.03189999999999982,False,True,0,,,,,,,14,4,0.02
bridge,exact,2019:Q4:pre_third:exact,2020-03-25,pre_third,T,2019:Q4,2.864398639107203,,,not_available,2.1275,0.7368986391072032,False,True,0,,,,,,,14,4,0.02
midas_umidas,exact,2019:Q4:pre_third:exact,2020-03-25,pre_third,T,2019:Q4,2.010628492430776,,,not_available,2.1275,-0.11687150756922415,False,True,0,,,,,,,14,4,0.02
monthly_mixed_frequency_kalman_em,exact,2019:Q4:pre_third:exact,2020-03-25,pre_third,T,2019:Q4,1.9491936121009557,0.14080023833339672,0.3752335783660582,model_implied_state_space,2.1275,-0.1783063878990443,False,True,53,-6506.291415830412,-7539.787496723451,-6506.291415830412,0.6501470142229664,9.990056117510461e-05,53.0,14,4,0.02
standard_dfm,exact,2019:Q4:pre_third:exact,2020-03-25,pre_third,T,2019:Q4,2.132247901709427,,,not_available,2.1275,0.0047479017094271825,False,True,0,,,,,,,14,4,0.02
release_dfm,exact,2019:Q4:pre_third:exact,2020-03-25,pre_third,T,2019:Q4,2.161040249378947,,,not_available,2.1275,0.03354024937894717,False,True,0,,,,,,,14,4,0.02
revision_dfm_kalman_em,exact,2019:Q4:pre_third:exact,2020-03-25,pre_third,T,2019:Q4,2.106472029820099,0.1457010087272518,0.381708015015734,model_implied_state_space,2.1275,-0.02102797017990099,False,True,23,-2045.615081894456,-3056.14488568595,-2045.615081894456,0.1826919129405269,8.925743191555679e-05,23.0,14,4,0.02
indicator_revision_only_dfm_kalman_em,exact,2019:Q4:pre_third:exact,2020-03-25,pre_third,T,2019:Q4,2.0923868655783613,0.15003741412245591,0.38734663303358646,model_implied_state_space,2.1275,-0.03511313442163866,False,True,25,-3791.4323494894657,-4967.622005844431,-3791.4323494894657,0.36265368569229395,9.561647423303831e-05,25.0,14,4,0.02
joint_indicator_revision_dfm_full_kalman_em,exact,2019:Q4:pre_third:exact,2020-03-25,pre_third,T,2019:Q4,2.1035920988886403,0.1453185072956875,0.381206646447419,model_implied_state_space,2.1275,-0.023907901111359653,False,True,26,-3755.9410083016146,-4982.430277024741,-3755.9410083016146,0.366566663908543,9.756099456720856e-05,26.0,14,4,0.02
ar,pseudo,2019:Q4:pre_advance:pseudo,2020-01-31,pre_advance,A,2019:Q4,2.2100311607376257,,,not_available,2.0808,0.12923116073762575,False,True,0,,,,,,,14,4,0.02
no_revision,pseudo,2019:Q4:pre_advance:pseudo,2020-01-31,pre_advance,A,2019:Q4,2.1968709062412755,,,not_available,2.0808,0.11607090624127547,False,True,0,,,,,,,14,4,0.02
bridge,pseudo,2019:Q4:pre_advance:pseudo,2020-01-31,pre_advance,A,2019:Q4,2.5104803906747097,,,not_available,2.0808,0.42968039067470976,False,True,0,,,,,,,14,4,0.02
midas_umidas,pseudo,2019:Q4:pre_advance:pseudo,2020-01-31,pre_advance,A,2019:Q4,0.1263758571926259,,,not_available,2.0808,-1.954424142807374,False,True,0,,,,,,,14,4,0.02
monthly_mixed_frequency_kalman_em,pseudo,2019:Q4:pre_advance:pseudo,2020-01-31,pre_advance,A,2019:Q4,2.312207659190274,3.1802250645765655,1.7833185538698815,model_implied_state_space,2.0808,0.23140765919027384,False,True,50,-6470.62796759433,-7499.925111035035,-6470.62796759433,0.6268550275635789,9.685264946191373e-05,50.0,14,4,0.02
standard_dfm,pseudo,2019:Q4:pre_advance:pseudo,2020-01-31,pre_advance,A,2019:Q4,1.9173075948074958,,,not_available,2.0808,-0.1634924051925042,False,True,0,,,,,,,14,4,0.02
release_dfm,pseudo,2019:Q4:pre_advance:pseudo,2020-01-31,pre_advance,A,2019:Q4,1.9173075948074958,,,not_available,2.0808,-0.1634924051925042,False,True,0,,,,,,,14,4,0.02
revision_dfm_kalman_em,pseudo,2019:Q4:pre_advance:pseudo,2020-01-31,pre_advance,A,2019:Q4,1.4363654079935455,3.163955577389704,1.7787511285701842,model_implied_state_space,2.0808,-0.6444345920064545,False,True,23,-2045.3839622958035,-3053.8239195062697,-2045.3839622958035,0.18093706516401653,8.841012822047005e-05,23.0,14,4,0.02
indicator_revision_only_dfm_kalman_em,pseudo,2019:Q4:pre_advance:pseudo,2020-01-31,pre_advance,A,2019:Q4,1.638346259221386,3.693811546084222,1.9219291209834513,model_implied_state_space,2.0808,-0.442453740778614,False,True,25,-3791.17914244301,-4972.17911435054,-3791.17914244301,0.36368948117114996,9.589594561984915e-05,25.0,14,4,0.02
joint_indicator_revision_dfm_full_kalman_em,pseudo,2019:Q4:pre_advance:pseudo,2020-01-31,pre_advance,A,2019:Q4,1.5866692930395156,2.6440186075469874,1.6260438516679023,model_implied_state_space,2.0808,-0.49413070696048433,False,True,26,-3755.655029256576,-4986.566751370717,-3755.655029256576,0.3589447398435368,9.553990012491736e-05,26.0,14,4,0.02
ar,pseudo,2019:Q4:pre_second:pseudo,2020-02-29,pre_second,S,2019:Q4,2.3765756189143223,,,not_available,2.0956,0.2809756189143222,False,True,0,,,,,,,14,4,0.02
no_revision,pseudo,2019:Q4:pre_second:pseudo,2020-02-29,pre_second,S,2019:Q4,2.0808,,,not_available,2.0956,-0.014800000000000146,False,True,0,,,,,,,14,4,0.02
bridge,pseudo,2019:Q4:pre_second:pseudo,2020-02-29,pre_second,S,2019:Q4,2.8529123584527927,,,not_available,2.0956,0.7573123584527925,False,True,0,,,,,,,14,4,0.02
midas_umidas,pseudo,2019:Q4:pre_second:pseudo,2020-02-29,pre_second,S,2019:Q4,2.4205851823166946,,,not_available,2.0956,0.3249851823166945,False,True,0,,,,,,,14,4,0.02
monthly_mixed_frequency_kalman_em,pseudo,2019:Q4:pre_second:pseudo,2020-02-29,pre_second,S,2019:Q4,1.9220105592565297,0.3477306015605787,0.5896868673801196,model_implied_state_space,2.0956,-0.17358944074347038,False,True,53,-6488.448639322011,-7520.511986458246,-6488.448639322011,0.6459187049040338,9.952377413440994e-05,53.0,14,4,0.02
standard_dfm,pseudo,2019:Q4:pre_second:pseudo,2020-02-29,pre_second,S,2019:Q4,2.0812869841245267,,,not_available,2.0956,-0.0143130158754734,False,True,0,,,,,,,14,4,0.02
release_dfm,pseudo,2019:Q4:pre_second:pseudo,2020-02-29,pre_second,S,2019:Q4,2.1473853057521275,,,not_available,2.0956,0.051785305752127364,False,True,0,,,,,,,14,4,0.02
revision_dfm_kalman_em,pseudo,2019:Q4:pre_second:pseudo,2020-02-29,pre_second,S,2019:Q4,2.203696548112858,0.39665851540187785,0.6298083163962491,model_implied_state_space,2.0956,0.10809654811285796,False,True,21,-2045.6145201766046,-3038.855958837104,-2045.6145201766046,0.18646536586470575,9.110087750680182e-05,21.0,14,4,0.02
indicator_revision_only_dfm_kalman_em,pseudo,2019:Q4:pre_second:pseudo,2020-02-29,pre_second,S,2019:Q4,2.0480413968624607,0.3873692917982152,0.6223899836904634,model_implied_state_space,2.0956,-0.04755860313753946,False,True,25,-3791.637088039985,-4973.176821116282,-3791.637088039985,0.36275416125090487,9.563780024846601e-05,25.0,14,4,0.02
joint_indicator_revision_dfm_full_kalman_em,pseudo,2019:Q4:pre_second:pseudo,2020-02-29,pre_second,S,2019:Q4,2.1648232674120313,0.3852212621182661,0.6206619547855871,model_implied_state_space,2.0956,0.06922326741203122,False,True,26,-3755.977061539581,-4987.668739498454,-3755.977061539581,0.35782890898053665,9.52347659747247e-05,26.0,14,4,0.02
ar,pseudo,2019:Q4:pre_third:pseudo,2020-03-31,pre_third,T,2019:Q4,2.41550164741769,,,not_available,2.1275,0.2880016474176901,False,True,0,,,,,,,14,4,0.02
no_revision,pseudo,2019:Q4:pre_third:pseudo,2020-03-31,pre_third,T,2019:Q4,2.0956,,,not_available,2.1275,-0.03189999999999982,False,True,0,,,,,,,14,4,0.02
bridge,pseudo,2019:Q4:pre_third:pseudo,2020-03-31,pre_third,T,2019:Q4,2.8646820537455304,,,not_available,2.1275,0.7371820537455305,False,True,0,,,,,,,14,4,0.02
midas_umidas,pseudo,2019:Q4:pre_third:pseudo,2020-03-31,pre_third,T,2019:Q4,2.0064379187967267,,,not_available,2.1275,-0.12106208120327322,False,True,0,,,,,,,14,4,0.02
monthly_mixed_frequency_kalman_em,pseudo,2019:Q4:pre_third:pseudo,2020-03-31,pre_third,T,2019:Q4,1.8967459996732918,0.13417929717566401,0.3663049237666128,model_implied_state_space,2.1275,-0.23075400032670812,False,True,87,-6459.905496539938,-7541.2159128546655,-6459.905496539938,0.5675317894992986,8.783319020462265e-05,87.0,14,4,0.02
standard_dfm,pseudo,2019:Q4:pre_third:pseudo,2020-03-31,pre_third,T,2019:Q4,2.132690978022118,,,not_available,2.1275,0.005190978022118209,False,True,0,,,,,,,14,4,0.02
release_dfm,pseudo,2019:Q4:pre_third:pseudo,2020-03-31,pre_third,T,2019:Q4,2.1610461765746436,,,not_available,2.1275,0.03354617657464365,False,True,0,,,,,,,14,4,0.02
revision_dfm_kalman_em,pseudo,2019:Q4:pre_third:pseudo,2020-03-31,pre_third,T,2019:Q4,2.1064721330596026,0.14570100945330797,0.3817080159667962,model_implied_state_space,2.1275,-0.021027866940397377,False,True,23,-2045.615718742448,-3056.1453024185375,-2045.615718742448,0.18269321929324178,8.925804232872186e-05,23.0,14,4,0.02
indicator_revision_only_dfm_kalman_em,pseudo,2019:Q4:pre_third:pseudo,2020-03-31,pre_third,T,2019:Q4,2.0923883944313477,0.15003741476504528,0.38734663386306234,model_implied_state_space,2.1275,-0.03511160556865223,False,True,25,-3791.4325439412705,-4967.622128395279,-3791.4325439412705,0.3626479380322962,9.56149540604661e-05,25.0,14,4,0.02
joint_indicator_revision_dfm_full_kalman_em,pseudo,2019:Q4:pre_third:pseudo,2020-03-31,pre_third,T,2019:Q4,2.1035917633870236,0.14531850210244834,0.3812066396358389,model_implied_state_space,2.1275,-0.023908236612976363,False,True,26,-3755.9411724283614,-4982.430399424705,-3755.9411724283614,0.3665614162032398,9.755959377545199e-05,26.0,14,4,0.02
ar,exact,2020:Q1:pre_advance:exact,2020-04-28,pre_advance,A,2020:Q1,2.2897072387924506,,,not_available,-4.7832,7.0729072387924505,False,True,0,,,,,,,14,4,0.02
no_revision,exact,2020:Q1:pre_advance:exact,2020-04-28,pre_advance,A,2020:Q1,2.323386808382237,,,not_available,-4.7832,7.106586808382237,False,True,0,,,,,,,14,4,0.02
bridge,exact,2020:Q1:pre_advance:exact,2020-04-28,pre_advance,A,2020:Q1,1.6139523635539974,,,not_available,-4.7832,6.397152363553998,False,True,0,,,,,,,14,4,0.02
midas_umidas,exact,2020:Q1:pre_advance:exact,2020-04-28,pre_advance,A,2020:Q1,6.983423304700622,,,not_available,-4.7832,11.766623304700623,False,True,0,,,,,,,14,4,0.02
monthly_mixed_frequency_kalman_em,exact,2020:Q1:pre_advance:exact,2020-04-28,pre_advance,A,2020:Q1,-0.435795227697092,2.8147618221056883,1.6777251926658574,model_implied_state_space,-4.7832,4.347404772302908,False,True,40,-6365.157784502217,-7570.539615772524,-6365.157784502217,0.5121276228919669,8.04388526436147e-05,40.0,14,4,0.02
standard_dfm,exact,2020:Q1:pre_advance:exact,2020-04-28,pre_advance,A,2020:Q1,0.6240466118451982,,,not_available,-4.7832,5.407246611845198,False,True,0,,,,,,,14,4,0.02
release_dfm,exact,2020:Q1:pre_advance:exact,2020-04-28,pre_advance,A,2020:Q1,0.6240466118451982,,,not_available,-4.7832,5.407246611845198,False,True,0,,,,,,,14,4,0.02
revision_dfm_kalman_em,exact,2020:Q1:pre_advance:exact,2020-04-28,pre_advance,A,2020:Q1,-0.8895416657744457,3.142744515289388,1.7727787553130785,model_implied_state_space,-4.7832,3.893658334225554,False,True,21,-2059.8737482400256,-3060.12942475831,-2059.8737482400256,0.18902539695773157,9.17125860384031e-05,21.0,14,4,0.02
indicator_revision_only_dfm_kalman_em,exact,2020:Q1:pre_advance:exact,2020-04-28,pre_advance,A,2020:Q1,-0.6315151495422406,3.634839811292168,1.9065255863198292,model_implied_state_space,-4.7832,4.151684850457759,False,True,25,-3819.4939639675445,-5004.63747330793,-3819.4939639675445,0.3776664383631214,9.884300622866e-05,25.0,14,4,0.02
joint_indicator_revision_dfm_full_kalman_em,exact,2020:Q1:pre_advance:exact,2020-04-28,pre_advance,A,2020:Q1,-0.5451775543994506,2.5813296429971624,1.6066516868933236,model_implied_state_space,-4.7832,4.238022445600549,False,True,27,-3783.492504857789,-5019.434071899722,-3783.492504857789,0.350361733576392,9.256969071794737e-05,27.0,14,4,0.02
ar,exact,2020:Q1:pre_second:exact,2020-05-27,pre_second,S,2020:Q1,2.362411208093053,,,not_available,-5.0477,7.410111208093053,False,True,0,,,,,,,14,4,0.02
no_revision,exact,2020:Q1:pre_second:exact,2020-05-27,pre_second,S,2020:Q1,-4.7832,,,not_available,-5.0477,0.26449999999999996,False,True,0,,,,,,,14,4,0.02
bridge,exact,2020:Q1:pre_second:exact,2020-05-27,pre_second,S,2020:Q1,1.5192628497722622,,,not_available,-5.0477,6.566962849772262,False,True,0,,,,,,,14,4,0.02
midas_umidas,exact,2020:Q1:pre_second:exact,2020-05-27,pre_second,S,2020:Q1,-5.0219408204296805,,,not_available,-5.0477,0.025759179570319368,False,True,0,,,,,,,14,4,0.02
monthly_mixed_frequency_kalman_em,exact,2020:Q1:pre_second:exact,2020-05-27,pre_second,S,2020:Q1,-4.457447833958721,0.3389045054750804,0.5821550527781069,model_implied_state_space,-5.0477,0.590252166041279,False,True,38,-5904.76722749727,-7387.481874880861,-5904.76722749727,0.5293239996499324,8.962028828636753e-05,38.0,14,4,0.02
standard_dfm,exact,2020:Q1:pre_second:exact,2020-05-27,pre_second,S,2020:Q1,0.4106136891548773,,,not_available,-5.0477,5.458313689154878,False,True,0,,,,,,,14,4,0.02
release_dfm,exact,2020:Q1:pre_second:exact,2020-05-27,pre_second,S,2020:Q1,-5.062017677057046,,,not_available,-5.0477,-0.014317677057046119,False,True,0,,,,,,,14,4,0.02
revision_dfm_kalman_em,exact,2020:Q1:pre_second:exact,2020-05-27,pre_second,S,2020:Q1,-5.0935773995712355,0.39604036316233093,0.629317378722637,model_implied_state_space,-5.0477,-0.0458773995712356,False,True,20,-2059.199472850843,-3061.2895504451953,-2059.199472850843,0.2013050786617896,9.770190383255481e-05,20.0,14,4,0.02
indicator_revision_only_dfm_kalman_em,exact,2020:Q1:pre_second:exact,2020-05-27,pre_second,S,2020:Q1,-4.35410292595059,0.38728031838061383,0.6223185023608199,model_implied_state_space,-5.0477,0.6935970740494097,False,True,25,-3818.0840131109367,-5005.755757611344,-3818.0840131109367,0.3740931284787621,9.794403239235655e-05,25.0,14,4,0.02
joint_indicator_revision_dfm_full_kalman_em,exact,2020:Q1:pre_second:exact,2020-05-27,pre_second,S,2020:Q1,-4.97091566126904,0.382349198020937,0.6183439156496464,model_implied_state_space,-5.0477,0.07678433873095969,False,True,27,-3782.694915169641,-5020.22436208399,-3782.694915169641,0.34848400958435377,9.209302664444636e-05,27.0,14,4,0.02
ar,exact,2020:Q1:pre_third:exact,2020-06-24,pre_third,T,2020:Q1,2.4250162204474304,,,not_available,-4.9937,7.41871622044743,False,True,0,,,,,,,14,4,0.02
no_revision,exact,2020:Q1:pre_third:exact,2020-06-24,pre_third,T,2020:Q1,-5.0477,,,not_available,-4.9937,-0.05400000000000027,False,True,0,,,,,,,14,4,0.02
bridge,exact,2020:Q1:pre_third:exact,2020-06-24,pre_third,T,2020:Q1,1.2725491109883,,,not_available,-4.9937,6.2662491109883,False,True,0,,,,,,,14,4,0.02
midas_umidas,exact,2020:Q1:pre_third:exact,2020-06-24,pre_third,T,2020:Q1,-4.6542372064798965,,,not_available,-4.9937,0.3394627935201031,False,True,0,,,,,,,14,4,0.02
monthly_mixed_frequency_kalman_em,exact,2020:Q1:pre_third:exact,2020-06-24,pre_third,T,2020:Q1,-5.349545992541492,0.15257514584676934,0.39060868634321144,model_implied_state_space,-4.9937,-0.3558459925414921,False,True,30,-5842.564757670993,-7569.414509506856,-5842.564757670993,0.568459167846413,9.727005644027727e-05,30.0,14,4,0.02
standard_dfm,exact,2020:Q1:pre_third:exact,2020-06-24,pre_third,T,2020:Q1,0.40658589299139214,,,not_available,-4.9937,5.400285892991391,False,True,0,,,,,,,14,4,0.02
release_dfm,exact,2020:Q1:pre_third:exact,2020-06-24,pre_third,T,2020:Q1,-5.096306401636982,,,not_available,-4.9937,-0.10260640163698209,False,True,0,,,,,,,14,4,0.02
revision_dfm_kalman_em,exact,2020:Q1:pre_third:exact,2020-06-24,pre_third,T,2020:Q1,-5.065914251427236,0.1449072061965575,0.3806667915599646,model_implied_state_space,-4.9937,-0.07221425142723614,False,True,20,-2056.885562224355,-3062.80198270424,-2056.885562224355,0.20443776309593886,9.933373326588507e-05,20.0,14,4,0.02
indicator_revision_only_dfm_kalman_em,exact,2020:Q1:pre_third:exact,2020-06-24,pre_third,T,2020:Q1,-5.00140013603632,0.14932144314052434,0.3864213285269388,model_implied_state_space,-4.9937,-0.007700136036320693,False,True,25,-3815.5096626526424,-5014.333175013727,-3815.5096626526424,0.3611934100590588,9.463076527342829e-05,25.0,14,4,0.02
joint_indicator_revision_dfm_full_kalman_em,exact,2020:Q1:pre_third:exact,2020-06-24,pre_third,T,2020:Q1,-5.057126782724023,0.14466016061545076,0.3803421625529449,model_implied_state_space,-4.9937,-0.06342678272402313,False,True,26,-3779.672026874409,-5028.426197440133,-3779.672026874409,0.36634696589453597,9.68905707038479e-05,26.0,14,4,0.02
ar,pseudo,2020:Q1:pre_advance:pseudo,2020-04-30,pre_advance,A,2020:Q1,2.2897072387924506,,,not_available,-4.7832,7.0729072387924505,False,True,0,,,,,,,14,4,0.02
no_revision,pseudo,2020:Q1:pre_advance:pseudo,2020-04-30,pre_advance,A,2020:Q1,2.323386808382237,,,not_available,-4.7832,7.106586808382237,False,True,0,,,,,,,14,4,0.02
bridge,pseudo,2020:Q1:pre_advance:pseudo,2020-04-30,pre_advance,A,2020:Q1,1.6186201510230136,,,not_available,-4.7832,6.4018201510230135,False,True,0,,,,,,,14,4,0.02
midas_umidas,pseudo,2020:Q1:pre_advance:pseudo,2020-04-30,pre_advance,A,2020:Q1,6.412402070448358,,,not_available,-4.7832,11.19560207044836,False,True,0,,,,,,,14,4,0.02
monthly_mixed_frequency_kalman_em,pseudo,2020:Q1:pre_advance:pseudo,2020-04-30,pre_advance,A,2020:Q1,-0.43496932211960404,2.812883517601773,1.6771653220841924,model_implied_state_space,-4.7832,4.348230677880396,False,True,40,-6365.75857504451,-7568.960720705711,-6365.75857504451,0.5585125763955148,8.771552738929141e-05,40.0,14,4,0.02
standard_dfm,pseudo,2020:Q1:pre_advance:pseudo,2020-04-30,pre_advance,A,2020:Q1,0.5327006664243215,,,not_available,-4.7832,5.315900666424321,False,True,0,,,,,,,14,4,0.02
release_dfm,pseudo,2020:Q1:pre_advance:pseudo,2020-04-30,pre_advance,A,2020:Q1,0.5327006664243215,,,not_available,-4.7832,5.315900666424321,False,True,0,,,,,,,14,4,0.02
revision_dfm_kalman_em,pseudo,2020:Q1:pre_advance:pseudo,2020-04-30,pre_advance,A,2020:Q1,-0.9390015695406526,3.140118953289957,1.772038078961611,model_implied_state_space,-4.7832,3.8441984304593473,False,True,21,-2059.0433353816693,-3059.7341322580573,-2059.0433353816693,0.18877583746461823,9.16284317852472e-05,21.0,14,4,0.02
indicator_revision_only_dfm_kalman_em,pseudo,2020:Q1:pre_advance:pseudo,2020-04-30,pre_advance,A,2020:Q1,-0.6743655394003123,3.633461469896483,1.9061640721345272,model_implied_state_space,-4.7832,4.108834460599688,False,True,25,-3818.4776951524073,-5003.949196170431,-3818.4776951524073,0.3760064531129501,9.843477852434796e-05,25.0,14,4,0.02
joint_indicator_revision_dfm_full_kalman_em,pseudo,2020:Q1:pre_advance:pseudo,2020-04-30,pre_advance,A,2020:Q1,-0.5892794370997554,2.5797248606883723,1.6061521910106689,model_implied_state_space,-4.7832,4.193920562900244,False,True,27,-3782.4662903641183,-5018.745648316283,-3782.4662903641183,0.34937894473887354,9.233508586920417e-05,27.0,14,4,0.02
ar,pseudo,2020:Q1:pre_second:pseudo,2020-05-31,pre_second,S,2020:Q1,2.362411208093053,,,not_available,-5.0477,7.410111208093053,False,True,0,,,,,,,14,4,0.02
no_revision,pseudo,2020:Q1:pre_second:pseudo,2020-05-31,pre_second,S,2020:Q1,-4.7832,,,not_available,-5.0477,0.26449999999999996,False,True,0,,,,,,,14,4,0.02
bridge,pseudo,2020:Q1:pre_second:pseudo,2020-05-31,pre_second,S,2020:Q1,1.51011815047926,,,not_available,-5.0477,6.55781815047926,False,True,0,,,,,,,14,4,0.02
midas_umidas,pseudo,2020:Q1:pre_second:pseudo,2020-05-31,pre_second,S,2020:Q1,-5.297727048454643,,,not_available,-5.0477,-0.2500270484546432,False,True,0,,,,,,,14,4,0.02
monthly_mixed_frequency_kalman_em,pseudo,2020:Q1:pre_second:pseudo,2020-05-31,pre_second,S,2020:Q1,-4.534396625304282,0.33888374801190985,0.5821372243826277,model_implied_state_space,-5.0477,0.5133033746957176,False,True,44,-5864.340540144614,-7345.674777637329,-5864.340540144614,0.547686764674836,9.3368087404456e-05,44.0,14,4,0.02
standard_dfm,pseudo,2020:Q1:pre_second:pseudo,2020-05-31,pre_second,S,2020:Q1,0.400962282321097,,,not_available,-5.0477,5.448662282321097,False,True,0,,,,,,,14,4,0.02
release_dfm,pseudo,2020:Q1:pre_second:pseudo,2020-05-31,pre_second,S,2020:Q1,-5.062788567388224,,,not_available,-5.0477,-0.01508856738822395,False,True,0,,,,,,,14,4,0.02
revision_dfm_kalman_em,pseudo,2020:Q1:pre_second:pseudo,2020-05-31,pre_second,S,2020:Q1,-5.092932347422785,0.3959874180472499,0.6292753118049761,model_implied_state_space,-5.0477,-0.045232347422785146,False,True,20,-2060.13850682132,-3061.7017955035035,-2060.13850682132,0.20200654802647477,9.799766060789574e-05,20.0,14,4,0.02
indicator_revision_only_dfm_kalman_em,pseudo,2020:Q1:pre_second:pseudo,2020-05-31,pre_second,S,2020:Q1,-4.35573234843576,0.3872151466514091,0.6222661381205064,model_implied_state_space,-5.0477,0.6919676515642399,False,True,25,-3818.887396929321,-5006.102168653641,-3818.887396929321,0.3717078661538835,9.729912447228723e-05,25.0,14,4,0.02
joint_indicator_revision_dfm_full_kalman_em,pseudo,2020:Q1:pre_second:pseudo,2020-05-31,pre_second,S,2020:Q1,-4.971040497748658,0.3830805446748576,0.6189350084418053,model_implied_state_space,-5.0477,0.0766595022513421,False,True,26,-3783.835381644649,-5020.570597092845,-3783.835381644649,0.3783903128401107,9.9965374648954e-05,26.0,14,4,0.02
ar,pseudo,2020:Q1:pre_third:pseudo,2020-06-30,pre_third,T,2020:Q1,2.4250162204474304,,,not_available,-4.9937,7.41871622044743,False,True,0,,,,,,,14,4,0.02
no_revision,pseudo,2020:Q1:pre_third:pseudo,2020-06-30,pre_third,T,2020:Q1,-5.0477,,,not_available,-4.9937,-0.05400000000000027,False,True,0,,,,,,,14,4,0.02
bridge,pseudo,2020:Q1:pre_third:pseudo,2020-06-30,pre_third,T,2020:Q1,1.2646961124291711,,,not_available,-4.9937,6.258396112429171,False,True,0,,,,,,,14,4,0.02
midas_umidas,pseudo,2020:Q1:pre_third:pseudo,2020-06-30,pre_third,T,2020:Q1,-4.652482852347865,,,not_available,-4.9937,0.3412171476521344,False,True,0,,,,,,,14,4,0.02
monthly_mixed_frequency_kalman_em,pseudo,2020:Q1:pre_third:pseudo,2020-06-30,pre_third,T,2020:Q1,-5.348879665225306,0.1525827713012122,0.39061844721058964,model_implied_state_space,-4.9937,-0.35517966522530653,False,True,30,-5848.09797214537,-7570.982370400096,-5848.09797214537,0.5808403497094332,9.929440031284142e-05,30.0,14,4,0.02
standard_dfm,pseudo,2020:Q1:pre_third:pseudo,2020-06-30,pre_third,T,2020:Q1,0.3938563920230176,,,not_available,-4.9937,5.387556392023017,False,True,0,,,,,,,14,4,0.02
release_dfm,pseudo,2020:Q1:pre_third:pseudo,2020-06-30,pre_third,T,2020:Q1,-5.096460939848946,,,not_available,-4.9937,-0.10276093984894619,False,True,0,,,,,,,14,4,0.02
revision_dfm_kalman_em,pseudo,2020:Q1:pre_third:pseudo,2020-06-30,pre_third,T,2020:Q1,-5.065917358948244,0.14490723963866753,0.3806668354856613,model_implied_state_space,-4.9937,-0.07221735894824466,False,True,20,-2056.7908935805253,-3062.760967909129,-2056.7908935805253,0.20440029514611524,9.93200984250956e-05,20.0,14,4,0.02
indicator_revision_only_dfm_kalman_em,pseudo,2020:Q1:pre_third:pseudo,2020-06-30,pre_third,T,2020:Q1,-5.00143795935762,0.14932163388306388,0.3864215753332931,model_implied_state_space,-4.9937,-0.007737959357620561,False,True,25,-3815.452088194471,-5014.315845610047,-3815.452088194471,0.36130184931744225,9.466060097669517e-05,25.0,14,4,0.02
joint_indicator_revision_dfm_full_kalman_em,pseudo,2020:Q1:pre_third:pseudo,2020-06-30,pre_third,T,2020:Q1,-5.057122492115544,0.14466016108720647,0.3803421631731177,model_implied_state_space,-4.9937,-0.06342249211554485,False,True,26,-3779.6130164977553,-5028.4088687151325,-3779.6130164977553,0.3664558721116009,9.692088380525148e-05,26.0,14,4,0.02
ar,exact,2020:Q2:pre_advance:exact,2020-07-29,pre_advance,A,2020:Q2,-1.1573964624978355,,,not_available,-32.9038,31.74640353750216,False,True,0,,,,,,,14,4,0.02
no_revision,exact,2020:Q2:pre_advance:exact,2020-07-29,pre_advance,A,2020:Q2,-1.1484712531706052,,,not_available,-32.9038,31.75532874682939,False,True,0,,,,,,,14,4,0.02
bridge,exact,2020:Q2:pre_advance:exact,2020-07-29,pre_advance,A,2020:Q2,-11.104287028089175,,,not_available,-32.9038,21.799512971910822,False,True,0,,,,,,,14,4,0.02
midas_umidas,exact,2020:Q2:pre_advance:exact,2020-07-29,pre_advance,A,2020:Q2,30.848015896470223,,,not_available,-32.9038,63.75181589647022,False,True,0,,,,,,,14,4,0.02
monthly_mixed_frequency_kalman_em,exact,2020:Q2:pre_advance:exact,2020-07-29,pre_advance,A,2020:Q2,-17.29279099840882,2.7860907616824515,1.6691586987708662,model_implied_state_space,-32.9038,15.611009001591178,False,True,30,-5800.950420662696,-7576.408237289621,-5800.950420662696,0.543709375088838,9.370270144250838e-05,30.0,14,4,0.02
standard_dfm,exact,2020:Q2:pre_advance:exact,2020-07-29,pre_advance,A,2020:Q2,-15.718307815729272,,,not_available,-32.9038,17.185492184270725,False,True,0,,,,,,,14,4,0.02
release_dfm,exact,2020:Q2:pre_advance:exact,2020-07-29,pre_advance,A,2020:Q2,-15.718307815729272,,,not_available,-32.9038,17.185492184270725,False,True,0,,,,,,,14,4,0.02
revision_dfm_kalman_em,exact,2020:Q2:pre_advance:exact,2020-07-29,pre_advance,A,2020:Q2,-20.538683753601973,2.1401441310956955,1.4629231459976615,model_implied_state_space,-32.9038,12.365116246398024,False,True,29,-1891.946982697696,-3089.965874298589,-1891.946982697696,0.175587175292776,9.275003007573688e-05,29.0,14,4,0.02
indicator_revision_only_dfm_kalman_em,exact,2020:Q2:pre_advance:exact,2020-07-29,pre_advance,A,2020:Q2,-25.556003577439427,2.822139124386235,1.679922356654091,model_implied_state_space,-32.9038,7.34779642256057,False,True,36,-3399.2138966514613,-5001.965224272022,-3399.2138966514613,0.27943559697450837,8.217501687901947e-05,36.0,14,4,0.02
joint_indicator_revision_dfm_full_kalman_em,exact,2020:Q2:pre_advance:exact,2020-07-29,pre_advance,A,2020:Q2,-26.29862133567608,1.8719722049468226,1.3682003526336421,model_implied_state_space,-32.9038,6.605178664323915,False,True,37,-3358.2158312573138,-5016.366507322214,-3358.2158312573138,0.3146091543271723,9.364676400688409e-05,37.0,14,4,0.02
ar,exact,2020:Q2:pre_second:exact,2020-08-26,pre_second,S,2020:Q2,-0.9346260921233107,,,not_available,-31.7041,30.76947390787669,False,True,0,,,,,,,14,4,0.02
no_revision,exact,2020:Q2:pre_second:exact,2020-08-26,pre_second,S,2020:Q2,-32.9038,,,not_available,-31.7041,-1.1996999999999964,False,True,0,,,,,,,14,4,0.02
bridge,exact,2020:Q2:pre_second:exact,2020-08-26,pre_second,S,2020:Q2,-11.728274633025507,,,not_available,-31.7041,19.975825366974494,False,True,0,,,,,,,14,4,0.02
midas_umidas,exact,2020:Q2:pre_second:exact,2020-08-26,pre_second,S,2020:Q2,-3.540074893379682,,,not_available,-31.7041,28.16402510662032,False,True,0,,,,,,,14,4,0.02
monthly_mixed_frequency_kalman_em,exact,2020:Q2:pre_second:exact,2020-08-26,pre_second,S,2020:Q2,-33.66595335826234,0.3429319133219236,0.5856038877278084,model_implied_state_space,-31.7041,-1.961853358262342,False,True,30,-5790.936824378299,-7593.671304928383,-5790.936824378299,0.5359329527009322,9.252230871913056e-05,30.0,14,4,0.02
standard_dfm,exact,2020:Q2:pre_second:exact,2020-08-26,pre_second,S,2020:Q2,-17.217326420438106,,,not_available,-31.7041,14.486773579561895,False,True,0,,,,,,,14,4,0.02
release_dfm,exact,2020:Q2:pre_second:exact,2020-08-26,pre_second,S,2020:Q2,-35.1656335115921,,,not_available,-31.7041,-3.4615335115920978,False,True,0,,,,,,,14,4,0.02
revision_dfm_kalman_em,exact,2020:Q2:pre_second:exact,2020-08-26,pre_second,S,2020:Q2,-34.70625368623787,0.3877278557991447,0.6226779711850619,model_implied_state_space,-31.7041,-3.0021536862378717,False,True,24,-1847.8910010181376,-3100.4952788383325,-1847.8910010181376,0.1824349828891627,9.866291913408972e-05,24.0,14,4,0.02
indicator_revision_only_dfm_kalman_em,exact,2020:Q2:pre_second:exact,2020-08-26,pre_second,S,2020:Q2,-32.778103679885035,0.36580952891291435,0.6048218985064234,model_implied_state_space,-31.7041,-1.0740036798850348,False,True,42,-3345.9802718385226,-5007.706442182612,-3345.9802718385226,0.28532381507420723,8.52408650943918e-05,42.0,14,4,0.02
joint_indicator_revision_dfm_full_kalman_em,exact,2020:Q2:pre_second:exact,2020-08-26,pre_second,S,2020:Q2,-33.15398534138126,0.346644662206659,0.5887653711001174,model_implied_state_space,-31.7041,-1.4498853413812576,False,True,44,-3306.967314340632,-5016.588970894961,-3306.967314340632,0.3158282427480117,9.546590456020852e-05,44.0,14,4,0.02
ar,exact,2020:Q2:pre_third:exact,2020-09-29,pre_third,T,2020:Q2,-0.7119618796649088,,,not_available,-31.3827,30.67073812033509,False,True,0,,,,,,,14,4,0.02
no_revision,exact,2020:Q2:pre_third:exact,2020-09-29,pre_third,T,2020:Q2,-31.7041,,,not_available,-31.3827,-0.3214000000000006,False,True,0,,,,,,,14,4,0.02
bridge,exact,2020:Q2:pre_third:exact,2020-09-29,pre_third,T,2020:Q2,-11.706443047869818,,,not_available,-31.3827,19.67625695213018,False,True,0,,,,,,,14,4,0.02
midas_umidas,exact,2020:Q2:pre_third:exact,2020-09-29,pre_third,T,2020:Q2,-62.55032037882182,,,not_available,-31.3827,-31.167620378821823,False,True,0,,,,,,,14,4,0.02
monthly_mixed_frequency_kalman_em,exact,2020:Q2:pre_third:exact,2020-09-29,pre_third,T,2020:Q2,-31.98292276889753,0.14698826089382985,0.3833904809640295,model_implied_state_space,-31.3827,-0.600222768897531,False,True,30,-5763.283163787264,-7611.521640025797,-5763.283163787264,0.5381468727000538,9.335013935383299e-05,30.0,14,4,0.02
standard_dfm,exact,2020:Q2:pre_third:exact,2020-09-29,pre_third,T,2020:Q2,-17.276938736761693,,,not_available,-31.3827,14.105761263238307,False,True,0,,,,,,,14,4,0.02
release_dfm,exact,2020:Q2:pre_third:exact,2020-09-29,pre_third,T,2020:Q2,-32.88490959470745,,,not_available,-31.3827,-1.5022095947074519,False,True,0,,,,,,,14,4,0.02
revision_dfm_kalman_em,exact,2020:Q2:pre_third:exact,2020-09-29,pre_third,T,2020:Q2,-31.829199393236046,0.14440453592808053,0.38000596827955285,model_implied_state_space,-31.3827,-0.4464993932360457,False,True,24,-1808.8512235840806,-3106.1389714895004,-1808.8512235840806,0.16879760844722114,9.32573156489226e-05,24.0,14,4,0.02
indicator_revision_only_dfm_kalman_em,exact,2020:Q2:pre_third:exact,2020-09-29,pre_third,T,2020:Q2,-31.755431215917298,0.14805494491038138,0.38477908585366405,model_implied_state_space,-31.3827,-0.3727312159172982,False,True,38,-3301.726083547685,-5021.773672188287,-3301.726083547685,0.28338071673715604,8.579470322537049e-05,38.0,14,4,0.02
joint_indicator_revision_dfm_full_kalman_em,exact,2020:Q2:pre_third:exact,2020-09-29,pre_third,T,2020:Q2,-31.7225758882606,0.1441155680856725,0.3796255630034317,model_implied_state_space,-31.3827,-0.33987588826060033,False,True,39,-3261.9990544341526,-5029.686616407612,-3261.9990544341526,0.3200282149987288,9.806831844924309e-05,39.0,14,4,0.02
ar,pseudo,2020:Q2:pre_advance:pseudo,2020-07-31,pre_advance,A,2020:Q2,-1.1573964624978355,,,not_available,-32.9038,31.74640353750216,False,True,0,,,,,,,14,4,0.02
no_revision,pseudo,2020:Q2:pre_advance:pseudo,2020-07-31,pre_advance,A,2020:Q2,-1.1484712531706052,,,not_available,-32.9038,31.75532874682939,False,True,0,,,,,,,14,4,0.02
bridge,pseudo,2020:Q2:pre_advance:pseudo,2020-07-31,pre_advance,A,2020:Q2,-10.908992164679558,,,not_available,-32.9038,21.994807835320437,False,True,0,,,,,,,14,4,0.02
midas_umidas,pseudo,2020:Q2:pre_advance:pseudo,2020-07-31,pre_advance,A,2020:Q2,33.13857262025131,,,not_available,-32.9038,66.04237262025131,False,True,0,,,,,,,14,4,0.02
monthly_mixed_frequency_kalman_em,pseudo,2020:Q2:pre_advance:pseudo,2020-07-31,pre_advance,A,2020:Q2,-17.306620998822268,2.789537862087015,1.6701909657542202,model_implied_state_space,-32.9038,15.597179001177729,False,True,30,-5805.174913630151,-7577.424273802538,-5805.174913630151,0.5482355668964374,9.441393240389759e-05,30.0,14,4,0.02
standard_dfm,pseudo,2020:Q2:pre_advance:pseudo,2020-07-31,pre_advance,A,2020:Q2,-15.575879759710256,,,not_available,-32.9038,17.327920240289743,False,True,0,,,,,,,14,4,0.02
release_dfm,pseudo,2020:Q2:pre_advance:pseudo,2020-07-31,pre_advance,A,2020:Q2,-15.575879759710256,,,not_available,-32.9038,17.327920240289743,False,True,0,,,,,,,14,4,0.02
revision_dfm_kalman_em,pseudo,2020:Q2:pre_advance:pseudo,2020-07-31,pre_advance,A,2020:Q2,-20.420350293830126,2.1455448422120416,1.464767845841805,model_implied_state_space,-32.9038,12.483449706169871,False,True,29,-1897.3649538437576,-3092.505634661957,-1897.3649538437576,0.16901101542885044,8.902185505087128e-05,29.0,14,4,0.02
indicator_revision_only_dfm_kalman_em,pseudo,2020:Q2:pre_advance:pseudo,2020-07-31,pre_advance,A,2020:Q2,-25.751033204603388,2.8195749258049982,1.6791589936051317,model_implied_state_space,-32.9038,7.152766795396609,False,True,36,-3409.480843644192,-5005.797636372395,-3409.480843644192,0.335802287387196,9.845216622469015e-05,36.0,14,4,0.02
joint_indicator_revision_dfm_full_kalman_em,pseudo,2020:Q2:pre_advance:pseudo,2020-07-31,pre_advance,A,2020:Q2,-26.413418558375206,1.8700548417083742,1.3674994850852318,model_implied_state_space,-32.9038,6.490381441624791,False,True,38,-3368.144902168667,-5020.1919832388585,-3368.144902168667,0.30201316852935634,8.963286145113002e-05,38.0,14,4,0.02
ar,pseudo,2020:Q2:pre_second:pseudo,2020-08-31,pre_second,S,2020:Q2,-0.9346260921233107,,,not_available,-31.7041,30.76947390787669,False,True,0,,,,,,,14,4,0.02
no_revision,pseudo,2020:Q2:pre_second:pseudo,2020-08-31,pre_second,S,2020:Q2,-32.9038,,,not_available,-31.7041,-1.1996999999999964,False,True,0,,,,,,,14,4,0.02
bridge,pseudo,2020:Q2:pre_second:pseudo,2020-08-31,pre_second,S,2020:Q2,-11.717629878838661,,,not_available,-31.7041,19.98647012116134,False,True,0,,,,,,,14,4,0.02
midas_umidas,pseudo,2020:Q2:pre_second:pseudo,2020-08-31,pre_second,S,2020:Q2,-3.5709717284978524,,,not_available,-31.7041,28.133128271502148,False,True,0,,,,,,,14,4,0.02
monthly_mixed_frequency_kalman_em,pseudo,2020:Q2:pre_second:pseudo,2020-08-31,pre_second,S,2020:Q2,-33.665856850705055,0.34295872981940945,0.5856267837278358,model_implied_state_space,-31.7041,-1.9617568507050542,False,True,30,-5794.179609483348,-7595.112622176762,-5794.179609483348,0.5378628933985965,9.280350465013715e-05,30.0,14,4,0.02
standard_dfm,pseudo,2020:Q2:pre_second:pseudo,2020-08-31,pre_second,S,2020:Q2,-17.193668211540995,,,not_available,-31.7041,14.510431788459005,False,True,0,,,,,,,14,4,0.02
release_dfm,pseudo,2020:Q2:pre_second:pseudo,2020-08-31,pre_second,S,2020:Q2,-35.16420465364802,,,not_available,-31.7041,-3.4601046536480204,False,True,0,,,,,,,14,4,0.02
revision_dfm_kalman_em,pseudo,2020:Q2:pre_second:pseudo,2020-08-31,pre_second,S,2020:Q2,-34.70658483737462,0.3877362136468407,0.6226846823608565,model_implied_state_space,-31.7041,-3.0024848373746202,False,True,24,-1848.7534183470832,-3100.7360307594718,-1848.7534183470832,0.1820360175904625,9.840128052088143e-05,24.0,14,4,0.02
indicator_revision_only_dfm_kalman_em,pseudo,2020:Q2:pre_second:pseudo,2020-08-31,pre_second,S,2020:Q2,-32.77864458599208,0.3658112284697006,0.6048233035107862,model_implied_state_space,-31.7041,-1.0745445859920828,False,True,42,-3346.974972177398,-5007.770556362584,-3346.974972177398,0.2937077993069579,8.771930432685627e-05,42.0,14,4,0.02
joint_indicator_revision_dfm_full_kalman_em,pseudo,2020:Q2:pre_second:pseudo,2020-08-31,pre_second,S,2020:Q2,-33.14889498277829,0.34649210992091267,0.5886358041445598,model_implied_state_space,-31.7041,-1.444794982778287,False,True,44,-3307.9966931446743,-5016.653303239432,-3307.9966931446743,0.3261641203284853,9.855917188993894e-05,44.0,14,4,0.02
ar,pseudo,2020:Q2:pre_third:pseudo,2020-09-30,pre_third,T,2020:Q2,-0.7119618796649088,,,not_available,-31.3827,30.67073812033509,False,True,0,,,,,,,14,4,0.02
no_revision,pseudo,2020:Q2:pre_third:pseudo,2020-09-30,pre_third,T,2020:Q2,-31.7041,,,not_available,-31.3827,-0.3214000000000006,False,True,0,,,,,,,14,4,0.02
bridge,pseudo,2020:Q2:pre_third:pseudo,2020-09-30,pre_third,T,2020:Q2,-11.706443047869818,,,not_available,-31.3827,19.67625695213018,False,True,0,,,,,,,14,4,0.02
midas_umidas,pseudo,2020:Q2:pre_third:pseudo,2020-09-30,pre_third,T,2020:Q2,-62.55032037882182,,,not_available,-31.3827,-31.167620378821823,False,True,0,,,,,,,14,4,0.02
monthly_mixed_frequency_kalman_em,pseudo,2020:Q2:pre_third:pseudo,2020-09-30,pre_third,T,2020:Q2,-31.98292276889753,0.14698826089382985,0.3833904809640295,model_implied_state_space,-31.3827,-0.600222768897531,False,True,30,-5763.283163787264,-7611.521640025797,-5763.283163787264,0.5381468727000538,9.335013935383299e-05,30.0,14,4,0.02
standard_dfm,pseudo,2020:Q2:pre_third:pseudo,2020-09-30,pre_third,T,2020:Q2,-17.276938736761693,,,not_available,-31.3827,14.105761263238307,False,True,0,,,,,,,14,4,0.02
release_dfm,pseudo,2020:Q2:pre_third:pseudo,2020-09-30,pre_third,T,2020:Q2,-32.88490959470745,,,not_available,-31.3827,-1.5022095947074519,False,True,0,,,,,,,14,4,0.02
revision_dfm_kalman_em,pseudo,2020:Q2:pre_third:pseudo,2020-09-30,pre_third,T,2020:Q2,-31.829199393236046,0.14440453592808053,0.38000596827955285,model_implied_state_space,-31.3827,-0.4464993932360457,False,True,24,-1808.8512235840806,-3106.1389714895004,-1808.8512235840806,0.16879760844722114,9.32573156489226e-05,24.0,14,4,0.02
indicator_revision_only_dfm_kalman_em,pseudo,2020:Q2:pre_third:pseudo,2020-09-30,pre_third,T,2020:Q2,-31.755431215917298,0.14805494491038138,0.38477908585366405,model_implied_state_space,-31.3827,-0.3727312159172982,False,True,38,-3301.726083547685,-5021.773672188287,-3301.726083547685,0.28338071673715604,8.579470322537049e-05,38.0,14,4,0.02
joint_indicator_revision_dfm_full_kalman_em,pseudo,2020:Q2:pre_third:pseudo,2020-09-30,pre_third,T,2020:Q2,-31.7225758882606,0.1441155680856725,0.3796255630034317,model_implied_state_space,-31.3827,-0.33987588826060033,False,True,39,-3261.9990544341526,-5029.686616407612,-3261.9990544341526,0.3200282149987288,9.806831844924309e-05,39.0,14,4,0.02
ar,exact,2020:Q3:pre_advance:exact,2020-10-28,pre_advance,A,2020:Q3,-19.53626137751003,,,not_available,33.0826,-52.61886137751003,False,True,0,,,,,,,14,4,0.02
no_revision,exact,2020:Q3:pre_advance:exact,2020-10-28,pre_advance,A,2020:Q3,-20.080777742191426,,,not_available,33.0826,-53.16337774219143,False,True,0,,,,,,,14,4,0.02
bridge,exact,2020:Q3:pre_advance:exact,2020-10-28,pre_advance,A,2020:Q3,-0.47142845367528485,,,not_available,33.0826,-33.554028453675286,False,True,0,,,,,,,14,4,0.02
midas_umidas,exact,2020:Q3:pre_advance:exact,2020-10-28,pre_advance,A,2020:Q3,-29.778597368800916,,,not_available,33.0826,-62.861197368800916,False,True,0,,,,,,,14,4,0.02
monthly_mixed_frequency_kalman_em,exact,2020:Q3:pre_advance:exact,2020-10-28,pre_advance,A,2020:Q3,10.815794329781165,3.639724791901018,1.907806277351298,model_implied_state_space,33.0826,-22.266805670218837,False,True,30,-5768.034541426863,-7659.023192441736,-5768.034541426863,0.5548614852687024,9.617001254693144e-05,30.0,14,4,0.02
standard_dfm,exact,2020:Q3:pre_advance:exact,2020-10-28,pre_advance,A,2020:Q3,18.88190202791502,,,not_available,33.0826,-14.200697972084978,False,True,0,,,,,,,14,4,0.02
release_dfm,exact,2020:Q3:pre_advance:exact,2020-10-28,pre_advance,A,2020:Q3,18.88190202791502,,,not_available,33.0826,-14.200697972084978,False,True,0,,,,,,,14,4,0.02
revision_dfm_kalman_em,exact,2020:Q3:pre_advance:exact,2020-10-28,pre_advance,A,2020:Q3,10.961492633817473,2.7445787718397163,1.656677027015138,model_implied_state_space,33.0826,-22.121107366182528,False,True,27,-1763.534663948251,-3181.060701582052,-1763.534663948251,0.1566151451575024,8.874931667252405e-05,27.0,14,4,0.02
indicator_revision_only_dfm_kalman_em,exact,2020:Q3:pre_advance:exact,2020-10-28,pre_advance,A,2020:Q3,9.89104382497154,2.9936350137355077,1.730212418674513,model_implied_state_space,33.0826,-23.19155617502846,False,True,39,-3199.512436749303,-5115.183499703482,-3199.512436749303,0.3149812375768306,9.840619203859922e-05,39.0,14,4,0.02
joint_indicator_revision_dfm_full_kalman_em,exact,2020:Q3:pre_advance:exact,2020-10-28,pre_advance,A,2020:Q3,7.649524941740774,2.2769660390784,1.5089619077625518,model_implied_state_space,33.0826,-25.433075058259227,False,True,40,-3168.812766164483,-5125.734332469169,-3168.812766164483,0.2672382339806063,8.430015444714807e-05,40.0,14,4,0.02
ar,exact,2020:Q3:pre_second:exact,2020-11-24,pre_second,S,2020:Q3,-16.980873036800336,,,not_available,33.0683,-50.04917303680034,False,True,0,,,,,,,14,4,0.02
no_revision,exact,2020:Q3:pre_second:exact,2020-11-24,pre_second,S,2020:Q3,33.0826,,,not_available,33.0683,0.014299999999998647,False,True,0,,,,,,,14,4,0.02
bridge,exact,2020:Q3:pre_second:exact,2020-11-24,pre_second,S,2020:Q3,2.7510477231713444,,,not_available,33.0683,-30.317252276828658,False,True,0,,,,,,,14,4,0.02
midas_umidas,exact,2020:Q3:pre_second:exact,2020-11-24,pre_second,S,2020:Q3,8.800212665578378,,,not_available,33.0683,-24.268087334421622,False,True,0,,,,,,,14,4,0.02
monthly_mixed_frequency_kalman_em,exact,2020:Q3:pre_second:exact,2020-11-24,pre_second,S,2020:Q3,33.550250756515915,0.35793197322276527,0.5982741622557047,model_implied_state_space,33.0683,0.48195075651591424,False,True,37,-5751.403105536458,-7656.96332378251,-5751.403105536458,0.5543315071199686,9.635592009608843e-05,37.0,14,4,0.02
standard_dfm,exact,2020:Q3:pre_second:exact,2020-11-24,pre_second,S,2020:Q3,19.833129890307784,,,not_available,33.0683,-13.235170109692216,False,True,0,,,,,,,14,4,0.02
release_dfm,exact,2020:Q3:pre_second:exact,2020-11-24,pre_second,S,2020:Q3,33.5551410655814,,,not_available,33.0683,0.4868410655814017,False,True,0,,,,,,,14,4,0.02
revision_dfm_kalman_em,exact,2020:Q3:pre_second:exact,2020-11-24,pre_second,S,2020:Q3,34.5579917921977,0.40088297733349054,0.6331532021031644,model_implied_state_space,33.0683,1.4896917921976964,False,True,26,-1735.1519552001369,-3191.972715402027,-1735.1519552001369,0.164544041032741,9.476615646090586e-05,26.0,14,4,0.02
indicator_revision_only_dfm_kalman_em,exact,2020:Q3:pre_second:exact,2020-11-24,pre_second,S,2020:Q3,32.83044936340805,0.36860504425331597,0.6071285236696724,model_implied_state_space,33.0683,-0.2378506365919506,False,True,39,-3169.63769738251,-5139.966808481592,-3169.63769738251,0.26907338640603484,8.485692133445696e-05,39.0,14,4,0.02
joint_indicator_revision_dfm_full_kalman_em,exact,2020:Q3:pre_second:exact,2020-11-24,pre_second,S,2020:Q3,33.98518368145067,0.3464106063489777,0.5885665691737662,model_implied_state_space,33.0683,0.9168836814506705,False,True,40,-3135.6134867206506,-5150.484168794469,-3135.6134867206506,0.2860699855873463,9.119513724172967e-05,40.0,14,4,0.02
ar,exact,2020:Q3:pre_third:exact,2020-12-21,pre_third,T,2020:Q3,-15.911115669469648,,,not_available,33.441,-49.352115669469654,False,True,0,,,,,,,14,4,0.02
no_revision,exact,2020:Q3:pre_third:exact,2020-12-21,pre_third,T,2020:Q3,33.0683,,,not_available,33.441,-0.3727000000000018,False,True,0,,,,,,,14,4,0.02
bridge,exact,2020:Q3:pre_third:exact,2020-12-21,pre_third,T,2020:Q3,4.160750997856098,,,not_available,33.441,-29.280249002143904,False,True,0,,,,,,,14,4,0.02
midas_umidas,exact,2020:Q3:pre_third:exact,2020-12-21,pre_third,T,2020:Q3,74.0258756987586,,,not_available,33.441,40.584875698758594,False,True,0,,,,,,,14,4,0.02
monthly_mixed_frequency_kalman_em,exact,2020:Q3:pre_third:exact,2020-12-21,pre_third,T,2020:Q3,33.53328153227935,0.14540948018133482,0.3813259500497374,model_implied_state_space,33.441,0.09228153227934399,False,True,33,-5738.80839494275,-7680.297825146089,-5738.80839494275,0.5482886126919766,9.551472894753632e-05,33.0,14,4,0.02
standard_dfm,exact,2020:Q3:pre_third:exact,2020-12-21,pre_third,T,2020:Q3,20.128692846342442,,,not_available,33.441,-13.31230715365756,False,True,0,,,,,,,14,4,0.02
release_dfm,exact,2020:Q3:pre_third:exact,2020-12-21,pre_third,T,2020:Q3,33.381430367698066,,,not_available,33.441,-0.05956963230193679,False,True,0,,,,,,,14,4,0.02
revision_dfm_kalman_em,exact,2020:Q3:pre_third:exact,2020-12-21,pre_third,T,2020:Q3,33.12932473667247,0.14529956587097098,0.38118180159993337,model_implied_state_space,33.441,-0.3116752633275297,False,True,24,-1705.9797891868898,-3211.11236516278,-1705.9797891868898,0.17036315291693427,9.979388906326479e-05,24.0,14,4,0.02
indicator_revision_only_dfm_kalman_em,exact,2020:Q3:pre_third:exact,2020-12-21,pre_third,T,2020:Q3,33.05764782424661,0.14756976491359614,0.3841481028374293,model_implied_state_space,33.441,-0.3833521757533944,False,True,39,-3141.0059227518377,-5132.858519225256,-3141.0059227518377,0.2636938156983888,8.391826541811368e-05,39.0,14,4,0.02
joint_indicator_revision_dfm_full_kalman_em,exact,2020:Q3:pre_third:exact,2020-12-21,pre_third,T,2020:Q3,33.08724089633502,0.1437066856372508,0.37908664660899205,model_implied_state_space,33.441,-0.3537591036649843,False,True,41,-3107.6524318038832,-5141.603640903411,-3107.6524318038832,0.2562535611364183,8.242556699806425e-05,41.0,14,4,0.02
ar,pseudo,2020:Q3:pre_advance:pseudo,2020-10-31,pre_advance,A,2020:Q3,-19.53626137751003,,,not_available,33.0826,-52.61886137751003,False,True,0,,,,,,,14,4,0.02
no_revision,pseudo,2020:Q3:pre_advance:pseudo,2020-10-31,pre_advance,A,2020:Q3,-20.080777742191426,,,not_available,33.0826,-53.16337774219143,False,True,0,,,,,,,14,4,0.02
bridge,pseudo,2020:Q3:pre_advance:pseudo,2020-10-31,pre_advance,A,2020:Q3,-0.16082314518756657,,,not_available,33.0826,-33.24342314518756,False,True,0,,,,,,,14,4,0.02
midas_umidas,pseudo,2020:Q3:pre_advance:pseudo,2020-10-31,pre_advance,A,2020:Q3,-29.6874130831427,,,not_available,33.0826,-62.7700130831427,False,True,0,,,,,,,14,4,0.02
monthly_mixed_frequency_kalman_em,pseudo,2020:Q3:pre_advance:pseudo,2020-10-31,pre_advance,A,2020:Q3,10.809311286514113,3.642176955793251,1.9084488349948632,model_implied_state_space,33.0826,-22.273288713485886,False,True,30,-5768.210513924089,-7659.314173156125,-5768.210513924089,0.5545354391269939,9.611057545370856e-05,30.0,14,4,0.02
standard_dfm,pseudo,2020:Q3:pre_advance:pseudo,2020-10-31,pre_advance,A,2020:Q3,19.28951008955901,,,not_available,33.0826,-13.79308991044099,False,True,0,,,,,,,14,4,0.02
release_dfm,pseudo,2020:Q3:pre_advance:pseudo,2020-10-31,pre_advance,A,2020:Q3,19.28951008955901,,,not_available,33.0826,-13.79308991044099,False,True,0,,,,,,,14,4,0.02
revision_dfm_kalman_em,pseudo,2020:Q3:pre_advance:pseudo,2020-10-31,pre_advance,A,2020:Q3,11.065661042281928,2.74177607693232,1.6558309324723703,model_implied_state_space,33.0826,-22.01693895771807,False,True,27,-1759.1153760199563,-3179.375898566358,-1759.1153760199563,0.16354172027604363,9.290670849253322e-05,27.0,14,4,0.02
indicator_revision_only_dfm_kalman_em,pseudo,2020:Q3:pre_advance:pseudo,2020-10-31,pre_advance,A,2020:Q3,9.849973201957956,2.9908136012050615,1.7293968894400908,model_implied_state_space,33.0826,-23.23262679804204,False,True,39,-3194.1372511783625,-5112.338025487363,-3194.1372511783625,0.3092922858922975,9.679156940519082e-05,39.0,14,4,0.02
joint_indicator_revision_dfm_full_kalman_em,pseudo,2020:Q3:pre_advance:pseudo,2020-10-31,pre_advance,A,2020:Q3,7.580290502757668,2.2781391225010106,1.5093505631565554,model_implied_state_space,33.0826,-25.50230949724233,False,True,40,-3163.4437544919406,-5122.8901240013165,-3163.4437544919406,0.2627045768927019,8.301072478298625e-05,40.0,14,4,0.02
ar,pseudo,2020:Q3:pre_second:pseudo,2020-11-30,pre_second,S,2020:Q3,-16.980873036800336,,,not_available,33.0683,-50.04917303680034,False,True,0,,,,,,,14,4,0.02
no_revision,pseudo,2020:Q3:pre_second:pseudo,2020-11-30,pre_second,S,2020:Q3,33.0826,,,not_available,33.0683,0.014299999999998647,False,True,0,,,,,,,14,4,0.02
bridge,pseudo,2020:Q3:pre_second:pseudo,2020-11-30,pre_second,S,2020:Q3,2.6749579371403445,,,not_available,33.0683,-30.393342062859656,False,True,0,,,,,,,14,4,0.02
midas_umidas,pseudo,2020:Q3:pre_second:pseudo,2020-11-30,pre_second,S,2020:Q3,8.75957808006508,,,not_available,33.0683,-24.30872191993492,False,True,0,,,,,,,14,4,0.02
monthly_mixed_frequency_kalman_em,pseudo,2020:Q3:pre_second:pseudo,2020-11-30,pre_second,S,2020:Q3,33.549794256355,0.35792817807266797,0.5982709904990112,model_implied_state_space,33.0683,0.4814942563549991,False,True,37,-5754.894766050502,-7659.926374435473,-5754.894766050502,0.5539771611884134,9.623592355298789e-05,37.0,14,4,0.02
standard_dfm,pseudo,2020:Q3:pre_second:pseudo,2020-11-30,pre_second,S,2020:Q3,19.937054667069408,,,not_available,33.0683,-13.131245332930593,False,True,0,,,,,,,14,4,0.02
release_dfm,pseudo,2020:Q3:pre_second:pseudo,2020-11-30,pre_second,S,2020:Q3,33.55458278971348,,,not_available,33.0683,0.4862827897134778,False,True,0,,,,,,,14,4,0.02
revision_dfm_kalman_em,pseudo,2020:Q3:pre_second:pseudo,2020-11-30,pre_second,S,2020:Q3,34.5606249526467,0.40084032375137335,0.633119517746352,model_implied_state_space,33.0683,1.4923249526466975,False,True,26,-1736.1811724480222,-3192.261139938829,-1736.1811724480222,0.16379328666084803,9.427792976715113e-05,26.0,14,4,0.02
indicator_revision_only_dfm_kalman_em,pseudo,2020:Q3:pre_second:pseudo,2020-11-30,pre_second,S,2020:Q3,32.83096819822906,0.36859986872191836,0.6071242613517585,model_implied_state_space,33.0683,-0.23733180177094226,False,True,39,-3171.280448103986,-5139.955528510509,-3171.280448103986,0.3014559880903107,9.501913495172028e-05,39.0,14,4,0.02
joint_indicator_revision_dfm_full_kalman_em,pseudo,2020:Q3:pre_second:pseudo,2020-11-30,pre_second,S,2020:Q3,34.00149534869976,0.34622565406392397,0.5884094272391664,model_implied_state_space,33.0683,0.933195348699762,False,True,41,-3137.0079816964267,-5150.471883918447,-3137.0079816964267,0.2465021234388587,7.854752529145365e-05,41.0,14,4,0.02
ar,pseudo,2020:Q3:pre_third:pseudo,2020-12-31,pre_third,T,2020:Q3,-15.911115669469648,,,not_available,33.441,-49.352115669469654,False,True,0,,,,,,,14,4,0.02
no_revision,pseudo,2020:Q3:pre_third:pseudo,2020-12-31,pre_third,T,2020:Q3,33.0683,,,not_available,33.441,-0.3727000000000018,False,True,0,,,,,,,14,4,0.02
bridge,pseudo,2020:Q3:pre_third:pseudo,2020-12-31,pre_third,T,2020:Q3,4.14745085722406,,,not_available,33.441,-29.293549142775944,False,True,0,,,,,,,14,4,0.02
midas_umidas,pseudo,2020:Q3:pre_third:pseudo,2020-12-31,pre_third,T,2020:Q3,74.01504204633113,,,not_available,33.441,40.57404204633113,False,True,0,,,,,,,14,4,0.02
monthly_mixed_frequency_kalman_em,pseudo,2020:Q3:pre_third:pseudo,2020-12-31,pre_third,T,2020:Q3,33.533204972727944,0.14540422258922267,0.38131905615799305,model_implied_state_space,33.441,0.09220497272794148,False,True,33,-5741.948543437359,-7683.204442651881,-5741.948543437359,0.5491872741831685,9.56189590267552e-05,33.0,14,4,0.02
standard_dfm,pseudo,2020:Q3:pre_third:pseudo,2020-12-31,pre_third,T,2020:Q3,20.115730575511265,,,not_available,33.441,-13.325269424488738,False,True,0,,,,,,,14,4,0.02
release_dfm,pseudo,2020:Q3:pre_third:pseudo,2020-12-31,pre_third,T,2020:Q3,33.381575730604204,,,not_available,33.441,-0.059424269395798035,False,True,0,,,,,,,14,4,0.02
revision_dfm_kalman_em,pseudo,2020:Q3:pre_third:pseudo,2020-12-31,pre_third,T,2020:Q3,33.12932794357323,0.14529953595629289,0.38118176236054746,model_implied_state_space,33.441,-0.3116720564267723,False,True,24,-1706.1102317457091,-3211.1568960686477,-1706.1102317457091,0.17035025616928579,9.97787112236355e-05,24.0,14,4,0.02
indicator_revision_only_dfm_kalman_em,pseudo,2020:Q3:pre_third:pseudo,2020-12-31,pre_third,T,2020:Q3,33.057648565851245,0.14756973672977364,0.38414806615389024,model_implied_state_space,33.441,-0.38335143414875716,False,True,39,-3141.0905935146025,-5132.897278565991,-3141.0905935146025,0.26347863262617466,8.384753168382926e-05,39.0,14,4,0.02
joint_indicator_revision_dfm_full_kalman_em,pseudo,2020:Q3:pre_third:pseudo,2020-12-31,pre_third,T,2020:Q3,33.0872403130652,0.143706653695376,0.3790866044789449,model_implied_state_space,33.441,-0.35375968693480075,False,True,41,-3107.737814830873,-5141.642423649469,-3107.737814830873,0.25619254236880806,8.240367841212489e-05,41.0,14,4,0.02
ar,exact,2020:Q4:pre_advance:exact,2021-01-27,pre_advance,A,2020:Q4,3.457490434452062,,,not_available,4.0124,-0.5549095655479386,False,True,0,,,,,,,14,4,0.02
no_revision,exact,2020:Q4:pre_advance:exact,2021-01-27,pre_advance,A,2020:Q4,-2.3881056978927964,,,not_available,4.0124,-6.400505697892797,False,True,0,,,,,,,14,4,0.02
bridge,exact,2020:Q4:pre_advance:exact,2021-01-27,pre_advance,A,2020:Q4,9.066557621801813,,,not_available,4.0124,5.054157621801813,False,True,0,,,,,,,14,4,0.02
midas_umidas,exact,2020:Q4:pre_advance:exact,2021-01-27,pre_advance,A,2020:Q4,0.8259064302255368,,,not_available,4.0124,-3.1864935697744636,False,True,0,,,,,,,14,4,0.02
monthly_mixed_frequency_kalman_em,exact,2020:Q4:pre_advance:exact,2021-01-27,pre_advance,A,2020:Q4,1.6030423056758234,3.5461121443761545,1.8831123557494265,model_implied_state_space,4.0124,-2.409357694324177,False,True,32,-5735.998194739421,-7705.548388301524,-5735.998194739421,0.5496989707180546,9.580729972130939e-05,32.0,14,4,0.02
standard_dfm,exact,2020:Q4:pre_advance:exact,2021-01-27,pre_advance,A,2020:Q4,7.1854299729367686,,,not_available,4.0124,3.173029972936768,False,True,0,,,,,,,14,4,0.02
release_dfm,exact,2020:Q4:pre_advance:exact,2021-01-27,pre_advance,A,2020:Q4,7.1854299729367686,,,not_available,4.0124,3.173029972936768,False,True,0,,,,,,,14,4,0.02
revision_dfm_kalman_em,exact,2020:Q4:pre_advance:exact,2021-01-27,pre_advance,A,2020:Q4,2.6341065671561448,2.578231291032157,1.60568717097452,model_implied_state_space,4.0124,-1.3782934328438556,False,True,30,-1693.638629887386,-3216.5928712947252,-1693.638629887386,0.14912012835293353,8.79874948066793e-05,30.0,14,4,0.02
