haminh109/Revision-Aware-DFM/outputs/full_state_space_release_revision_dfm/frozen/q2_manuscript_best_v1/initialization_audit/seed_4/revision_forecast_results.csv
model_id,timing_mode,forecast_origin,forecast_origin_date,checkpoint_id,target_id,revision_target_id,target_quarter,forecast_value,forecast_variance,forecast_sd,density_source,realized_value,forecast_error,revision_target_flag,converged,n_iter,loglikelihood,llf_initial,llf_final,llf_last_improvement,llf_relative_last_improvement,llf_history_length,n_indicators,initialization_seed,initialization_jitter
ar,exact,2019:Q1:pre_advance:exact,2019-04-25,pre_advance,DELTA_SA,DELTA_SA,2019:Q1,0.4648889202031996,,,not_available,-0.10470000000000024,0.5695889202031998,True,True,0,,,,,,,14,4,0.02
no_revision,exact,2019:Q1:pre_advance:exact,2019-04-25,pre_advance,DELTA_SA,DELTA_SA,2019:Q1,0.0,,,not_available,-0.10470000000000024,0.10470000000000024,True,True,0,,,,,,,14,4,0.02
bridge,exact,2019:Q1:pre_advance:exact,2019-04-25,pre_advance,DELTA_SA,DELTA_SA,2019:Q1,-0.8963490410084507,,,not_available,-0.10470000000000024,-0.7916490410084505,True,True,0,,,,,,,14,4,0.02
midas_umidas,exact,2019:Q1:pre_advance:exact,2019-04-25,pre_advance,DELTA_SA,DELTA_SA,2019:Q1,-0.277062365539126,,,not_available,-0.10470000000000024,-0.17236236553912576,True,True,0,,,,,,,14,4,0.02
monthly_mixed_frequency_kalman_em,exact,2019:Q1:pre_advance:exact,2019-04-25,pre_advance,DELTA_SA,DELTA_SA,2019:Q1,0.0722382020011556,0.3496579782164604,0.5913188464918571,model_implied_state_space,-0.10470000000000024,0.17693820200115584,True,True,54,-6285.22325928218,-7334.434583170255,-6285.22325928218,0.6243558635778754,9.931143584166545e-05,54.0,14,4,0.02
standard_dfm,exact,2019:Q1:pre_advance:exact,2019-04-25,pre_advance,DELTA_SA,DELTA_SA,2019:Q1,0.03229029921893689,,,not_available,-0.10470000000000024,0.13699029921893713,True,True,0,,,,,,,14,4,0.02
release_dfm,exact,2019:Q1:pre_advance:exact,2019-04-25,pre_advance,DELTA_SA,DELTA_SA,2019:Q1,0.03229029921893689,,,not_available,-0.10470000000000024,0.13699029921893713,True,True,0,,,,,,,14,4,0.02
revision_dfm_kalman_em,exact,2019:Q1:pre_advance:exact,2019-04-25,pre_advance,DELTA_SA,DELTA_SA,2019:Q1,0.07896875097572709,0.41175224740905936,0.6416792402821361,model_implied_state_space,-0.10470000000000024,0.18366875097572732,True,True,21,-1989.6230924931576,-2968.6048694688316,-1989.6230924931576,0.1796618721100458,9.024594310817489e-05,21.0,14,4,0.02
indicator_revision_only_dfm_kalman_em,exact,2019:Q1:pre_advance:exact,2019-04-25,pre_advance,DELTA_SA,DELTA_SA,2019:Q1,0.0,0.4383777532773596,0.6621010144059286,model_implied_state_space,-0.10470000000000024,0.10470000000000024,True,True,25,-3681.9151863561087,-4847.571018529528,-3681.9151863561087,0.34278418148005585,9.306548284751961e-05,25.0,14,4,0.02
joint_indicator_revision_dfm_full_kalman_em,exact,2019:Q1:pre_advance:exact,2019-04-25,pre_advance,DELTA_SA,DELTA_SA,2019:Q1,0.036461784123582364,0.39564410902801583,0.6290024714005628,model_implied_state_space,-0.10470000000000024,0.1411617841235826,True,True,26,-3646.5798163231757,-4861.75939042616,-3646.5798163231757,0.3433998335117394,9.413570767904823e-05,26.0,14,4,0.02
ar,exact,2019:Q1:pre_second:exact,2019-05-29,pre_second,DELTA_TS,DELTA_TS,2019:Q1,-0.5635001866146694,,,not_available,0.06099999999999994,-0.6245001866146693,True,True,0,,,,,,,14,4,0.02
no_revision,exact,2019:Q1:pre_second:exact,2019-05-29,pre_second,DELTA_TS,DELTA_TS,2019:Q1,0.0,,,not_available,0.06099999999999994,-0.06099999999999994,True,True,0,,,,,,,14,4,0.02
bridge,exact,2019:Q1:pre_second:exact,2019-05-29,pre_second,DELTA_TS,DELTA_TS,2019:Q1,0.8923743808409088,,,not_available,0.06099999999999994,0.8313743808409089,True,True,0,,,,,,,14,4,0.02
midas_umidas,exact,2019:Q1:pre_second:exact,2019-05-29,pre_second,DELTA_TS,DELTA_TS,2019:Q1,0.1692563726873546,,,not_available,0.06099999999999994,0.10825637268735466,True,True,0,,,,,,,14,4,0.02
monthly_mixed_frequency_kalman_em,exact,2019:Q1:pre_second:exact,2019-05-29,pre_second,DELTA_TS,DELTA_TS,2019:Q1,0.22826322812823108,0.1448815061963019,0.38063303350642325,model_implied_state_space,0.06099999999999994,0.16726322812823113,True,True,50,-6312.701696013429,-7328.980019682591,-6312.701696013429,0.6195132228340299,9.811240231615679e-05,50.0,14,4,0.02
standard_dfm,exact,2019:Q1:pre_second:exact,2019-05-29,pre_second,DELTA_TS,DELTA_TS,2019:Q1,0.05165552868850387,,,not_available,0.06099999999999994,-0.009344471311496072,True,True,0,,,,,,,14,4,0.02
release_dfm,exact,2019:Q1:pre_second:exact,2019-05-29,pre_second,DELTA_TS,DELTA_TS,2019:Q1,0.04575425000561806,,,not_available,0.06099999999999994,-0.015245749994381885,True,True,0,,,,,,,14,4,0.02
revision_dfm_kalman_em,exact,2019:Q1:pre_second:exact,2019-05-29,pre_second,DELTA_TS,DELTA_TS,2019:Q1,0.008342046627099364,0.14951608770252067,0.38667310186062936,model_implied_state_space,0.06099999999999994,-0.05265795337290058,True,True,21,-1990.4324220453816,-2969.7408229265966,-1990.4324220453816,0.1845339596914073,9.265534676987218e-05,21.0,14,4,0.02
indicator_revision_only_dfm_kalman_em,exact,2019:Q1:pre_second:exact,2019-05-29,pre_second,DELTA_TS,DELTA_TS,2019:Q1,0.0,0.15395688445988875,0.3923733992766186,model_implied_state_space,0.06099999999999994,-0.06099999999999994,True,True,25,-3683.1157201980845,-4848.788703584614,-3683.1157201980845,0.3438274090544837,9.331827493608428e-05,25.0,14,4,0.02
joint_indicator_revision_dfm_full_kalman_em,exact,2019:Q1:pre_second:exact,2019-05-29,pre_second,DELTA_TS,DELTA_TS,2019:Q1,0.00618403536981349,0.14866007690128036,0.38556462091493865,model_implied_state_space,0.06099999999999994,-0.05481596463018645,True,True,26,-3647.7506740728486,-4863.080888567412,-3647.7506740728486,0.3442212053514595,9.433057106760079e-05,26.0,14,4,0.02
ar,exact,2019:Q1:pre_third:exact,2019-06-26,pre_third,DELTA_MT,DELTA_MT,2019:Q1,0.29507328704170277,,,not_available,-0.6073999999999997,0.9024732870417025,True,True,0,,,,,,,14,4,0.02
no_revision,exact,2019:Q1:pre_third:exact,2019-06-26,pre_third,DELTA_MT,DELTA_MT,2019:Q1,0.0,,,not_available,-0.6073999999999997,0.6073999999999997,True,True,0,,,,,,,14,4,0.02
bridge,exact,2019:Q1:pre_third:exact,2019-06-26,pre_third,DELTA_MT,DELTA_MT,2019:Q1,-0.2460835305255178,,,not_available,-0.6073999999999997,0.3613164694744819,True,True,0,,,,,,,14,4,0.02
midas_umidas,exact,2019:Q1:pre_third:exact,2019-06-26,pre_third,DELTA_MT,DELTA_MT,2019:Q1,-0.12965189226681062,,,not_available,-0.6073999999999997,0.4777481077331891,True,True,0,,,,,,,14,4,0.02
monthly_mixed_frequency_kalman_em,exact,2019:Q1:pre_third:exact,2019-06-26,pre_third,DELTA_MT,DELTA_MT,2019:Q1,0.14522074281064423,4.4784901265845125,2.1162443447259376,model_implied_state_space,-0.6073999999999997,0.752620742810644,True,True,52,-6328.886922084899,-7349.5487198973715,-6328.886922084899,0.6279233508239486,9.918993417678798e-05,52.0,14,4,0.02
standard_dfm,exact,2019:Q1:pre_third:exact,2019-06-26,pre_third,DELTA_MT,DELTA_MT,2019:Q1,0.2069325298377389,,,not_available,-0.6073999999999997,0.8143325298377386,True,True,0,,,,,,,14,4,0.02
release_dfm,exact,2019:Q1:pre_third:exact,2019-06-26,pre_third,DELTA_MT,DELTA_MT,2019:Q1,-0.05832211075326654,,,not_available,-0.6073999999999997,0.5490778892467332,True,True,0,,,,,,,14,4,0.02
revision_dfm_kalman_em,exact,2019:Q1:pre_third:exact,2019-06-26,pre_third,DELTA_MT,DELTA_MT,2019:Q1,0.002451422085480104,4.3645437020047835,2.089149037767479,model_implied_state_space,-0.6073999999999997,0.6098514220854798,True,True,23,-1989.4248240253291,-2986.3187083332605,-1989.4248240253291,0.1788029382832974,8.98234765883735e-05,23.0,14,4,0.02
indicator_revision_only_dfm_kalman_em,exact,2019:Q1:pre_third:exact,2019-06-26,pre_third,DELTA_MT,DELTA_MT,2019:Q1,0.0,4.360981543223739,2.0882963255303926,model_implied_state_space,-0.6073999999999997,0.6073999999999997,True,True,25,-3681.8182379662294,-4849.400842981125,-3681.8182379662294,0.34542999629866245,9.378621952191151e-05,25.0,14,4,0.02
joint_indicator_revision_dfm_full_kalman_em,exact,2019:Q1:pre_third:exact,2019-06-26,pre_third,DELTA_MT,DELTA_MT,2019:Q1,0.00145124020052112,4.372347883810799,2.0910159931982344,model_implied_state_space,-0.6073999999999997,0.6088512402005208,True,True,26,-3646.505162589513,-4863.663479920633,-3646.505162589513,0.3468210816786268,9.50754260948896e-05,26.0,14,4,0.02
ar,pseudo,2019:Q1:pre_advance:pseudo,2019-04-30,pre_advance,DELTA_SA,DELTA_SA,2019:Q1,0.4648889202031996,,,not_available,-0.10470000000000024,0.5695889202031998,True,True,0,,,,,,,14,4,0.02
no_revision,pseudo,2019:Q1:pre_advance:pseudo,2019-04-30,pre_advance,DELTA_SA,DELTA_SA,2019:Q1,0.0,,,not_available,-0.10470000000000024,0.10470000000000024,True,True,0,,,,,,,14,4,0.02
bridge,pseudo,2019:Q1:pre_advance:pseudo,2019-04-30,pre_advance,DELTA_SA,DELTA_SA,2019:Q1,-0.8963928945664441,,,not_available,-0.10470000000000024,-0.7916928945664439,True,True,0,,,,,,,14,4,0.02
midas_umidas,pseudo,2019:Q1:pre_advance:pseudo,2019-04-30,pre_advance,DELTA_SA,DELTA_SA,2019:Q1,-0.3550490427156605,,,not_available,-0.10470000000000024,-0.2503490427156603,True,True,0,,,,,,,14,4,0.02
monthly_mixed_frequency_kalman_em,pseudo,2019:Q1:pre_advance:pseudo,2019-04-30,pre_advance,DELTA_SA,DELTA_SA,2019:Q1,0.07017223175006237,0.3495530576467809,0.5912301224115538,model_implied_state_space,-0.10470000000000024,0.1748722317500626,True,True,54,-6287.947680874189,-7337.221342752908,-6287.947680874189,0.6241217620436146,9.923120072848489e-05,54.0,14,4,0.02
standard_dfm,pseudo,2019:Q1:pre_advance:pseudo,2019-04-30,pre_advance,DELTA_SA,DELTA_SA,2019:Q1,0.032216263021888736,,,not_available,-0.10470000000000024,0.13691626302188897,True,True,0,,,,,,,14,4,0.02
release_dfm,pseudo,2019:Q1:pre_advance:pseudo,2019-04-30,pre_advance,DELTA_SA,DELTA_SA,2019:Q1,0.032216263021888736,,,not_available,-0.10470000000000024,0.13691626302188897,True,True,0,,,,,,,14,4,0.02
revision_dfm_kalman_em,pseudo,2019:Q1:pre_advance:pseudo,2019-04-30,pre_advance,DELTA_SA,DELTA_SA,2019:Q1,0.07893438647755202,0.41175240525457824,0.6416793632762224,model_implied_state_space,-0.10470000000000024,0.18363438647755226,True,True,21,-1989.6220683227114,-2968.605105800659,-1989.6220683227114,0.17966068858140716,9.024539509046611e-05,21.0,14,4,0.02
indicator_revision_only_dfm_kalman_em,pseudo,2019:Q1:pre_advance:pseudo,2019-04-30,pre_advance,DELTA_SA,DELTA_SA,2019:Q1,0.0,0.43837782618876364,0.6621010694665609,model_implied_state_space,-0.10470000000000024,0.10470000000000024,True,True,25,-3681.9153340248163,-4847.570197324803,-3681.9153340248163,0.3427813766957115,9.306471769175615e-05,25.0,14,4,0.02
joint_indicator_revision_dfm_full_kalman_em,pseudo,2019:Q1:pre_advance:pseudo,2019-04-30,pre_advance,DELTA_SA,DELTA_SA,2019:Q1,0.03653860067003878,0.3956436672517487,0.6290021202283413,model_implied_state_space,-0.10470000000000024,0.14123860067003902,True,True,26,-3646.5798378668374,-4861.758568943165,-3646.5798378668374,0.34339966804782307,9.413566176899004e-05,26.0,14,4,0.02
ar,pseudo,2019:Q1:pre_second:pseudo,2019-05-31,pre_second,DELTA_TS,DELTA_TS,2019:Q1,-0.5635001866146694,,,not_available,0.06099999999999994,-0.6245001866146693,True,True,0,,,,,,,14,4,0.02
no_revision,pseudo,2019:Q1:pre_second:pseudo,2019-05-31,pre_second,DELTA_TS,DELTA_TS,2019:Q1,0.0,,,not_available,0.06099999999999994,-0.06099999999999994,True,True,0,,,,,,,14,4,0.02
bridge,pseudo,2019:Q1:pre_second:pseudo,2019-05-31,pre_second,DELTA_TS,DELTA_TS,2019:Q1,0.8891871677354084,,,not_available,0.06099999999999994,0.8281871677354085,True,True,0,,,,,,,14,4,0.02
midas_umidas,pseudo,2019:Q1:pre_second:pseudo,2019-05-31,pre_second,DELTA_TS,DELTA_TS,2019:Q1,0.15850275294399863,,,not_available,0.06099999999999994,0.09750275294399868,True,True,0,,,,,,,14,4,0.02
monthly_mixed_frequency_kalman_em,pseudo,2019:Q1:pre_second:pseudo,2019-05-31,pre_second,DELTA_TS,DELTA_TS,2019:Q1,0.22777825448362732,0.14489493338300918,0.38065067106601713,model_implied_state_space,0.06099999999999994,0.16677825448362738,True,True,50,-6314.183496918036,-7330.413930259353,-6314.183496918036,0.6163609765144429,9.759032749335954e-05,50.0,14,4,0.02
standard_dfm,pseudo,2019:Q1:pre_second:pseudo,2019-05-31,pre_second,DELTA_TS,DELTA_TS,2019:Q1,0.05169863222872828,,,not_available,0.06099999999999994,-0.009301367771271662,True,True,0,,,,,,,14,4,0.02
release_dfm,pseudo,2019:Q1:pre_second:pseudo,2019-05-31,pre_second,DELTA_TS,DELTA_TS,2019:Q1,0.045647170481801336,,,not_available,0.06099999999999994,-0.015352829518198607,True,True,0,,,,,,,14,4,0.02
revision_dfm_kalman_em,pseudo,2019:Q1:pre_second:pseudo,2019-05-31,pre_second,DELTA_TS,DELTA_TS,2019:Q1,0.008324665052686697,0.1495163082681864,0.3866733870700005,model_implied_state_space,0.06099999999999994,-0.052675334947313246,True,True,21,-1990.441008830156,-2969.733302403505,-1990.441008830156,0.18449895876483424,9.263737486956712e-05,21.0,14,4,0.02
indicator_revision_only_dfm_kalman_em,pseudo,2019:Q1:pre_second:pseudo,2019-05-31,pre_second,DELTA_TS,DELTA_TS,2019:Q1,0.0,0.15395633629544125,0.39237270075202896,model_implied_state_space,0.06099999999999994,-0.06099999999999994,True,True,25,-3683.11848281457,-4848.774371890373,-3683.11848281457,0.3438981807576056,9.33374113225996e-05,25.0,14,4,0.02
joint_indicator_revision_dfm_full_kalman_em,pseudo,2019:Q1:pre_second:pseudo,2019-05-31,pre_second,DELTA_TS,DELTA_TS,2019:Q1,0.006164876291289367,0.14866034329732125,0.38556496637703125,model_implied_state_space,0.06099999999999994,-0.054835123708710576,True,True,26,-3647.754035130458,-4863.066624688711,-3647.754035130458,0.3442951445531435,9.435074459262268e-05,26.0,14,4,0.02
ar,pseudo,2019:Q1:pre_third:pseudo,2019-06-30,pre_third,DELTA_MT,DELTA_MT,2019:Q1,0.29507328704170277,,,not_available,-0.6073999999999997,0.9024732870417025,True,True,0,,,,,,,14,4,0.02
no_revision,pseudo,2019:Q1:pre_third:pseudo,2019-06-30,pre_third,DELTA_MT,DELTA_MT,2019:Q1,0.0,,,not_available,-0.6073999999999997,0.6073999999999997,True,True,0,,,,,,,14,4,0.02
bridge,pseudo,2019:Q1:pre_third:pseudo,2019-06-30,pre_third,DELTA_MT,DELTA_MT,2019:Q1,-0.24458762674535617,,,not_available,-0.6073999999999997,0.36281237325464355,True,True,0,,,,,,,14,4,0.02
midas_umidas,pseudo,2019:Q1:pre_third:pseudo,2019-06-30,pre_third,DELTA_MT,DELTA_MT,2019:Q1,-0.10219946807304581,,,not_available,-0.6073999999999997,0.5052005319269539,True,True,0,,,,,,,14,4,0.02
monthly_mixed_frequency_kalman_em,pseudo,2019:Q1:pre_third:pseudo,2019-06-30,pre_third,DELTA_MT,DELTA_MT,2019:Q1,0.14510499833795176,4.478492055124484,2.1162448003774244,model_implied_state_space,-0.6073999999999997,0.7525049983379515,True,True,52,-6330.262917367987,-7350.951155117272,-6330.262917367987,0.6282721687175581,9.922346261347043e-05,52.0,14,4,0.02
standard_dfm,pseudo,2019:Q1:pre_third:pseudo,2019-06-30,pre_third,DELTA_MT,DELTA_MT,2019:Q1,0.20610842776374927,,,not_available,-0.6073999999999997,0.813508427763749,True,True,0,,,,,,,14,4,0.02
release_dfm,pseudo,2019:Q1:pre_third:pseudo,2019-06-30,pre_third,DELTA_MT,DELTA_MT,2019:Q1,-0.06045295100080228,,,not_available,-0.6073999999999997,0.5469470489991974,True,True,0,,,,,,,14,4,0.02
revision_dfm_kalman_em,pseudo,2019:Q1:pre_third:pseudo,2019-06-30,pre_third,DELTA_MT,DELTA_MT,2019:Q1,0.002454640923287954,4.364542562782715,2.089148765115284,model_implied_state_space,-0.6073999999999997,0.6098546409232877,True,True,23,-1989.410319382509,-2986.317358281604,-1989.410319382509,0.17878807787337792,8.981666643473092e-05,23.0,14,4,0.02
indicator_revision_only_dfm_kalman_em,pseudo,2019:Q1:pre_third:pseudo,2019-06-30,pre_third,DELTA_MT,DELTA_MT,2019:Q1,0.0,4.360981792859325,2.0882963853005454,model_implied_state_space,-0.6073999999999997,0.6073999999999997,True,True,25,-3681.8246028887643,-4849.412487414695,-3681.8246028887643,0.3454649219502244,9.3795539057356e-05,25.0,14,4,0.02
joint_indicator_revision_dfm_full_kalman_em,pseudo,2019:Q1:pre_third:pseudo,2019-06-30,pre_third,DELTA_MT,DELTA_MT,2019:Q1,0.0014540318132389984,4.372347159998403,2.091015820121503,model_implied_state_space,-0.6073999999999997,0.6088540318132387,True,True,26,-3646.511780554394,-4863.675118259531,-3646.511780554394,0.34685703786180966,9.508510946321929e-05,26.0,14,4,0.02
ar,exact,2019:Q2:pre_advance:exact,2019-07-25,pre_advance,DELTA_SA,DELTA_SA,2019:Q2,-0.026254198058714096,,,not_available,-0.017100000000000115,-0.00915419805871398,True,True,0,,,,,,,14,4,0.02
no_revision,exact,2019:Q2:pre_advance:exact,2019-07-25,pre_advance,DELTA_SA,DELTA_SA,2019:Q2,0.0,,,not_available,-0.017100000000000115,0.017100000000000115,True,True,0,,,,,,,14,4,0.02
bridge,exact,2019:Q2:pre_advance:exact,2019-07-25,pre_advance,DELTA_SA,DELTA_SA,2019:Q2,-0.08652409669299166,,,not_available,-0.017100000000000115,-0.06942409669299154,True,True,0,,,,,,,14,4,0.02
midas_umidas,exact,2019:Q2:pre_advance:exact,2019-07-25,pre_advance,DELTA_SA,DELTA_SA,2019:Q2,0.6439951021716461,,,not_available,-0.017100000000000115,0.6610951021716462,True,True,0,,,,,,,14,4,0.02
monthly_mixed_frequency_kalman_em,exact,2019:Q2:pre_advance:exact,2019-07-25,pre_advance,DELTA_SA,DELTA_SA,2019:Q2,-0.03954711119215437,0.350678416996292,0.5921810677455773,model_implied_state_space,-0.017100000000000115,-0.022447111192154257,True,True,50,-6350.581332858644,-7371.17664482267,-6350.581332858644,0.6185725957329851,9.737927095175985e-05,50.0,14,4,0.02
standard_dfm,exact,2019:Q2:pre_advance:exact,2019-07-25,pre_advance,DELTA_SA,DELTA_SA,2019:Q2,0.06429942451968351,,,not_available,-0.017100000000000115,0.08139942451968363,True,True,0,,,,,,,14,4,0.02
release_dfm,exact,2019:Q2:pre_advance:exact,2019-07-25,pre_advance,DELTA_SA,DELTA_SA,2019:Q2,0.06429942451968351,,,not_available,-0.017100000000000115,0.08139942451968363,True,True,0,,,,,,,14,4,0.02
revision_dfm_kalman_em,exact,2019:Q2:pre_advance:exact,2019-07-25,pre_advance,DELTA_SA,DELTA_SA,2019:Q2,0.05054706318014279,0.4103808679573486,0.6406097626147674,model_implied_state_space,-0.017100000000000115,0.06764706318014291,True,True,21,-2007.8395310707426,-2991.211904615275,-2007.8395310707426,0.1829004109122252,9.103950660089747e-05,21.0,14,4,0.02
indicator_revision_only_dfm_kalman_em,exact,2019:Q2:pre_advance:exact,2019-07-25,pre_advance,DELTA_SA,DELTA_SA,2019:Q2,0.0,0.436416701717131,0.6606184236888425,model_implied_state_space,-0.017100000000000115,0.017100000000000115,True,True,25,-3718.437131952521,-4888.5429219988455,-3718.437131952521,0.34796460829556963,9.354427722646815e-05,25.0,14,4,0.02
joint_indicator_revision_dfm_full_kalman_em,exact,2019:Q2:pre_advance:exact,2019-07-25,pre_advance,DELTA_SA,DELTA_SA,2019:Q2,0.07367610047356621,0.39378851293008577,0.6275257069874395,model_implied_state_space,-0.017100000000000115,0.09077610047356632,True,True,26,-3683.246568373567,-4902.805051034726,-3683.246568373567,0.34754424901939274,9.432361839497727e-05,26.0,14,4,0.02
ar,exact,2019:Q2:pre_second:exact,2019-08-28,pre_second,DELTA_TS,DELTA_TS,2019:Q2,0.055386723140361305,,,not_available,-0.023600000000000065,0.07898672314036137,True,True,0,,,,,,,14,4,0.02
no_revision,exact,2019:Q2:pre_second:exact,2019-08-28,pre_second,DELTA_TS,DELTA_TS,2019:Q2,0.0,,,not_available,-0.023600000000000065,0.023600000000000065,True,True,0,,,,,,,14,4,0.02
bridge,exact,2019:Q2:pre_second:exact,2019-08-28,pre_second,DELTA_TS,DELTA_TS,2019:Q2,0.23410885204244902,,,not_available,-0.023600000000000065,0.2577088520424491,True,True,0,,,,,,,14,4,0.02
midas_umidas,exact,2019:Q2:pre_second:exact,2019-08-28,pre_second,DELTA_TS,DELTA_TS,2019:Q2,-0.29173799287155333,,,not_available,-0.023600000000000065,-0.26813799287155327,True,True,0,,,,,,,14,4,0.02
monthly_mixed_frequency_kalman_em,exact,2019:Q2:pre_second:exact,2019-08-28,pre_second,DELTA_TS,DELTA_TS,2019:Q2,0.01683106127437206,0.14467528830341836,0.3803620489788885,model_implied_state_space,-0.023600000000000065,0.040431061274372126,True,True,52,-6368.1541381053285,-7418.865479658013,-6368.1541381053285,0.635894770505729,9.982978516147965e-05,52.0,14,4,0.02
standard_dfm,exact,2019:Q2:pre_second:exact,2019-08-28,pre_second,DELTA_TS,DELTA_TS,2019:Q2,0.05877272252036114,,,not_available,-0.023600000000000065,0.08237272252036121,True,True,0,,,,,,,14,4,0.02
release_dfm,exact,2019:Q2:pre_second:exact,2019-08-28,pre_second,DELTA_TS,DELTA_TS,2019:Q2,0.040997546223894066,,,not_available,-0.023600000000000065,0.06459754622389413,True,True,0,,,,,,,14,4,0.02
revision_dfm_kalman_em,exact,2019:Q2:pre_second:exact,2019-08-28,pre_second,DELTA_TS,DELTA_TS,2019:Q2,0.0020273336871747816,0.14883520791213045,0.38579166387070946,model_implied_state_space,-0.023600000000000065,0.025627333687174847,True,True,21,-2009.0567717666338,-2992.368803612846,-2009.0567717666338,0.18530785841244324,9.21818622198015e-05,21.0,14,4,0.02
indicator_revision_only_dfm_kalman_em,exact,2019:Q2:pre_second:exact,2019-08-28,pre_second,DELTA_TS,DELTA_TS,2019:Q2,0.0,0.15326522830057998,0.39149103220965353,model_implied_state_space,-0.023600000000000065,0.023600000000000065,True,True,25,-3719.772785654003,-4889.810135231654,-3719.772785654003,0.34782994765828334,9.347451576816016e-05,25.0,14,4,0.02
joint_indicator_revision_dfm_full_kalman_em,exact,2019:Q2:pre_second:exact,2019-08-28,pre_second,DELTA_TS,DELTA_TS,2019:Q2,0.0008795776198731176,0.14799314320141643,0.38469876943059805,model_implied_state_space,-0.023600000000000065,0.024479577619873183,True,True,26,-3684.42451076899,-4904.178561421309,-3684.42451076899,0.3469887545702477,9.414277434591403e-05,26.0,14,4,0.02
ar,exact,2019:Q2:pre_third:exact,2019-09-25,pre_third,DELTA_MT,DELTA_MT,2019:Q2,-0.46237987223397825,,,not_available,1.3697,-1.8320798722339782,True,True,0,,,,,,,14,4,0.02
no_revision,exact,2019:Q2:pre_third:exact,2019-09-25,pre_third,DELTA_MT,DELTA_MT,2019:Q2,0.0,,,not_available,1.3697,-1.3697,True,True,0,,,,,,,14,4,0.02
bridge,exact,2019:Q2:pre_third:exact,2019-09-25,pre_third,DELTA_MT,DELTA_MT,2019:Q2,-1.1014609870404506,,,not_available,1.3697,-2.4711609870404505,True,True,0,,,,,,,14,4,0.02
midas_umidas,exact,2019:Q2:pre_third:exact,2019-09-25,pre_third,DELTA_MT,DELTA_MT,2019:Q2,-2.7795466199430354,,,not_available,1.3697,-4.149246619943035,True,True,0,,,,,,,14,4,0.02
monthly_mixed_frequency_kalman_em,exact,2019:Q2:pre_third:exact,2019-09-25,pre_third,DELTA_MT,DELTA_MT,2019:Q2,-0.00410915759849706,4.457429140538674,2.1112624518374483,model_implied_state_space,1.3697,-1.373809157598497,True,True,54,-6383.975003426527,-7438.317659323553,-6383.975003426527,0.6276238260634273,9.828732896482518e-05,54.0,14,4,0.02
standard_dfm,exact,2019:Q2:pre_third:exact,2019-09-25,pre_third,DELTA_MT,DELTA_MT,2019:Q2,0.2538501440217149,,,not_available,1.3697,-1.115849855978285,True,True,0,,,,,,,14,4,0.02
release_dfm,exact,2019:Q2:pre_third:exact,2019-09-25,pre_third,DELTA_MT,DELTA_MT,2019:Q2,0.29477225106409,,,not_available,1.3697,-1.07492774893591,True,True,0,,,,,,,14,4,0.02
revision_dfm_kalman_em,exact,2019:Q2:pre_third:exact,2019-09-25,pre_third,DELTA_MT,DELTA_MT,2019:Q2,0.0006691255845239219,4.343203361960239,2.0840353552567765,model_implied_state_space,1.3697,-1.369030874415476,True,True,23,-2008.9805053812092,-3009.410257412501,-2008.9805053812092,0.18130954338971605,9.019649166727254e-05,23.0,14,4,0.02
indicator_revision_only_dfm_kalman_em,exact,2019:Q2:pre_third:exact,2019-09-25,pre_third,DELTA_MT,DELTA_MT,2019:Q2,0.0,4.339650267833832,2.083182725502934,model_implied_state_space,1.3697,-1.3697,True,True,25,-3719.3081542016407,-4890.840542320782,-3719.3081542016407,0.34860458513321646,9.369436842297942e-05,25.0,14,4,0.02
joint_indicator_revision_dfm_full_kalman_em,exact,2019:Q2:pre_third:exact,2019-09-25,pre_third,DELTA_MT,DELTA_MT,2019:Q2,-0.00021738776840862784,4.3509216443202865,2.085886297073809,model_implied_state_space,1.3697,-1.3699173877684085,True,True,26,-3683.944053267304,-4905.179964377846,-3683.944053267304,0.3478700436817235,9.439416223211586e-05,26.0,14,4,0.02
ar,pseudo,2019:Q2:pre_advance:pseudo,2019-07-31,pre_advance,DELTA_SA,DELTA_SA,2019:Q2,-0.026254198058714096,,,not_available,-0.017100000000000115,-0.00915419805871398,True,True,0,,,,,,,14,4,0.02
no_revision,pseudo,2019:Q2:pre_advance:pseudo,2019-07-31,pre_advance,DELTA_SA,DELTA_SA,2019:Q2,0.0,,,not_available,-0.017100000000000115,0.017100000000000115,True,True,0,,,,,,,14,4,0.02
bridge,pseudo,2019:Q2:pre_advance:pseudo,2019-07-31,pre_advance,DELTA_SA,DELTA_SA,2019:Q2,-0.08882651376427209,,,not_available,-0.017100000000000115,-0.07172651376427197,True,True,0,,,,,,,14,4,0.02
midas_umidas,pseudo,2019:Q2:pre_advance:pseudo,2019-07-31,pre_advance,DELTA_SA,DELTA_SA,2019:Q2,0.0825776765362578,,,not_available,-0.017100000000000115,0.09967767653625792,True,True,0,,,,,,,14,4,0.02
monthly_mixed_frequency_kalman_em,pseudo,2019:Q2:pre_advance:pseudo,2019-07-31,pre_advance,DELTA_SA,DELTA_SA,2019:Q2,-0.032333698315883064,0.3504926899935672,0.5920242309175927,model_implied_state_space,-0.017100000000000115,-0.015233698315882949,True,True,49,-6352.49700138712,-7372.402001919866,-6352.49700138712,0.6272247180922932,9.871143461681316e-05,49.0,14,4,0.02
standard_dfm,pseudo,2019:Q2:pre_advance:pseudo,2019-07-31,pre_advance,DELTA_SA,DELTA_SA,2019:Q2,0.06890437481270517,,,not_available,-0.017100000000000115,0.08600437481270529,True,True,0,,,,,,,14,4,0.02
release_dfm,pseudo,2019:Q2:pre_advance:pseudo,2019-07-31,pre_advance,DELTA_SA,DELTA_SA,2019:Q2,0.06890437481270517,,,not_available,-0.017100000000000115,0.08600437481270529,True,True,0,,,,,,,14,4,0.02
revision_dfm_kalman_em,pseudo,2019:Q2:pre_advance:pseudo,2019-07-31,pre_advance,DELTA_SA,DELTA_SA,2019:Q2,0.053352065553553096,0.4103177035939023,0.640560460529607,model_implied_state_space,-0.017100000000000115,0.07045206555355321,True,True,21,-2007.5785190827246,-2990.8936343104083,-2007.5785190827246,0.18276881664382927,9.098583178838387e-05,21.0,14,4,0.02
indicator_revision_only_dfm_kalman_em,pseudo,2019:Q2:pre_advance:pseudo,2019-07-31,pre_advance,DELTA_SA,DELTA_SA,2019:Q2,0.0,0.4364162546373178,0.6606180853089914,model_implied_state_space,-0.017100000000000115,0.017100000000000115,True,True,25,-3717.8972103385886,-4888.26528627704,-3717.8972103385886,0.347427797400087,9.341353721066622e-05,25.0,14,4,0.02
joint_indicator_revision_dfm_full_kalman_em,pseudo,2019:Q2:pre_advance:pseudo,2019-07-31,pre_advance,DELTA_SA,DELTA_SA,2019:Q2,0.06866991016527502,0.39377571833544156,0.6275155124261403,model_implied_state_space,-0.017100000000000115,0.08576991016527513,True,True,26,-3682.704429009885,-4902.526826304046,-3682.704429009885,0.34682562977150155,9.414245508520352e-05,26.0,14,4,0.02
ar,pseudo,2019:Q2:pre_second:pseudo,2019-08-31,pre_second,DELTA_TS,DELTA_TS,2019:Q2,0.055386723140361305,,,not_available,-0.023600000000000065,0.07898672314036137,True,True,0,,,,,,,14,4,0.02
no_revision,pseudo,2019:Q2:pre_second:pseudo,2019-08-31,pre_second,DELTA_TS,DELTA_TS,2019:Q2,0.0,,,not_available,-0.023600000000000065,0.023600000000000065,True,True,0,,,,,,,14,4,0.02
bridge,pseudo,2019:Q2:pre_second:pseudo,2019-08-31,pre_second,DELTA_TS,DELTA_TS,2019:Q2,0.23350068936004886,,,not_available,-0.023600000000000065,0.25710068936004893,True,True,0,,,,,,,14,4,0.02
midas_umidas,pseudo,2019:Q2:pre_second:pseudo,2019-08-31,pre_second,DELTA_TS,DELTA_TS,2019:Q2,-0.2911198224050162,,,not_available,-0.023600000000000065,-0.26751982240501615,True,True,0,,,,,,,14,4,0.02
monthly_mixed_frequency_kalman_em,pseudo,2019:Q2:pre_second:pseudo,2019-08-31,pre_second,DELTA_TS,DELTA_TS,2019:Q2,0.016644376134210326,0.14466854149366493,0.3803531799441999,model_implied_state_space,-0.023600000000000065,0.04024437613421039,True,True,52,-6369.468280958436,-7420.230284323025,-6369.468280958436,0.6364165223421878,9.989107895116457e-05,52.0,14,4,0.02
standard_dfm,pseudo,2019:Q2:pre_second:pseudo,2019-08-31,pre_second,DELTA_TS,DELTA_TS,2019:Q2,0.058756074050508644,,,not_available,-0.023600000000000065,0.08235607405050871,True,True,0,,,,,,,14,4,0.02
release_dfm,pseudo,2019:Q2:pre_second:pseudo,2019-08-31,pre_second,DELTA_TS,DELTA_TS,2019:Q2,0.04099531098372022,,,not_available,-0.023600000000000065,0.06459531098372029,True,True,0,,,,,,,14,4,0.02
revision_dfm_kalman_em,pseudo,2019:Q2:pre_second:pseudo,2019-08-31,pre_second,DELTA_TS,DELTA_TS,2019:Q2,0.002028559914144523,0.1488352134827342,0.385791671090414,model_implied_state_space,-0.023600000000000065,0.02562855991414459,True,True,21,-2009.0624428653666,-2992.3708488452644,-2009.0624428653666,0.18531354547235424,9.218443093960667e-05,21.0,14,4,0.02
indicator_revision_only_dfm_kalman_em,pseudo,2019:Q2:pre_second:pseudo,2019-08-31,pre_second,DELTA_TS,DELTA_TS,2019:Q2,0.0,0.15326526129205487,0.39149107434532254,model_implied_state_space,-0.023600000000000065,0.023600000000000065,True,True,25,-3719.7795543857906,-4889.814765795665,-3719.7795543857906,0.3478261440955066,9.34733236801951e-05,25.0,14,4,0.02
joint_indicator_revision_dfm_full_kalman_em,pseudo,2019:Q2:pre_second:pseudo,2019-08-31,pre_second,DELTA_TS,DELTA_TS,2019:Q2,0.0008812236537578677,0.14799316344980917,0.38469879574780214,model_implied_state_space,-0.023600000000000065,0.024481223653757933,True,True,26,-3684.431100249881,-4904.183202598928,-3684.431100249881,0.34698420558743237,9.414137195367673e-05,26.0,14,4,0.02
ar,pseudo,2019:Q2:pre_third:pseudo,2019-09-30,pre_third,DELTA_MT,DELTA_MT,2019:Q2,-0.46237987223397825,,,not_available,1.3697,-1.8320798722339782,True,True,0,,,,,,,14,4,0.02
no_revision,pseudo,2019:Q2:pre_third:pseudo,2019-09-30,pre_third,DELTA_MT,DELTA_MT,2019:Q2,0.0,,,not_available,1.3697,-1.3697,True,True,0,,,,,,,14,4,0.02
bridge,pseudo,2019:Q2:pre_third:pseudo,2019-09-30,pre_third,DELTA_MT,DELTA_MT,2019:Q2,-1.101354405618797,,,not_available,1.3697,-2.471054405618797,True,True,0,,,,,,,14,4,0.02
midas_umidas,pseudo,2019:Q2:pre_third:pseudo,2019-09-30,pre_third,DELTA_MT,DELTA_MT,2019:Q2,-2.7666666149646053,,,not_available,1.3697,-4.136366614964605,True,True,0,,,,,,,14,4,0.02
monthly_mixed_frequency_kalman_em,pseudo,2019:Q2:pre_third:pseudo,2019-09-30,pre_third,DELTA_MT,DELTA_MT,2019:Q2,-0.003925680525870057,4.45743928540231,2.1112648543947086,model_implied_state_space,1.3697,-1.37362568052587,True,True,54,-6386.717266298226,-7441.16270349829,-6386.717266298226,0.6266257989755104,9.808892720235168e-05,54.0,14,4,0.02
standard_dfm,pseudo,2019:Q2:pre_third:pseudo,2019-09-30,pre_third,DELTA_MT,DELTA_MT,2019:Q2,0.25346771696324044,,,not_available,1.3697,-1.1162322830367595,True,True,0,,,,,,,14,4,0.02
release_dfm,pseudo,2019:Q2:pre_third:pseudo,2019-09-30,pre_third,DELTA_MT,DELTA_MT,2019:Q2,0.29384601405375,,,not_available,1.3697,-1.07585398594625,True,True,0,,,,,,,14,4,0.02
revision_dfm_kalman_em,pseudo,2019:Q2:pre_third:pseudo,2019-09-30,pre_third,DELTA_MT,DELTA_MT,2019:Q2,0.0006705451140582852,4.343203368618169,2.0840353568541414,model_implied_state_space,1.3697,-1.3690294548859416,True,True,23,-2008.969952918515,-3009.4061734832844,-2008.969952918515,0.18129965088360223,9.019204433092431e-05,23.0,14,4,0.02
indicator_revision_only_dfm_kalman_em,pseudo,2019:Q2:pre_third:pseudo,2019-09-30,pre_third,DELTA_MT,DELTA_MT,2019:Q2,0.0,4.339650149041187,2.0831826969906375,model_implied_state_space,1.3697,-1.3697,True,True,25,-3719.3034571583817,-4890.838361341825,-3719.3034571583817,0.3486149160335117,9.369726308193732e-05,25.0,14,4,0.02
joint_indicator_revision_dfm_full_kalman_em,pseudo,2019:Q2:pre_third:pseudo,2019-09-30,pre_third,DELTA_MT,DELTA_MT,2019:Q2,-0.00021607636930642826,4.350921428928151,2.0858862454429654,model_implied_state_space,1.3697,-1.3699160763693063,True,True,26,-3683.9392573635237,-4905.177792878474,-3683.9392573635237,0.3478801694232061,9.439703242664793e-05,26.0,14,4,0.02
ar,exact,2019:Q3:pre_advance:exact,2019-10-29,pre_advance,DELTA_SA,DELTA_SA,2019:Q3,0.05929633129901246,,,not_available,0.20500000000000007,-0.1457036687009876,True,True,0,,,,,,,14,4,0.02
no_revision,exact,2019:Q3:pre_advance:exact,2019-10-29,pre_advance,DELTA_SA,DELTA_SA,2019:Q3,0.0,,,not_available,0.20500000000000007,-0.20500000000000007,True,True,0,,,,,,,14,4,0.02
bridge,exact,2019:Q3:pre_advance:exact,2019-10-29,pre_advance,DELTA_SA,DELTA_SA,2019:Q3,0.12826412666737008,,,not_available,0.20500000000000007,-0.07673587333262999,True,True,0,,,,,,,14,4,0.02
midas_umidas,exact,2019:Q3:pre_advance:exact,2019-10-29,pre_advance,DELTA_SA,DELTA_SA,2019:Q3,-0.8415004723431267,,,not_available,0.20500000000000007,-1.0465004723431268,True,True,0,,,,,,,14,4,0.02
monthly_mixed_frequency_kalman_em,exact,2019:Q3:pre_advance:exact,2019-10-29,pre_advance,DELTA_SA,DELTA_SA,2019:Q3,-0.15387602072336293,0.3444452894331924,0.586894615270231,model_implied_state_space,0.20500000000000007,-0.358876020723363,True,True,88,-6364.134759274062,-7462.623169084342,-6364.134759274062,0.6169100469369369,9.691079372606745e-05,88.0,14,4,0.02
standard_dfm,exact,2019:Q3:pre_advance:exact,2019-10-29,pre_advance,DELTA_SA,DELTA_SA,2019:Q3,0.07588607489593979,,,not_available,0.20500000000000007,-0.12911392510406028,True,True,0,,,,,,,14,4,0.02
release_dfm,exact,2019:Q3:pre_advance:exact,2019-10-29,pre_advance,DELTA_SA,DELTA_SA,2019:Q3,0.07588607489593979,,,not_available,0.20500000000000007,-0.12911392510406028,True,True,0,,,,,,,14,4,0.02
revision_dfm_kalman_em,exact,2019:Q3:pre_advance:exact,2019-10-29,pre_advance,DELTA_SA,DELTA_SA,2019:Q3,0.1452770653899833,0.40822921582447247,0.6389281773599224,model_implied_state_space,0.20500000000000007,-0.059722934610016765,True,True,21,-2026.260621186465,-3014.01786753991,-2026.260621186465,0.18296380214655983,9.024359715912271e-05,21.0,14,4,0.02
indicator_revision_only_dfm_kalman_em,exact,2019:Q3:pre_advance:exact,2019-10-29,pre_advance,DELTA_SA,DELTA_SA,2019:Q3,0.0,0.4343689718244734,0.659066743072713,model_implied_state_space,0.20500000000000007,-0.20500000000000007,True,True,25,-3753.186039278643,-4922.906438430684,-3753.186039278643,0.34499638880515704,9.188801092007128e-05,25.0,14,4,0.02
joint_indicator_revision_dfm_full_kalman_em,exact,2019:Q3:pre_advance:exact,2019-10-29,pre_advance,DELTA_SA,DELTA_SA,2019:Q3,0.14631056993377944,0.3909704155749294,0.6252762713992347,model_implied_state_space,0.20500000000000007,-0.05868943006622063,True,True,26,-3717.9991436294727,-4937.568282302712,-3717.9991436294727,0.35172899982035233,9.456730807752675e-05,26.0,14,4,0.02
ar,exact,2019:Q3:pre_second:exact,2019-11-26,pre_second,DELTA_TS,DELTA_TS,2019:Q3,0.040081918729043764,,,not_available,-0.021400000000000308,0.06148191872904407,True,True,0,,,,,,,14,4,0.02
no_revision,exact,2019:Q3:pre_second:exact,2019-11-26,pre_second,DELTA_TS,DELTA_TS,2019:Q3,0.0,,,not_available,-0.021400000000000308,0.021400000000000308,True,True,0,,,,,,,14,4,0.02
bridge,exact,2019:Q3:pre_second:exact,2019-11-26,pre_second,DELTA_TS,DELTA_TS,2019:Q3,0.0008234501869393007,,,not_available,-0.021400000000000308,0.02222345018693961,True,True,0,,,,,,,14,4,0.02
midas_umidas,exact,2019:Q3:pre_second:exact,2019-11-26,pre_second,DELTA_TS,DELTA_TS,2019:Q3,0.36563147681554975,,,not_available,-0.021400000000000308,0.38703147681555006,True,True,0,,,,,,,14,4,0.02
monthly_mixed_frequency_kalman_em,exact,2019:Q3:pre_second:exact,2019-11-26,pre_second,DELTA_TS,DELTA_TS,2019:Q3,-0.1870544448725615,0.13618451899718864,0.36903186718383635,model_implied_state_space,-0.021400000000000308,-0.1656544448725612,True,True,86,-6380.071972056759,-7481.016055452483,-6380.071972056759,0.6095312175175422,9.551263522079682e-05,86.0,14,4,0.02
standard_dfm,exact,2019:Q3:pre_second:exact,2019-11-26,pre_second,DELTA_TS,DELTA_TS,2019:Q3,0.060954373232045,,,not_available,-0.021400000000000308,0.08235437323204531,True,True,0,,,,,,,14,4,0.02
release_dfm,exact,2019:Q3:pre_second:exact,2019-11-26,pre_second,DELTA_TS,DELTA_TS,2019:Q3,0.04036250402543873,,,not_available,-0.021400000000000308,0.061762504025439036,True,True,0,,,,,,,14,4,0.02
revision_dfm_kalman_em,exact,2019:Q3:pre_second:exact,2019-11-26,pre_second,DELTA_TS,DELTA_TS,2019:Q3,0.0028165331527802984,0.14815841525785667,0.3849135165954252,model_implied_state_space,-0.021400000000000308,0.024216533152780606,True,True,21,-2027.1562052225854,-3015.3174895598004,-2027.1562052225854,0.18499347325837334,9.120431679705467e-05,21.0,14,4,0.02
indicator_revision_only_dfm_kalman_em,exact,2019:Q3:pre_second:exact,2019-11-26,pre_second,DELTA_TS,DELTA_TS,2019:Q3,0.0,0.1525628138006171,0.3905929003458935,model_implied_state_space,-0.021400000000000308,0.021400000000000308,True,True,25,-3754.1778881169985,-4930.710405639942,-3754.1778881169985,0.3501976129218747,9.324856715957981e-05,25.0,14,4,0.02
joint_indicator_revision_dfm_full_kalman_em,exact,2019:Q3:pre_second:exact,2019-11-26,pre_second,DELTA_TS,DELTA_TS,2019:Q3,0.003183268242445525,0.14730655217214728,0.3838053571436273,model_implied_state_space,-0.021400000000000308,0.024583268242445833,True,True,26,-3718.6325999918427,-4945.136285167965,-3718.6325999918427,0.3483335057326258,9.363851911066598e-05,26.0,14,4,0.02
ar,exact,2019:Q3:pre_third:exact,2019-12-19,pre_third,DELTA_MT,DELTA_MT,2019:Q3,0.5233605281748179,,,not_available,2.6594,-2.1360394718251823,True,True,0,,,,,,,14,4,0.02
no_revision,exact,2019:Q3:pre_third:exact,2019-12-19,pre_third,DELTA_MT,DELTA_MT,2019:Q3,0.0,,,not_available,2.6594,-2.6594,True,True,0,,,,,,,14,4,0.02
bridge,exact,2019:Q3:pre_third:exact,2019-12-19,pre_third,DELTA_MT,DELTA_MT,2019:Q3,-0.5005867649503339,,,not_available,2.6594,-3.159986764950334,True,True,0,,,,,,,14,4,0.02
midas_umidas,exact,2019:Q3:pre_third:exact,2019-12-19,pre_third,DELTA_MT,DELTA_MT,2019:Q3,-3.418106266556611,,,not_available,2.6594,-6.077506266556611,True,True,0,,,,,,,14,4,0.02
monthly_mixed_frequency_kalman_em,exact,2019:Q3:pre_third:exact,2019-12-19,pre_third,DELTA_MT,DELTA_MT,2019:Q3,-0.09403960276818202,4.43398933542303,2.105703999954179,model_implied_state_space,2.6594,-2.7534396027681822,True,True,84,-6397.344570870017,-7475.925544386487,-6397.344570870017,0.5613095619301021,8.771961526213476e-05,84.0,14,4,0.02
standard_dfm,exact,2019:Q3:pre_third:exact,2019-12-19,pre_third,DELTA_MT,DELTA_MT,2019:Q3,0.27145584172888215,,,not_available,2.6594,-2.387944158271118,True,True,0,,,,,,,14,4,0.02
release_dfm,exact,2019:Q3:pre_third:exact,2019-12-19,pre_third,DELTA_MT,DELTA_MT,2019:Q3,0.3141445144366579,,,not_available,2.6594,-2.3452554855633423,True,True,0,,,,,,,14,4,0.02
revision_dfm_kalman_em,exact,2019:Q3:pre_third:exact,2019-12-19,pre_third,DELTA_MT,DELTA_MT,2019:Q3,0.0029586354182686847,4.322773238103761,2.079127999451636,model_implied_state_space,2.6594,-2.6564413645817315,True,True,23,-2026.6450407130403,-3032.379569260877,-2026.6450407130403,0.181101034626181,8.930796920790282e-05,23.0,14,4,0.02
indicator_revision_only_dfm_kalman_em,exact,2019:Q3:pre_third:exact,2019-12-19,pre_third,DELTA_MT,DELTA_MT,2019:Q3,0.0,4.319175117833548,2.0782625238004817,model_implied_state_space,2.6594,-2.6594,True,True,25,-3753.691863335777,-4925.142637934347,-3753.691863335777,0.34837858520131704,9.277625877668248e-05,25.0,14,4,0.02
joint_indicator_revision_dfm_full_kalman_em,exact,2019:Q3:pre_third:exact,2019-12-19,pre_third,DELTA_MT,DELTA_MT,2019:Q3,0.0030067862665212886,4.3297935310752695,2.0808155927605094,model_implied_state_space,2.6594,-2.656393213733479,True,True,26,-3718.3144573798836,-4939.882908465644,-3718.3144573798836,0.35526503612118177,9.550983356942496e-05,26.0,14,4,0.02
ar,pseudo,2019:Q3:pre_advance:pseudo,2019-10-31,pre_advance,DELTA_SA,DELTA_SA,2019:Q3,0.05929633129901246,,,not_available,0.20500000000000007,-0.1457036687009876,True,True,0,,,,,,,14,4,0.02
no_revision,pseudo,2019:Q3:pre_advance:pseudo,2019-10-31,pre_advance,DELTA_SA,DELTA_SA,2019:Q3,0.0,,,not_available,0.20500000000000007,-0.20500000000000007,True,True,0,,,,,,,14,4,0.02
bridge,pseudo,2019:Q3:pre_advance:pseudo,2019-10-31,pre_advance,DELTA_SA,DELTA_SA,2019:Q3,0.1296675890855088,,,not_available,0.20500000000000007,-0.07533241091449128,True,True,0,,,,,,,14,4,0.02
midas_umidas,pseudo,2019:Q3:pre_advance:pseudo,2019-10-31,pre_advance,DELTA_SA,DELTA_SA,2019:Q3,-0.8759867655145306,,,not_available,0.20500000000000007,-1.0809867655145307,True,True,0,,,,,,,14,4,0.02
monthly_mixed_frequency_kalman_em,pseudo,2019:Q3:pre_advance:pseudo,2019-10-31,pre_advance,DELTA_SA,DELTA_SA,2019:Q3,-0.13300595179307928,0.34711205551882784,0.5891621640251755,model_implied_state_space,0.20500000000000007,-0.33800595179307935,True,True,56,-6405.025629257409,-7464.052371991779,-6405.025629257409,0.6391214492350628,9.975884084844128e-05,56.0,14,4,0.02
standard_dfm,pseudo,2019:Q3:pre_advance:pseudo,2019-10-31,pre_advance,DELTA_SA,DELTA_SA,2019:Q3,0.07779904361249201,,,not_available,0.20500000000000007,-0.12720095638750806,True,True,0,,,,,,,14,4,0.02
release_dfm,pseudo,2019:Q3:pre_advance:pseudo,2019-10-31,pre_advance,DELTA_SA,DELTA_SA,2019:Q3,0.07779904361249201,,,not_available,0.20500000000000007,-0.12720095638750806,True,True,0,,,,,,,14,4,0.02
revision_dfm_kalman_em,pseudo,2019:Q3:pre_advance:pseudo,2019-10-31,pre_advance,DELTA_SA,DELTA_SA,2019:Q3,0.14619084572120578,0.40822522177765563,0.6389250517687154,model_implied_state_space,0.20500000000000007,-0.058809154278794296,True,True,21,-2026.2644542126573,-3014.022412441192,-2026.2644542126573,0.18294216498634341,9.023275539143388e-05,21.0,14,4,0.02
indicator_revision_only_dfm_kalman_em,pseudo,2019:Q3:pre_advance:pseudo,2019-10-31,pre_advance,DELTA_SA,DELTA_SA,2019:Q3,0.0,0.43436900143168344,0.6590667655341782,model_implied_state_space,0.20500000000000007,-0.20500000000000007,True,True,25,-3753.1539425127753,-4922.8649480065515,-3753.1539425127753,0.34489451904164525,9.186166623354383e-05,25.0,14,4,0.02
joint_indicator_revision_dfm_full_kalman_em,pseudo,2019:Q3:pre_advance:pseudo,2019-10-31,pre_advance,DELTA_SA,DELTA_SA,2019:Q3,0.1458357917398736,0.39096467931193235,0.6252716843996154,model_implied_state_space,0.20500000000000007,-0.05916420826012647,True,True,26,-3717.9681632846873,-4937.5267613524275,-3717.9681632846873,0.35163521226422745,9.454288184800081e-05,26.0,14,4,0.02
ar,pseudo,2019:Q3:pre_second:pseudo,2019-11-30,pre_second,DELTA_TS,DELTA_TS,2019:Q3,0.040081918729043764,,,not_available,-0.021400000000000308,0.06148191872904407,True,True,0,,,,,,,14,4,0.02
no_revision,pseudo,2019:Q3:pre_second:pseudo,2019-11-30,pre_second,DELTA_TS,DELTA_TS,2019:Q3,0.0,,,not_available,-0.021400000000000308,0.021400000000000308,True,True,0,,,,,,,14,4,0.02
bridge,pseudo,2019:Q3:pre_second:pseudo,2019-11-30,pre_second,DELTA_TS,DELTA_TS,2019:Q3,-0.0012805936584112665,,,not_available,-0.021400000000000308,0.02011940634158904,True,True,0,,,,,,,14,4,0.02
midas_umidas,pseudo,2019:Q3:pre_second:pseudo,2019-11-30,pre_second,DELTA_TS,DELTA_TS,2019:Q3,0.3635531020191416,,,not_available,-0.021400000000000308,0.3849531020191419,True,True,0,,,,,,,14,4,0.02
monthly_mixed_frequency_kalman_em,pseudo,2019:Q3:pre_second:pseudo,2019-11-30,pre_second,DELTA_TS,DELTA_TS,2019:Q3,-0.1866202995772639,0.13619107243272266,0.3690407463041482,model_implied_state_space,-0.021400000000000308,-0.16522029957726359,True,True,86,-6382.861424006063,-7483.761482383472,-6382.861424006063,0.603163747941835,9.447366175368237e-05,86.0,14,4,0.02
standard_dfm,pseudo,2019:Q3:pre_second:pseudo,2019-11-30,pre_second,DELTA_TS,DELTA_TS,2019:Q3,0.060865098210171276,,,not_available,-0.021400000000000308,0.08226509821017158,True,True,0,,,,,,,14,4,0.02
release_dfm,pseudo,2019:Q3:pre_second:pseudo,2019-11-30,pre_second,DELTA_TS,DELTA_TS,2019:Q3,0.040349504607029685,,,not_available,-0.021400000000000308,0.06174950460702999,True,True,0,,,,,,,14,4,0.02
revision_dfm_kalman_em,pseudo,2019:Q3:pre_second:pseudo,2019-11-30,pre_second,DELTA_TS,DELTA_TS,2019:Q3,0.0028078805346449798,0.14815778419234704,0.38491269684481316,model_implied_state_space,-0.021400000000000308,0.024207880534645287,True,True,21,-2027.0392625848174,-3015.278813783375,-2027.0392625848174,0.18500602020799306,9.121576103378189e-05,21.0,14,4,0.02
indicator_revision_only_dfm_kalman_em,pseudo,2019:Q3:pre_second:pseudo,2019-11-30,pre_second,DELTA_TS,DELTA_TS,2019:Q3,0.0,0.1525629570493483,0.39059308371929513,model_implied_state_space,-0.021400000000000308,0.021400000000000308,True,True,25,-3754.151518257905,-4930.715459389079,-3754.151518257905,0.35038573227438974,9.329930891583592e-05,25.0,14,4,0.02
joint_indicator_revision_dfm_full_kalman_em,pseudo,2019:Q3:pre_second:pseudo,2019-11-30,pre_second,DELTA_TS,DELTA_TS,2019:Q3,0.003170268400531029,0.14730664178556607,0.3838054738869237,model_implied_state_space,-0.021400000000000308,0.024570268400531337,True,True,26,-3718.6064081272048,-4945.141353902798,-3718.6064081272048,0.34852826010819626,9.369152746959737e-05,26.0,14,4,0.02
ar,pseudo,2019:Q3:pre_third:pseudo,2019-12-31,pre_third,DELTA_MT,DELTA_MT,2019:Q3,0.5233605281748179,,,not_available,2.6594,-2.1360394718251823,True,True,0,,,,,,,14,4,0.02
no_revision,pseudo,2019:Q3:pre_third:pseudo,2019-12-31,pre_third,DELTA_MT,DELTA_MT,2019:Q3,0.0,,,not_available,2.6594,-2.6594,True,True,0,,,,,,,14,4,0.02
bridge,pseudo,2019:Q3:pre_third:pseudo,2019-12-31,pre_third,DELTA_MT,DELTA_MT,2019:Q3,-0.5005279317503972,,,not_available,2.6594,-3.1599279317503974,True,True,0,,,,,,,14,4,0.02
midas_umidas,pseudo,2019:Q3:pre_third:pseudo,2019-12-31,pre_third,DELTA_MT,DELTA_MT,2019:Q3,-3.4287036456544917,,,not_available,2.6594,-6.088103645654492,True,True,0,,,,,,,14,4,0.02
monthly_mixed_frequency_kalman_em,pseudo,2019:Q3:pre_third:pseudo,2019-12-31,pre_third,DELTA_MT,DELTA_MT,2019:Q3,-0.09442725915027861,4.4340044050499685,2.1057075782382437,model_implied_state_space,2.6594,-2.753827259150279,True,True,85,-6400.655898089368,-7478.681402652314,-6400.655898089368,0.5302225945315513,8.281899097224487e-05,85.0,14,4,0.02
standard_dfm,pseudo,2019:Q3:pre_third:pseudo,2019-12-31,pre_third,DELTA_MT,DELTA_MT,2019:Q3,0.27097951517942986,,,not_available,2.6594,-2.3884204848205703,True,True,0,,,,,,,14,4,0.02
release_dfm,pseudo,2019:Q3:pre_third:pseudo,2019-12-31,pre_third,DELTA_MT,DELTA_MT,2019:Q3,0.31298521039985117,,,not_available,2.6594,-2.346414789600149,True,True,0,,,,,,,14,4,0.02
revision_dfm_kalman_em,pseudo,2019:Q3:pre_third:pseudo,2019-12-31,pre_third,DELTA_MT,DELTA_MT,2019:Q3,0.0029603328419112174,4.322773272902257,2.079128007820167,model_implied_state_space,2.6594,-2.656439667158089,True,True,23,-2026.6432115957753,-3032.377983141386,-2026.6432115957753,0.1810956401511703,8.93053897741353e-05,23.0,14,4,0.02
indicator_revision_only_dfm_kalman_em,pseudo,2019:Q3:pre_third:pseudo,2019-12-31,pre_third,DELTA_MT,DELTA_MT,2019:Q3,0.0,4.319175002182644,2.0782624959765412,model_implied_state_space,2.6594,-2.6594,True,True,25,-3753.693826303954,-4925.144998655564,-3753.693826303954,0.3484006185203725,9.278207739514869e-05,25.0,14,4,0.02
joint_indicator_revision_dfm_full_kalman_em,pseudo,2019:Q3:pre_third:pseudo,2019-12-31,pre_third,DELTA_MT,DELTA_MT,2019:Q3,0.0030083807853840128,4.329793247320525,2.080815524576969,model_implied_state_space,2.6594,-2.656391619214616,True,True,26,-3718.3163196562714,-4939.885276626141,-3718.3163196562714,0.35528214323494467,9.551438440508187e-05,26.0,14,4,0.02
ar,exact,2019:Q4:pre_advance:exact,2020-01-29,pre_advance,DELTA_SA,DELTA_SA,2019:Q4,0.1665444581766966,,,not_available,0.014800000000000146,0.15174445817669646,True,True,0,,,,,,,14,4,0.02
no_revision,exact,2019:Q4:pre_advance:exact,2020-01-29,pre_advance,DELTA_SA,DELTA_SA,2019:Q4,0.0,,,not_available,0.014800000000000146,-0.014800000000000146,True,True,0,,,,,,,14,4,0.02
bridge,exact,2019:Q4:pre_advance:exact,2020-01-29,pre_advance,DELTA_SA,DELTA_SA,2019:Q4,0.2746654258404977,,,not_available,0.014800000000000146,0.25986542584049754,True,True,0,,,,,,,14,4,0.02
midas_umidas,exact,2019:Q4:pre_advance:exact,2020-01-29,pre_advance,DELTA_SA,DELTA_SA,2019:Q4,0.9147253380832268,,,not_available,0.014800000000000146,0.8999253380832266,True,True,0,,,,,,,14,4,0.02
monthly_mixed_frequency_kalman_em,exact,2019:Q4:pre_advance:exact,2020-01-29,pre_advance,DELTA_SA,DELTA_SA,2019:Q4,-0.1365828619100684,0.3479927672484875,0.5899091177872127,model_implied_state_space,0.014800000000000146,-0.15138286191006856,True,True,50,-6469.2853342069075,-7498.543314628145,-6469.2853342069075,0.6272767151895096,9.693790550203759e-05,50.0,14,4,0.02
standard_dfm,exact,2019:Q4:pre_advance:exact,2020-01-29,pre_advance,DELTA_SA,DELTA_SA,2019:Q4,0.03862515144349943,,,not_available,0.014800000000000146,0.02382515144349928,True,True,0,,,,,,,14,4,0.02
release_dfm,exact,2019:Q4:pre_advance:exact,2020-01-29,pre_advance,DELTA_SA,DELTA_SA,2019:Q4,0.03862515144349943,,,not_available,0.014800000000000146,0.02382515144349928,True,True,0,,,,,,,14,4,0.02
revision_dfm_kalman_em,exact,2019:Q4:pre_advance:exact,2020-01-29,pre_advance,DELTA_SA,DELTA_SA,2019:Q4,0.07911525449696111,0.40395998747771245,0.635578466814061,model_implied_state_space,0.014800000000000146,0.06431525449696096,True,True,23,-2045.3866608484493,-3053.825412828364,-2045.3866608484493,0.18094199524784926,8.84124203844677e-05,23.0,14,4,0.02
indicator_revision_only_dfm_kalman_em,exact,2019:Q4:pre_advance:exact,2020-01-29,pre_advance,DELTA_SA,DELTA_SA,2019:Q4,0.0,0.4325441223999489,0.6576808666822754,model_implied_state_space,0.014800000000000146,-0.014800000000000146,True,True,25,-3791.1727334902107,-4972.172919400993,-3791.1727334902107,0.36362308682782896,9.587860277126459e-05,25.0,14,4,0.02
joint_indicator_revision_dfm_full_kalman_em,exact,2019:Q4:pre_advance:exact,2020-01-29,pre_advance,DELTA_SA,DELTA_SA,2019:Q4,0.05700476732737059,0.39069023986515816,0.6250521897131136,model_implied_state_space,0.014800000000000146,0.04220476732737044,True,True,26,-3755.648477248013,-4986.560556432129,-3755.648477248013,0.3588824962680519,9.552350099534516e-05,26.0,14,4,0.02
ar,exact,2019:Q4:pre_second:exact,2020-02-26,pre_second,DELTA_TS,DELTA_TS,2019:Q4,0.03892602850336768,,,not_available,0.03189999999999982,0.007026028503367865,True,True,0,,,,,,,14,4,0.02
no_revision,exact,2019:Q4:pre_second:exact,2020-02-26,pre_second,DELTA_TS,DELTA_TS,2019:Q4,0.0,,,not_available,0.03189999999999982,-0.03189999999999982,True,True,0,,,,,,,14,4,0.02
bridge,exact,2019:Q4:pre_second:exact,2020-02-26,pre_second,DELTA_TS,DELTA_TS,2019:Q4,0.03400117091687571,,,not_available,0.03189999999999982,0.002101170916875894,True,True,0,,,,,,,14,4,0.02
midas_umidas,exact,2019:Q4:pre_second:exact,2020-02-26,pre_second,DELTA_TS,DELTA_TS,2019:Q4,0.6241503795066428,,,not_available,0.03189999999999982,0.5922503795066429,True,True,0,,,,,,,14,4,0.02
monthly_mixed_frequency_kalman_em,exact,2019:Q4:pre_second:exact,2020-02-26,pre_second,DELTA_TS,DELTA_TS,2019:Q4,-0.1668650907342064,0.13520033461446979,0.36769598123241676,model_implied_state_space,0.03189999999999982,-0.19876509073420623,True,True,87,-6438.970241778739,-7517.704691580865,-6438.970241778739,0.5797461170295719,9.00150015323434e-05,87.0,14,4,0.02
standard_dfm,exact,2019:Q4:pre_second:exact,2020-02-26,pre_second,DELTA_TS,DELTA_TS,2019:Q4,0.05548674693901656,,,not_available,0.03189999999999982,0.023586746939016745,True,True,0,,,,,,,14,4,0.02
release_dfm,exact,2019:Q4:pre_second:exact,2020-02-26,pre_second,DELTA_TS,DELTA_TS,2019:Q4,0.040042636480916105,,,not_available,0.03189999999999982,0.008142636480916288,True,True,0,,,,,,,14,4,0.02
revision_dfm_kalman_em,exact,2019:Q4:pre_second:exact,2020-02-26,pre_second,DELTA_TS,DELTA_TS,2019:Q4,0.004485889936220566,0.14746592306683348,0.38401292044257246,model_implied_state_space,0.03189999999999982,-0.02741411006377925,True,True,21,-2045.6247442817373,-3038.8710404578774,-2045.6247442817373,0.18645697284750895,9.10963222857198e-05,21.0,14,4,0.02
indicator_revision_only_dfm_kalman_em,exact,2019:Q4:pre_second:exact,2020-02-26,pre_second,DELTA_TS,DELTA_TS,2019:Q4,0.0,0.1518564749141894,0.3896876632820051,model_implied_state_space,0.03189999999999982,-0.03189999999999982,True,True,25,-3791.5989787393005,-4973.144331743128,-3791.5989787393005,0.3626597856209628,9.561388175863565e-05,25.0,14,4,0.02
joint_indicator_revision_dfm_full_kalman_em,exact,2019:Q4:pre_second:exact,2020-02-26,pre_second,DELTA_TS,DELTA_TS,2019:Q4,0.0032203449164791564,0.14663169016698918,0.3829251756766447,model_implied_state_space,0.03189999999999982,-0.02867965508352066,True,True,26,-3755.9402068995687,-4987.636214211693,-3755.9402068995687,0.35774062055998,9.521220450353e-05,26.0,14,4,0.02
ar,exact,2019:Q4:pre_third:exact,2020-03-25,pre_third,DELTA_MT,DELTA_MT,2019:Q4,0.28493109658739835,,,not_available,0.6275,-0.3425689034126016,True,True,0,,,,,,,14,4,0.02
no_revision,exact,2019:Q4:pre_third:exact,2020-03-25,pre_third,DELTA_MT,DELTA_MT,2019:Q4,0.0,,,not_available,0.6275,-0.6275,True,True,0,,,,,,,14,4,0.02
bridge,exact,2019:Q4:pre_third:exact,2020-03-25,pre_third,DELTA_MT,DELTA_MT,2019:Q4,-0.3429265046088039,,,not_available,0.6275,-0.9704265046088039,True,True,0,,,,,,,14,4,0.02
midas_umidas,exact,2019:Q4:pre_third:exact,2020-03-25,pre_third,DELTA_MT,DELTA_MT,2019:Q4,4.4102217841675255,,,not_available,0.6275,3.7827217841675256,True,True,0,,,,,,,14,4,0.02
monthly_mixed_frequency_kalman_em,exact,2019:Q4:pre_third:exact,2020-03-25,pre_third,DELTA_MT,DELTA_MT,2019:Q4,-0.08747126955077422,4.41549729289404,2.1013084716181107,model_implied_state_space,0.6275,-0.7149712695507742,True,True,53,-6506.291415830412,-7539.787496723451,-6506.291415830412,0.6501470142229664,9.990056117510461e-05,53.0,14,4,0.02
standard_dfm,exact,2019:Q4:pre_third:exact,2020-03-25,pre_third,DELTA_MT,DELTA_MT,2019:Q4,0.2285591696432827,,,not_available,0.6275,-0.39894083035671724,True,True,0,,,,,,,14,4,0.02
release_dfm,exact,2019:Q4:pre_third:exact,2020-03-25,pre_third,DELTA_MT,DELTA_MT,2019:Q4,0.22708393626803725,,,not_available,0.6275,-0.4004160637319627,True,True,0,,,,,,,14,4,0.02
revision_dfm_kalman_em,exact,2019:Q4:pre_third:exact,2020-03-25,pre_third,DELTA_MT,DELTA_MT,2019:Q4,0.001680138539788878,4.302348021029221,2.074210216209828,model_implied_state_space,0.6275,-0.6258198614602111,True,True,23,-2045.615081894456,-3056.14488568595,-2045.615081894456,0.1826919129405269,8.925743191555679e-05,23.0,14,4,0.02
indicator_revision_only_dfm_kalman_em,exact,2019:Q4:pre_third:exact,2020-03-25,pre_third,DELTA_MT,DELTA_MT,2019:Q4,0.0,4.2986957053258,2.0733296181084664,model_implied_state_space,0.6275,-0.6275,True,True,25,-3791.4323494894657,-4967.622005844431,-3791.4323494894657,0.36265368569229395,9.561647423303831e-05,25.0,14,4,0.02
joint_indicator_revision_dfm_full_kalman_em,exact,2019:Q4:pre_third:exact,2020-03-25,pre_third,DELTA_MT,DELTA_MT,2019:Q4,0.001384267420588614,4.309213644629128,2.0758645535364604,model_implied_state_space,0.6275,-0.6261157325794113,True,True,26,-3755.9410083016146,-4982.430277024741,-3755.9410083016146,0.366566663908543,9.756099456720856e-05,26.0,14,4,0.02
ar,pseudo,2019:Q4:pre_advance:pseudo,2020-01-31,pre_advance,DELTA_SA,DELTA_SA,2019:Q4,0.1665444581766966,,,not_available,0.014800000000000146,0.15174445817669646,True,True,0,,,,,,,14,4,0.02
no_revision,pseudo,2019:Q4:pre_advance:pseudo,2020-01-31,pre_advance,DELTA_SA,DELTA_SA,2019:Q4,0.0,,,not_available,0.014800000000000146,-0.014800000000000146,True,True,0,,,,,,,14,4,0.02
bridge,pseudo,2019:Q4:pre_advance:pseudo,2020-01-31,pre_advance,DELTA_SA,DELTA_SA,2019:Q4,0.2745872631544426,,,not_available,0.014800000000000146,0.25978726315444245,True,True,0,,,,,,,14,4,0.02
midas_umidas,pseudo,2019:Q4:pre_advance:pseudo,2020-01-31,pre_advance,DELTA_SA,DELTA_SA,2019:Q4,0.9118186832048545,,,not_available,0.014800000000000146,0.8970186832048543,True,True,0,,,,,,,14,4,0.02
monthly_mixed_frequency_kalman_em,pseudo,2019:Q4:pre_advance:pseudo,2020-01-31,pre_advance,DELTA_SA,DELTA_SA,2019:Q4,-0.13749565285170195,0.3479340147202432,0.5898593177362236,model_implied_state_space,0.014800000000000146,-0.1522956528517021,True,True,50,-6470.62796759433,-7499.925111035035,-6470.62796759433,0.6268550275635789,9.685264946191373e-05,50.0,14,4,0.02
standard_dfm,pseudo,2019:Q4:pre_advance:pseudo,2020-01-31,pre_advance,DELTA_SA,DELTA_SA,2019:Q4,0.03852049043193739,,,not_available,0.014800000000000146,0.023720490431937247,True,True,0,,,,,,,14,4,0.02
release_dfm,pseudo,2019:Q4:pre_advance:pseudo,2020-01-31,pre_advance,DELTA_SA,DELTA_SA,2019:Q4,0.03852049043193739,,,not_available,0.014800000000000146,0.023720490431937247,True,True,0,,,,,,,14,4,0.02
revision_dfm_kalman_em,pseudo,2019:Q4:pre_advance:pseudo,2020-01-31,pre_advance,DELTA_SA,DELTA_SA,2019:Q4,0.07906092408326604,0.4039601905879975,0.6355786265978407,model_implied_state_space,0.014800000000000146,0.06426092408326589,True,True,23,-2045.3839622958035,-3053.8239195062697,-2045.3839622958035,0.18093706516401653,8.841012822047005e-05,23.0,14,4,0.02
indicator_revision_only_dfm_kalman_em,pseudo,2019:Q4:pre_advance:pseudo,2020-01-31,pre_advance,DELTA_SA,DELTA_SA,2019:Q4,0.0,0.43254405748368363,0.6576808173298683,model_implied_state_space,0.014800000000000146,-0.014800000000000146,True,True,25,-3791.17914244301,-4972.17911435054,-3791.17914244301,0.36368948117114996,9.589594561984915e-05,25.0,14,4,0.02
joint_indicator_revision_dfm_full_kalman_em,pseudo,2019:Q4:pre_advance:pseudo,2020-01-31,pre_advance,DELTA_SA,DELTA_SA,2019:Q4,0.056758077099980264,0.39068945050250736,0.6250515582754013,model_implied_state_space,0.014800000000000146,0.04195807709998012,True,True,26,-3755.655029256576,-4986.566751370717,-3755.655029256576,0.3589447398435368,9.553990012491736e-05,26.0,14,4,0.02
ar,pseudo,2019:Q4:pre_second:pseudo,2020-02-29,pre_second,DELTA_TS,DELTA_TS,2019:Q4,0.03892602850336768,,,not_available,0.03189999999999982,0.007026028503367865,True,True,0,,,,,,,14,4,0.02
no_revision,pseudo,2019:Q4:pre_second:pseudo,2020-02-29,pre_second,DELTA_TS,DELTA_TS,2019:Q4,0.0,,,not_available,0.03189999999999982,-0.03189999999999982,True,True,0,,,,,,,14,4,0.02
bridge,pseudo,2019:Q4:pre_second:pseudo,2020-02-29,pre_second,DELTA_TS,DELTA_TS,2019:Q4,0.03696695036035447,,,not_available,0.03189999999999982,0.0050669503603546495,True,True,0,,,,,,,14,4,0.02
midas_umidas,pseudo,2019:Q4:pre_second:pseudo,2020-02-29,pre_second,DELTA_TS,DELTA_TS,2019:Q4,0.6400989146419032,,,not_available,0.03189999999999982,0.6081989146419033,True,True,0,,,,,,,14,4,0.02
monthly_mixed_frequency_kalman_em,pseudo,2019:Q4:pre_second:pseudo,2020-02-29,pre_second,DELTA_TS,DELTA_TS,2019:Q4,-0.11786730351220331,0.14151371210691366,0.37618308322798577,model_implied_state_space,0.03189999999999982,-0.14976730351220313,True,True,53,-6488.448639322011,-7520.511986458246,-6488.448639322011,0.6459187049040338,9.952377413440994e-05,53.0,14,4,0.02
standard_dfm,pseudo,2019:Q4:pre_second:pseudo,2020-02-29,pre_second,DELTA_TS,DELTA_TS,2019:Q4,0.05561877310770136,,,not_available,0.03189999999999982,0.02371877310770154,True,True,0,,,,,,,14,4,0.02
release_dfm,pseudo,2019:Q4:pre_second:pseudo,2020-02-29,pre_second,DELTA_TS,DELTA_TS,2019:Q4,0.04006162345805109,,,not_available,0.03189999999999982,0.00816162345805127,True,True,0,,,,,,,14,4,0.02
revision_dfm_kalman_em,pseudo,2019:Q4:pre_second:pseudo,2020-02-29,pre_second,DELTA_TS,DELTA_TS,2019:Q4,0.0044687454976575225,0.14746575244654636,0.3840126982881508,model_implied_state_space,0.03189999999999982,-0.027431254502342295,True,True,21,-2045.6145201766046,-3038.855958837104,-2045.6145201766046,0.18646536586470575,9.110087750680182e-05,21.0,14,4,0.02
indicator_revision_only_dfm_kalman_em,pseudo,2019:Q4:pre_second:pseudo,2020-02-29,pre_second,DELTA_TS,DELTA_TS,2019:Q4,0.0,0.15185653133507337,0.3896877356744415,model_implied_state_space,0.03189999999999982,-0.03189999999999982,True,True,25,-3791.637088039985,-4973.176821116282,-3791.637088039985,0.36275416125090487,9.563780024846601e-05,25.0,14,4,0.02
joint_indicator_revision_dfm_full_kalman_em,pseudo,2019:Q4:pre_second:pseudo,2020-02-29,pre_second,DELTA_TS,DELTA_TS,2019:Q4,0.0032021623276943245,0.14663169779732887,0.38292518563987,model_implied_state_space,0.03189999999999982,-0.028697837672305493,True,True,26,-3755.977061539581,-4987.668739498454,-3755.977061539581,0.35782890898053665,9.52347659747247e-05,26.0,14,4,0.02
ar,pseudo,2019:Q4:pre_third:pseudo,2020-03-31,pre_third,DELTA_MT,DELTA_MT,2019:Q4,0.28493109658739835,,,not_available,0.6275,-0.3425689034126016,True,True,0,,,,,,,14,4,0.02
no_revision,pseudo,2019:Q4:pre_third:pseudo,2020-03-31,pre_third,DELTA_MT,DELTA_MT,2019:Q4,0.0,,,not_available,0.6275,-0.6275,True,True,0,,,,,,,14,4,0.02
bridge,pseudo,2019:Q4:pre_third:pseudo,2020-03-31,pre_third,DELTA_MT,DELTA_MT,2019:Q4,-0.3429288327850699,,,not_available,0.6275,-0.9704288327850699,True,True,0,,,,,,,14,4,0.02
midas_umidas,pseudo,2019:Q4:pre_third:pseudo,2020-03-31,pre_third,DELTA_MT,DELTA_MT,2019:Q4,4.406138958198086,,,not_available,0.6275,3.7786389581980857,True,True,0,,,,,,,14,4,0.02
monthly_mixed_frequency_kalman_em,pseudo,2019:Q4:pre_third:pseudo,2020-03-31,pre_third,DELTA_MT,DELTA_MT,2019:Q4,-0.1179606553660899,4.4118857116143975,2.100448930970329,model_implied_state_space,0.6275,-0.7454606553660899,True,True,87,-6459.905496539938,-7541.2159128546655,-6459.905496539938,0.5675317894992986,8.783319020462265e-05,87.0,14,4,0.02
standard_dfm,pseudo,2019:Q4:pre_third:pseudo,2020-03-31,pre_third,DELTA_MT,DELTA_MT,2019:Q4,0.22861088466232404,,,not_available,0.6275,-0.3988891153376759,True,True,0,,,,,,,14,4,0.02
release_dfm,pseudo,2019:Q4:pre_third:pseudo,2020-03-31,pre_third,DELTA_MT,DELTA_MT,2019:Q4,0.22721360826241455,,,not_available,0.6275,-0.4002863917375854,True,True,0,,,,,,,14,4,0.02
revision_dfm_kalman_em,pseudo,2019:Q4:pre_third:pseudo,2020-03-31,pre_third,DELTA_MT,DELTA_MT,2019:Q4,0.0016799450934814608,4.30234802392837,2.074210216908684,model_implied_state_space,0.6275,-0.6258200549065185,True,True,23,-2045.615718742448,-3056.1453024185375,-2045.615718742448,0.18269321929324178,8.925804232872186e-05,23.0,14,4,0.02
indicator_revision_only_dfm_kalman_em,pseudo,2019:Q4:pre_third:pseudo,2020-03-31,pre_third,DELTA_MT,DELTA_MT,2019:Q4,0.0,4.298695702517495,2.0733296174312215,model_implied_state_space,0.6275,-0.6275,True,True,25,-3791.4325439412705,-4967.622128395279,-3791.4325439412705,0.3626479380322962,9.56149540604661e-05,25.0,14,4,0.02
joint_indicator_revision_dfm_full_kalman_em,pseudo,2019:Q4:pre_third:pseudo,2020-03-31,pre_third,DELTA_MT,DELTA_MT,2019:Q4,0.001384066457243982,4.309213693849453,2.07586456539184,model_implied_state_space,0.6275,-0.626115933542756,True,True,26,-3755.9411724283614,-4982.430399424705,-3755.9411724283614,0.3665614162032398,9.755959377545199e-05,26.0,14,4,0.02
ar,exact,2020:Q1:pre_advance:exact,2020-04-28,pre_advance,DELTA_SA,DELTA_SA,2020:Q1,0.07270396930060219,,,not_available,-0.26449999999999996,0.33720396930060215,True,True,0,,,,,,,14,4,0.02
no_revision,exact,2020:Q1:pre_advance:exact,2020-04-28,pre_advance,DELTA_SA,DELTA_SA,2020:Q1,0.0,,,not_available,-0.26449999999999996,0.26449999999999996,True,True,0,,,,,,,14,4,0.02
bridge,exact,2020:Q1:pre_advance:exact,2020-04-28,pre_advance,DELTA_SA,DELTA_SA,2020:Q1,-0.0012122564109908751,,,not_available,-0.26449999999999996,0.2632877435890091,True,True,0,,,,,,,14,4,0.02
midas_umidas,exact,2020:Q1:pre_advance:exact,2020-04-28,pre_advance,DELTA_SA,DELTA_SA,2020:Q1,0.8166439581580391,,,not_available,-0.26449999999999996,1.081143958158039,True,True,0,,,,,,,14,4,0.02
monthly_mixed_frequency_kalman_em,exact,2020:Q1:pre_advance:exact,2020-04-28,pre_advance,DELTA_SA,DELTA_SA,2020:Q1,-0.7001358075843687,0.3502455710560186,0.5918154873404536,model_implied_state_space,-0.26449999999999996,-0.4356358075843687,True,True,40,-6365.157784502217,-7570.539615772524,-6365.157784502217,0.5121276228919669,8.04388526436147e-05,40.0,14,4,0.02
standard_dfm,exact,2020:Q1:pre_advance:exact,2020-04-28,pre_advance,DELTA_SA,DELTA_SA,2020:Q1,-0.07900204542880451,,,not_available,-0.26449999999999996,0.18549795457119544,True,True,0,,,,,,,14,4,0.02
release_dfm,exact,2020:Q1:pre_advance:exact,2020-04-28,pre_advance,DELTA_SA,DELTA_SA,2020:Q1,-0.07900204542880451,,,not_available,-0.26449999999999996,0.18549795457119544,True,True,0,,,,,,,14,4,0.02
revision_dfm_kalman_em,exact,2020:Q1:pre_advance:exact,2020-04-28,pre_advance,DELTA_SA,DELTA_SA,2020:Q1,-0.09030763281890408,0.40481229672076857,0.6362486123527253,model_implied_state_space,-0.26449999999999996,0.17419236718109588,True,True,21,-2059.8737482400256,-3060.12942475831,-2059.8737482400256,0.18902539695773157,9.17125860384031e-05,21.0,14,4,0.02
indicator_revision_only_dfm_kalman_em,exact,2020:Q1:pre_advance:exact,2020-04-28,pre_advance,DELTA_SA,DELTA_SA,2020:Q1,0.0,0.4305520652156538,0.6561646631872626,model_implied_state_space,-0.26449999999999996,0.26449999999999996,True,True,25,-3819.4939639675445,-5004.63747330793,-3819.4939639675445,0.3776664383631214,9.884300622866e-05,25.0,14,4,0.02
joint_indicator_revision_dfm_full_kalman_em,exact,2020:Q1:pre_advance:exact,2020-04-28,pre_advance,DELTA_SA,DELTA_SA,2020:Q1,-0.008386864019990892,0.38751886541429936,0.6225101327804226,model_implied_state_space,-0.26449999999999996,0.25611313598000907,True,True,27,-3783.492504857789,-5019.434071899722,-3783.492504857789,0.350361733576392,9.256969071794737e-05,27.0,14,4,0.02
ar,exact,2020:Q1:pre_second:exact,2020-05-27,pre_second,DELTA_TS,DELTA_TS,2020:Q1,0.06260501235437754,,,not_available,0.05400000000000027,0.008605012354377273,True,True,0,,,,,,,14,4,0.02
no_revision,exact,2020:Q1:pre_second:exact,2020-05-27,pre_second,DELTA_TS,DELTA_TS,2020:Q1,0.0,,,not_available,0.05400000000000027,-0.05400000000000027,True,True,0,,,,,,,14,4,0.02
bridge,exact,2020:Q1:pre_second:exact,2020-05-27,pre_second,DELTA_TS,DELTA_TS,2020:Q1,-0.19571952994773856,,,not_available,0.05400000000000027,-0.24971952994773883,True,True,0,,,,,,,14,4,0.02
midas_umidas,exact,2020:Q1:pre_second:exact,2020-05-27,pre_second,DELTA_TS,DELTA_TS,2020:Q1,1.0995167666791978,,,not_available,0.05400000000000027,1.0455167666791976,True,True,0,,,,,,,14,4,0.02
monthly_mixed_frequency_kalman_em,exact,2020:Q1:pre_second:exact,2020-05-27,pre_second,DELTA_TS,DELTA_TS,2020:Q1,0.1462839644181333,0.15021312183058277,0.3875733760600472,model_implied_state_space,0.05400000000000027,0.09228396441813302,True,True,38,-5904.76722749727,-7387.481874880861,-5904.76722749727,0.5293239996499324,8.962028828636753e-05,38.0,14,4,0.02
standard_dfm,exact,2020:Q1:pre_second:exact,2020-05-27,pre_second,DELTA_TS,DELTA_TS,2020:Q1,0.029589852763222346,,,not_available,0.05400000000000027,-0.024410147236777924,True,True,0,,,,,,,14,4,0.02
release_dfm,exact,2020:Q1:pre_second:exact,2020-05-27,pre_second,DELTA_TS,DELTA_TS,2020:Q1,0.0020918693136193767,,,not_available,0.05400000000000027,-0.05190813068638089,True,True,0,,,,,,,14,4,0.02
revision_dfm_kalman_em,exact,2020:Q1:pre_second:exact,2020-05-27,pre_second,DELTA_TS,DELTA_TS,2020:Q1,-0.015177081181004581,0.14692445017208522,0.38330725296044843,model_implied_state_space,0.05400000000000027,-0.06917708118100485,True,True,20,-2059.199472850843,-3061.2895504451953,-2059.199472850843,0.2013050786617896,9.770190383255481e-05,20.0,14,4,0.02
indicator_revision_only_dfm_kalman_em,exact,2020:Q1:pre_second:exact,2020-05-27,pre_second,DELTA_TS,DELTA_TS,2020:Q1,0.0,0.15106088354099134,0.3886655162745871,model_implied_state_space,0.05400000000000027,-0.05400000000000027,True,True,25,-3818.0840131109367,-5005.755757611344,-3818.0840131109367,0.3740931284787621,9.794403239235655e-05,25.0,14,4,0.02
joint_indicator_revision_dfm_full_kalman_em,exact,2020:Q1:pre_second:exact,2020-05-27,pre_second,DELTA_TS,DELTA_TS,2020:Q1,-0.011832940879179077,0.1458034100372737,0.38184212711181265,model_implied_state_space,0.05400000000000027,-0.06583294087917935,True,True,27,-3782.694915169641,-5020.22436208399,-3782.694915169641,0.34848400958435377,9.209302664444636e-05,27.0,14,4,0.02
ar,exact,2020:Q1:pre_third:exact,2020-06-24,pre_third,DELTA_MT,DELTA_MT,2020:Q1,0.1841743620429881,,,not_available,-0.16790000000000038,0.3520743620429885,True,True,0,,,,,,,14,4,0.02
no_revision,exact,2020:Q1:pre_third:exact,2020-06-24,pre_third,DELTA_MT,DELTA_MT,2020:Q1,0.0,,,not_available,-0.16790000000000038,0.16790000000000038,True,True,0,,,,,,,14,4,0.02
bridge,exact,2020:Q1:pre_third:exact,2020-06-24,pre_third,DELTA_MT,DELTA_MT,2020:Q1,-0.6232225679515535,,,not_available,-0.16790000000000038,-0.4553225679515531,True,True,0,,,,,,,14,4,0.02
midas_umidas,exact,2020:Q1:pre_third:exact,2020-06-24,pre_third,DELTA_MT,DELTA_MT,2020:Q1,2.5739716051732966,,,not_available,-0.16790000000000038,2.741871605173297,True,True,0,,,,,,,14,4,0.02
monthly_mixed_frequency_kalman_em,exact,2020:Q1:pre_third:exact,2020-06-24,pre_third,DELTA_MT,DELTA_MT,2020:Q1,-0.2265386385878454,4.360171106161589,2.088102273874915,model_implied_state_space,-0.16790000000000038,-0.058638638587845016,True,True,30,-5842.564757670993,-7569.414509506856,-5842.564757670993,0.568459167846413,9.727005644027727e-05,30.0,14,4,0.02
standard_dfm,exact,2020:Q1:pre_third:exact,2020-06-24,pre_third,DELTA_MT,DELTA_MT,2020:Q1,0.0422232444522006,,,not_available,-0.16790000000000038,0.21012324445220099,True,True,0,,,,,,,14,4,0.02
release_dfm,exact,2020:Q1:pre_third:exact,2020-06-24,pre_third,DELTA_MT,DELTA_MT,2020:Q1,1.1250785037045006,,,not_available,-0.16790000000000038,1.292978503704501,True,True,0,,,,,,,14,4,0.02
revision_dfm_kalman_em,exact,2020:Q1:pre_third:exact,2020-06-24,pre_third,DELTA_MT,DELTA_MT,2020:Q1,-0.009576690105477681,4.276678231499684,2.0680131120231526,model_implied_state_space,-0.16790000000000038,0.1583233098945227,True,True,20,-2056.885562224355,-3062.80198270424,-2056.885562224355,0.20443776309593886,9.933373326588507e-05,20.0,14,4,0.02
indicator_revision_only_dfm_kalman_em,exact,2020:Q1:pre_third:exact,2020-06-24,pre_third,DELTA_MT,DELTA_MT,2020:Q1,0.0,4.280812706805795,2.0690124955654077,model_implied_state_space,-0.16790000000000038,0.16790000000000038,True,True,25,-3815.5096626526424,-5014.333175013727,-3815.5096626526424,0.3611934100590588,9.463076527342829e-05,25.0,14,4,0.02
joint_indicator_revision_dfm_full_kalman_em,exact,2020:Q1:pre_third:exact,2020-06-24,pre_third,DELTA_MT,DELTA_MT,2020:Q1,-0.008926844885589702,4.291279340650429,2.0715403304426463,model_implied_state_space,-0.16790000000000038,0.15897315511441068,True,True,26,-3779.672026874409,-5028.426197440133,-3779.672026874409,0.36634696589453597,9.68905707038479e-05,26.0,14,4,0.02
ar,pseudo,2020:Q1:pre_advance:pseudo,2020-04-30,pre_advance,DELTA_SA,DELTA_SA,2020:Q1,0.07270396930060219,,,not_available,-0.26449999999999996,0.33720396930060215,True,True,0,,,,,,,14,4,0.02
no_revision,pseudo,2020:Q1:pre_advance:pseudo,2020-04-30,pre_advance,DELTA_SA,DELTA_SA,2020:Q1,0.0,,,not_available,-0.26449999999999996,0.26449999999999996,True,True,0,,,,,,,14,4,0.02
bridge,pseudo,2020:Q1:pre_advance:pseudo,2020-04-30,pre_advance,DELTA_SA,DELTA_SA,2020:Q1,-0.008254212386642479,,,not_available,-0.26449999999999996,0.2562457876133575,True,True,0,,,,,,,14,4,0.02
midas_umidas,pseudo,2020:Q1:pre_advance:pseudo,2020-04-30,pre_advance,DELTA_SA,DELTA_SA,2020:Q1,0.3587534204445504,,,not_available,-0.26449999999999996,0.6232534204445503,True,True,0,,,,,,,14,4,0.02
monthly_mixed_frequency_kalman_em,pseudo,2020:Q1:pre_advance:pseudo,2020-04-30,pre_advance,DELTA_SA,DELTA_SA,2020:Q1,-0.7033996338458226,0.3502055003116089,0.5917816322864448,model_implied_state_space,-0.26449999999999996,-0.43889963384582265,True,True,40,-6365.75857504451,-7568.960720705711,-6365.75857504451,0.5585125763955148,8.771552738929141e-05,40.0,14,4,0.02
standard_dfm,pseudo,2020:Q1:pre_advance:pseudo,2020-04-30,pre_advance,DELTA_SA,DELTA_SA,2020:Q1,-0.08726901154794109,,,not_available,-0.26449999999999996,0.17723098845205887,True,True,0,,,,,,,14,4,0.02
release_dfm,pseudo,2020:Q1:pre_advance:pseudo,2020-04-30,pre_advance,DELTA_SA,DELTA_SA,2020:Q1,-0.08726901154794109,,,not_available,-0.26449999999999996,0.17723098845205887,True,True,0,,,,,,,14,4,0.02
revision_dfm_kalman_em,pseudo,2020:Q1:pre_advance:pseudo,2020-04-30,pre_advance,DELTA_SA,DELTA_SA,2020:Q1,-0.0934688281812619,0.4048378949920295,0.6362687285982468,model_implied_state_space,-0.26449999999999996,0.17103117181873806,True,True,21,-2059.0433353816693,-3059.7341322580573,-2059.0433353816693,0.18877583746461823,9.16284317852472e-05,21.0,14,4,0.02
indicator_revision_only_dfm_kalman_em,pseudo,2020:Q1:pre_advance:pseudo,2020-04-30,pre_advance,DELTA_SA,DELTA_SA,2020:Q1,0.0,0.4305528067637141,0.6561652282494967,model_implied_state_space,-0.26449999999999996,0.26449999999999996,True,True,25,-3818.4776951524073,-5003.949196170431,-3818.4776951524073,0.3760064531129501,9.843477852434796e-05,25.0,14,4,0.02
joint_indicator_revision_dfm_full_kalman_em,pseudo,2020:Q1:pre_advance:pseudo,2020-04-30,pre_advance,DELTA_SA,DELTA_SA,2020:Q1,-0.005905220126734445,0.3875156848000172,0.6225075781064976,model_implied_state_space,-0.26449999999999996,0.2585947798732655,True,True,27,-3782.4662903641183,-5018.745648316283,-3782.4662903641183,0.34937894473887354,9.233508586920417e-05,27.0,14,4,0.02
ar,pseudo,2020:Q1:pre_second:pseudo,2020-05-31,pre_second,DELTA_TS,DELTA_TS,2020:Q1,0.06260501235437754,,,not_available,0.05400000000000027,0.008605012354377273,True,True,0,,,,,,,14,4,0.02
no_revision,pseudo,2020:Q1:pre_second:pseudo,2020-05-31,pre_second,DELTA_TS,DELTA_TS,2020:Q1,0.0,,,not_available,0.05400000000000027,-0.05400000000000027,True,True,0,,,,,,,14,4,0.02
bridge,pseudo,2020:Q1:pre_second:pseudo,2020-05-31,pre_second,DELTA_TS,DELTA_TS,2020:Q1,-0.1950308406984187,,,not_available,0.05400000000000027,-0.24903084069841896,True,True,0,,,,,,,14,4,0.02
midas_umidas,pseudo,2020:Q1:pre_second:pseudo,2020-05-31,pre_second,DELTA_TS,DELTA_TS,2020:Q1,0.7787367456186525,,,not_available,0.05400000000000027,0.7247367456186522,True,True,0,,,,,,,14,4,0.02
monthly_mixed_frequency_kalman_em,pseudo,2020:Q1:pre_second:pseudo,2020-05-31,pre_second,DELTA_TS,DELTA_TS,2020:Q1,0.09223285893868383,0.14843031507427562,0.3852665506818307,model_implied_state_space,0.05400000000000027,0.038232858938683556,True,True,44,-5864.340540144614,-7345.674777637329,-5864.340540144614,0.547686764674836,9.3368087404456e-05,44.0,14,4,0.02
standard_dfm,pseudo,2020:Q1:pre_second:pseudo,2020-05-31,pre_second,DELTA_TS,DELTA_TS,2020:Q1,0.029330985332028714,,,not_available,0.05400000000000027,-0.024669014667971556,True,True,0,,,,,,,14,4,0.02
release_dfm,pseudo,2020:Q1:pre_second:pseudo,2020-05-31,pre_second,DELTA_TS,DELTA_TS,2020:Q1,0.0020323707882221598,,,not_available,0.05400000000000027,-0.05196762921177811,True,True,0,,,,,,,14,4,0.02
revision_dfm_kalman_em,pseudo,2020:Q1:pre_second:pseudo,2020-05-31,pre_second,DELTA_TS,DELTA_TS,2020:Q1,-0.015124073407429606,0.14692710037811063,0.3833107099705285,model_implied_state_space,0.05400000000000027,-0.06912407340742988,True,True,20,-2060.13850682132,-3061.7017955035035,-2060.13850682132,0.20200654802647477,9.799766060789574e-05,20.0,14,4,0.02
indicator_revision_only_dfm_kalman_em,pseudo,2020:Q1:pre_second:pseudo,2020-05-31,pre_second,DELTA_TS,DELTA_TS,2020:Q1,0.0,0.15106344747058975,0.38866881463604686,model_implied_state_space,0.05400000000000027,-0.05400000000000027,True,True,25,-3818.887396929321,-5006.102168653641,-3818.887396929321,0.3717078661538835,9.729912447228723e-05,25.0,14,4,0.02
joint_indicator_revision_dfm_full_kalman_em,pseudo,2020:Q1:pre_second:pseudo,2020-05-31,pre_second,DELTA_TS,DELTA_TS,2020:Q1,-0.011855296343252775,0.1458986634337709,0.38196683551556004,model_implied_state_space,0.05400000000000027,-0.06585529634325304,True,True,26,-3783.835381644649,-5020.570597092845,-3783.835381644649,0.3783903128401107,9.9965374648954e-05,26.0,14,4,0.02
ar,pseudo,2020:Q1:pre_third:pseudo,2020-06-30,pre_third,DELTA_MT,DELTA_MT,2020:Q1,0.1841743620429881,,,not_available,-0.16790000000000038,0.3520743620429885,True,True,0,,,,,,,14,4,0.02
no_revision,pseudo,2020:Q1:pre_third:pseudo,2020-06-30,pre_third,DELTA_MT,DELTA_MT,2020:Q1,0.0,,,not_available,-0.16790000000000038,0.16790000000000038,True,True,0,,,,,,,14,4,0.02
bridge,pseudo,2020:Q1:pre_third:pseudo,2020-06-30,pre_third,DELTA_MT,DELTA_MT,2020:Q1,-0.6220211317495115,,,not_available,-0.16790000000000038,-0.4541211317495111,True,True,0,,,,,,,14,4,0.02
midas_umidas,pseudo,2020:Q1:pre_third:pseudo,2020-06-30,pre_third,DELTA_MT,DELTA_MT,2020:Q1,2.525235690040403,,,not_available,-0.16790000000000038,2.6931356900404033,True,True,0,,,,,,,14,4,0.02
monthly_mixed_frequency_kalman_em,pseudo,2020:Q1:pre_third:pseudo,2020-06-30,pre_third,DELTA_MT,DELTA_MT,2020:Q1,-0.22617328111443946,4.360133186602745,2.0880931939457934,model_implied_state_space,-0.16790000000000038,-0.05827328111443908,True,True,30,-5848.09797214537,-7570.982370400096,-5848.09797214537,0.5808403497094332,9.929440031284142e-05,30.0,14,4,0.02
standard_dfm,pseudo,2020:Q1:pre_third:pseudo,2020-06-30,pre_third,DELTA_MT,DELTA_MT,2020:Q1,0.04086455062086802,,,not_available,-0.16790000000000038,0.2087645506208684,True,True,0,,,,,,,14,4,0.02
release_dfm,pseudo,2020:Q1:pre_third:pseudo,2020-06-30,pre_third,DELTA_MT,DELTA_MT,2020:Q1,1.1213922379207828,,,not_available,-0.16790000000000038,1.2892922379207832,True,True,0,,,,,,,14,4,0.02
revision_dfm_kalman_em,pseudo,2020:Q1:pre_third:pseudo,2020-06-30,pre_third,DELTA_MT,DELTA_MT,2020:Q1,-0.009572085818048137,4.276679590985302,2.0680134407167916,model_implied_state_space,-0.16790000000000038,0.15832791418195225,True,True,20,-2056.7908935805253,-3062.760967909129,-2056.7908935805253,0.20440029514611524,9.93200984250956e-05,20.0,14,4,0.02
indicator_revision_only_dfm_kalman_em,pseudo,2020:Q1:pre_third:pseudo,2020-06-30,pre_third,DELTA_MT,DELTA_MT,2020:Q1,0.0,4.280811152881948,2.0690121200423035,model_implied_state_space,-0.16790000000000038,0.16790000000000038,True,True,25,-3815.452088194471,-5014.315845610047,-3815.452088194471,0.36130184931744225,9.466060097669517e-05,25.0,14,4,0.02
joint_indicator_revision_dfm_full_kalman_em,pseudo,2020:Q1:pre_third:pseudo,2020-06-30,pre_third,DELTA_MT,DELTA_MT,2020:Q1,-0.008922477081577895,4.29128065966052,2.0715406488071917,model_implied_state_space,-0.16790000000000038,0.1589775229184225,True,True,26,-3779.6130164977553,-5028.4088687151325,-3779.6130164977553,0.3664558721116009,9.692088380525148e-05,26.0,14,4,0.02
ar,exact,2020:Q2:pre_advance:exact,2020-07-29,pre_advance,DELTA_SA,DELTA_SA,2020:Q2,0.22277037037452474,,,not_available,1.1996999999999964,-0.9769296296254717,True,True,0,,,,,,,14,4,0.02
no_revision,exact,2020:Q2:pre_advance:exact,2020-07-29,pre_advance,DELTA_SA,DELTA_SA,2020:Q2,0.0,,,not_available,1.1996999999999964,-1.1996999999999964,True,True,0,,,,,,,14,4,0.02
bridge,exact,2020:Q2:pre_advance:exact,2020-07-29,pre_advance,DELTA_SA,DELTA_SA,2020:Q2,-0.8123714058636846,,,not_available,1.1996999999999964,-2.012071405863681,True,True,0,,,,,,,14,4,0.02
midas_umidas,exact,2020:Q2:pre_advance:exact,2020-07-29,pre_advance,DELTA_SA,DELTA_SA,2020:Q2,46.64625568917797,,,not_available,1.1996999999999964,45.44655568917797,True,True,0,,,,,,,14,4,0.02
monthly_mixed_frequency_kalman_em,exact,2020:Q2:pre_advance:exact,2020-07-29,pre_advance,DELTA_SA,DELTA_SA,2020:Q2,-1.5587867500333488,0.3331608578720253,0.5772008817318502,model_implied_state_space,1.1996999999999964,-2.758486750033345,True,True,30,-5800.950420662696,-7576.408237289621,-5800.950420662696,0.543709375088838,9.370270144250838e-05,30.0,14,4,0.02
standard_dfm,exact,2020:Q2:pre_advance:exact,2020-07-29,pre_advance,DELTA_SA,DELTA_SA,2020:Q2,-1.5018387117883414,,,not_available,1.1996999999999964,-2.701538711788338,True,True,0,,,,,,,14,4,0.02
release_dfm,exact,2020:Q2:pre_advance:exact,2020-07-29,pre_advance,DELTA_SA,DELTA_SA,2020:Q2,-1.5018387117883414,,,not_available,1.1996999999999964,-2.701538711788338,True,True,0,,,,,,,14,4,0.02
revision_dfm_kalman_em,exact,2020:Q2:pre_advance:exact,2020-07-29,pre_advance,DELTA_SA,DELTA_SA,2020:Q2,-0.9900563011355885,0.39720557439652193,0.6302424727011993,model_implied_state_space,1.1996999999999964,-2.189756301135585,True,True,29,-1891.946982697696,-3089.965874298589,-1891.946982697696,0.175587175292776,9.275003007573688e-05,29.0,14,4,0.02
indicator_revision_only_dfm_kalman_em,exact,2020:Q2:pre_advance:exact,2020-07-29,pre_advance,DELTA_SA,DELTA_SA,2020:Q2,0.0,0.4242363246026706,0.6513342648768531,model_implied_state_space,1.1996999999999964,-1.1996999999999964,True,True,36,-3399.2138966514613,-5001.965224272022,-3399.2138966514613,0.27943559697450837,8.217501687901947e-05,36.0,14,4,0.02
joint_indicator_revision_dfm_full_kalman_em,exact,2020:Q2:pre_advance:exact,2020-07-29,pre_advance,DELTA_SA,DELTA_SA,2020:Q2,-0.4873464478629188,0.3606260033134516,0.6005214428423449,model_implied_state_space,1.1996999999999964,-1.6870464478629152,True,True,37,-3358.2158312573138,-5016.366507322214,-3358.2158312573138,0.3146091543271723,9.364676400688409e-05,37.0,14,4,0.02
ar,exact,2020:Q2:pre_second:exact,2020-08-26,pre_second,DELTA_TS,DELTA_TS,2020:Q2,0.22266421245840196,,,not_available,0.3214000000000006,-0.09873578754159862,True,True,0,,,,,,,14,4,0.02
no_revision,exact,2020:Q2:pre_second:exact,2020-08-26,pre_second,DELTA_TS,DELTA_TS,2020:Q2,0.0,,,not_available,0.3214000000000006,-0.3214000000000006,True,True,0,,,,,,,14,4,0.02
bridge,exact,2020:Q2:pre_second:exact,2020-08-26,pre_second,DELTA_TS,DELTA_TS,2020:Q2,0.2158070170818096,,,not_available,0.3214000000000006,-0.10559298291819097,True,True,0,,,,,,,14,4,0.02
midas_umidas,exact,2020:Q2:pre_second:exact,2020-08-26,pre_second,DELTA_TS,DELTA_TS,2020:Q2,-20.633376910143767,,,not_available,0.3214000000000006,-20.954776910143767,True,True,0,,,,,,,14,4,0.02
monthly_mixed_frequency_kalman_em,exact,2020:Q2:pre_second:exact,2020-08-26,pre_second,DELTA_TS,DELTA_TS,2020:Q2,-0.7709575212528677,0.14745425712027993,0.38399773061865866,model_implied_state_space,0.3214000000000006,-1.0923575212528682,True,True,30,-5790.936824378299,-7593.671304928383,-5790.936824378299,0.5359329527009322,9.252230871913056e-05,30.0,14,4,0.02
standard_dfm,exact,2020:Q2:pre_second:exact,2020-08-26,pre_second,DELTA_TS,DELTA_TS,2020:Q2,-0.20132203708942242,,,not_available,0.3214000000000006,-0.522722037089423,True,True,0,,,,,,,14,4,0.02
release_dfm,exact,2020:Q2:pre_second:exact,2020-08-26,pre_second,DELTA_TS,DELTA_TS,2020:Q2,-0.1432377354184453,,,not_available,0.3214000000000006,-0.4646377354184459,True,True,0,,,,,,,14,4,0.02
revision_dfm_kalman_em,exact,2020:Q2:pre_second:exact,2020-08-26,pre_second,DELTA_TS,DELTA_TS,2020:Q2,-0.06488545460986472,0.14573202520145556,0.381748641387832,model_implied_state_space,0.3214000000000006,-0.3862854546098653,True,True,24,-1847.8910010181376,-3100.4952788383325,-1847.8910010181376,0.1824349828891627,9.866291913408972e-05,24.0,14,4,0.02
indicator_revision_only_dfm_kalman_em,exact,2020:Q2:pre_second:exact,2020-08-26,pre_second,DELTA_TS,DELTA_TS,2020:Q2,0.0,0.1488196625265964,0.38577151596067377,model_implied_state_space,0.3214000000000006,-0.3214000000000006,True,True,42,-3345.9802718385226,-5007.706442182612,-3345.9802718385226,0.28532381507420723,8.52408650943918e-05,42.0,14,4,0.02
joint_indicator_revision_dfm_full_kalman_em,exact,2020:Q2:pre_second:exact,2020-08-26,pre_second,DELTA_TS,DELTA_TS,2020:Q2,-0.009203225005947502,0.14439517195797136,0.3799936472600185,model_implied_state_space,0.3214000000000006,-0.3306032250059481,True,True,44,-3306.967314340632,-5016.588970894961,-3306.967314340632,0.3158282427480117,9.546590456020852e-05,44.0,14,4,0.02
ar,exact,2020:Q2:pre_third:exact,2020-09-29,pre_third,DELTA_MT,DELTA_MT,2020:Q2,3.4133521633512327,,,not_available,3.4068000000000005,0.00655216335123221,True,True,0,,,,,,,14,4,0.02
no_revision,exact,2020:Q2:pre_third:exact,2020-09-29,pre_third,DELTA_MT,DELTA_MT,2020:Q2,0.0,,,not_available,3.4068000000000005,-3.4068000000000005,True,True,0,,,,,,,14,4,0.02
bridge,exact,2020:Q2:pre_third:exact,2020-09-29,pre_third,DELTA_MT,DELTA_MT,2020:Q2,-1.2255572624661575,,,not_available,3.4068000000000005,-4.632357262466158,True,True,0,,,,,,,14,4,0.02
midas_umidas,exact,2020:Q2:pre_third:exact,2020-09-29,pre_third,DELTA_MT,DELTA_MT,2020:Q2,5.755193188971731,,,not_available,3.4068000000000005,2.3483931889717304,True,True,0,,,,,,,14,4,0.02
monthly_mixed_frequency_kalman_em,exact,2020:Q2:pre_third:exact,2020-09-29,pre_third,DELTA_MT,DELTA_MT,2020:Q2,-0.07489958433117039,4.282575440904073,2.069438436123209,model_implied_state_space,3.4068000000000005,-3.481699584331171,True,True,30,-5763.283163787264,-7611.521640025797,-5763.283163787264,0.5381468727000538,9.335013935383299e-05,30.0,14,4,0.02
standard_dfm,exact,2020:Q2:pre_third:exact,2020-09-29,pre_third,DELTA_MT,DELTA_MT,2020:Q2,-0.6909622800456106,,,not_available,3.4068000000000005,-4.097762280045611,True,True,0,,,,,,,14,4,0.02
release_dfm,exact,2020:Q2:pre_third:exact,2020-09-29,pre_third,DELTA_MT,DELTA_MT,2020:Q2,1.4993223405828005,,,not_available,3.4068000000000005,-1.9074776594172,True,True,0,,,,,,,14,4,0.02
revision_dfm_kalman_em,exact,2020:Q2:pre_third:exact,2020-09-29,pre_third,DELTA_MT,DELTA_MT,2020:Q2,0.004276663465269337,4.262037566133547,2.0644702870551437,model_implied_state_space,3.4068000000000005,-3.402523336534731,True,True,24,-1808.8512235840806,-3106.1389714895004,-1808.8512235840806,0.16879760844722114,9.32573156489226e-05,24.0,14,4,0.02
indicator_revision_only_dfm_kalman_em,exact,2020:Q2:pre_third:exact,2020-09-29,pre_third,DELTA_MT,DELTA_MT,2020:Q2,0.0,4.2791409220321475,2.068608450633456,model_implied_state_space,3.4068000000000005,-3.4068000000000005,True,True,38,-3301.726083547685,-5021.773672188287,-3301.726083547685,0.28338071673715604,8.579470322537049e-05,38.0,14,4,0.02
joint_indicator_revision_dfm_full_kalman_em,exact,2020:Q2:pre_third:exact,2020-09-29,pre_third,DELTA_MT,DELTA_MT,2020:Q2,0.018909789133203958,4.2808929688907345,2.0690318917046047,model_implied_state_space,3.4068000000000005,-3.3878902108667965,True,True,39,-3261.9990544341526,-5029.686616407612,-3261.9990544341526,0.3200282149987288,9.806831844924309e-05,39.0,14,4,0.02
ar,pseudo,2020:Q2:pre_advance:pseudo,2020-07-31,pre_advance,DELTA_SA,DELTA_SA,2020:Q2,0.22277037037452474,,,not_available,1.1996999999999964,-0.9769296296254717,True,True,0,,,,,,,14,4,0.02
no_revision,pseudo,2020:Q2:pre_advance:pseudo,2020-07-31,pre_advance,DELTA_SA,DELTA_SA,2020:Q2,0.0,,,not_available,1.1996999999999964,-1.1996999999999964,True,True,0,,,,,,,14,4,0.02
bridge,pseudo,2020:Q2:pre_advance:pseudo,2020-07-31,pre_advance,DELTA_SA,DELTA_SA,2020:Q2,-0.7774403997501551,,,not_available,1.1996999999999964,-1.9771403997501515,True,True,0,,,,,,,14,4,0.02
midas_umidas,pseudo,2020:Q2:pre_advance:pseudo,2020-07-31,pre_advance,DELTA_SA,DELTA_SA,2020:Q2,47.64493335960522,,,not_available,1.1996999999999964,46.445233359605226,True,True,0,,,,,,,14,4,0.02
monthly_mixed_frequency_kalman_em,pseudo,2020:Q2:pre_advance:pseudo,2020-07-31,pre_advance,DELTA_SA,DELTA_SA,2020:Q2,-1.5572435297640652,0.3332142579721582,0.5772471376907452,model_implied_state_space,1.1996999999999964,-2.7569435297640617,True,True,30,-5805.174913630151,-7577.424273802538,-5805.174913630151,0.5482355668964374,9.441393240389759e-05,30.0,14,4,0.02
standard_dfm,pseudo,2020:Q2:pre_advance:pseudo,2020-07-31,pre_advance,DELTA_SA,DELTA_SA,2020:Q2,-1.4870034110111714,,,not_available,1.1996999999999964,-2.686703411011168,True,True,0,,,,,,,14,4,0.02
release_dfm,pseudo,2020:Q2:pre_advance:pseudo,2020-07-31,pre_advance,DELTA_SA,DELTA_SA,2020:Q2,-1.4870034110111714,,,not_available,1.1996999999999964,-2.686703411011168,True,True,0,,,,,,,14,4,0.02
revision_dfm_kalman_em,pseudo,2020:Q2:pre_advance:pseudo,2020-07-31,pre_advance,DELTA_SA,DELTA_SA,2020:Q2,-0.9849733044999454,0.3971013207036389,0.6301597580801546,model_implied_state_space,1.1996999999999964,-2.184673304499942,True,True,29,-1897.3649538437576,-3092.505634661957,-1897.3649538437576,0.16901101542885044,8.902185505087128e-05,29.0,14,4,0.02
indicator_revision_only_dfm_kalman_em,pseudo,2020:Q2:pre_advance:pseudo,2020-07-31,pre_advance,DELTA_SA,DELTA_SA,2020:Q2,0.0,0.4242341014119644,0.651332558231173,model_implied_state_space,1.1996999999999964,-1.1996999999999964,True,True,36,-3409.480843644192,-5005.797636372395,-3409.480843644192,0.335802287387196,9.845216622469015e-05,36.0,14,4,0.02
joint_indicator_revision_dfm_full_kalman_em,pseudo,2020:Q2:pre_advance:pseudo,2020-07-31,pre_advance,DELTA_SA,DELTA_SA,2020:Q2,-0.4995163003748857,0.3595781494910728,0.5996483548639759,model_implied_state_space,1.1996999999999964,-1.6992163003748821,True,True,38,-3368.144902168667,-5020.1919832388585,-3368.144902168667,0.30201316852935634,8.963286145113002e-05,38.0,14,4,0.02
ar,pseudo,2020:Q2:pre_second:pseudo,2020-08-31,pre_second,DELTA_TS,DELTA_TS,2020:Q2,0.22266421245840196,,,not_available,0.3214000000000006,-0.09873578754159862,True,True,0,,,,,,,14,4,0.02
no_revision,pseudo,2020:Q2:pre_second:pseudo,2020-08-31,pre_second,DELTA_TS,DELTA_TS,2020:Q2,0.0,,,not_available,0.3214000000000006,-0.3214000000000006,True,True,0,,,,,,,14,4,0.02
bridge,pseudo,2020:Q2:pre_second:pseudo,2020-08-31,pre_second,DELTA_TS,DELTA_TS,2020:Q2,0.23140965317984374,,,not_available,0.3214000000000006,-0.08999034682015683,True,True,0,,,,,,,14,4,0.02
midas_umidas,pseudo,2020:Q2:pre_second:pseudo,2020-08-31,pre_second,DELTA_TS,DELTA_TS,2020:Q2,-20.626923509636782,,,not_available,0.3214000000000006,-20.948323509636783,True,True,0,,,,,,,14,4,0.02
monthly_mixed_frequency_kalman_em,pseudo,2020:Q2:pre_second:pseudo,2020-08-31,pre_second,DELTA_TS,DELTA_TS,2020:Q2,-0.770920708788907,0.14745774825586389,0.38400227636807555,model_implied_state_space,0.3214000000000006,-1.0923207087889075,True,True,30,-5794.179609483348,-7595.112622176762,-5794.179609483348,0.5378628933985965,9.280350465013715e-05,30.0,14,4,0.02
standard_dfm,pseudo,2020:Q2:pre_second:pseudo,2020-08-31,pre_second,DELTA_TS,DELTA_TS,2020:Q2,-0.2010002342961421,,,not_available,0.3214000000000006,-0.5224002342961427,True,True,0,,,,,,,14,4,0.02
release_dfm,pseudo,2020:Q2:pre_second:pseudo,2020-08-31,pre_second,DELTA_TS,DELTA_TS,2020:Q2,-0.14322689758746776,,,not_available,0.3214000000000006,-0.46462689758746833,True,True,0,,,,,,,14,4,0.02
revision_dfm_kalman_em,pseudo,2020:Q2:pre_second:pseudo,2020-08-31,pre_second,DELTA_TS,DELTA_TS,2020:Q2,-0.06491717388408347,0.14573154887807527,0.38174801751688936,model_implied_state_space,0.3214000000000006,-0.38631717388408404,True,True,24,-1848.7534183470832,-3100.7360307594718,-1848.7534183470832,0.1820360175904625,9.840128052088143e-05,24.0,14,4,0.02
indicator_revision_only_dfm_kalman_em,pseudo,2020:Q2:pre_second:pseudo,2020-08-31,pre_second,DELTA_TS,DELTA_TS,2020:Q2,0.0,0.14882011654311744,0.3857721044128482,model_implied_state_space,0.3214000000000006,-0.3214000000000006,True,True,42,-3346.974972177398,-5007.770556362584,-3346.974972177398,0.2937077993069579,8.771930432685627e-05,42.0,14,4,0.02
joint_indicator_revision_dfm_full_kalman_em,pseudo,2020:Q2:pre_second:pseudo,2020-08-31,pre_second,DELTA_TS,DELTA_TS,2020:Q2,-0.00903690675919222,0.14439492246894736,0.379993318979357,model_implied_state_space,0.3214000000000006,-0.3304369067591928,True,True,44,-3307.9966931446743,-5016.653303239432,-3307.9966931446743,0.3261641203284853,9.855917188993894e-05,44.0,14,4,0.02
ar,pseudo,2020:Q2:pre_third:pseudo,2020-09-30,pre_third,DELTA_MT,DELTA_MT,2020:Q2,3.4133521633512327,,,not_available,3.4068000000000005,0.00655216335123221,True,True,0,,,,,,,14,4,0.02
no_revision,pseudo,2020:Q2:pre_third:pseudo,2020-09-30,pre_third,DELTA_MT,DELTA_MT,2020:Q2,0.0,,,not_available,3.4068000000000005,-3.4068000000000005,True,True,0,,,,,,,14,4,0.02
bridge,pseudo,2020:Q2:pre_third:pseudo,2020-09-30,pre_third,DELTA_MT,DELTA_MT,2020:Q2,-1.2255572624661575,,,not_available,3.4068000000000005,-4.632357262466158,True,True,0,,,,,,,14,4,0.02
midas_umidas,pseudo,2020:Q2:pre_third:pseudo,2020-09-30,pre_third,DELTA_MT,DELTA_MT,2020:Q2,5.755193188971731,,,not_available,3.4068000000000005,2.3483931889717304,True,True,0,,,,,,,14,4,0.02
monthly_mixed_frequency_kalman_em,pseudo,2020:Q2:pre_third:pseudo,2020-09-30,pre_third,DELTA_MT,DELTA_MT,2020:Q2,-0.07489958433117039,4.282575440904073,2.069438436123209,model_implied_state_space,3.4068000000000005,-3.481699584331171,True,True,30,-5763.283163787264,-7611.521640025797,-5763.283163787264,0.5381468727000538,9.335013935383299e-05,30.0,14,4,0.02
standard_dfm,pseudo,2020:Q2:pre_third:pseudo,2020-09-30,pre_third,DELTA_MT,DELTA_MT,2020:Q2,-0.6909622800456106,,,not_available,3.4068000000000005,-4.097762280045611,True,True,0,,,,,,,14,4,0.02
release_dfm,pseudo,2020:Q2:pre_third:pseudo,2020-09-30,pre_third,DELTA_MT,DELTA_MT,2020:Q2,1.4993223405828005,,,not_available,3.4068000000000005,-1.9074776594172,True,True,0,,,,,,,14,4,0.02
revision_dfm_kalman_em,pseudo,2020:Q2:pre_third:pseudo,2020-09-30,pre_third,DELTA_MT,DELTA_MT,2020:Q2,0.004276663465269337,4.262037566133547,2.0644702870551437,model_implied_state_space,3.4068000000000005,-3.402523336534731,True,True,24,-1808.8512235840806,-3106.1389714895004,-1808.8512235840806,0.16879760844722114,9.32573156489226e-05,24.0,14,4,0.02
indicator_revision_only_dfm_kalman_em,pseudo,2020:Q2:pre_third:pseudo,2020-09-30,pre_third,DELTA_MT,DELTA_MT,2020:Q2,0.0,4.2791409220321475,2.068608450633456,model_implied_state_space,3.4068000000000005,-3.4068000000000005,True,True,38,-3301.726083547685,-5021.773672188287,-3301.726083547685,0.28338071673715604,8.579470322537049e-05,38.0,14,4,0.02
joint_indicator_revision_dfm_full_kalman_em,pseudo,2020:Q2:pre_third:pseudo,2020-09-30,pre_third,DELTA_MT,DELTA_MT,2020:Q2,0.018909789133203958,4.2808929688907345,2.0690318917046047,model_implied_state_space,3.4068000000000005,-3.3878902108667965,True,True,39,-3261.9990544341526,-5029.686616407612,-3261.9990544341526,0.3200282149987288,9.806831844924309e-05,39.0,14,4,0.02
ar,exact,2020:Q3:pre_advance:exact,2020-10-28,pre_advance,DELTA_SA,DELTA_SA,2020:Q3,2.555388340709694,,,not_available,-0.014299999999998647,2.5696883407096927,True,True,0,,,,,,,14,4,0.02
no_revision,exact,2020:Q3:pre_advance:exact,2020-10-28,pre_advance,DELTA_SA,DELTA_SA,2020:Q3,0.0,,,not_available,-0.014299999999998647,0.014299999999998647,True,True,0,,,,,,,14,4,0.02
bridge,exact,2020:Q3:pre_advance:exact,2020-10-28,pre_advance,DELTA_SA,DELTA_SA,2020:Q3,2.262902420301885,,,not_available,-0.014299999999998647,2.2772024203018835,True,True,0,,,,,,,14,4,0.02
midas_umidas,exact,2020:Q3:pre_advance:exact,2020-10-28,pre_advance,DELTA_SA,DELTA_SA,2020:Q3,-63.93108790807699,,,not_available,-0.014299999999998647,-63.91678790807699,True,True,0,,,,,,,14,4,0.02
monthly_mixed_frequency_kalman_em,exact,2020:Q3:pre_advance:exact,2020-10-28,pre_advance,DELTA_SA,DELTA_SA,2020:Q3,1.1994237271587114,0.36806673004026,0.6066850336379331,model_implied_state_space,-0.014299999999998647,1.21372372715871,True,True,30,-5768.034541426863,-7659.023192441736,-5768.034541426863,0.5548614852687024,9.617001254693144e-05,30.0,14,4,0.02
standard_dfm,exact,2020:Q3:pre_advance:exact,2020-10-28,pre_advance,DELTA_SA,DELTA_SA,2020:Q3,0.1201214726990365,,,not_available,-0.014299999999998647,0.13442147269903515,True,True,0,,,,,,,14,4,0.02
release_dfm,exact,2020:Q3:pre_advance:exact,2020-10-28,pre_advance,DELTA_SA,DELTA_SA,2020:Q3,0.1201214726990365,,,not_available,-0.014299999999998647,0.13442147269903515,True,True,0,,,,,,,14,4,0.02
revision_dfm_kalman_em,exact,2020:Q3:pre_advance:exact,2020-10-28,pre_advance,DELTA_SA,DELTA_SA,2020:Q3,1.0591936834981457,0.41906764691711995,0.6473543441710421,model_implied_state_space,-0.014299999999998647,1.0734936834981443,True,True,27,-1763.534663948251,-3181.060701582052,-1763.534663948251,0.1566151451575024,8.874931667252405e-05,27.0,14,4,0.02
indicator_revision_only_dfm_kalman_em,exact,2020:Q3:pre_advance:exact,2020-10-28,pre_advance,DELTA_SA,DELTA_SA,2020:Q3,0.0,0.4297440845721301,0.6555486897036177,model_implied_state_space,-0.014299999999998647,0.014299999999998647,True,True,39,-3199.512436749303,-5115.183499703482,-3199.512436749303,0.3149812375768306,9.840619203859922e-05,39.0,14,4,0.02
joint_indicator_revision_dfm_full_kalman_em,exact,2020:Q3:pre_advance:exact,2020-10-28,pre_advance,DELTA_SA,DELTA_SA,2020:Q3,1.5333126954188927,0.35640295865315696,0.5969949402240834,model_implied_state_space,-0.014299999999998647,1.5476126954188913,True,True,40,-3168.812766164483,-5125.734332469169,-3168.812766164483,0.2672382339806063,8.430015444714807e-05,40.0,14,4,0.02
ar,exact,2020:Q3:pre_second:exact,2020-11-24,pre_second,DELTA_TS,DELTA_TS,2020:Q3,1.0697573673306877,,,not_available,0.3727000000000018,0.6970573673306859,True,True,0,,,,,,,14,4,0.02
no_revision,exact,2020:Q3:pre_second:exact,2020-11-24,pre_second,DELTA_TS,DELTA_TS,2020:Q3,0.0,,,not_available,0.3727000000000018,-0.3727000000000018,True,True,0,,,,,,,14,4,0.02
bridge,exact,2020:Q3:pre_second:exact,2020-11-24,pre_second,DELTA_TS,DELTA_TS,2020:Q3,1.0566794154162311,,,not_available,0.3727000000000018,0.6839794154162293,True,True,0,,,,,,,14,4,0.02
midas_umidas,exact,2020:Q3:pre_second:exact,2020-11-24,pre_second,DELTA_TS,DELTA_TS,2020:Q3,14.8390442611652,,,not_available,0.3727000000000018,14.466344261165197,True,True,0,,,,,,,14,4,0.02
monthly_mixed_frequency_kalman_em,exact,2020:Q3:pre_second:exact,2020-11-24,pre_second,DELTA_TS,DELTA_TS,2020:Q3,0.48896568790998174,0.14475198477720796,0.38046285597572854,model_implied_state_space,0.3727000000000018,0.11626568790997993,True,True,37,-5751.403105536458,-7656.96332378251,-5751.403105536458,0.5543315071199686,9.635592009608843e-05,37.0,14,4,0.02
standard_dfm,exact,2020:Q3:pre_second:exact,2020-11-24,pre_second,DELTA_TS,DELTA_TS,2020:Q3,0.07655031567811577,,,not_available,0.3727000000000018,-0.29614968432188604,True,True,0,,,,,,,14,4,0.02
release_dfm,exact,2020:Q3:pre_second:exact,2020-11-24,pre_second,DELTA_TS,DELTA_TS,2020:Q3,0.025104152176020023,,,not_available,0.3727000000000018,-0.3475958478239818,True,True,0,,,,,,,14,4,0.02
revision_dfm_kalman_em,exact,2020:Q3:pre_second:exact,2020-11-24,pre_second,DELTA_TS,DELTA_TS,2020:Q3,0.05247230255321256,0.1460737760627634,0.3821959916885097,model_implied_state_space,0.3727000000000018,-0.32022769744678925,True,True,26,-1735.1519552001369,-3191.972715402027,-1735.1519552001369,0.164544041032741,9.476615646090586e-05,26.0,14,4,0.02
indicator_revision_only_dfm_kalman_em,exact,2020:Q3:pre_second:exact,2020-11-24,pre_second,DELTA_TS,DELTA_TS,2020:Q3,0.0,0.14854023115005355,0.3854091736713769,model_implied_state_space,0.3727000000000018,-0.3727000000000018,True,True,39,-3169.63769738251,-5139.966808481592,-3169.63769738251,0.26907338640603484,8.485692133445696e-05,39.0,14,4,0.02
joint_indicator_revision_dfm_full_kalman_em,exact,2020:Q3:pre_second:exact,2020-11-24,pre_second,DELTA_TS,DELTA_TS,2020:Q3,0.030462174795289343,0.14442320416841947,0.3800305305740836,model_implied_state_space,0.3727000000000018,-0.34223782520471246,True,True,40,-3135.6134867206506,-5150.484168794469,-3135.6134867206506,0.2860699855873463,9.119513724172967e-05,40.0,14,4,0.02
ar,exact,2020:Q3:pre_third:exact,2020-12-21,pre_third,DELTA_MT,DELTA_MT,2020:Q3,18.90965041100232,,,not_available,1.4142999999999972,17.495350411002324,True,True,0,,,,,,,14,4,0.02
no_revision,exact,2020:Q3:pre_third:exact,2020-12-21,pre_third,DELTA_MT,DELTA_MT,2020:Q3,0.0,,,not_available,1.4142999999999972,-1.4142999999999972,True,True,0,,,,,,,14,4,0.02
bridge,exact,2020:Q3:pre_third:exact,2020-12-21,pre_third,DELTA_MT,DELTA_MT,2020:Q3,6.926143260561631,,,not_available,1.4142999999999972,5.511843260561633,True,True,0,,,,,,,14,4,0.02
midas_umidas,exact,2020:Q3:pre_third:exact,2020-12-21,pre_third,DELTA_MT,DELTA_MT,2020:Q3,38.85047266361775,,,not_available,1.4142999999999972,37.436172663617754,True,True,0,,,,,,,14,4,0.02
monthly_mixed_frequency_kalman_em,exact,2020:Q3:pre_third:exact,2020-12-21,pre_third,DELTA_MT,DELTA_MT,2020:Q3,0.3313663820439743,4.263836525566774,2.0649059362515216,model_implied_state_space,1.4142999999999972,-1.082933617956023,True,True,33,-5738.80839494275,-7680.297825146089,-5738.80839494275,0.5482886126919766,9.551472894753632e-05,33.0,14,4,0.02
standard_dfm,exact,2020:Q3:pre_third:exact,2020-12-21,pre_third,DELTA_MT,DELTA_MT,2020:Q3,-5.018362780451323,,,not_available,1.4142999999999972,-6.43266278045132,True,True,0,,,,,,,14,4,0.02
release_dfm,exact,2020:Q3:pre_third:exact,2020-12-21,pre_third,DELTA_MT,DELTA_MT,2020:Q3,-1.9791798300080856,,,not_available,1.4142999999999972,-3.393479830008083,True,True,0,,,,,,,14,4,0.02
