haminh109/Revision-Aware-DFM/outputs/full_state_space_release_revision_dfm/frozen/q2_manuscript_best_v1/mature_robustness_runs/mature_latest/run_dir/forecast_results.csv
model_id,timing_mode,forecast_origin,forecast_origin_date,checkpoint_id,target_id,target_quarter,forecast_value,forecast_variance,forecast_sd,density_source,realized_value,forecast_error,revision_target_flag,converged,n_iter,loglikelihood,llf_initial,llf_final,llf_last_improvement,llf_relative_last_improvement,llf_history_length,n_indicators,initialization_seed,initialization_jitter
ar,exact,2005:Q1:pre_advance:exact,2005-04-27,pre_advance,A,2005:Q1,2.91427503282673,,,not_available,3.0876,-0.17332496717326995,False,True,0,,,,,,,13,,0.0
no_revision,exact,2005:Q1:pre_advance:exact,2005-04-27,pre_advance,A,2005:Q1,2.979208231416087,,,not_available,3.0876,-0.10839176858391308,False,True,0,,,,,,,13,,0.0
bridge,exact,2005:Q1:pre_advance:exact,2005-04-27,pre_advance,A,2005:Q1,3.0281594575852124,,,not_available,3.0876,-0.05944054241478769,False,True,0,,,,,,,13,,0.0
midas_umidas,exact,2005:Q1:pre_advance:exact,2005-04-27,pre_advance,A,2005:Q1,16.786138488129456,,,not_available,3.0876,13.698538488129456,False,True,0,,,,,,,13,,0.0
monthly_mixed_frequency_kalman_em,exact,2005:Q1:pre_advance:exact,2005-04-27,pre_advance,A,2005:Q1,1.6021553933444925,3.819938205227718,1.9544662200272784,model_implied_state_space,3.0876,-1.4854446066555076,False,False,100,-2988.06620563235,-3759.8754573896226,-2988.06620563235,0.8562145196074198,0.0002863668013044647,101.0,13,,0.0
standard_dfm,exact,2005:Q1:pre_advance:exact,2005-04-27,pre_advance,A,2005:Q1,3.24407388138464,,,not_available,3.0876,0.15647388138464002,False,True,0,,,,,,,13,,0.0
release_dfm,exact,2005:Q1:pre_advance:exact,2005-04-27,pre_advance,A,2005:Q1,3.24407388138464,,,not_available,3.0876,0.15647388138464002,False,True,0,,,,,,,13,,0.0
revision_dfm_kalman_em,exact,2005:Q1:pre_advance:exact,2005-04-27,pre_advance,A,2005:Q1,3.0264838004940624,5.2769988245981025,2.297171918816287,model_implied_state_space,3.0876,-0.06111619950593772,False,True,32,-1063.6987227192628,-1771.0751809212165,-1063.6987227192628,0.10229682279486951,9.607130432582101e-05,32.0,13,,0.0
indicator_revision_only_dfm_kalman_em,exact,2005:Q1:pre_advance:exact,2005-04-27,pre_advance,A,2005:Q1,4.540567137273756,6.5246780327190965,2.5543449322123855,model_implied_state_space,3.0876,1.452967137273756,False,True,40,-1831.5895501079165,-2610.6694668208806,-1831.5895501079165,0.17261582709534196,9.418342996363597e-05,40.0,13,,0.0
joint_indicator_revision_dfm_full_kalman_em,exact,2005:Q1:pre_advance:exact,2005-04-27,pre_advance,A,2005:Q1,3.7126087085122688,5.09287554250292,2.256740025457722,model_implied_state_space,3.0876,0.6250087085122686,False,True,38,-1802.147115227873,-2621.378260846373,-1802.147115227873,0.16952708836106467,9.400849766645473e-05,38.0,13,,0.0
ar,exact,2005:Q1:pre_second:exact,2005-05-25,pre_second,S,2005:Q1,3.2499698412702402,,,not_available,3.4827,-0.23273015872975966,False,True,0,,,,,,,13,,0.0
no_revision,exact,2005:Q1:pre_second:exact,2005-05-25,pre_second,S,2005:Q1,3.0876,,,not_available,3.4827,-0.3950999999999998,False,True,0,,,,,,,13,,0.0
bridge,exact,2005:Q1:pre_second:exact,2005-05-25,pre_second,S,2005:Q1,3.2504980081513053,,,not_available,3.4827,-0.2322019918486946,False,True,0,,,,,,,13,,0.0
midas_umidas,exact,2005:Q1:pre_second:exact,2005-05-25,pre_second,S,2005:Q1,2.991623437602582,,,not_available,3.4827,-0.49107656239741804,False,True,0,,,,,,,13,,0.0
monthly_mixed_frequency_kalman_em,exact,2005:Q1:pre_second:exact,2005-05-25,pre_second,S,2005:Q1,2.9773739868411524,0.324284557211736,0.5694598820037597,model_implied_state_space,3.4827,-0.5053260131588475,False,False,100,-3015.012952744717,-3778.8480385435714,-3015.012952744717,0.6900253507769776,0.00022873493207229987,101.0,13,,0.0
standard_dfm,exact,2005:Q1:pre_second:exact,2005-05-25,pre_second,S,2005:Q1,3.3895048532491394,,,not_available,3.4827,-0.09319514675086049,False,True,0,,,,,,,13,,0.0
release_dfm,exact,2005:Q1:pre_second:exact,2005-05-25,pre_second,S,2005:Q1,3.254643629342127,,,not_available,3.4827,-0.22805637065787288,False,True,0,,,,,,,13,,0.0
revision_dfm_kalman_em,exact,2005:Q1:pre_second:exact,2005-05-25,pre_second,S,2005:Q1,3.179948778854751,0.3862149316924813,0.6214619310082327,model_implied_state_space,3.4827,-0.302751221145249,False,True,38,-1064.3491605674824,-1768.760047139762,-1064.3491605674824,0.09929159081116268,9.319229908310096e-05,38.0,13,,0.0
indicator_revision_only_dfm_kalman_em,exact,2005:Q1:pre_second:exact,2005-05-25,pre_second,S,2005:Q1,3.1733689074145603,0.41077133949389283,0.6409144556755549,model_implied_state_space,3.4827,-0.30933109258543956,False,True,43,-1832.7691000024454,-2611.771893987557,-1832.7691000024454,0.17451500775678142,9.515832783976327e-05,43.0,13,,0.0
joint_indicator_revision_dfm_full_kalman_em,exact,2005:Q1:pre_second:exact,2005-05-25,pre_second,S,2005:Q1,3.2954426895281776,0.3720551330019374,0.6099632226634139,model_implied_state_space,3.4827,-0.18725731047182226,False,True,41,-1802.9873141621647,-2622.599178842016,-1802.9873141621647,0.16825197149182713,9.325801757350375e-05,41.0,13,,0.0
ar,exact,2005:Q1:pre_third:exact,2005-06-28,pre_third,T,2005:Q1,3.2971112010822035,,,not_available,3.7592,-0.4620887989177964,False,True,0,,,,,,,13,,0.0
no_revision,exact,2005:Q1:pre_third:exact,2005-06-28,pre_third,T,2005:Q1,3.4827,,,not_available,3.7592,-0.27649999999999997,False,True,0,,,,,,,13,,0.0
bridge,exact,2005:Q1:pre_third:exact,2005-06-28,pre_third,T,2005:Q1,3.424443690986255,,,not_available,3.7592,-0.33475630901374487,False,True,0,,,,,,,13,,0.0
midas_umidas,exact,2005:Q1:pre_third:exact,2005-06-28,pre_third,T,2005:Q1,2.7162909836537876,,,not_available,3.7592,-1.0429090163462122,False,True,0,,,,,,,13,,0.0
monthly_mixed_frequency_kalman_em,exact,2005:Q1:pre_third:exact,2005-06-28,pre_third,T,2005:Q1,3.5043279718527867,0.14954097565195607,0.3867052826791432,model_implied_state_space,3.7592,-0.2548720281472132,False,True,45,-3066.588626997365,-3798.010642165213,-3066.588626997365,0.30646371503962655,9.989380535449201e-05,45.0,13,,0.0
standard_dfm,exact,2005:Q1:pre_third:exact,2005-06-28,pre_third,T,2005:Q1,3.499538269410058,,,not_available,3.7592,-0.2596617305899418,False,True,0,,,,,,,13,,0.0
release_dfm,exact,2005:Q1:pre_third:exact,2005-06-28,pre_third,T,2005:Q1,3.5257836412759955,,,not_available,3.7592,-0.23341635872400435,False,True,0,,,,,,,13,,0.0
revision_dfm_kalman_em,exact,2005:Q1:pre_third:exact,2005-06-28,pre_third,T,2005:Q1,3.4683125860554282,0.14114346178185447,0.37569064638589883,model_implied_state_space,3.7592,-0.2908874139445716,False,True,33,-1064.0944128072551,-1773.4808551202702,-1064.0944128072551,0.09825320687605199,9.223984543914287e-05,33.0,13,,0.0
indicator_revision_only_dfm_kalman_em,exact,2005:Q1:pre_third:exact,2005-06-28,pre_third,T,2005:Q1,3.4653947702376318,0.1449352459455349,0.38070361955927723,model_implied_state_space,3.7592,-0.2938052297623681,False,True,30,-1830.1265035712365,-2615.9827800975722,-1830.1265035712365,0.17183359486170957,9.383156822367841e-05,30.0,13,,0.0
joint_indicator_revision_dfm_full_kalman_em,exact,2005:Q1:pre_third:exact,2005-06-28,pre_third,T,2005:Q1,3.4664884639547933,0.1395179981636883,0.3735210812841603,model_implied_state_space,3.7592,-0.2927115360452066,False,True,33,-1799.2183639368982,-2626.6490890813634,-1799.2183639368982,0.16766329587539985,9.312630365894443e-05,33.0,13,,0.0
ar,pseudo,2005:Q1:pre_advance:pseudo,2005-04-30,pre_advance,A,2005:Q1,2.91427503282673,,,not_available,3.0876,-0.17332496717326995,False,True,0,,,,,,,13,,0.0
no_revision,pseudo,2005:Q1:pre_advance:pseudo,2005-04-30,pre_advance,A,2005:Q1,2.979208231416087,,,not_available,3.0876,-0.10839176858391308,False,True,0,,,,,,,13,,0.0
bridge,pseudo,2005:Q1:pre_advance:pseudo,2005-04-30,pre_advance,A,2005:Q1,3.0281594575852124,,,not_available,3.0876,-0.05944054241478769,False,True,0,,,,,,,13,,0.0
midas_umidas,pseudo,2005:Q1:pre_advance:pseudo,2005-04-30,pre_advance,A,2005:Q1,16.786138488129456,,,not_available,3.0876,13.698538488129456,False,True,0,,,,,,,13,,0.0
monthly_mixed_frequency_kalman_em,pseudo,2005:Q1:pre_advance:pseudo,2005-04-30,pre_advance,A,2005:Q1,1.6021553933444925,3.819938205227718,1.9544662200272784,model_implied_state_space,3.0876,-1.4854446066555076,False,False,100,-2988.06620563235,-3759.8754573896226,-2988.06620563235,0.8562145196074198,0.0002863668013044647,101.0,13,,0.0
standard_dfm,pseudo,2005:Q1:pre_advance:pseudo,2005-04-30,pre_advance,A,2005:Q1,3.24407388138464,,,not_available,3.0876,0.15647388138464002,False,True,0,,,,,,,13,,0.0
release_dfm,pseudo,2005:Q1:pre_advance:pseudo,2005-04-30,pre_advance,A,2005:Q1,3.24407388138464,,,not_available,3.0876,0.15647388138464002,False,True,0,,,,,,,13,,0.0
revision_dfm_kalman_em,pseudo,2005:Q1:pre_advance:pseudo,2005-04-30,pre_advance,A,2005:Q1,3.0264838004940624,5.2769988245981025,2.297171918816287,model_implied_state_space,3.0876,-0.06111619950593772,False,True,32,-1063.6987227192628,-1771.0751809212165,-1063.6987227192628,0.10229682279486951,9.607130432582101e-05,32.0,13,,0.0
indicator_revision_only_dfm_kalman_em,pseudo,2005:Q1:pre_advance:pseudo,2005-04-30,pre_advance,A,2005:Q1,4.540567137273756,6.5246780327190965,2.5543449322123855,model_implied_state_space,3.0876,1.452967137273756,False,True,40,-1831.5895501079165,-2610.6694668208806,-1831.5895501079165,0.17261582709534196,9.418342996363597e-05,40.0,13,,0.0
joint_indicator_revision_dfm_full_kalman_em,pseudo,2005:Q1:pre_advance:pseudo,2005-04-30,pre_advance,A,2005:Q1,3.7126087085122688,5.09287554250292,2.256740025457722,model_implied_state_space,3.0876,0.6250087085122686,False,True,38,-1802.147115227873,-2621.378260846373,-1802.147115227873,0.16952708836106467,9.400849766645473e-05,38.0,13,,0.0
ar,pseudo,2005:Q1:pre_second:pseudo,2005-05-31,pre_second,S,2005:Q1,3.2499698412702402,,,not_available,3.4827,-0.23273015872975966,False,True,0,,,,,,,13,,0.0
no_revision,pseudo,2005:Q1:pre_second:pseudo,2005-05-31,pre_second,S,2005:Q1,3.0876,,,not_available,3.4827,-0.3950999999999998,False,True,0,,,,,,,13,,0.0
bridge,pseudo,2005:Q1:pre_second:pseudo,2005-05-31,pre_second,S,2005:Q1,3.2504980081513053,,,not_available,3.4827,-0.2322019918486946,False,True,0,,,,,,,13,,0.0
midas_umidas,pseudo,2005:Q1:pre_second:pseudo,2005-05-31,pre_second,S,2005:Q1,2.991623437602582,,,not_available,3.4827,-0.49107656239741804,False,True,0,,,,,,,13,,0.0
monthly_mixed_frequency_kalman_em,pseudo,2005:Q1:pre_second:pseudo,2005-05-31,pre_second,S,2005:Q1,2.9773739868411524,0.324284557211736,0.5694598820037597,model_implied_state_space,3.4827,-0.5053260131588475,False,False,100,-3015.012952744717,-3778.8480385435714,-3015.012952744717,0.6900253507769776,0.00022873493207229987,101.0,13,,0.0
standard_dfm,pseudo,2005:Q1:pre_second:pseudo,2005-05-31,pre_second,S,2005:Q1,3.3895048532491394,,,not_available,3.4827,-0.09319514675086049,False,True,0,,,,,,,13,,0.0
release_dfm,pseudo,2005:Q1:pre_second:pseudo,2005-05-31,pre_second,S,2005:Q1,3.254643629342127,,,not_available,3.4827,-0.22805637065787288,False,True,0,,,,,,,13,,0.0
revision_dfm_kalman_em,pseudo,2005:Q1:pre_second:pseudo,2005-05-31,pre_second,S,2005:Q1,3.179948778854751,0.3862149316924813,0.6214619310082327,model_implied_state_space,3.4827,-0.302751221145249,False,True,38,-1064.3491605674824,-1768.760047139762,-1064.3491605674824,0.09929159081116268,9.319229908310096e-05,38.0,13,,0.0
indicator_revision_only_dfm_kalman_em,pseudo,2005:Q1:pre_second:pseudo,2005-05-31,pre_second,S,2005:Q1,3.1733689074145603,0.41077133949389283,0.6409144556755549,model_implied_state_space,3.4827,-0.30933109258543956,False,True,43,-1832.7691000024454,-2611.771893987557,-1832.7691000024454,0.17451500775678142,9.515832783976327e-05,43.0,13,,0.0
joint_indicator_revision_dfm_full_kalman_em,pseudo,2005:Q1:pre_second:pseudo,2005-05-31,pre_second,S,2005:Q1,3.2954426895281776,0.3720551330019374,0.6099632226634139,model_implied_state_space,3.4827,-0.18725731047182226,False,True,41,-1802.9873141621647,-2622.599178842016,-1802.9873141621647,0.16825197149182713,9.325801757350375e-05,41.0,13,,0.0
ar,pseudo,2005:Q1:pre_third:pseudo,2005-06-30,pre_third,T,2005:Q1,3.2971112010822035,,,not_available,3.7592,-0.4620887989177964,False,True,0,,,,,,,13,,0.0
no_revision,pseudo,2005:Q1:pre_third:pseudo,2005-06-30,pre_third,T,2005:Q1,3.4827,,,not_available,3.7592,-0.27649999999999997,False,True,0,,,,,,,13,,0.0
bridge,pseudo,2005:Q1:pre_third:pseudo,2005-06-30,pre_third,T,2005:Q1,3.424443690986255,,,not_available,3.7592,-0.33475630901374487,False,True,0,,,,,,,13,,0.0
midas_umidas,pseudo,2005:Q1:pre_third:pseudo,2005-06-30,pre_third,T,2005:Q1,2.7162909836537876,,,not_available,3.7592,-1.0429090163462122,False,True,0,,,,,,,13,,0.0
monthly_mixed_frequency_kalman_em,pseudo,2005:Q1:pre_third:pseudo,2005-06-30,pre_third,T,2005:Q1,3.5043279718527867,0.14954097565195607,0.3867052826791432,model_implied_state_space,3.7592,-0.2548720281472132,False,True,45,-3066.588626997365,-3798.010642165213,-3066.588626997365,0.30646371503962655,9.989380535449201e-05,45.0,13,,0.0
standard_dfm,pseudo,2005:Q1:pre_third:pseudo,2005-06-30,pre_third,T,2005:Q1,3.499538269410058,,,not_available,3.7592,-0.2596617305899418,False,True,0,,,,,,,13,,0.0
release_dfm,pseudo,2005:Q1:pre_third:pseudo,2005-06-30,pre_third,T,2005:Q1,3.5257836412759955,,,not_available,3.7592,-0.23341635872400435,False,True,0,,,,,,,13,,0.0
revision_dfm_kalman_em,pseudo,2005:Q1:pre_third:pseudo,2005-06-30,pre_third,T,2005:Q1,3.4683125860554282,0.14114346178185447,0.37569064638589883,model_implied_state_space,3.7592,-0.2908874139445716,False,True,33,-1064.0944128072551,-1773.4808551202702,-1064.0944128072551,0.09825320687605199,9.223984543914287e-05,33.0,13,,0.0
indicator_revision_only_dfm_kalman_em,pseudo,2005:Q1:pre_third:pseudo,2005-06-30,pre_third,T,2005:Q1,3.4653947702376318,0.1449352459455349,0.38070361955927723,model_implied_state_space,3.7592,-0.2938052297623681,False,True,30,-1830.1265035712365,-2615.9827800975722,-1830.1265035712365,0.17183359486170957,9.383156822367841e-05,30.0,13,,0.0
joint_indicator_revision_dfm_full_kalman_em,pseudo,2005:Q1:pre_third:pseudo,2005-06-30,pre_third,T,2005:Q1,3.4664884639547933,0.1395179981636883,0.3735210812841603,model_implied_state_space,3.7592,-0.2927115360452066,False,True,33,-1799.2183639368982,-2626.6490890813634,-1799.2183639368982,0.16766329587539985,9.312630365894443e-05,33.0,13,,0.0
ar,exact,2005:Q2:pre_advance:exact,2005-07-28,pre_advance,A,2005:Q2,2.8861030313857308,,,not_available,3.414,-0.5278969686142694,False,True,0,,,,,,,13,,0.0
no_revision,exact,2005:Q2:pre_advance:exact,2005-07-28,pre_advance,A,2005:Q2,2.8763111567077075,,,not_available,3.414,-0.5376888432922926,False,True,0,,,,,,,13,,0.0
bridge,exact,2005:Q2:pre_advance:exact,2005-07-28,pre_advance,A,2005:Q2,3.263586255310559,,,not_available,3.414,-0.15041374468944113,False,True,0,,,,,,,13,,0.0
midas_umidas,exact,2005:Q2:pre_advance:exact,2005-07-28,pre_advance,A,2005:Q2,-11.475117342172844,,,not_available,3.414,-14.889117342172844,False,True,0,,,,,,,13,,0.0
monthly_mixed_frequency_kalman_em,exact,2005:Q2:pre_advance:exact,2005-07-28,pre_advance,A,2005:Q2,3.775395284123002,3.8043865421161285,1.9504836687642706,model_implied_state_space,3.414,0.3613952841230019,False,False,100,-3050.1454571602208,-3819.033765343621,-3050.1454571602208,0.7348653653862129,0.0002407910165946709,101.0,13,,0.0
standard_dfm,exact,2005:Q2:pre_advance:exact,2005-07-28,pre_advance,A,2005:Q2,3.0949558019625814,,,not_available,3.414,-0.3190441980374188,False,True,0,,,,,,,13,,0.0
release_dfm,exact,2005:Q2:pre_advance:exact,2005-07-28,pre_advance,A,2005:Q2,3.0949558019625814,,,not_available,3.414,-0.3190441980374188,False,True,0,,,,,,,13,,0.0
revision_dfm_kalman_em,exact,2005:Q2:pre_advance:exact,2005-07-28,pre_advance,A,2005:Q2,2.6890936415250724,5.301484213725848,2.302495214702052,model_implied_state_space,3.414,-0.7249063584749278,False,True,32,-1082.4869270866677,-1793.380027981038,-1082.4869270866677,0.10302844581497084,9.508065785303633e-05,32.0,13,,0.0
indicator_revision_only_dfm_kalman_em,exact,2005:Q2:pre_advance:exact,2005-07-28,pre_advance,A,2005:Q2,4.18303302914653,6.112907788430453,2.4724295315398686,model_implied_state_space,3.414,0.7690330291465295,False,True,44,-1864.945936723673,-2649.888812568019,-1864.945936723673,0.17420904415098448,9.335360563255982e-05,44.0,13,,0.0
joint_indicator_revision_dfm_full_kalman_em,exact,2005:Q2:pre_advance:exact,2005-07-28,pre_advance,A,2005:Q2,3.5633313549133225,4.495826497924586,2.120336411498087,model_implied_state_space,3.414,0.1493313549133224,False,True,52,-1834.3333300990244,-2660.6750613460194,-1834.3333300990244,0.18204897258578967,9.91813932269359e-05,52.0,13,,0.0
ar,exact,2005:Q2:pre_second:exact,2005-08-30,pre_second,S,2005:Q2,3.1044419421848652,,,not_available,3.2872,-0.18275805781513466,False,True,0,,,,,,,13,,0.0
no_revision,exact,2005:Q2:pre_second:exact,2005-08-30,pre_second,S,2005:Q2,3.414,,,not_available,3.2872,0.12680000000000025,False,True,0,,,,,,,13,,0.0
bridge,exact,2005:Q2:pre_second:exact,2005-08-30,pre_second,S,2005:Q2,3.4612755095476757,,,not_available,3.2872,0.1740755095476758,False,True,0,,,,,,,13,,0.0
midas_umidas,exact,2005:Q2:pre_second:exact,2005-08-30,pre_second,S,2005:Q2,2.398188482000378,,,not_available,3.2872,-0.8890115179996219,False,True,0,,,,,,,13,,0.0
monthly_mixed_frequency_kalman_em,exact,2005:Q2:pre_second:exact,2005-08-30,pre_second,S,2005:Q2,3.533190458311741,0.3232061641977309,0.5685122375092122,model_implied_state_space,3.2872,0.24599045831174093,False,False,100,-3069.2671036922025,-3838.9289310359904,-3069.2671036922025,0.7496426067996254,0.00024410241582142067,101.0,13,,0.0
standard_dfm,exact,2005:Q2:pre_second:exact,2005-08-30,pre_second,S,2005:Q2,3.1619076245312066,,,not_available,3.2872,-0.12529237546879335,False,True,0,,,,,,,13,,0.0
release_dfm,exact,2005:Q2:pre_second:exact,2005-08-30,pre_second,S,2005:Q2,3.5854204859407894,,,not_available,3.2872,0.29822048594078954,False,True,0,,,,,,,13,,0.0
revision_dfm_kalman_em,exact,2005:Q2:pre_second:exact,2005-08-30,pre_second,S,2005:Q2,3.527629680755184,0.3839892034375495,0.6196686238930849,model_implied_state_space,3.2872,0.240429680755184,False,True,37,-1085.7600007289748,-1792.8159694549722,-1085.7600007289748,0.10541715221552295,9.699190946845135e-05,37.0,13,,0.0
indicator_revision_only_dfm_kalman_em,exact,2005:Q2:pre_second:exact,2005-08-30,pre_second,S,2005:Q2,3.424580914268968,0.4139436863977684,0.6433845556102263,model_implied_state_space,3.2872,0.13738091426896792,False,True,30,-1868.141840506658,-2656.567383677142,-1868.141840506658,0.18527265223769973,9.91119483227392e-05,30.0,13,,0.0
joint_indicator_revision_dfm_full_kalman_em,exact,2005:Q2:pre_second:exact,2005-08-30,pre_second,S,2005:Q2,3.67194279317682,0.37006988432892274,0.6083336948821122,model_implied_state_space,3.2872,0.3847427931768199,False,True,33,-1837.0970848715913,-2667.330550512309,-1837.0970848715913,0.1688464225487678,9.185092302173051e-05,33.0,13,,0.0
ar,exact,2005:Q2:pre_third:exact,2005-09-28,pre_third,T,2005:Q2,3.2616822864055117,,,not_available,3.3096,-0.047917713594488376,False,True,0,,,,,,,13,,0.0
no_revision,exact,2005:Q2:pre_third:exact,2005-09-28,pre_third,T,2005:Q2,3.2872,,,not_available,3.3096,-0.022400000000000198,False,True,0,,,,,,,13,,0.0
bridge,exact,2005:Q2:pre_third:exact,2005-09-28,pre_third,T,2005:Q2,4.014211750324724,,,not_available,3.3096,0.7046117503247236,False,True,0,,,,,,,13,,0.0
midas_umidas,exact,2005:Q2:pre_third:exact,2005-09-28,pre_third,T,2005:Q2,3.8442442465060624,,,not_available,3.3096,0.5346442465060623,False,True,0,,,,,,,13,,0.0
monthly_mixed_frequency_kalman_em,exact,2005:Q2:pre_third:exact,2005-09-28,pre_third,T,2005:Q2,3.369709631109808,0.12740665414398225,0.356940687151216,model_implied_state_space,3.3096,0.060109631109807715,False,False,100,-3083.746236392836,-3858.8630724892832,-3083.746236392836,0.8454312377825772,0.00027399323334048657,101.0,13,,0.0
standard_dfm,exact,2005:Q2:pre_third:exact,2005-09-28,pre_third,T,2005:Q2,3.2867577792956033,,,not_available,3.3096,-0.022842220704396787,False,True,0,,,,,,,13,,0.0
release_dfm,exact,2005:Q2:pre_third:exact,2005-09-28,pre_third,T,2005:Q2,3.468446939111133,,,not_available,3.3096,0.1588469391111329,False,True,0,,,,,,,13,,0.0
revision_dfm_kalman_em,exact,2005:Q2:pre_third:exact,2005-09-28,pre_third,T,2005:Q2,3.30458048662835,0.1406393635701575,0.3750191509378654,model_implied_state_space,3.3096,-0.005019513371649964,False,True,32,-1085.5133801177558,-1797.0056818131745,-1085.5133801177558,0.1033032613886462,9.50687238368136e-05,32.0,13,,0.0
indicator_revision_only_dfm_kalman_em,exact,2005:Q2:pre_third:exact,2005-09-28,pre_third,T,2005:Q2,3.2953808463631242,0.14448967749628427,0.380117978391294,model_implied_state_space,3.3096,-0.01421915363687587,False,True,31,-1867.794840113926,-2657.8389243513084,-1867.794840113926,0.17462059527042584,9.343148667831338e-05,31.0,13,,0.0
joint_indicator_revision_dfm_full_kalman_em,exact,2005:Q2:pre_third:exact,2005-09-28,pre_third,T,2005:Q2,3.3204094112750306,0.13915401530168578,0.3730335310688381,model_implied_state_space,3.3096,0.010809411275030545,False,True,33,-1837.0430687717148,-2668.5783440314913,-1837.0430687717148,0.17491660244718332,9.515552771157319e-05,33.0,13,,0.0
ar,pseudo,2005:Q2:pre_advance:pseudo,2005-07-31,pre_advance,A,2005:Q2,2.8861030313857308,,,not_available,3.414,-0.5278969686142694,False,True,0,,,,,,,13,,0.0
no_revision,pseudo,2005:Q2:pre_advance:pseudo,2005-07-31,pre_advance,A,2005:Q2,2.8763111567077075,,,not_available,3.414,-0.5376888432922926,False,True,0,,,,,,,13,,0.0
bridge,pseudo,2005:Q2:pre_advance:pseudo,2005-07-31,pre_advance,A,2005:Q2,3.263586255310559,,,not_available,3.414,-0.15041374468944113,False,True,0,,,,,,,13,,0.0
midas_umidas,pseudo,2005:Q2:pre_advance:pseudo,2005-07-31,pre_advance,A,2005:Q2,-11.475117342172844,,,not_available,3.414,-14.889117342172844,False,True,0,,,,,,,13,,0.0
monthly_mixed_frequency_kalman_em,pseudo,2005:Q2:pre_advance:pseudo,2005-07-31,pre_advance,A,2005:Q2,3.775395284123002,3.8043865421161285,1.9504836687642706,model_implied_state_space,3.414,0.3613952841230019,False,False,100,-3050.1454571602208,-3819.033765343621,-3050.1454571602208,0.7348653653862129,0.0002407910165946709,101.0,13,,0.0
standard_dfm,pseudo,2005:Q2:pre_advance:pseudo,2005-07-31,pre_advance,A,2005:Q2,3.0949558019625814,,,not_available,3.414,-0.3190441980374188,False,True,0,,,,,,,13,,0.0
release_dfm,pseudo,2005:Q2:pre_advance:pseudo,2005-07-31,pre_advance,A,2005:Q2,3.0949558019625814,,,not_available,3.414,-0.3190441980374188,False,True,0,,,,,,,13,,0.0
revision_dfm_kalman_em,pseudo,2005:Q2:pre_advance:pseudo,2005-07-31,pre_advance,A,2005:Q2,2.6890936415250724,5.301484213725848,2.302495214702052,model_implied_state_space,3.414,-0.7249063584749278,False,True,32,-1082.4869270866677,-1793.380027981038,-1082.4869270866677,0.10302844581497084,9.508065785303633e-05,32.0,13,,0.0
indicator_revision_only_dfm_kalman_em,pseudo,2005:Q2:pre_advance:pseudo,2005-07-31,pre_advance,A,2005:Q2,4.18303302914653,6.112907788430453,2.4724295315398686,model_implied_state_space,3.414,0.7690330291465295,False,True,44,-1864.945936723673,-2649.888812568019,-1864.945936723673,0.17420904415098448,9.335360563255982e-05,44.0,13,,0.0
joint_indicator_revision_dfm_full_kalman_em,pseudo,2005:Q2:pre_advance:pseudo,2005-07-31,pre_advance,A,2005:Q2,3.5633313549133225,4.495826497924586,2.120336411498087,model_implied_state_space,3.414,0.1493313549133224,False,True,52,-1834.3333300990244,-2660.6750613460194,-1834.3333300990244,0.18204897258578967,9.91813932269359e-05,52.0,13,,0.0
ar,pseudo,2005:Q2:pre_second:pseudo,2005-08-31,pre_second,S,2005:Q2,3.1044419421848652,,,not_available,3.2872,-0.18275805781513466,False,True,0,,,,,,,13,,0.0
no_revision,pseudo,2005:Q2:pre_second:pseudo,2005-08-31,pre_second,S,2005:Q2,3.414,,,not_available,3.2872,0.12680000000000025,False,True,0,,,,,,,13,,0.0
bridge,pseudo,2005:Q2:pre_second:pseudo,2005-08-31,pre_second,S,2005:Q2,3.4612755095476757,,,not_available,3.2872,0.1740755095476758,False,True,0,,,,,,,13,,0.0
midas_umidas,pseudo,2005:Q2:pre_second:pseudo,2005-08-31,pre_second,S,2005:Q2,2.398188482000378,,,not_available,3.2872,-0.8890115179996219,False,True,0,,,,,,,13,,0.0
monthly_mixed_frequency_kalman_em,pseudo,2005:Q2:pre_second:pseudo,2005-08-31,pre_second,S,2005:Q2,3.533190458311741,0.3232061641977309,0.5685122375092122,model_implied_state_space,3.2872,0.24599045831174093,False,False,100,-3069.2671036922025,-3838.9289310359904,-3069.2671036922025,0.7496426067996254,0.00024410241582142067,101.0,13,,0.0
standard_dfm,pseudo,2005:Q2:pre_second:pseudo,2005-08-31,pre_second,S,2005:Q2,3.1619076245312066,,,not_available,3.2872,-0.12529237546879335,False,True,0,,,,,,,13,,0.0
release_dfm,pseudo,2005:Q2:pre_second:pseudo,2005-08-31,pre_second,S,2005:Q2,3.5854204859407894,,,not_available,3.2872,0.29822048594078954,False,True,0,,,,,,,13,,0.0
revision_dfm_kalman_em,pseudo,2005:Q2:pre_second:pseudo,2005-08-31,pre_second,S,2005:Q2,3.527629680755184,0.3839892034375495,0.6196686238930849,model_implied_state_space,3.2872,0.240429680755184,False,True,37,-1085.7600007289748,-1792.8159694549722,-1085.7600007289748,0.10541715221552295,9.699190946845135e-05,37.0,13,,0.0
indicator_revision_only_dfm_kalman_em,pseudo,2005:Q2:pre_second:pseudo,2005-08-31,pre_second,S,2005:Q2,3.424580914268968,0.4139436863977684,0.6433845556102263,model_implied_state_space,3.2872,0.13738091426896792,False,True,30,-1868.141840506658,-2656.567383677142,-1868.141840506658,0.18527265223769973,9.91119483227392e-05,30.0,13,,0.0
joint_indicator_revision_dfm_full_kalman_em,pseudo,2005:Q2:pre_second:pseudo,2005-08-31,pre_second,S,2005:Q2,3.67194279317682,0.37006988432892274,0.6083336948821122,model_implied_state_space,3.2872,0.3847427931768199,False,True,33,-1837.0970848715913,-2667.330550512309,-1837.0970848715913,0.1688464225487678,9.185092302173051e-05,33.0,13,,0.0
ar,pseudo,2005:Q2:pre_third:pseudo,2005-09-30,pre_third,T,2005:Q2,3.2616822864055117,,,not_available,3.3096,-0.047917713594488376,False,True,0,,,,,,,13,,0.0
no_revision,pseudo,2005:Q2:pre_third:pseudo,2005-09-30,pre_third,T,2005:Q2,3.2872,,,not_available,3.3096,-0.022400000000000198,False,True,0,,,,,,,13,,0.0
bridge,pseudo,2005:Q2:pre_third:pseudo,2005-09-30,pre_third,T,2005:Q2,4.014211750324724,,,not_available,3.3096,0.7046117503247236,False,True,0,,,,,,,13,,0.0
midas_umidas,pseudo,2005:Q2:pre_third:pseudo,2005-09-30,pre_third,T,2005:Q2,3.8442442465060624,,,not_available,3.3096,0.5346442465060623,False,True,0,,,,,,,13,,0.0
monthly_mixed_frequency_kalman_em,pseudo,2005:Q2:pre_third:pseudo,2005-09-30,pre_third,T,2005:Q2,3.369709631109808,0.12740665414398225,0.356940687151216,model_implied_state_space,3.3096,0.060109631109807715,False,False,100,-3083.746236392836,-3858.8630724892832,-3083.746236392836,0.8454312377825772,0.00027399323334048657,101.0,13,,0.0
standard_dfm,pseudo,2005:Q2:pre_third:pseudo,2005-09-30,pre_third,T,2005:Q2,3.2867577792956033,,,not_available,3.3096,-0.022842220704396787,False,True,0,,,,,,,13,,0.0
release_dfm,pseudo,2005:Q2:pre_third:pseudo,2005-09-30,pre_third,T,2005:Q2,3.468446939111133,,,not_available,3.3096,0.1588469391111329,False,True,0,,,,,,,13,,0.0
revision_dfm_kalman_em,pseudo,2005:Q2:pre_third:pseudo,2005-09-30,pre_third,T,2005:Q2,3.30458048662835,0.1406393635701575,0.3750191509378654,model_implied_state_space,3.3096,-0.005019513371649964,False,True,32,-1085.5133801177558,-1797.0056818131745,-1085.5133801177558,0.1033032613886462,9.50687238368136e-05,32.0,13,,0.0
indicator_revision_only_dfm_kalman_em,pseudo,2005:Q2:pre_third:pseudo,2005-09-30,pre_third,T,2005:Q2,3.2953808463631242,0.14448967749628427,0.380117978391294,model_implied_state_space,3.3096,-0.01421915363687587,False,True,31,-1867.794840113926,-2657.8389243513084,-1867.794840113926,0.17462059527042584,9.343148667831338e-05,31.0,13,,0.0
joint_indicator_revision_dfm_full_kalman_em,pseudo,2005:Q2:pre_third:pseudo,2005-09-30,pre_third,T,2005:Q2,3.3204094112750306,0.13915401530168578,0.3730335310688381,model_implied_state_space,3.3096,0.010809411275030545,False,True,33,-1837.0430687717148,-2668.5783440314913,-1837.0430687717148,0.17491660244718332,9.515552771157319e-05,33.0,13,,0.0
ar,exact,2005:Q3:pre_advance:exact,2005-10-27,pre_advance,A,2005:Q3,3.04969286031635,,,not_available,3.8045,-0.75480713968365,False,True,0,,,,,,,13,,0.0
no_revision,exact,2005:Q3:pre_advance:exact,2005-10-27,pre_advance,A,2005:Q3,3.079947323602184,,,not_available,3.8045,-0.7245526763978161,False,True,0,,,,,,,13,,0.0
bridge,exact,2005:Q3:pre_advance:exact,2005-10-27,pre_advance,A,2005:Q3,2.977264671503475,,,not_available,3.8045,-0.827235328496525,False,True,0,,,,,,,13,,0.0
midas_umidas,exact,2005:Q3:pre_advance:exact,2005-10-27,pre_advance,A,2005:Q3,20.737297200182738,,,not_available,3.8045,16.932797200182737,False,True,0,,,,,,,13,,0.0
monthly_mixed_frequency_kalman_em,exact,2005:Q3:pre_advance:exact,2005-10-27,pre_advance,A,2005:Q3,0.010723906307370967,3.6806378730681497,1.918498859282473,model_implied_state_space,3.8045,-3.793776093692629,False,True,94,-3077.69067055778,-3874.508079532733,-3077.69067055778,0.288018590572392,9.35435479262957e-05,94.0,13,,0.0
standard_dfm,exact,2005:Q3:pre_advance:exact,2005-10-27,pre_advance,A,2005:Q3,2.746500840845433,,,not_available,3.8045,-1.057999159154567,False,True,0,,,,,,,13,,0.0
release_dfm,exact,2005:Q3:pre_advance:exact,2005-10-27,pre_advance,A,2005:Q3,2.746500840845433,,,not_available,3.8045,-1.057999159154567,False,True,0,,,,,,,13,,0.0
revision_dfm_kalman_em,exact,2005:Q3:pre_advance:exact,2005-10-27,pre_advance,A,2005:Q3,2.6128395851345116,5.51368902392354,2.348124575895312,model_implied_state_space,3.8045,-1.1916604148654883,False,True,31,-1104.569545693913,-1817.6113784330482,-1104.569545693913,0.1094527643915626,9.899144737684018e-05,31.0,13,,0.0
indicator_revision_only_dfm_kalman_em,exact,2005:Q3:pre_advance:exact,2005-10-27,pre_advance,A,2005:Q3,3.904523893725468,5.515782955847095,2.348570406832015,model_implied_state_space,3.8045,0.10002389372546805,False,True,44,-1912.4533637848588,-2692.656202316803,-1912.4533637848588,0.1906751923190768,9.963984337494169e-05,44.0,13,,0.0
joint_indicator_revision_dfm_full_kalman_em,exact,2005:Q3:pre_advance:exact,2005-10-27,pre_advance,A,2005:Q3,3.5023993802015596,4.302970486428739,2.0743602595568444,model_implied_state_space,3.8045,-0.3021006197984404,False,True,40,-1881.6492208110528,-2703.5114700089025,-1881.6492208110528,0.1784047064143124,9.475360569201363e-05,40.0,13,,0.0
ar,exact,2005:Q3:pre_second:exact,2005-11-29,pre_second,S,2005:Q3,3.0178774499499244,,,not_available,4.2839,-1.2660225500500757,False,True,0,,,,,,,13,,0.0
no_revision,exact,2005:Q3:pre_second:exact,2005-11-29,pre_second,S,2005:Q3,3.8045,,,not_available,4.2839,-0.47940000000000005,False,True,0,,,,,,,13,,0.0
bridge,exact,2005:Q3:pre_second:exact,2005-11-29,pre_second,S,2005:Q3,2.9202077731301666,,,not_available,4.2839,-1.3636922268698335,False,True,0,,,,,,,13,,0.0
midas_umidas,exact,2005:Q3:pre_second:exact,2005-11-29,pre_second,S,2005:Q3,4.804219178181921,,,not_available,4.2839,0.5203191781819205,False,True,0,,,,,,,13,,0.0
monthly_mixed_frequency_kalman_em,exact,2005:Q3:pre_second:exact,2005-11-29,pre_second,S,2005:Q3,3.551477936532789,0.33310031159174236,0.5771484311611202,model_implied_state_space,4.2839,-0.7324220634672112,False,True,82,-3098.216756554014,-3899.2070011593582,-3098.216756554014,0.2825139588703678,9.114825790025732e-05,82.0,13,,0.0
standard_dfm,exact,2005:Q3:pre_second:exact,2005-11-29,pre_second,S,2005:Q3,2.9173005702868537,,,not_available,4.2839,-1.3665994297131463,False,True,0,,,,,,,13,,0.0
release_dfm,exact,2005:Q3:pre_second:exact,2005-11-29,pre_second,S,2005:Q3,3.978465790622625,,,not_available,4.2839,-0.305434209377375,False,True,0,,,,,,,13,,0.0
revision_dfm_kalman_em,exact,2005:Q3:pre_second:exact,2005-11-29,pre_second,S,2005:Q3,3.9982516333274942,0.3814065276709095,0.6175811911570085,model_implied_state_space,4.2839,-0.2856483666725058,False,True,37,-1108.3403872690562,-1816.0200234110387,-1108.3403872690562,0.10464388586228779,9.432092886418609e-05,37.0,13,,0.0
indicator_revision_only_dfm_kalman_em,exact,2005:Q3:pre_second:exact,2005-11-29,pre_second,S,2005:Q3,3.8915293401504636,0.40006496274193054,0.6325068875055279,model_implied_state_space,4.2839,-0.39237065984953645,False,True,46,-1916.1611201112971,-2694.98553203983,-1916.1611201112971,0.18308989379852392,9.549140568663846e-05,46.0,13,,0.0
joint_indicator_revision_dfm_full_kalman_em,exact,2005:Q3:pre_second:exact,2005-11-29,pre_second,S,2005:Q3,4.151895295366898,0.3578105228834883,0.598172653072245,model_implied_state_space,4.2839,-0.13200470463310232,False,True,45,-1884.3955630534074,-2705.9515824846226,-1884.3955630534074,0.1817613393125157,9.639559033785836e-05,45.0,13,,0.0
ar,exact,2005:Q3:pre_third:exact,2005-12-20,pre_third,T,2005:Q3,3.0673509604805287,,,not_available,4.1425,-1.0751490395194714,False,True,0,,,,,,,13,,0.0
no_revision,exact,2005:Q3:pre_third:exact,2005-12-20,pre_third,T,2005:Q3,4.2839,,,not_available,4.1425,0.14139999999999997,False,True,0,,,,,,,13,,0.0
bridge,exact,2005:Q3:pre_third:exact,2005-12-20,pre_third,T,2005:Q3,3.4924246726879242,,,not_available,4.1425,-0.6500753273120758,False,True,0,,,,,,,13,,0.0
midas_umidas,exact,2005:Q3:pre_third:exact,2005-12-20,pre_third,T,2005:Q3,3.3176660699902745,,,not_available,4.1425,-0.8248339300097256,False,True,0,,,,,,,13,,0.0
monthly_mixed_frequency_kalman_em,exact,2005:Q3:pre_third:exact,2005-12-20,pre_third,T,2005:Q3,4.109447862500031,0.12972160005575598,0.3601688493689536,model_implied_state_space,4.1425,-0.03305213749996927,False,True,96,-3117.9295986306056,-3921.092923288823,-3117.9295986306056,0.2791948089129619,8.950821423053785e-05,96.0,13,,0.0
standard_dfm,exact,2005:Q3:pre_third:exact,2005-12-20,pre_third,T,2005:Q3,3.028406574059412,,,not_available,4.1425,-1.1140934259405881,False,True,0,,,,,,,13,,0.0
release_dfm,exact,2005:Q3:pre_third:exact,2005-12-20,pre_third,T,2005:Q3,4.29439784843032,,,not_available,4.1425,0.15189784843031973,False,True,0,,,,,,,13,,0.0
revision_dfm_kalman_em,exact,2005:Q3:pre_third:exact,2005-12-20,pre_third,T,2005:Q3,4.274675661324416,0.1398198117823156,0.37392487451668094,model_implied_state_space,4.1425,0.13217566132441583,False,True,32,-1107.9055555906,-1820.8036933210553,-1107.9055555906,0.10446263074300077,9.419448790060567e-05,32.0,13,,0.0
indicator_revision_only_dfm_kalman_em,exact,2005:Q3:pre_third:exact,2005-12-20,pre_third,T,2005:Q3,4.26517658282609,0.14312949486957466,0.3783245893007414,model_implied_state_space,4.1425,0.12267658282608984,False,True,46,-1915.8600269439912,-2696.0172342907904,-1915.8600269439912,0.18468439972548367,9.633807632792904e-05,46.0,13,,0.0
joint_indicator_revision_dfm_full_kalman_em,exact,2005:Q3:pre_third:exact,2005-12-20,pre_third,T,2005:Q3,4.2877474743793496,0.13871367208672294,0.37244284405358485,model_implied_state_space,4.1425,0.14524747437934948,False,True,46,-1883.741574630125,-2706.958566819579,-1883.741574630125,0.17469114673167496,9.267846530024881e-05,46.0,13,,0.0
ar,pseudo,2005:Q3:pre_advance:pseudo,2005-10-31,pre_advance,A,2005:Q3,3.04969286031635,,,not_available,3.8045,-0.75480713968365,False,True,0,,,,,,,13,,0.0
no_revision,pseudo,2005:Q3:pre_advance:pseudo,2005-10-31,pre_advance,A,2005:Q3,3.079947323602184,,,not_available,3.8045,-0.7245526763978161,False,True,0,,,,,,,13,,0.0
bridge,pseudo,2005:Q3:pre_advance:pseudo,2005-10-31,pre_advance,A,2005:Q3,2.977264671503475,,,not_available,3.8045,-0.827235328496525,False,True,0,,,,,,,13,,0.0
midas_umidas,pseudo,2005:Q3:pre_advance:pseudo,2005-10-31,pre_advance,A,2005:Q3,20.737297200182738,,,not_available,3.8045,16.932797200182737,False,True,0,,,,,,,13,,0.0
monthly_mixed_frequency_kalman_em,pseudo,2005:Q3:pre_advance:pseudo,2005-10-31,pre_advance,A,2005:Q3,0.010723906307370967,3.6806378730681497,1.918498859282473,model_implied_state_space,3.8045,-3.793776093692629,False,True,94,-3077.69067055778,-3874.508079532733,-3077.69067055778,0.288018590572392,9.35435479262957e-05,94.0,13,,0.0
standard_dfm,pseudo,2005:Q3:pre_advance:pseudo,2005-10-31,pre_advance,A,2005:Q3,2.746500840845433,,,not_available,3.8045,-1.057999159154567,False,True,0,,,,,,,13,,0.0
release_dfm,pseudo,2005:Q3:pre_advance:pseudo,2005-10-31,pre_advance,A,2005:Q3,2.746500840845433,,,not_available,3.8045,-1.057999159154567,False,True,0,,,,,,,13,,0.0
revision_dfm_kalman_em,pseudo,2005:Q3:pre_advance:pseudo,2005-10-31,pre_advance,A,2005:Q3,2.6128395851345116,5.51368902392354,2.348124575895312,model_implied_state_space,3.8045,-1.1916604148654883,False,True,31,-1104.569545693913,-1817.6113784330482,-1104.569545693913,0.1094527643915626,9.899144737684018e-05,31.0,13,,0.0
indicator_revision_only_dfm_kalman_em,pseudo,2005:Q3:pre_advance:pseudo,2005-10-31,pre_advance,A,2005:Q3,3.904523893725468,5.515782955847095,2.348570406832015,model_implied_state_space,3.8045,0.10002389372546805,False,True,44,-1912.4533637848588,-2692.656202316803,-1912.4533637848588,0.1906751923190768,9.963984337494169e-05,44.0,13,,0.0
joint_indicator_revision_dfm_full_kalman_em,pseudo,2005:Q3:pre_advance:pseudo,2005-10-31,pre_advance,A,2005:Q3,3.5023993802015596,4.302970486428739,2.0743602595568444,model_implied_state_space,3.8045,-0.3021006197984404,False,True,40,-1881.6492208110528,-2703.5114700089025,-1881.6492208110528,0.1784047064143124,9.475360569201363e-05,40.0,13,,0.0
ar,pseudo,2005:Q3:pre_second:pseudo,2005-11-30,pre_second,S,2005:Q3,3.0178774499499244,,,not_available,4.2839,-1.2660225500500757,False,True,0,,,,,,,13,,0.0
no_revision,pseudo,2005:Q3:pre_second:pseudo,2005-11-30,pre_second,S,2005:Q3,3.8045,,,not_available,4.2839,-0.47940000000000005,False,True,0,,,,,,,13,,0.0
bridge,pseudo,2005:Q3:pre_second:pseudo,2005-11-30,pre_second,S,2005:Q3,2.9202077731301666,,,not_available,4.2839,-1.3636922268698335,False,True,0,,,,,,,13,,0.0
midas_umidas,pseudo,2005:Q3:pre_second:pseudo,2005-11-30,pre_second,S,2005:Q3,4.804219178181921,,,not_available,4.2839,0.5203191781819205,False,True,0,,,,,,,13,,0.0
monthly_mixed_frequency_kalman_em,pseudo,2005:Q3:pre_second:pseudo,2005-11-30,pre_second,S,2005:Q3,3.551477936532789,0.33310031159174236,0.5771484311611202,model_implied_state_space,4.2839,-0.7324220634672112,False,True,82,-3098.216756554014,-3899.2070011593582,-3098.216756554014,0.2825139588703678,9.114825790025732e-05,82.0,13,,0.0
standard_dfm,pseudo,2005:Q3:pre_second:pseudo,2005-11-30,pre_second,S,2005:Q3,2.9173005702868537,,,not_available,4.2839,-1.3665994297131463,False,True,0,,,,,,,13,,0.0
release_dfm,pseudo,2005:Q3:pre_second:pseudo,2005-11-30,pre_second,S,2005:Q3,3.978465790622625,,,not_available,4.2839,-0.305434209377375,False,True,0,,,,,,,13,,0.0
revision_dfm_kalman_em,pseudo,2005:Q3:pre_second:pseudo,2005-11-30,pre_second,S,2005:Q3,3.9982516333274942,0.3814065276709095,0.6175811911570085,model_implied_state_space,4.2839,-0.2856483666725058,False,True,37,-1108.3403872690562,-1816.0200234110387,-1108.3403872690562,0.10464388586228779,9.432092886418609e-05,37.0,13,,0.0
indicator_revision_only_dfm_kalman_em,pseudo,2005:Q3:pre_second:pseudo,2005-11-30,pre_second,S,2005:Q3,3.8915293401504636,0.40006496274193054,0.6325068875055279,model_implied_state_space,4.2839,-0.39237065984953645,False,True,46,-1916.1611201112971,-2694.98553203983,-1916.1611201112971,0.18308989379852392,9.549140568663846e-05,46.0,13,,0.0
joint_indicator_revision_dfm_full_kalman_em,pseudo,2005:Q3:pre_second:pseudo,2005-11-30,pre_second,S,2005:Q3,4.151895295366898,0.3578105228834883,0.598172653072245,model_implied_state_space,4.2839,-0.13200470463310232,False,True,45,-1884.3955630534074,-2705.9515824846226,-1884.3955630534074,0.1817613393125157,9.639559033785836e-05,45.0,13,,0.0
ar,pseudo,2005:Q3:pre_third:pseudo,2005-12-31,pre_third,T,2005:Q3,3.0673509604805287,,,not_available,4.1425,-1.0751490395194714,False,True,0,,,,,,,13,,0.0
no_revision,pseudo,2005:Q3:pre_third:pseudo,2005-12-31,pre_third,T,2005:Q3,4.2839,,,not_available,4.1425,0.14139999999999997,False,True,0,,,,,,,13,,0.0
bridge,pseudo,2005:Q3:pre_third:pseudo,2005-12-31,pre_third,T,2005:Q3,3.4924246726879242,,,not_available,4.1425,-0.6500753273120758,False,True,0,,,,,,,13,,0.0
midas_umidas,pseudo,2005:Q3:pre_third:pseudo,2005-12-31,pre_third,T,2005:Q3,3.3176660699902745,,,not_available,4.1425,-0.8248339300097256,False,True,0,,,,,,,13,,0.0
monthly_mixed_frequency_kalman_em,pseudo,2005:Q3:pre_third:pseudo,2005-12-31,pre_third,T,2005:Q3,4.107560224715505,0.12973726952975842,0.36019060166772593,model_implied_state_space,4.1425,-0.03493977528449488,False,True,96,-3119.2500336479675,-3922.4071652481202,-3119.2500336479675,0.27944782554504854,8.955141337523702e-05,96.0,13,,0.0
standard_dfm,pseudo,2005:Q3:pre_third:pseudo,2005-12-31,pre_third,T,2005:Q3,3.028406574059412,,,not_available,4.1425,-1.1140934259405881,False,True,0,,,,,,,13,,0.0
release_dfm,pseudo,2005:Q3:pre_third:pseudo,2005-12-31,pre_third,T,2005:Q3,4.29439784843032,,,not_available,4.1425,0.15189784843031973,False,True,0,,,,,,,13,,0.0
revision_dfm_kalman_em,pseudo,2005:Q3:pre_third:pseudo,2005-12-31,pre_third,T,2005:Q3,4.274675661324416,0.1398198117823156,0.37392487451668094,model_implied_state_space,4.1425,0.13217566132441583,False,True,32,-1107.9055555906,-1820.8036933210553,-1107.9055555906,0.10446263074300077,9.419448790060567e-05,32.0,13,,0.0
indicator_revision_only_dfm_kalman_em,pseudo,2005:Q3:pre_third:pseudo,2005-12-31,pre_third,T,2005:Q3,4.26517658282609,0.14312949486957466,0.3783245893007414,model_implied_state_space,4.1425,0.12267658282608984,False,True,46,-1915.8600269439912,-2696.0172342907904,-1915.8600269439912,0.18468439972548367,9.633807632792904e-05,46.0,13,,0.0
joint_indicator_revision_dfm_full_kalman_em,pseudo,2005:Q3:pre_third:pseudo,2005-12-31,pre_third,T,2005:Q3,4.2877474743793496,0.13871367208672294,0.37244284405358485,model_implied_state_space,4.1425,0.14524747437934948,False,True,46,-1883.741574630125,-2706.958566819579,-1883.741574630125,0.17469114673167496,9.267846530024881e-05,46.0,13,,0.0
ar,exact,2005:Q4:pre_advance:exact,2006-01-26,pre_advance,A,2005:Q4,3.2464479729838,,,not_available,1.1187,2.1277479729838,False,True,0,,,,,,,13,,0.0
no_revision,exact,2005:Q4:pre_advance:exact,2006-01-26,pre_advance,A,2005:Q4,3.2478332834395918,,,not_available,1.1187,2.1291332834395917,False,True,0,,,,,,,13,,0.0
bridge,exact,2005:Q4:pre_advance:exact,2006-01-26,pre_advance,A,2005:Q4,3.4839409715421383,,,not_available,1.1187,2.3652409715421383,False,True,0,,,,,,,13,,0.0
midas_umidas,exact,2005:Q4:pre_advance:exact,2006-01-26,pre_advance,A,2005:Q4,12.327170197625122,,,not_available,1.1187,11.208470197625122,False,True,0,,,,,,,13,,0.0
monthly_mixed_frequency_kalman_em,exact,2005:Q4:pre_advance:exact,2006-01-26,pre_advance,A,2005:Q4,5.897902586197929,4.335134049061993,2.0820984724700207,model_implied_state_space,1.1187,4.779202586197929,False,True,85,-3135.1827038544343,-3938.2351540800782,-3135.1827038544343,0.27071255667806327,8.631167778918464e-05,85.0,13,,0.0
standard_dfm,exact,2005:Q4:pre_advance:exact,2006-01-26,pre_advance,A,2005:Q4,3.593739825984927,,,not_available,1.1187,2.475039825984927,False,True,0,,,,,,,13,,0.0
release_dfm,exact,2005:Q4:pre_advance:exact,2006-01-26,pre_advance,A,2005:Q4,3.593739825984927,,,not_available,1.1187,2.475039825984927,False,True,0,,,,,,,13,,0.0
revision_dfm_kalman_em,exact,2005:Q4:pre_advance:exact,2006-01-26,pre_advance,A,2005:Q4,4.208853034370785,5.629644059506575,2.3726870968390616,model_implied_state_space,1.1187,3.090153034370785,False,True,36,-1124.8046770153326,-1836.5305822230214,-1124.8046770153326,0.11206832166408276,9.953517622703065e-05,36.0,13,,0.0
indicator_revision_only_dfm_kalman_em,exact,2005:Q4:pre_advance:exact,2006-01-26,pre_advance,A,2005:Q4,6.355870839753434,5.955793129384681,2.4404493703792918,model_implied_state_space,1.1187,5.237170839753434,False,True,37,-1945.562235307996,-2736.81884402488,-1945.562235307996,0.19223554592213077,9.874668264550546e-05,37.0,13,,0.0
joint_indicator_revision_dfm_full_kalman_em,exact,2005:Q4:pre_advance:exact,2006-01-26,pre_advance,A,2005:Q4,5.81384931435162,4.674126719116229,2.1619728765912463,model_implied_state_space,1.1187,4.695149314351619,False,True,34,-1914.6330737880123,-2747.6443121926723,-1914.6330737880123,0.18224009880782432,9.51240432659943e-05,34.0,13,,0.0
ar,exact,2005:Q4:pre_second:exact,2006-02-27,pre_second,S,2005:Q4,3.4737475066981256,,,not_available,1.6274,1.8463475066981256,False,True,0,,,,,,,13,,0.0
no_revision,exact,2005:Q4:pre_second:exact,2006-02-27,pre_second,S,2005:Q4,1.1187,,,not_available,1.6274,-0.5086999999999999,False,True,0,,,,,,,13,,0.0
bridge,exact,2005:Q4:pre_second:exact,2006-02-27,pre_second,S,2005:Q4,4.076053773320742,,,not_available,1.6274,2.448653773320742,False,True,0,,,,,,,13,,0.0
midas_umidas,exact,2005:Q4:pre_second:exact,2006-02-27,pre_second,S,2005:Q4,-0.5649122578015284,,,not_available,1.6274,-2.1923122578015284,False,True,0,,,,,,,13,,0.0
monthly_mixed_frequency_kalman_em,exact,2005:Q4:pre_second:exact,2006-02-27,pre_second,S,2005:Q4,1.521362922969417,0.33383016907835716,0.577780381354678,model_implied_state_space,1.6274,-0.10603707703058296,False,True,91,-3157.074167598244,-3962.9089011673764,-3157.074167598244,0.2747209613398809,8.698246173340648e-05,91.0,13,,0.0
standard_dfm,exact,2005:Q4:pre_second:exact,2006-02-27,pre_second,S,2005:Q4,4.011089933926364,,,not_available,1.6274,2.383689933926364,False,True,0,,,,,,,13,,0.0
release_dfm,exact,2005:Q4:pre_second:exact,2006-02-27,pre_second,S,2005:Q4,1.2384132484984514,,,not_available,1.6274,-0.3889867515015486,False,True,0,,,,,,,13,,0.0
revision_dfm_kalman_em,exact,2005:Q4:pre_second:exact,2006-02-27,pre_second,S,2005:Q4,1.165970874280403,0.38000004182714625,0.6164414342231922,model_implied_state_space,1.6274,-0.46142912571959704,False,True,36,-1126.8923592050126,-1838.0350951835421,-1126.8923592050126,0.11142969710590478,9.878486065579519e-05,36.0,13,,0.0
indicator_revision_only_dfm_kalman_em,exact,2005:Q4:pre_second:exact,2006-02-27,pre_second,S,2005:Q4,1.4291355165534956,0.40908577262030327,0.6395981336904473,model_implied_state_space,1.6274,-0.19826448344650438,False,True,34,-1949.5431926521935,-2738.423885203289,-1949.5431926521935,0.19062827597531395,9.77213159120869e-05,34.0,13,,0.0
joint_indicator_revision_dfm_full_kalman_em,exact,2005:Q4:pre_second:exact,2006-02-27,pre_second,S,2005:Q4,1.1189947812261802,0.3614484905208783,0.6012058636780568,model_implied_state_space,1.6274,-0.5084052187738197,False,True,33,-1918.048292085491,-2749.3412706939666,-1918.048292085491,0.1799746511592275,9.37744896104758e-05,33.0,13,,0.0
ar,exact,2005:Q4:pre_third:exact,2006-03-29,pre_third,T,2005:Q4,3.434949731336563,,,not_available,1.6527,1.7822497313365628,False,True,0,,,,,,,13,,0.0
no_revision,exact,2005:Q4:pre_third:exact,2006-03-29,pre_third,T,2005:Q4,1.6274,,,not_available,1.6527,-0.0253000000000001,False,True,0,,,,,,,13,,0.0
bridge,exact,2005:Q4:pre_third:exact,2006-03-29,pre_third,T,2005:Q4,4.0602604490807135,,,not_available,1.6527,2.407560449080713,False,True,0,,,,,,,13,,0.0
midas_umidas,exact,2005:Q4:pre_third:exact,2006-03-29,pre_third,T,2005:Q4,4.1201324831483594,,,not_available,1.6527,2.467432483148359,False,True,0,,,,,,,13,,0.0
monthly_mixed_frequency_kalman_em,exact,2005:Q4:pre_third:exact,2006-03-29,pre_third,T,2005:Q4,1.8259314470879333,0.12911652731343864,0.35932788273864674,model_implied_state_space,1.6527,0.17323144708793325,False,True,93,-3174.0939854273806,-3982.073526693848,-3174.0939854273806,0.2831840431981618,8.9181230475804e-05,93.0,13,,0.0
standard_dfm,exact,2005:Q4:pre_third:exact,2006-03-29,pre_third,T,2005:Q4,4.1259477507131495,,,not_available,1.6527,2.473247750713149,False,True,0,,,,,,,13,,0.0
release_dfm,exact,2005:Q4:pre_third:exact,2006-03-29,pre_third,T,2005:Q4,1.614435166027049,,,not_available,1.6527,-0.038264833972950996,False,True,0,,,,,,,13,,0.0
revision_dfm_kalman_em,exact,2005:Q4:pre_third:exact,2006-03-29,pre_third,T,2005:Q4,1.6048662786806456,0.13922601556522907,0.37313002501169623,model_implied_state_space,1.6527,-0.04783372131935448,False,True,36,-1126.768310205399,-1839.2129515149836,-1126.768310205399,0.11056112407572982,9.802570726890833e-05,36.0,13,,0.0
indicator_revision_only_dfm_kalman_em,exact,2005:Q4:pre_third:exact,2006-03-29,pre_third,T,2005:Q4,1.6163476951022755,0.14268676144136863,0.37773901233704815,model_implied_state_space,1.6527,-0.03635230489772456,False,True,34,-1949.104540025899,-2739.4994633580154,-1949.104540025899,0.19372995979847474,9.933350338248285e-05,34.0,13,,0.0
joint_indicator_revision_dfm_full_kalman_em,exact,2005:Q4:pre_third:exact,2006-03-29,pre_third,T,2005:Q4,1.593244672379384,0.13743318588171075,0.37071982126898845,model_implied_state_space,1.6527,-0.059455327620616005,False,True,33,-1917.9373308724898,-2750.3891514094335,-1917.9373308724898,0.17802170341769852,9.276237782098465e-05,33.0,13,,0.0
ar,pseudo,2005:Q4:pre_advance:pseudo,2006-01-31,pre_advance,A,2005:Q4,3.2464479729838,,,not_available,1.1187,2.1277479729838,False,True,0,,,,,,,13,,0.0
no_revision,pseudo,2005:Q4:pre_advance:pseudo,2006-01-31,pre_advance,A,2005:Q4,3.2478332834395918,,,not_available,1.1187,2.1291332834395917,False,True,0,,,,,,,13,,0.0
bridge,pseudo,2005:Q4:pre_advance:pseudo,2006-01-31,pre_advance,A,2005:Q4,3.496905730222601,,,not_available,1.1187,2.378205730222601,False,True,0,,,,,,,13,,0.0
midas_umidas,pseudo,2005:Q4:pre_advance:pseudo,2006-01-31,pre_advance,A,2005:Q4,12.362913455034136,,,not_available,1.1187,11.244213455034135,False,True,0,,,,,,,13,,0.0
monthly_mixed_frequency_kalman_em,pseudo,2005:Q4:pre_advance:pseudo,2006-01-31,pre_advance,A,2005:Q4,5.896871162263869,4.3353436775365966,2.082148812533964,model_implied_state_space,1.1187,4.7781711622638685,False,True,85,-3135.158157740602,-3938.2396753663907,-3135.158157740602,0.26850644962360093,8.560903166946036e-05,85.0,13,,0.0
standard_dfm,pseudo,2005:Q4:pre_advance:pseudo,2006-01-31,pre_advance,A,2005:Q4,3.593304057725815,,,not_available,1.1187,2.474604057725815,False,True,0,,,,,,,13,,0.0
release_dfm,pseudo,2005:Q4:pre_advance:pseudo,2006-01-31,pre_advance,A,2005:Q4,3.593304057725815,,,not_available,1.1187,2.474604057725815,False,True,0,,,,,,,13,,0.0
revision_dfm_kalman_em,pseudo,2005:Q4:pre_advance:pseudo,2006-01-31,pre_advance,A,2005:Q4,4.208426735967866,5.629525251647602,2.3726620601441755,model_implied_state_space,1.1187,3.0897267359678664,False,True,36,-1124.8054672236908,-1836.5302948490655,-1124.8054672236908,0.1120702215230267,9.953679358909528e-05,36.0,13,,0.0
indicator_revision_only_dfm_kalman_em,pseudo,2005:Q4:pre_advance:pseudo,2006-01-31,pre_advance,A,2005:Q4,6.355255813412801,5.955718148314468,2.4404340081867546,model_implied_state_space,1.1187,5.236555813412801,False,True,37,-1945.560263348714,-2736.8169992113294,-1945.560263348714,0.19227142241288675,9.876520974222923e-05,37.0,13,,0.0
joint_indicator_revision_dfm_full_kalman_em,pseudo,2005:Q4:pre_advance:pseudo,2006-01-31,pre_advance,A,2005:Q4,5.813153924448592,4.674089608932847,2.161964294092954,model_implied_state_space,1.1187,4.694453924448592,False,True,34,-1914.6315190163207,-2747.6424725590027,-1914.6315190163207,0.182238704295969,9.512339263749294e-05,34.0,13,,0.0
ar,pseudo,2005:Q4:pre_second:pseudo,2006-02-28,pre_second,S,2005:Q4,3.4737475066981256,,,not_available,1.6274,1.8463475066981256,False,True,0,,,,,,,13,,0.0
no_revision,pseudo,2005:Q4:pre_second:pseudo,2006-02-28,pre_second,S,2005:Q4,1.1187,,,not_available,1.6274,-0.5086999999999999,False,True,0,,,,,,,13,,0.0
bridge,pseudo,2005:Q4:pre_second:pseudo,2006-02-28,pre_second,S,2005:Q4,4.076053773320742,,,not_available,1.6274,2.448653773320742,False,True,0,,,,,,,13,,0.0
midas_umidas,pseudo,2005:Q4:pre_second:pseudo,2006-02-28,pre_second,S,2005:Q4,-0.5649122578015284,,,not_available,1.6274,-2.1923122578015284,False,True,0,,,,,,,13,,0.0
monthly_mixed_frequency_kalman_em,pseudo,2005:Q4:pre_second:pseudo,2006-02-28,pre_second,S,2005:Q4,1.521362922969417,0.33383016907835716,0.577780381354678,model_implied_state_space,1.6274,-0.10603707703058296,False,True,91,-3157.074167598244,-3962.9089011673764,-3157.074167598244,0.2747209613398809,8.698246173340648e-05,91.0,13,,0.0
standard_dfm,pseudo,2005:Q4:pre_second:pseudo,2006-02-28,pre_second,S,2005:Q4,4.011089933926364,,,not_available,1.6274,2.383689933926364,False,True,0,,,,,,,13,,0.0
release_dfm,pseudo,2005:Q4:pre_second:pseudo,2006-02-28,pre_second,S,2005:Q4,1.2384132484984514,,,not_available,1.6274,-0.3889867515015486,False,True,0,,,,,,,13,,0.0
revision_dfm_kalman_em,pseudo,2005:Q4:pre_second:pseudo,2006-02-28,pre_second,S,2005:Q4,1.165970874280403,0.38000004182714625,0.6164414342231922,model_implied_state_space,1.6274,-0.46142912571959704,False,True,36,-1126.8923592050126,-1838.0350951835421,-1126.8923592050126,0.11142969710590478,9.878486065579519e-05,36.0,13,,0.0
indicator_revision_only_dfm_kalman_em,pseudo,2005:Q4:pre_second:pseudo,2006-02-28,pre_second,S,2005:Q4,1.4291355165534956,0.40908577262030327,0.6395981336904473,model_implied_state_space,1.6274,-0.19826448344650438,False,True,34,-1949.5431926521935,-2738.423885203289,-1949.5431926521935,0.19062827597531395,9.77213159120869e-05,34.0,13,,0.0
joint_indicator_revision_dfm_full_kalman_em,pseudo,2005:Q4:pre_second:pseudo,2006-02-28,pre_second,S,2005:Q4,1.1189947812261802,0.3614484905208783,0.6012058636780568,model_implied_state_space,1.6274,-0.5084052187738197,False,True,33,-1918.048292085491,-2749.3412706939666,-1918.048292085491,0.1799746511592275,9.37744896104758e-05,33.0,13,,0.0
ar,pseudo,2005:Q4:pre_third:pseudo,2006-03-31,pre_third,T,2005:Q4,3.434949731336563,,,not_available,1.6527,1.7822497313365628,False,True,0,,,,,,,13,,0.0
no_revision,pseudo,2005:Q4:pre_third:pseudo,2006-03-31,pre_third,T,2005:Q4,1.6274,,,not_available,1.6527,-0.0253000000000001,False,True,0,,,,,,,13,,0.0
bridge,pseudo,2005:Q4:pre_third:pseudo,2006-03-31,pre_third,T,2005:Q4,4.005852251483771,,,not_available,1.6527,2.3531522514837704,False,True,0,,,,,,,13,,0.0
midas_umidas,pseudo,2005:Q4:pre_third:pseudo,2006-03-31,pre_third,T,2005:Q4,3.9813562507240245,,,not_available,1.6527,2.3286562507240243,False,True,0,,,,,,,13,,0.0
monthly_mixed_frequency_kalman_em,pseudo,2005:Q4:pre_third:pseudo,2006-03-31,pre_third,T,2005:Q4,1.8270205350089244,0.1295558431041076,0.3599386657530802,model_implied_state_space,1.6527,0.1743205350089243,False,True,91,-3173.489760747418,-3982.3157658604555,-3173.489760747418,0.287818480317128,9.065784078868916e-05,91.0,13,,0.0
standard_dfm,pseudo,2005:Q4:pre_third:pseudo,2006-03-31,pre_third,T,2005:Q4,4.130967524639935,,,not_available,1.6527,2.478267524639935,False,True,0,,,,,,,13,,0.0
release_dfm,pseudo,2005:Q4:pre_third:pseudo,2006-03-31,pre_third,T,2005:Q4,1.6154042763820449,,,not_available,1.6527,-0.03729572361795519,False,True,0,,,,,,,13,,0.0
revision_dfm_kalman_em,pseudo,2005:Q4:pre_third:pseudo,2006-03-31,pre_third,T,2005:Q4,1.6048385920118389,0.13922337822104405,0.37312649091299327,model_implied_state_space,1.6527,-0.047861407988161186,False,True,36,-1126.7806561595544,-1839.3169223606624,-1126.7806561595544,0.110139913760122,9.765122132707141e-05,36.0,13,,0.0
indicator_revision_only_dfm_kalman_em,pseudo,2005:Q4:pre_third:pseudo,2006-03-31,pre_third,T,2005:Q4,1.616340829520074,0.14268694305056012,0.3777392527267455,model_implied_state_space,1.6527,-0.036359170479925984,False,True,34,-1949.136870059889,-2739.6552122361068,-1949.136870059889,0.19364925064746785,9.929047857792075e-05,34.0,13,,0.0
joint_indicator_revision_dfm_full_kalman_em,pseudo,2005:Q4:pre_third:pseudo,2006-03-31,pre_third,T,2005:Q4,1.593320756581294,0.13743223193770163,0.3707185346562829,model_implied_state_space,1.6527,-0.05937924341870615,False,True,33,-1917.9690339149583,-2750.5439396433153,-1917.9690339149583,0.17790530944694183,9.270020226738846e-05,33.0,13,,0.0
ar,exact,2006:Q1:pre_advance:exact,2006-04-27,pre_advance,A,2006:Q1,1.9162734650651858,,,not_available,4.8178,-2.9015265349348143,False,True,0,,,,,,,13,,0.0
no_revision,exact,2006:Q1:pre_advance:exact,2006-04-27,pre_advance,A,2006:Q1,1.9412571709533264,,,not_available,4.8178,-2.8765428290466737,False,True,0,,,,,,,13,,0.0
bridge,exact,2006:Q1:pre_advance:exact,2006-04-27,pre_advance,A,2006:Q1,2.213341110458662,,,not_available,4.8178,-2.604458889541338,False,True,0,,,,,,,13,,0.0
midas_umidas,exact,2006:Q1:pre_advance:exact,2006-04-27,pre_advance,A,2006:Q1,25.435897295723727,,,not_available,4.8178,20.61809729572373,False,True,0,,,,,,,13,,0.0
monthly_mixed_frequency_kalman_em,exact,2006:Q1:pre_advance:exact,2006-04-27,pre_advance,A,2006:Q1,3.5270125253927995,4.786456326383375,2.187797140135112,model_implied_state_space,4.8178,-1.2907874746072006,False,True,83,-3189.1160221251885,-3998.9295295570887,-3189.1160221251885,0.27297654777294156,8.556215178979298e-05,83.0,13,,0.0
standard_dfm,exact,2006:Q1:pre_advance:exact,2006-04-27,pre_advance,A,2006:Q1,3.2292499067701845,,,not_available,4.8178,-1.5885500932298156,False,True,0,,,,,,,13,,0.0
release_dfm,exact,2006:Q1:pre_advance:exact,2006-04-27,pre_advance,A,2006:Q1,3.2292499067701845,,,not_available,4.8178,-1.5885500932298156,False,True,0,,,,,,,13,,0.0
revision_dfm_kalman_em,exact,2006:Q1:pre_advance:exact,2006-04-27,pre_advance,A,2006:Q1,2.5462065092509443,5.982937573831077,2.4460044100187304,model_implied_state_space,4.8178,-2.271593490749056,False,True,36,-1143.4579337681996,-1859.0817515817405,-1143.4579337681996,0.10431453009573488,9.113923707585756e-05,36.0,13,,0.0
indicator_revision_only_dfm_kalman_em,exact,2006:Q1:pre_advance:exact,2006-04-27,pre_advance,A,2006:Q1,4.288696995177331,7.039271811120267,2.653162605480536,model_implied_state_space,4.8178,-0.5291030048226695,False,True,33,-1978.8942479545344,-2772.8836456345325,-1978.8942479545344,0.19501467730378863,9.848782122306174e-05,33.0,13,,0.0
joint_indicator_revision_dfm_full_kalman_em,exact,2006:Q1:pre_advance:exact,2006-04-27,pre_advance,A,2006:Q1,3.6121568646216238,5.512617387582272,2.3478963749668065,model_implied_state_space,4.8178,-1.2056431353783763,False,True,33,-1948.2274721473636,-2783.8609562548745,-1948.2274721473636,0.17719233661364342,9.089561538550418e-05,33.0,13,,0.0
ar,exact,2006:Q1:pre_second:exact,2006-05-24,pre_second,S,2006:Q1,2.270568285238669,,,not_available,5.3086,-3.038031714761331,False,True,0,,,,,,,13,,0.0
no_revision,exact,2006:Q1:pre_second:exact,2006-05-24,pre_second,S,2006:Q1,4.8178,,,not_available,5.3086,-0.4908000000000001,False,True,0,,,,,,,13,,0.0
bridge,exact,2006:Q1:pre_second:exact,2006-05-24,pre_second,S,2006:Q1,2.4034774071399516,,,not_available,5.3086,-2.9051225928600486,False,True,0,,,,,,,13,,0.0
midas_umidas,exact,2006:Q1:pre_second:exact,2006-05-24,pre_second,S,2006:Q1,5.427090905632891,,,not_available,5.3086,0.11849090563289089,False,True,0,,,,,,,13,,0.0
monthly_mixed_frequency_kalman_em,exact,2006:Q1:pre_second:exact,2006-05-24,pre_second,S,2006:Q1,5.003308930318216,0.33547623774085333,0.5792031057762496,model_implied_state_space,5.3086,-0.3052910696817843,False,True,80,-3206.4227598324646,-4017.8564984300415,-3206.4227598324646,0.3149101883896037,9.81720517025809e-05,80.0,13,,0.0
standard_dfm,exact,2006:Q1:pre_second:exact,2006-05-24,pre_second,S,2006:Q1,3.4622736293107423,,,not_available,5.3086,-1.8463263706892579,False,True,0,,,,,,,13,,0.0
release_dfm,exact,2006:Q1:pre_second:exact,2006-05-24,pre_second,S,2006:Q1,5.058042305107192,,,not_available,5.3086,-0.2505576948928079,False,True,0,,,,,,,13,,0.0
revision_dfm_kalman_em,exact,2006:Q1:pre_second:exact,2006-05-24,pre_second,S,2006:Q1,5.063615945494158,0.37837366006014994,0.6151208499637693,model_implied_state_space,5.3086,-0.24498405450584215,False,True,31,-1143.2388291041077,-1863.659291194877,-1143.2388291041077,0.10806787636352055,9.443629082114318e-05,31.0,13,,0.0
indicator_revision_only_dfm_kalman_em,exact,2006:Q1:pre_second:exact,2006-05-24,pre_second,S,2006:Q1,4.813316571042607,0.4071719001062042,0.6381002273202887,model_implied_state_space,5.3086,-0.49528342895739286,False,True,33,-1981.1235653894655,-2776.8173607316467,-1981.1235653894655,0.19272502784974677,9.722213795114123e-05,33.0,13,,0.0
joint_indicator_revision_dfm_full_kalman_em,exact,2006:Q1:pre_second:exact,2006-05-24,pre_second,S,2006:Q1,5.344884105628212,0.3621299216363375,0.6017723171070081,model_implied_state_space,5.3086,0.03628410562821216,False,True,32,-1949.7666018750551,-2787.799653947984,-1949.7666018750551,0.1925747150139614,9.87077112246643e-05,32.0,13,,0.0
ar,exact,2006:Q1:pre_third:exact,2006-06-28,pre_third,T,2006:Q1,2.346837837693795,,,not_available,5.638,-3.291162162306205,False,True,0,,,,,,,13,,0.0
no_revision,exact,2006:Q1:pre_third:exact,2006-06-28,pre_third,T,2006:Q1,5.3086,,,not_available,5.638,-0.3293999999999997,False,True,0,,,,,,,13,,0.0
bridge,exact,2006:Q1:pre_third:exact,2006-06-28,pre_third,T,2006:Q1,2.6577374910833718,,,not_available,5.638,-2.980262508916628,False,True,0,,,,,,,13,,0.0
midas_umidas,exact,2006:Q1:pre_third:exact,2006-06-28,pre_third,T,2006:Q1,6.021006258694043,,,not_available,5.638,0.38300625869404303,False,True,0,,,,,,,13,,0.0
monthly_mixed_frequency_kalman_em,exact,2006:Q1:pre_third:exact,2006-06-28,pre_third,T,2006:Q1,5.374756059351594,0.1313248241416936,0.3623876710674545,model_implied_state_space,5.638,-0.2632439406484055,False,True,83,-3224.246887075589,-4042.260650647183,-3224.246887075589,0.2801228168095804,8.684559637865973e-05,83.0,13,,0.0
standard_dfm,exact,2006:Q1:pre_third:exact,2006-06-28,pre_third,T,2006:Q1,3.5049689406413282,,,not_available,5.638,-2.1330310593586717,False,True,0,,,,,,,13,,0.0
release_dfm,exact,2006:Q1:pre_third:exact,2006-06-28,pre_third,T,2006:Q1,5.357868818750799,,,not_available,5.638,-0.28013118124920133,False,True,0,,,,,,,13,,0.0
revision_dfm_kalman_em,exact,2006:Q1:pre_third:exact,2006-06-28,pre_third,T,2006:Q1,5.30354548759234,0.13821747727752423,0.3717761117628784,model_implied_state_space,5.638,-0.33445451240766033,False,True,31,-1143.7250663788973,-1865.793066033537,-1143.7250663788973,0.10646952702063572,9.300016961568516e-05,31.0,13,,0.0
indicator_revision_only_dfm_kalman_em,exact,2006:Q1:pre_third:exact,2006-06-28,pre_third,T,2006:Q1,5.2813788711432,0.14177007145013767,0.3765236665206288,model_implied_state_space,5.638,-0.35662112885679953,False,True,35,-1981.2463872669998,-2778.948675317715,-1981.2463872669998,0.19533469331804554,9.853237608664267e-05,35.0,13,,0.0
joint_indicator_revision_dfm_full_kalman_em,exact,2006:Q1:pre_third:exact,2006-06-28,pre_third,T,2006:Q1,5.328072968738802,0.13650908721804633,0.36947136183748575,model_implied_state_space,5.638,-0.30992703126119814,False,True,33,-1949.7872296942542,-2789.8953506212783,-1949.7872296942542,0.1843064057495667,9.446903880412095e-05,33.0,13,,0.0
ar,pseudo,2006:Q1:pre_advance:pseudo,2006-04-30,pre_advance,A,2006:Q1,1.9162734650651858,,,not_available,4.8178,-2.9015265349348143,False,True,0,,,,,,,13,,0.0
no_revision,pseudo,2006:Q1:pre_advance:pseudo,2006-04-30,pre_advance,A,2006:Q1,1.9412571709533264,,,not_available,4.8178,-2.8765428290466737,False,True,0,,,,,,,13,,0.0
bridge,pseudo,2006:Q1:pre_advance:pseudo,2006-04-30,pre_advance,A,2006:Q1,2.213341110458662,,,not_available,4.8178,-2.604458889541338,False,True,0,,,,,,,13,,0.0
midas_umidas,pseudo,2006:Q1:pre_advance:pseudo,2006-04-30,pre_advance,A,2006:Q1,25.435897295723727,,,not_available,4.8178,20.61809729572373,False,True,0,,,,,,,13,,0.0
monthly_mixed_frequency_kalman_em,pseudo,2006:Q1:pre_advance:pseudo,2006-04-30,pre_advance,A,2006:Q1,3.5270125253927995,4.786456326383375,2.187797140135112,model_implied_state_space,4.8178,-1.2907874746072006,False,True,83,-3189.1160221251885,-3998.9295295570887,-3189.1160221251885,0.27297654777294156,8.556215178979298e-05,83.0,13,,0.0
standard_dfm,pseudo,2006:Q1:pre_advance:pseudo,2006-04-30,pre_advance,A,2006:Q1,3.2292499067701845,,,not_available,4.8178,-1.5885500932298156,False,True,0,,,,,,,13,,0.0
release_dfm,pseudo,2006:Q1:pre_advance:pseudo,2006-04-30,pre_advance,A,2006:Q1,3.2292499067701845,,,not_available,4.8178,-1.5885500932298156,False,True,0,,,,,,,13,,0.0
revision_dfm_kalman_em,pseudo,2006:Q1:pre_advance:pseudo,2006-04-30,pre_advance,A,2006:Q1,2.5462065092509443,5.982937573831077,2.4460044100187304,model_implied_state_space,4.8178,-2.271593490749056,False,True,36,-1143.4579337681996,-1859.0817515817405,-1143.4579337681996,0.10431453009573488,9.113923707585756e-05,36.0,13,,0.0
indicator_revision_only_dfm_kalman_em,pseudo,2006:Q1:pre_advance:pseudo,2006-04-30,pre_advance,A,2006:Q1,4.288696995177331,7.039271811120267,2.653162605480536,model_implied_state_space,4.8178,-0.5291030048226695,False,True,33,-1978.8942479545344,-2772.8836456345325,-1978.8942479545344,0.19501467730378863,9.848782122306174e-05,33.0,13,,0.0
joint_indicator_revision_dfm_full_kalman_em,pseudo,2006:Q1:pre_advance:pseudo,2006-04-30,pre_advance,A,2006:Q1,3.6121568646216238,5.512617387582272,2.3478963749668065,model_implied_state_space,4.8178,-1.2056431353783763,False,True,33,-1948.2274721473636,-2783.8609562548745,-1948.2274721473636,0.17719233661364342,9.089561538550418e-05,33.0,13,,0.0
ar,pseudo,2006:Q1:pre_second:pseudo,2006-05-31,pre_second,S,2006:Q1,2.270568285238669,,,not_available,5.3086,-3.038031714761331,False,True,0,,,,,,,13,,0.0
no_revision,pseudo,2006:Q1:pre_second:pseudo,2006-05-31,pre_second,S,2006:Q1,4.8178,,,not_available,5.3086,-0.4908000000000001,False,True,0,,,,,,,13,,0.0
bridge,pseudo,2006:Q1:pre_second:pseudo,2006-05-31,pre_second,S,2006:Q1,2.4034774071399516,,,not_available,5.3086,-2.9051225928600486,False,True,0,,,,,,,13,,0.0
midas_umidas,pseudo,2006:Q1:pre_second:pseudo,2006-05-31,pre_second,S,2006:Q1,5.427090905632891,,,not_available,5.3086,0.11849090563289089,False,True,0,,,,,,,13,,0.0
monthly_mixed_frequency_kalman_em,pseudo,2006:Q1:pre_second:pseudo,2006-05-31,pre_second,S,2006:Q1,5.003308930318216,0.33547623774085333,0.5792031057762496,model_implied_state_space,5.3086,-0.3052910696817843,False,True,80,-3206.4227598324646,-4017.8564984300415,-3206.4227598324646,0.3149101883896037,9.81720517025809e-05,80.0,13,,0.0
standard_dfm,pseudo,2006:Q1:pre_second:pseudo,2006-05-31,pre_second,S,2006:Q1,3.4622736293107423,,,not_available,5.3086,-1.8463263706892579,False,True,0,,,,,,,13,,0.0
release_dfm,pseudo,2006:Q1:pre_second:pseudo,2006-05-31,pre_second,S,2006:Q1,5.058042305107192,,,not_available,5.3086,-0.2505576948928079,False,True,0,,,,,,,13,,0.0
revision_dfm_kalman_em,pseudo,2006:Q1:pre_second:pseudo,2006-05-31,pre_second,S,2006:Q1,5.063615945494158,0.37837366006014994,0.6151208499637693,model_implied_state_space,5.3086,-0.24498405450584215,False,True,31,-1143.2388291041077,-1863.659291194877,-1143.2388291041077,0.10806787636352055,9.443629082114318e-05,31.0,13,,0.0
indicator_revision_only_dfm_kalman_em,pseudo,2006:Q1:pre_second:pseudo,2006-05-31,pre_second,S,2006:Q1,4.813316571042607,0.4071719001062042,0.6381002273202887,model_implied_state_space,5.3086,-0.49528342895739286,False,True,33,-1981.1235653894655,-2776.8173607316467,-1981.1235653894655,0.19272502784974677,9.722213795114123e-05,33.0,13,,0.0
joint_indicator_revision_dfm_full_kalman_em,pseudo,2006:Q1:pre_second:pseudo,2006-05-31,pre_second,S,2006:Q1,5.344884105628212,0.3621299216363375,0.6017723171070081,model_implied_state_space,5.3086,0.03628410562821216,False,True,32,-1949.7666018750551,-2787.799653947984,-1949.7666018750551,0.1925747150139614,9.87077112246643e-05,32.0,13,,0.0
ar,pseudo,2006:Q1:pre_third:pseudo,2006-06-30,pre_third,T,2006:Q1,2.346837837693795,,,not_available,5.638,-3.291162162306205,False,True,0,,,,,,,13,,0.0
no_revision,pseudo,2006:Q1:pre_third:pseudo,2006-06-30,pre_third,T,2006:Q1,5.3086,,,not_available,5.638,-0.3293999999999997,False,True,0,,,,,,,13,,0.0
bridge,pseudo,2006:Q1:pre_third:pseudo,2006-06-30,pre_third,T,2006:Q1,2.6577374910833718,,,not_available,5.638,-2.980262508916628,False,True,0,,,,,,,13,,0.0
midas_umidas,pseudo,2006:Q1:pre_third:pseudo,2006-06-30,pre_third,T,2006:Q1,6.021006258694043,,,not_available,5.638,0.38300625869404303,False,True,0,,,,,,,13,,0.0
monthly_mixed_frequency_kalman_em,pseudo,2006:Q1:pre_third:pseudo,2006-06-30,pre_third,T,2006:Q1,5.374756059351594,0.1313248241416936,0.3623876710674545,model_implied_state_space,5.638,-0.2632439406484055,False,True,83,-3224.246887075589,-4042.260650647183,-3224.246887075589,0.2801228168095804,8.684559637865973e-05,83.0,13,,0.0
standard_dfm,pseudo,2006:Q1:pre_third:pseudo,2006-06-30,pre_third,T,2006:Q1,3.5049689406413282,,,not_available,5.638,-2.1330310593586717,False,True,0,,,,,,,13,,0.0
release_dfm,pseudo,2006:Q1:pre_third:pseudo,2006-06-30,pre_third,T,2006:Q1,5.357868818750799,,,not_available,5.638,-0.28013118124920133,False,True,0,,,,,,,13,,0.0
revision_dfm_kalman_em,pseudo,2006:Q1:pre_third:pseudo,2006-06-30,pre_third,T,2006:Q1,5.30354548759234,0.13821747727752423,0.3717761117628784,model_implied_state_space,5.638,-0.33445451240766033,False,True,31,-1143.7250663788973,-1865.793066033537,-1143.7250663788973,0.10646952702063572,9.300016961568516e-05,31.0,13,,0.0
indicator_revision_only_dfm_kalman_em,pseudo,2006:Q1:pre_third:pseudo,2006-06-30,pre_third,T,2006:Q1,5.2813788711432,0.14177007145013767,0.3765236665206288,model_implied_state_space,5.638,-0.35662112885679953,False,True,35,-1981.2463872669998,-2778.948675317715,-1981.2463872669998,0.19533469331804554,9.853237608664267e-05,35.0,13,,0.0
joint_indicator_revision_dfm_full_kalman_em,pseudo,2006:Q1:pre_third:pseudo,2006-06-30,pre_third,T,2006:Q1,5.328072968738802,0.13650908721804633,0.36947136183748575,model_implied_state_space,5.638,-0.30992703126119814,False,True,33,-1949.7872296942542,-2789.8953506212783,-1949.7872296942542,0.1843064057495667,9.446903880412095e-05,33.0,13,,0.0
ar,exact,2006:Q2:pre_advance:exact,2006-07-27,pre_advance,A,2006:Q2,3.740059135204821,,,not_available,2.4577,1.2823591352048211,False,True,0,,,,,,,13,,0.0
no_revision,exact,2006:Q2:pre_advance:exact,2006-07-27,pre_advance,A,2006:Q2,3.697855652198896,,,not_available,2.4577,1.240155652198896,False,True,0,,,,,,,13,,0.0
bridge,exact,2006:Q2:pre_advance:exact,2006-07-27,pre_advance,A,2006:Q2,1.5213527369938808,,,not_available,2.4577,-0.9363472630061191,False,True,0,,,,,,,13,,0.0
midas_umidas,exact,2006:Q2:pre_advance:exact,2006-07-27,pre_advance,A,2006:Q2,-12.42670128338963,,,not_available,2.4577,-14.884401283389629,False,True,0,,,,,,,13,,0.0
monthly_mixed_frequency_kalman_em,exact,2006:Q2:pre_advance:exact,2006-07-27,pre_advance,A,2006:Q2,4.804215870722235,4.876041189521183,2.2081759869904354,model_implied_state_space,2.4577,2.346515870722235,False,True,84,-3242.4480402604686,-4062.640507889376,-3242.4480402604686,0.3225366743859013,9.943264072968958e-05,84.0,13,,0.0
standard_dfm,exact,2006:Q2:pre_advance:exact,2006-07-27,pre_advance,A,2006:Q2,3.463575640485881,,,not_available,2.4577,1.0058756404858809,False,True,0,,,,,,,13,,0.0
release_dfm,exact,2006:Q2:pre_advance:exact,2006-07-27,pre_advance,A,2006:Q2,3.463575640485881,,,not_available,2.4577,1.0058756404858809,False,True,0,,,,,,,13,,0.0
revision_dfm_kalman_em,exact,2006:Q2:pre_advance:exact,2006-07-27,pre_advance,A,2006:Q2,3.7036049995147335,5.889829783688659,2.4268971514443414,model_implied_state_space,2.4577,1.2459049995147335,False,True,31,-1159.9886874383635,-1884.781083250096,-1159.9886874383635,0.1061849279233229,9.145241310636423e-05,31.0,13,,0.0
indicator_revision_only_dfm_kalman_em,exact,2006:Q2:pre_advance:exact,2006-07-27,pre_advance,A,2006:Q2,4.651074736191045,6.288513303434507,2.5076908309108816,model_implied_state_space,2.4577,2.1933747361910454,False,True,39,-2015.4500378211792,-2815.340773554568,-2015.4500378211792,0.19736583077133218,9.786828893039112e-05,39.0,13,,0.0
joint_indicator_revision_dfm_full_kalman_em,exact,2006:Q2:pre_advance:exact,2006-07-27,pre_advance,A,2006:Q2,3.97147598631811,5.057321965795082,2.2488490313480543,model_implied_state_space,2.4577,1.5137759863181102,False,True,35,-1984.160783012493,-2826.283227313554,-1984.160783012493,0.1963071182829026,9.887748620071757e-05,35.0,13,,0.0
ar,exact,2006:Q2:pre_second:exact,2006-08-29,pre_second,S,2006:Q2,3.932818675395525,,,not_available,2.9012,1.0316186753955252,False,True,0,,,,,,,13,,0.0
no_revision,exact,2006:Q2:pre_second:exact,2006-08-29,pre_second,S,2006:Q2,2.4577,,,not_available,2.9012,-0.4434999999999998,False,True,0,,,,,,,13,,0.0
bridge,exact,2006:Q2:pre_second:exact,2006-08-29,pre_second,S,2006:Q2,1.499435175185744,,,not_available,2.9012,-1.4017648248142558,False,True,0,,,,,,,13,,0.0
midas_umidas,exact,2006:Q2:pre_second:exact,2006-08-29,pre_second,S,2006:Q2,2.814357793226411,,,not_available,2.9012,-0.08684220677358878,False,True,0,,,,,,,13,,0.0
monthly_mixed_frequency_kalman_em,exact,2006:Q2:pre_second:exact,2006-08-29,pre_second,S,2006:Q2,2.814024350597734,0.3297155380888493,0.5742086189607827,model_implied_state_space,2.9012,-0.08717564940226596,False,True,84,-3260.8449272879575,-4082.4020873898817,-3260.8449272879575,0.2780120769830319,8.522427944949075e-05,84.0,13,,0.0
standard_dfm,exact,2006:Q2:pre_second:exact,2006-08-29,pre_second,S,2006:Q2,3.71184482521998,,,not_available,2.9012,0.8106448252199803,False,True,0,,,,,,,13,,0.0
release_dfm,exact,2006:Q2:pre_second:exact,2006-08-29,pre_second,S,2006:Q2,2.626470480063652,,,not_available,2.9012,-0.274729519936348,False,True,0,,,,,,,13,,0.0
revision_dfm_kalman_em,exact,2006:Q2:pre_second:exact,2006-08-29,pre_second,S,2006:Q2,2.479123340814507,0.3775155703147812,0.6144229571840405,model_implied_state_space,2.9012,-0.422076659185493,False,True,31,-1160.9216146252113,-1885.9139988991365,-1160.9216146252113,0.10970113670896353,9.440463025476618e-05,31.0,13,,0.0
indicator_revision_only_dfm_kalman_em,exact,2006:Q2:pre_second:exact,2006-08-29,pre_second,S,2006:Q2,2.5938796183395345,0.40534650088030966,0.6366682816666067,model_implied_state_space,2.9012,-0.30732038166046527,False,True,35,-2016.836075461459,-2816.2152029985227,-2016.836075461459,0.19031512009041762,9.430754770039113e-05,35.0,13,,0.0
joint_indicator_revision_dfm_full_kalman_em,exact,2006:Q2:pre_second:exact,2006-08-29,pre_second,S,2006:Q2,2.6516135960585716,0.3580250410945125,0.598351937487055,model_implied_state_space,2.9012,-0.24958640394142817,False,True,34,-1984.7170825623637,-2827.272706358097,-1984.7170825623637,0.19040307737964213,9.587711348915399e-05,34.0,13,,0.0
ar,exact,2006:Q2:pre_third:exact,2006-09-27,pre_third,T,2006:Q2,4.082856331839703,,,not_available,2.5586,1.5242563318397027,False,True,0,,,,,,,13,,0.0
no_revision,exact,2006:Q2:pre_third:exact,2006-09-27,pre_third,T,2006:Q2,2.9012,,,not_available,2.5586,0.34259999999999957,False,True,0,,,,,,,13,,0.0
bridge,exact,2006:Q2:pre_third:exact,2006-09-27,pre_third,T,2006:Q2,1.3605661913180507,,,not_available,2.5586,-1.1980338086819495,False,True,0,,,,,,,13,,0.0
midas_umidas,exact,2006:Q2:pre_third:exact,2006-09-27,pre_third,T,2006:Q2,2.92544322167445,,,not_available,2.5586,0.3668432216744497,False,True,0,,,,,,,13,,0.0
monthly_mixed_frequency_kalman_em,exact,2006:Q2:pre_third:exact,2006-09-27,pre_third,T,2006:Q2,3.0861695445960287,0.1325256376219155,0.3640407087427387,model_implied_state_space,2.5586,0.5275695445960285,False,True,76,-3276.073773321121,-4097.618787963407,-3276.073773321121,0.31680693015641737,9.666438051827433e-05,76.0,13,,0.0
standard_dfm,exact,2006:Q2:pre_third:exact,2006-09-27,pre_third,T,2006:Q2,3.860234574726476,,,not_available,2.5586,1.3016345747264757,False,True,0,,,,,,,13,,0.0
release_dfm,exact,2006:Q2:pre_third:exact,2006-09-27,pre_third,T,2006:Q2,2.926864278416584,,,not_available,2.5586,0.36826427841658393,False,True,0,,,,,,,13,,0.0
revision_dfm_kalman_em,exact,2006:Q2:pre_third:exact,2006-09-27,pre_third,T,2006:Q2,2.8806409970863935,0.13820327779344313,0.37175701445089526,model_implied_state_space,2.5586,0.32204099708639333,False,True,36,-1160.916911075295,-1883.419605295915,-1160.916911075295,0.11500867887343702,9.89720479431989e-05,36.0,13,,0.0
indicator_revision_only_dfm_kalman_em,exact,2006:Q2:pre_third:exact,2006-09-27,pre_third,T,2006:Q2,2.8845288550654677,0.14162155224105055,0.3763263905721343,model_implied_state_space,2.5586,0.32592885506546754,False,True,35,-2016.6682040197652,-2817.3475676102394,-2016.6682040197652,0.18989238993276558,9.410591868210864e-05,35.0,13,,0.0
joint_indicator_revision_dfm_full_kalman_em,exact,2006:Q2:pre_third:exact,2006-09-27,pre_third,T,2006:Q2,2.8900990305648087,0.13637895985548407,0.36929522046119695,model_implied_state_space,2.5586,0.33149903056480845,False,True,34,-1984.4437216994902,-2828.378841325922,-1984.4437216994902,0.19109360360653227,9.623804041598799e-05,34.0,13,,0.0
ar,pseudo,2006:Q2:pre_advance:pseudo,2006-07-31,pre_advance,A,2006:Q2,3.740059135204821,,,not_available,2.4577,1.2823591352048211,False,True,0,,,,,,,13,,0.0
no_revision,pseudo,2006:Q2:pre_advance:pseudo,2006-07-31,pre_advance,A,2006:Q2,3.697855652198896,,,not_available,2.4577,1.240155652198896,False,True,0,,,,,,,13,,0.0
bridge,pseudo,2006:Q2:pre_advance:pseudo,2006-07-31,pre_advance,A,2006:Q2,1.5213527369938808,,,not_available,2.4577,-0.9363472630061191,False,True,0,,,,,,,13,,0.0
midas_umidas,pseudo,2006:Q2:pre_advance:pseudo,2006-07-31,pre_advance,A,2006:Q2,-12.42670128338963,,,not_available,2.4577,-14.884401283389629,False,True,0,,,,,,,13,,0.0
monthly_mixed_frequency_kalman_em,pseudo,2006:Q2:pre_advance:pseudo,2006-07-31,pre_advance,A,2006:Q2,4.804215870722235,4.876041189521183,2.2081759869904354,model_implied_state_space,2.4577,2.346515870722235,False,True,84,-3242.4480402604686,-4062.640507889376,-3242.4480402604686,0.3225366743859013,9.943264072968958e-05,84.0,13,,0.0
standard_dfm,pseudo,2006:Q2:pre_advance:pseudo,2006-07-31,pre_advance,A,2006:Q2,3.463575640485881,,,not_available,2.4577,1.0058756404858809,False,True,0,,,,,,,13,,0.0
release_dfm,pseudo,2006:Q2:pre_advance:pseudo,2006-07-31,pre_advance,A,2006:Q2,3.463575640485881,,,not_available,2.4577,1.0058756404858809,False,True,0,,,,,,,13,,0.0
revision_dfm_kalman_em,pseudo,2006:Q2:pre_advance:pseudo,2006-07-31,pre_advance,A,2006:Q2,3.7036049995147335,5.889829783688659,2.4268971514443414,model_implied_state_space,2.4577,1.2459049995147335,False,True,31,-1159.9886874383635,-1884.781083250096,-1159.9886874383635,0.1061849279233229,9.145241310636423e-05,31.0,13,,0.0
indicator_revision_only_dfm_kalman_em,pseudo,2006:Q2:pre_advance:pseudo,2006-07-31,pre_advance,A,2006:Q2,4.651074736191045,6.288513303434507,2.5076908309108816,model_implied_state_space,2.4577,2.1933747361910454,False,True,39,-2015.4500378211792,-2815.340773554568,-2015.4500378211792,0.19736583077133218,9.786828893039112e-05,39.0,13,,0.0
joint_indicator_revision_dfm_full_kalman_em,pseudo,2006:Q2:pre_advance:pseudo,2006-07-31,pre_advance,A,2006:Q2,3.97147598631811,5.057321965795082,2.2488490313480543,model_implied_state_space,2.4577,1.5137759863181102,False,True,35,-1984.160783012493,-2826.283227313554,-1984.160783012493,0.1963071182829026,9.887748620071757e-05,35.0,13,,0.0
ar,pseudo,2006:Q2:pre_second:pseudo,2006-08-31,pre_second,S,2006:Q2,3.932818675395525,,,not_available,2.9012,1.0316186753955252,False,True,0,,,,,,,13,,0.0
no_revision,pseudo,2006:Q2:pre_second:pseudo,2006-08-31,pre_second,S,2006:Q2,2.4577,,,not_available,2.9012,-0.4434999999999998,False,True,0,,,,,,,13,,0.0
bridge,pseudo,2006:Q2:pre_second:pseudo,2006-08-31,pre_second,S,2006:Q2,1.4822875599996792,,,not_available,2.9012,-1.4189124400003206,False,True,0,,,,,,,13,,0.0
midas_umidas,pseudo,2006:Q2:pre_second:pseudo,2006-08-31,pre_second,S,2006:Q2,2.8146128598667763,,,not_available,2.9012,-0.08658714013322344,False,True,0,,,,,,,13,,0.0
monthly_mixed_frequency_kalman_em,pseudo,2006:Q2:pre_second:pseudo,2006-08-31,pre_second,S,2006:Q2,2.8139271595269597,0.3297157610314619,0.5742088130910756,model_implied_state_space,2.9012,-0.08727284047304007,False,True,84,-3260.869852689247,-4082.4060777614495,-3260.869852689247,0.2789409494021129,8.550834650646883e-05,84.0,13,,0.0
standard_dfm,pseudo,2006:Q2:pre_second:pseudo,2006-08-31,pre_second,S,2006:Q2,3.706999177207295,,,not_available,2.9012,0.8057991772072954,False,True,0,,,,,,,13,,0.0
release_dfm,pseudo,2006:Q2:pre_second:pseudo,2006-08-31,pre_second,S,2006:Q2,2.6262455339766513,,,not_available,2.9012,-0.2749544660233485,False,True,0,,,,,,,13,,0.0
revision_dfm_kalman_em,pseudo,2006:Q2:pre_second:pseudo,2006-08-31,pre_second,S,2006:Q2,2.4788915530712576,0.3775108818732937,0.6144191418513046,model_implied_state_space,2.9012,-0.42230844692874214,False,True,31,-1160.9424854657852,-1885.9277960609309,-1160.9424854657852,0.10970871471431565,9.440945532716303e-05,31.0,13,,0.0
indicator_revision_only_dfm_kalman_em,pseudo,2006:Q2:pre_second:pseudo,2006-08-31,pre_second,S,2006:Q2,2.593663464889627,0.4053472650879591,0.636668881827877,model_implied_state_space,2.9012,-0.3075365351103727,False,True,35,-2016.8578840120058,-2816.2320868037255,-2016.8578840120058,0.19035609470370218,9.432683070729598e-05,35.0,13,,0.0
joint_indicator_revision_dfm_full_kalman_em,pseudo,2006:Q2:pre_second:pseudo,2006-08-31,pre_second,S,2006:Q2,2.6518711951934666,0.35802771237013686,0.598354169677238,model_implied_state_space,2.9012,-0.2493288048065332,False,True,34,-1984.7387768325775,-2827.289573751539,-1984.7387768325775,0.19039875105249848,9.587388784725598e-05,34.0,13,,0.0
ar,pseudo,2006:Q2:pre_third:pseudo,2006-09-30,pre_third,T,2006:Q2,4.082856331839703,,,not_available,2.5586,1.5242563318397027,False,True,0,,,,,,,13,,0.0
no_revision,pseudo,2006:Q2:pre_third:pseudo,2006-09-30,pre_third,T,2006:Q2,2.9012,,,not_available,2.5586,0.34259999999999957,False,True,0,,,,,,,13,,0.0
bridge,pseudo,2006:Q2:pre_third:pseudo,2006-09-30,pre_third,T,2006:Q2,1.3605661913180507,,,not_available,2.5586,-1.1980338086819495,False,True,0,,,,,,,13,,0.0
midas_umidas,pseudo,2006:Q2:pre_third:pseudo,2006-09-30,pre_third,T,2006:Q2,2.92544322167445,,,not_available,2.5586,0.3668432216744497,False,True,0,,,,,,,13,,0.0
monthly_mixed_frequency_kalman_em,pseudo,2006:Q2:pre_third:pseudo,2006-09-30,pre_third,T,2006:Q2,3.0861695445960287,0.1325256376219155,0.3640407087427387,model_implied_state_space,2.5586,0.5275695445960285,False,True,76,-3276.073773321121,-4097.618787963407,-3276.073773321121,0.31680693015641737,9.666438051827433e-05,76.0,13,,0.0
standard_dfm,pseudo,2006:Q2:pre_third:pseudo,2006-09-30,pre_third,T,2006:Q2,3.860234574726476,,,not_available,2.5586,1.3016345747264757,False,True,0,,,,,,,13,,0.0
release_dfm,pseudo,2006:Q2:pre_third:pseudo,2006-09-30,pre_third,T,2006:Q2,2.926864278416584,,,not_available,2.5586,0.36826427841658393,False,True,0,,,,,,,13,,0.0
revision_dfm_kalman_em,pseudo,2006:Q2:pre_third:pseudo,2006-09-30,pre_third,T,2006:Q2,2.8806409970863935,0.13820327779344313,0.37175701445089526,model_implied_state_space,2.5586,0.32204099708639333,False,True,36,-1160.916911075295,-1883.419605295915,-1160.916911075295,0.11500867887343702,9.89720479431989e-05,36.0,13,,0.0
indicator_revision_only_dfm_kalman_em,pseudo,2006:Q2:pre_third:pseudo,2006-09-30,pre_third,T,2006:Q2,2.8845288550654677,0.14162155224105055,0.3763263905721343,model_implied_state_space,2.5586,0.32592885506546754,False,True,35,-2016.6682040197652,-2817.3475676102394,-2016.6682040197652,0.18989238993276558,9.410591868210864e-05,35.0,13,,0.0
joint_indicator_revision_dfm_full_kalman_em,pseudo,2006:Q2:pre_third:pseudo,2006-09-30,pre_third,T,2006:Q2,2.8900990305648087,0.13637895985548407,0.36929522046119695,model_implied_state_space,2.5586,0.33149903056480845,False,True,34,-1984.4437216994902,-2828.378841325922,-1984.4437216994902,0.19109360360653227,9.623804041598799e-05,34.0,13,,0.0
ar,exact,2006:Q3:pre_advance:exact,2006-10-26,pre_advance,A,2006:Q3,2.58335724396098,,,not_available,1.5829,1.0004572439609802,False,True,0,,,,,,,13,,0.0
no_revision,exact,2006:Q3:pre_advance:exact,2006-10-26,pre_advance,A,2006:Q3,2.697548595025026,,,not_available,1.5829,1.114648595025026,False,True,0,,,,,,,13,,0.0
bridge,exact,2006:Q3:pre_advance:exact,2006-10-26,pre_advance,A,2006:Q3,0.5269397185662135,,,not_available,1.5829,-1.0559602814337865,False,True,0,,,,,,,13,,0.0
midas_umidas,exact,2006:Q3:pre_advance:exact,2006-10-26,pre_advance,A,2006:Q3,-2.631757524580263,,,not_available,1.5829,-4.214657524580263,False,True,0,,,,,,,13,,0.0
monthly_mixed_frequency_kalman_em,exact,2006:Q3:pre_advance:exact,2006-10-26,pre_advance,A,2006:Q3,1.7152086754160902,4.764318340726231,2.1827318526851234,model_implied_state_space,1.5829,0.13230867541609026,False,True,79,-3293.773876608207,-4122.697636936966,-3293.773876608207,0.28402891962468857,8.61984607761211e-05,79.0,13,,0.0
standard_dfm,exact,2006:Q3:pre_advance:exact,2006-10-26,pre_advance,A,2006:Q3,3.0602179516245127,,,not_available,1.5829,1.4773179516245127,False,True,0,,,,,,,13,,0.0
release_dfm,exact,2006:Q3:pre_advance:exact,2006-10-26,pre_advance,A,2006:Q3,3.0602179516245127,,,not_available,1.5829,1.4773179516245127,False,True,0,,,,,,,13,,0.0
revision_dfm_kalman_em,exact,2006:Q3:pre_advance:exact,2006-10-26,pre_advance,A,2006:Q3,1.769141719667649,5.823188002190849,2.4131282606175017,model_implied_state_space,1.5829,0.18624171966764913,False,True,36,-1178.4628255071473,-1903.4028081700756,-1178.4628255071473,0.11151124837283533,9.453515975903032e-05,36.0,13,,0.0
indicator_revision_only_dfm_kalman_em,exact,2006:Q3:pre_advance:exact,2006-10-26,pre_advance,A,2006:Q3,-0.3216071495087496,4.247566312473295,2.0609624723592845,model_implied_state_space,1.5829,-1.9045071495087496,False,True,45,-1808.5270375184184,-2853.5651161670194,-1808.5270375184184,0.030225515248503143,1.6703265415227037e-05,45.0,13,,0.0
joint_indicator_revision_dfm_full_kalman_em,exact,2006:Q3:pre_advance:exact,2006-10-26,pre_advance,A,2006:Q3,-0.48711375763849896,3.4237488557362385,1.8503374977922915,model_implied_state_space,1.5829,-2.070013757638499,False,True,46,-1782.6880413367053,-2864.6007649479434,-1782.6880413367053,0.030335790948811336,1.700705186300848e-05,46.0,13,,0.0
ar,exact,2006:Q3:pre_second:exact,2006-11-28,pre_second,S,2006:Q3,2.8532262466469804,,,not_available,2.2098,0.6434262466469804,False,True,0,,,,,,,13,,0.0
no_revision,exact,2006:Q3:pre_second:exact,2006-11-28,pre_second,S,2006:Q3,1.5829,,,not_available,2.2098,-0.6269,False,True,0,,,,,,,13,,0.0
bridge,exact,2006:Q3:pre_second:exact,2006-11-28,pre_second,S,2006:Q3,0.8757358874923964,,,not_available,2.2098,-1.3340641125076036,False,True,0,,,,,,,13,,0.0
midas_umidas,exact,2006:Q3:pre_second:exact,2006-11-28,pre_second,S,2006:Q3,2.379159096491427,,,not_available,2.2098,0.16935909649142689,False,True,0,,,,,,,13,,0.0
monthly_mixed_frequency_kalman_em,exact,2006:Q3:pre_second:exact,2006-11-28,pre_second,S,2006:Q3,1.6490026961599693,0.33323648774170334,0.5772663923542608,model_implied_state_space,2.2098,-0.5607973038400307,False,True,76,-3312.6371388069674,-4138.068268212737,-3312.6371388069674,0.28423893848548687,8.577117743175369e-05,76.0,13,,0.0
standard_dfm,exact,2006:Q3:pre_second:exact,2006-11-28,pre_second,S,2006:Q3,3.2571987903906794,,,not_available,2.2098,1.0473987903906794,False,True,0,,,,,,,13,,0.0
release_dfm,exact,2006:Q3:pre_second:exact,2006-11-28,pre_second,S,2006:Q3,1.7024898218654105,,,not_available,2.2098,-0.5073101781345895,False,True,0,,,,,,,13,,0.0
revision_dfm_kalman_em,exact,2006:Q3:pre_second:exact,2006-11-28,pre_second,S,2006:Q3,1.6209369384231813,0.37612260558582883,0.6132883543536668,model_implied_state_space,2.2098,-0.5888630615768187,False,True,36,-1179.3224178467265,-1904.688523626704,-1179.3224178467265,0.11233015658831391,9.515998811312396e-05,36.0,13,,0.0
indicator_revision_only_dfm_kalman_em,exact,2006:Q3:pre_second:exact,2006-11-28,pre_second,S,2006:Q3,1.4281174167883566,0.387891002863187,0.6228089617717354,model_implied_state_space,2.2098,-0.7816825832116434,False,True,45,-1809.7735119823496,-2854.6729240497953,-1809.7735119823496,0.030140996282170818,1.66450935928869e-05,45.0,13,,0.0
joint_indicator_revision_dfm_full_kalman_em,exact,2006:Q3:pre_second:exact,2006-11-28,pre_second,S,2006:Q3,1.316312077402402,0.3533238163027989,0.5944104779550903,model_implied_state_space,2.2098,-0.893487922597598,False,True,46,-1784.0054483749982,-2865.8139855582203,-1784.0054483749982,0.02915317229349057,1.633199281863792e-05,46.0,13,,0.0
ar,exact,2006:Q3:pre_third:exact,2006-12-20,pre_third,T,2006:Q3,2.75074084743836,,,not_available,1.9601,0.7906408474383599,False,True,0,,,,,,,13,,0.0
no_revision,exact,2006:Q3:pre_third:exact,2006-12-20,pre_third,T,2006:Q3,2.2098,,,not_available,1.9601,0.24970000000000003,False,True,0,,,,,,,13,,0.0
bridge,exact,2006:Q3:pre_third:exact,2006-12-20,pre_third,T,2006:Q3,0.39348429457032186,,,not_available,1.9601,-1.566615705429678,False,True,0,,,,,,,13,,0.0
midas_umidas,exact,2006:Q3:pre_third:exact,2006-12-20,pre_third,T,2006:Q3,1.9864144975800373,,,not_available,1.9601,0.026314497580037344,False,True,0,,,,,,,13,,0.0
monthly_mixed_frequency_kalman_em,exact,2006:Q3:pre_third:exact,2006-12-20,pre_third,T,2006:Q3,2.231909769109471,0.13313527508869674,0.36487706846100476,model_implied_state_space,1.9601,0.2718097691094712,False,True,80,-3341.164570667596,-4157.278974077898,-3341.164570667596,0.2850904494748647,8.529386479363924e-05,80.0,13,,0.0
standard_dfm,exact,2006:Q3:pre_third:exact,2006-12-20,pre_third,T,2006:Q3,3.3095218036059553,,,not_available,1.9601,1.3494218036059553,False,True,0,,,,,,,13,,0.0
release_dfm,exact,2006:Q3:pre_third:exact,2006-12-20,pre_third,T,2006:Q3,2.1333595250762545,,,not_available,1.9601,0.17325952507625453,False,True,0,,,,,,,13,,0.0
revision_dfm_kalman_em,exact,2006:Q3:pre_third:exact,2006-12-20,pre_third,T,2006:Q3,2.175591010547184,0.1378685581163768,0.3713065554449272,model_implied_state_space,1.9601,0.2154910105471839,False,True,31,-1180.5514221123603,-1909.3161465482185,-1180.5514221123603,0.10739281141627544,9.088309591563691e-05,31.0,13,,0.0
indicator_revision_only_dfm_kalman_em,exact,2006:Q3:pre_third:exact,2006-12-20,pre_third,T,2006:Q3,2.1834161718310203,0.14135342995735217,0.3759699854474452,model_implied_state_space,1.9601,0.22331617183102037,False,True,44,-1819.9132726090286,-2853.619488141584,-1819.9132726090286,0.07125812024332845,3.913164501995568e-05,44.0,13,,0.0
joint_indicator_revision_dfm_full_kalman_em,exact,2006:Q3:pre_third:exact,2006-12-20,pre_third,T,2006:Q3,2.190516265092864,0.13625155099357433,0.3691226774306536,model_implied_state_space,1.9601,0.23041626509286384,False,True,48,-2017.346923197983,-2864.8372204234465,-2017.346923197983,0.19597650710784364,9.708810604742452e-05,48.0,13,,0.0
ar,pseudo,2006:Q3:pre_advance:pseudo,2006-10-31,pre_advance,A,2006:Q3,2.58335724396098,,,not_available,1.5829,1.0004572439609802,False,True,0,,,,,,,13,,0.0
no_revision,pseudo,2006:Q3:pre_advance:pseudo,2006-10-31,pre_advance,A,2006:Q3,2.697548595025026,,,not_available,1.5829,1.114648595025026,False,True,0,,,,,,,13,,0.0
bridge,pseudo,2006:Q3:pre_advance:pseudo,2006-10-31,pre_advance,A,2006:Q3,0.5269397185662135,,,not_available,1.5829,-1.0559602814337865,False,True,0,,,,,,,13,,0.0
midas_umidas,pseudo,2006:Q3:pre_advance:pseudo,2006-10-31,pre_advance,A,2006:Q3,-2.631757524580263,,,not_available,1.5829,-4.214657524580263,False,True,0,,,,,,,13,,0.0
monthly_mixed_frequency_kalman_em,pseudo,2006:Q3:pre_advance:pseudo,2006-10-31,pre_advance,A,2006:Q3,1.7152086754160902,4.764318340726231,2.1827318526851234,model_implied_state_space,1.5829,0.13230867541609026,False,True,79,-3293.773876608207,-4122.697636936966,-3293.773876608207,0.28402891962468857,8.61984607761211e-05,79.0,13,,0.0
standard_dfm,pseudo,2006:Q3:pre_advance:pseudo,2006-10-31,pre_advance,A,2006:Q3,3.0602179516245127,,,not_available,1.5829,1.4773179516245127,False,True,0,,,,,,,13,,0.0
release_dfm,pseudo,2006:Q3:pre_advance:pseudo,2006-10-31,pre_advance,A,2006:Q3,3.0602179516245127,,,not_available,1.5829,1.4773179516245127,False,True,0,,,,,,,13,,0.0
revision_dfm_kalman_em,pseudo,2006:Q3:pre_advance:pseudo,2006-10-31,pre_advance,A,2006:Q3,1.769141719667649,5.823188002190849,2.4131282606175017,model_implied_state_space,1.5829,0.18624171966764913,False,True,36,-1178.4628255071473,-1903.4028081700756,-1178.4628255071473,0.11151124837283533,9.453515975903032e-05,36.0,13,,0.0
indicator_revision_only_dfm_kalman_em,pseudo,2006:Q3:pre_advance:pseudo,2006-10-31,pre_advance,A,2006:Q3,-0.3216071495087496,4.247566312473295,2.0609624723592845,model_implied_state_space,1.5829,-1.9045071495087496,False,True,45,-1808.5270375184184,-2853.5651161670194,-1808.5270375184184,0.030225515248503143,1.6703265415227037e-05,45.0,13,,0.0
joint_indicator_revision_dfm_full_kalman_em,pseudo,2006:Q3:pre_advance:pseudo,2006-10-31,pre_advance,A,2006:Q3,-0.48711375763849896,3.4237488557362385,1.8503374977922915,model_implied_state_space,1.5829,-2.070013757638499,False,True,46,-1782.6880413367053,-2864.6007649479434,-1782.6880413367053,0.030335790948811336,1.700705186300848e-05,46.0,13,,0.0
ar,pseudo,2006:Q3:pre_second:pseudo,2006-11-30,pre_second,S,2006:Q3,2.8532262466469804,,,not_available,2.2098,0.6434262466469804,False,True,0,,,,,,,13,,0.0
no_revision,pseudo,2006:Q3:pre_second:pseudo,2006-11-30,pre_second,S,2006:Q3,1.5829,,,not_available,2.2098,-0.6269,False,True,0,,,,,,,13,,0.0
bridge,pseudo,2006:Q3:pre_second:pseudo,2006-11-30,pre_second,S,2006:Q3,0.897347254249764,,,not_available,2.2098,-1.312452745750236,False,True,0,,,,,,,13,,0.0
midas_umidas,pseudo,2006:Q3:pre_second:pseudo,2006-11-30,pre_second,S,2006:Q3,2.375457847401134,,,not_available,2.2098,0.1656578474011341,False,True,0,,,,,,,13,,0.0
monthly_mixed_frequency_kalman_em,pseudo,2006:Q3:pre_second:pseudo,2006-11-30,pre_second,S,2006:Q3,1.6489879759668085,0.33323439758367845,0.5772645819584625,model_implied_state_space,2.2098,-0.5608120240331915,False,True,76,-3312.646737009055,-4138.0733406850195,-3312.646737009055,0.28433363629346786,8.579950223228309e-05,76.0,13,,0.0
standard_dfm,pseudo,2006:Q3:pre_second:pseudo,2006-11-30,pre_second,S,2006:Q3,3.2601675921758497,,,not_available,2.2098,1.0503675921758497,False,True,0,,,,,,,13,,0.0
release_dfm,pseudo,2006:Q3:pre_second:pseudo,2006-11-30,pre_second,S,2006:Q3,1.7026518268415933,,,not_available,2.2098,-0.5071481731584067,False,True,0,,,,,,,13,,0.0
revision_dfm_kalman_em,pseudo,2006:Q3:pre_second:pseudo,2006-11-30,pre_second,S,2006:Q3,1.6210509532590018,0.3761202536401662,0.6132864368630422,model_implied_state_space,2.2098,-0.5887490467409981,False,True,36,-1179.309271651178,-1904.6553881017483,-1179.309271651178,0.1123358864488182,9.516590151475807e-05,36.0,13,,0.0
indicator_revision_only_dfm_kalman_em,pseudo,2006:Q3:pre_second:pseudo,2006-11-30,pre_second,S,2006:Q3,1.4281498948553764,0.38789281332999714,0.6228104152388567,model_implied_state_space,2.2098,-0.7816501051446236,False,True,45,-1809.7753390656924,-2854.6444698767195,-1809.7753390656924,0.030163098341972727,1.665728224589874e-05,45.0,13,,0.0
joint_indicator_revision_dfm_full_kalman_em,pseudo,2006:Q3:pre_second:pseudo,2006-11-30,pre_second,S,2006:Q3,1.316363763395457,0.3533311797735609,0.5944166718502778,model_implied_state_space,2.2098,-0.893436236604543,False,True,46,-1784.0074134736597,-2865.7857164201228,-1784.0074134736597,0.029203016547398875,1.6359897762107944e-05,46.0,13,,0.0
ar,pseudo,2006:Q3:pre_third:pseudo,2006-12-31,pre_third,T,2006:Q3,2.75074084743836,,,not_available,1.9601,0.7906408474383599,False,True,0,,,,,,,13,,0.0
no_revision,pseudo,2006:Q3:pre_third:pseudo,2006-12-31,pre_third,T,2006:Q3,2.2098,,,not_available,1.9601,0.24970000000000003,False,True,0,,,,,,,13,,0.0
bridge,pseudo,2006:Q3:pre_third:pseudo,2006-12-31,pre_third,T,2006:Q3,0.39348429457032186,,,not_available,1.9601,-1.566615705429678,False,True,0,,,,,,,13,,0.0
midas_umidas,pseudo,2006:Q3:pre_third:pseudo,2006-12-31,pre_third,T,2006:Q3,1.9864144975800373,,,not_available,1.9601,0.026314497580037344,False,True,0,,,,,,,13,,0.0
monthly_mixed_frequency_kalman_em,pseudo,2006:Q3:pre_third:pseudo,2006-12-31,pre_third,T,2006:Q3,2.23210892279789,0.1331430390264998,0.36488770742037857,model_implied_state_space,1.9601,0.2720089227978899,False,True,80,-3342.5841745193975,-4158.701840317909,-3342.5841745193975,0.28726007612795,8.590643562308399e-05,80.0,13,,0.0
standard_dfm,pseudo,2006:Q3:pre_third:pseudo,2006-12-31,pre_third,T,2006:Q3,3.3095218036059553,,,not_available,1.9601,1.3494218036059553,False,True,0,,,,,,,13,,0.0
release_dfm,pseudo,2006:Q3:pre_third:pseudo,2006-12-31,pre_third,T,2006:Q3,2.1333595250762545,,,not_available,1.9601,0.17325952507625453,False,True,0,,,,,,,13,,0.0
revision_dfm_kalman_em,pseudo,2006:Q3:pre_third:pseudo,2006-12-31,pre_third,T,2006:Q3,2.175591010547184,0.1378685581163768,0.3713065554449272,model_implied_state_space,1.9601,0.2154910105471839,False,True,31,-1180.5514221123603,-1909.3161465482185,-1180.5514221123603,0.10739281141627544,9.088309591563691e-05,31.0,13,,0.0
indicator_revision_only_dfm_kalman_em,pseudo,2006:Q3:pre_third:pseudo,2006-12-31,pre_third,T,2006:Q3,2.1834161718310203,0.14135342995735217,0.3759699854474452,model_implied_state_space,1.9601,0.22331617183102037,False,True,44,-1819.9132726090286,-2853.619488141584,-1819.9132726090286,0.07125812024332845,3.913164501995568e-05,44.0,13,,0.0
joint_indicator_revision_dfm_full_kalman_em,pseudo,2006:Q3:pre_third:pseudo,2006-12-31,pre_third,T,2006:Q3,2.190516265092864,0.13625155099357433,0.3691226774306536,model_implied_state_space,1.9601,0.23041626509286384,False,True,48,-2017.346923197983,-2864.8372204234465,-2017.346923197983,0.19597650710784364,9.708810604742452e-05,48.0,13,,0.0
ar,exact,2006:Q4:pre_advance:exact,2007-01-30,pre_advance,A,2006:Q4,2.1524610748667694,,,not_available,3.4734,-1.3209389251332304,False,True,0,,,,,,,13,,0.0
no_revision,exact,2006:Q4:pre_advance:exact,2007-01-30,pre_advance,A,2006:Q4,2.0405286021231293,,,not_available,3.4734,-1.4328713978768706,False,True,0,,,,,,,13,,0.0
bridge,exact,2006:Q4:pre_advance:exact,2007-01-30,pre_advance,A,2006:Q4,-0.15545872254795334,,,not_available,3.4734,-3.628858722547953,False,True,0,,,,,,,13,,0.0
midas_umidas,exact,2006:Q4:pre_advance:exact,2007-01-30,pre_advance,A,2006:Q4,-1.1680154957368956,,,not_available,3.4734,-4.641415495736895,False,True,0,,,,,,,13,,0.0
monthly_mixed_frequency_kalman_em,exact,2006:Q4:pre_advance:exact,2007-01-30,pre_advance,A,2006:Q4,1.5056199799270982,4.8595813524238,2.2044458152614683,model_implied_state_space,3.4734,-1.9677800200729016,False,True,81,-3358.898740856126,-4183.393324281079,-3358.898740856126,0.3179210367493397,9.461325525665615e-05,81.0,13,,0.0
standard_dfm,exact,2006:Q4:pre_advance:exact,2007-01-30,pre_advance,A,2006:Q4,2.1189648572353583,,,not_available,3.4734,-1.3544351427646415,False,True,0,,,,,,,13,,0.0
release_dfm,exact,2006:Q4:pre_advance:exact,2007-01-30,pre_advance,A,2006:Q4,2.1189648572353583,,,not_available,3.4734,-1.3544351427646415,False,True,0,,,,,,,13,,0.0
revision_dfm_kalman_em,exact,2006:Q4:pre_advance:exact,2007-01-30,pre_advance,A,2006:Q4,0.7319014283263465,5.828491105933257,2.41422681327444,model_implied_state_space,3.4734,-2.7414985716736533,False,True,30,-1200.068537869597,-1931.067377598484,-1200.068537869597,0.1161480313849097,9.669456558030428e-05,30.0,13,,0.0
indicator_revision_only_dfm_kalman_em,exact,2006:Q4:pre_advance:exact,2007-01-30,pre_advance,A,2006:Q4,-0.8542160809361077,4.1327376642040194,2.0329135899501534,model_implied_state_space,3.4734,-4.3276160809361075,False,True,37,-1839.9327505491267,-2894.1497071412364,-1839.9327505491267,0.07027888120614989,3.817423441605987e-05,37.0,13,,0.0
joint_indicator_revision_dfm_full_kalman_em,exact,2006:Q4:pre_advance:exact,2007-01-30,pre_advance,A,2006:Q4,-0.8878530371872868,3.2173920390015556,1.7937090173719805,model_implied_state_space,3.4734,-4.361253037187287,False,True,38,-1813.731516289702,-2905.3580060898985,-1813.731516289702,0.050348173576821864,2.7743374872060624e-05,38.0,13,,0.0
ar,exact,2006:Q4:pre_second:exact,2007-02-27,pre_second,S,2006:Q4,2.5420474751814193,,,not_available,2.2204,0.3216474751814191,False,True,0,,,,,,,13,,0.0
no_revision,exact,2006:Q4:pre_second:exact,2007-02-27,pre_second,S,2006:Q4,3.4734,,,not_available,2.2204,1.2529999999999997,False,True,0,,,,,,,13,,0.0
