haminh109/Revision-Aware-DFM/outputs/full_state_space_release_revision_dfm/frozen/q2_manuscript_best_v1/mature_robustness_runs/mature_latest/run_dir/revision_forecast_results.csv
model_id,timing_mode,forecast_origin,forecast_origin_date,checkpoint_id,target_id,revision_target_id,target_quarter,forecast_value,forecast_variance,forecast_sd,density_source,realized_value,forecast_error,revision_target_flag,converged,n_iter,loglikelihood,llf_initial,llf_final,llf_last_improvement,llf_relative_last_improvement,llf_history_length,n_indicators,initialization_seed,initialization_jitter
ar,exact,2005:Q1:pre_advance:exact,2005-04-27,pre_advance,DELTA_SA,DELTA_SA,2005:Q1,0.3356948084435101,,,not_available,0.3950999999999998,-0.05940519155648971,True,True,0,,,,,,,13,,0.0
no_revision,exact,2005:Q1:pre_advance:exact,2005-04-27,pre_advance,DELTA_SA,DELTA_SA,2005:Q1,0.0,,,not_available,0.3950999999999998,-0.3950999999999998,True,True,0,,,,,,,13,,0.0
bridge,exact,2005:Q1:pre_advance:exact,2005-04-27,pre_advance,DELTA_SA,DELTA_SA,2005:Q1,0.26328560705155235,,,not_available,0.3950999999999998,-0.13181439294844743,True,True,0,,,,,,,13,,0.0
midas_umidas,exact,2005:Q1:pre_advance:exact,2005-04-27,pre_advance,DELTA_SA,DELTA_SA,2005:Q1,-5.913731381630731,,,not_available,0.3950999999999998,-6.30883138163073,True,True,0,,,,,,,13,,0.0
monthly_mixed_frequency_kalman_em,exact,2005:Q1:pre_advance:exact,2005-04-27,pre_advance,DELTA_SA,DELTA_SA,2005:Q1,-0.01770086465016041,0.323400574892708,0.5686831937842968,model_implied_state_space,0.3950999999999998,-0.4128008646501602,True,False,100,-2988.06620563235,-3759.8754573896226,-2988.06620563235,0.8562145196074198,0.0002863668013044647,101.0,13,,0.0
standard_dfm,exact,2005:Q1:pre_advance:exact,2005-04-27,pre_advance,DELTA_SA,DELTA_SA,2005:Q1,0.13413726161412365,,,not_available,0.3950999999999998,-0.26096273838587614,True,True,0,,,,,,,13,,0.0
release_dfm,exact,2005:Q1:pre_advance:exact,2005-04-27,pre_advance,DELTA_SA,DELTA_SA,2005:Q1,0.13413726161412365,,,not_available,0.3950999999999998,-0.26096273838587614,True,True,0,,,,,,,13,,0.0
revision_dfm_kalman_em,exact,2005:Q1:pre_advance:exact,2005-04-27,pre_advance,DELTA_SA,DELTA_SA,2005:Q1,0.08107079276781226,0.3990689179595428,0.6317190182031429,model_implied_state_space,0.3950999999999998,-0.3140292072321875,True,True,32,-1063.6987227192628,-1771.0751809212165,-1063.6987227192628,0.10229682279486951,9.607130432582101e-05,32.0,13,,0.0
indicator_revision_only_dfm_kalman_em,exact,2005:Q1:pre_advance:exact,2005-04-27,pre_advance,DELTA_SA,DELTA_SA,2005:Q1,0.0,0.43868896012233627,0.6623359873374964,model_implied_state_space,0.3950999999999998,-0.3950999999999998,True,True,40,-1831.5895501079165,-2610.6694668208806,-1831.5895501079165,0.17261582709534196,9.418342996363597e-05,40.0,13,,0.0
joint_indicator_revision_dfm_full_kalman_em,exact,2005:Q1:pre_advance:exact,2005-04-27,pre_advance,DELTA_SA,DELTA_SA,2005:Q1,0.2598827023391306,0.39461388746481063,0.628183004756425,model_implied_state_space,0.3950999999999998,-0.1352172976608692,True,True,38,-1802.147115227873,-2621.378260846373,-1802.147115227873,0.16952708836106467,9.400849766645473e-05,38.0,13,,0.0
ar,exact,2005:Q1:pre_second:exact,2005-05-25,pre_second,DELTA_TS,DELTA_TS,2005:Q1,0.04714135981196321,,,not_available,0.27649999999999997,-0.22935864018803676,True,True,0,,,,,,,13,,0.0
no_revision,exact,2005:Q1:pre_second:exact,2005-05-25,pre_second,DELTA_TS,DELTA_TS,2005:Q1,0.0,,,not_available,0.27649999999999997,-0.27649999999999997,True,True,0,,,,,,,13,,0.0
bridge,exact,2005:Q1:pre_second:exact,2005-05-25,pre_second,DELTA_TS,DELTA_TS,2005:Q1,0.19854853703044162,,,not_available,0.27649999999999997,-0.07795146296955835,True,True,0,,,,,,,13,,0.0
midas_umidas,exact,2005:Q1:pre_second:exact,2005-05-25,pre_second,DELTA_TS,DELTA_TS,2005:Q1,0.6899398299977455,,,not_available,0.27649999999999997,0.41343982999774553,True,True,0,,,,,,,13,,0.0
monthly_mixed_frequency_kalman_em,exact,2005:Q1:pre_second:exact,2005-05-25,pre_second,DELTA_TS,DELTA_TS,2005:Q1,-0.044034611485092245,0.13121889745243243,0.3622414905176275,model_implied_state_space,0.27649999999999997,-0.3205346114850922,True,False,100,-3015.012952744717,-3778.8480385435714,-3015.012952744717,0.6900253507769776,0.00022873493207229987,101.0,13,,0.0
standard_dfm,exact,2005:Q1:pre_second:exact,2005-05-25,pre_second,DELTA_TS,DELTA_TS,2005:Q1,0.1165898545711248,,,not_available,0.27649999999999997,-0.15991014542887516,True,True,0,,,,,,,13,,0.0
release_dfm,exact,2005:Q1:pre_second:exact,2005-05-25,pre_second,DELTA_TS,DELTA_TS,2005:Q1,0.07710214238409208,,,not_available,0.27649999999999997,-0.1993978576159079,True,True,0,,,,,,,13,,0.0
revision_dfm_kalman_em,exact,2005:Q1:pre_second:exact,2005-05-25,pre_second,DELTA_TS,DELTA_TS,2005:Q1,0.0029007993712899527,0.14222024996322702,0.3771210017530541,model_implied_state_space,0.27649999999999997,-0.27359920062871,True,True,38,-1064.3491605674824,-1768.760047139762,-1064.3491605674824,0.09929159081116268,9.319229908310096e-05,38.0,13,,0.0
indicator_revision_only_dfm_kalman_em,exact,2005:Q1:pre_second:exact,2005-05-25,pre_second,DELTA_TS,DELTA_TS,2005:Q1,0.0,0.14541975252917838,0.3813394190602099,model_implied_state_space,0.27649999999999997,-0.27649999999999997,True,True,43,-1832.7691000024454,-2611.771893987557,-1832.7691000024454,0.17451500775678142,9.515832783976327e-05,43.0,13,,0.0
joint_indicator_revision_dfm_full_kalman_em,exact,2005:Q1:pre_second:exact,2005-05-25,pre_second,DELTA_TS,DELTA_TS,2005:Q1,0.006257667564306679,0.14092390535688792,0.3753983289212779,model_implied_state_space,0.27649999999999997,-0.2702423324356933,True,True,41,-1802.9873141621647,-2622.599178842016,-1802.9873141621647,0.16825197149182713,9.325801757350375e-05,41.0,13,,0.0
ar,exact,2005:Q1:pre_third:exact,2005-06-28,pre_third,DELTA_MT,DELTA_MT,2005:Q1,0.11805323624994024,,,not_available,0.6526280956602974,-0.5345748594103572,True,True,0,,,,,,,13,,0.0
no_revision,exact,2005:Q1:pre_third:exact,2005-06-28,pre_third,DELTA_MT,DELTA_MT,2005:Q1,0.0,,,not_available,0.6526280956602974,-0.6526280956602974,True,True,0,,,,,,,13,,0.0
bridge,exact,2005:Q1:pre_third:exact,2005-06-28,pre_third,DELTA_MT,DELTA_MT,2005:Q1,-0.742343832627328,,,not_available,0.6526280956602974,-1.3949719282876254,True,True,0,,,,,,,13,,0.0
midas_umidas,exact,2005:Q1:pre_third:exact,2005-06-28,pre_third,DELTA_MT,DELTA_MT,2005:Q1,0.8992375636631644,,,not_available,0.6526280956602974,0.24660946800286698,True,True,0,,,,,,,13,,0.0
monthly_mixed_frequency_kalman_em,exact,2005:Q1:pre_third:exact,2005-06-28,pre_third,DELTA_MT,DELTA_MT,2005:Q1,0.08368010987760321,5.056323560687999,2.248627039036932,model_implied_state_space,0.6526280956602974,-0.5689479857826942,True,True,45,-3066.588626997365,-3798.010642165213,-3066.588626997365,0.30646371503962655,9.989380535449201e-05,45.0,13,,0.0
standard_dfm,exact,2005:Q1:pre_third:exact,2005-06-28,pre_third,DELTA_MT,DELTA_MT,2005:Q1,0.5874745433215338,,,not_available,0.6526280956602974,-0.06515355233876363,True,True,0,,,,,,,13,,0.0
release_dfm,exact,2005:Q1:pre_third:exact,2005-06-28,pre_third,DELTA_MT,DELTA_MT,2005:Q1,0.6318362345908799,,,not_available,0.6526280956602974,-0.02079186106941755,True,True,0,,,,,,,13,,0.0
revision_dfm_kalman_em,exact,2005:Q1:pre_third:exact,2005-06-28,pre_third,DELTA_MT,DELTA_MT,2005:Q1,0.005795337392419331,4.949988472820009,2.224856955586136,model_implied_state_space,0.6526280956602974,-0.6468327582678781,True,True,33,-1064.0944128072551,-1773.4808551202702,-1064.0944128072551,0.09825320687605199,9.223984543914287e-05,33.0,13,,0.0
indicator_revision_only_dfm_kalman_em,exact,2005:Q1:pre_third:exact,2005-06-28,pre_third,DELTA_MT,DELTA_MT,2005:Q1,0.0,4.957591291500402,2.226564908440893,model_implied_state_space,0.6526280956602974,-0.6526280956602974,True,True,30,-1830.1265035712365,-2615.9827800975722,-1830.1265035712365,0.17183359486170957,9.383156822367841e-05,30.0,13,,0.0
joint_indicator_revision_dfm_full_kalman_em,exact,2005:Q1:pre_third:exact,2005-06-28,pre_third,DELTA_MT,DELTA_MT,2005:Q1,0.0056135641699808225,4.9233948608486156,2.2188724300528446,model_implied_state_space,0.6526280956602974,-0.6470145314903166,True,True,33,-1799.2183639368982,-2626.6490890813634,-1799.2183639368982,0.16766329587539985,9.312630365894443e-05,33.0,13,,0.0
ar,pseudo,2005:Q1:pre_advance:pseudo,2005-04-30,pre_advance,DELTA_SA,DELTA_SA,2005:Q1,0.3356948084435101,,,not_available,0.3950999999999998,-0.05940519155648971,True,True,0,,,,,,,13,,0.0
no_revision,pseudo,2005:Q1:pre_advance:pseudo,2005-04-30,pre_advance,DELTA_SA,DELTA_SA,2005:Q1,0.0,,,not_available,0.3950999999999998,-0.3950999999999998,True,True,0,,,,,,,13,,0.0
bridge,pseudo,2005:Q1:pre_advance:pseudo,2005-04-30,pre_advance,DELTA_SA,DELTA_SA,2005:Q1,0.26328560705155235,,,not_available,0.3950999999999998,-0.13181439294844743,True,True,0,,,,,,,13,,0.0
midas_umidas,pseudo,2005:Q1:pre_advance:pseudo,2005-04-30,pre_advance,DELTA_SA,DELTA_SA,2005:Q1,-5.913731381630731,,,not_available,0.3950999999999998,-6.30883138163073,True,True,0,,,,,,,13,,0.0
monthly_mixed_frequency_kalman_em,pseudo,2005:Q1:pre_advance:pseudo,2005-04-30,pre_advance,DELTA_SA,DELTA_SA,2005:Q1,-0.01770086465016041,0.323400574892708,0.5686831937842968,model_implied_state_space,0.3950999999999998,-0.4128008646501602,True,False,100,-2988.06620563235,-3759.8754573896226,-2988.06620563235,0.8562145196074198,0.0002863668013044647,101.0,13,,0.0
standard_dfm,pseudo,2005:Q1:pre_advance:pseudo,2005-04-30,pre_advance,DELTA_SA,DELTA_SA,2005:Q1,0.13413726161412365,,,not_available,0.3950999999999998,-0.26096273838587614,True,True,0,,,,,,,13,,0.0
release_dfm,pseudo,2005:Q1:pre_advance:pseudo,2005-04-30,pre_advance,DELTA_SA,DELTA_SA,2005:Q1,0.13413726161412365,,,not_available,0.3950999999999998,-0.26096273838587614,True,True,0,,,,,,,13,,0.0
revision_dfm_kalman_em,pseudo,2005:Q1:pre_advance:pseudo,2005-04-30,pre_advance,DELTA_SA,DELTA_SA,2005:Q1,0.08107079276781226,0.3990689179595428,0.6317190182031429,model_implied_state_space,0.3950999999999998,-0.3140292072321875,True,True,32,-1063.6987227192628,-1771.0751809212165,-1063.6987227192628,0.10229682279486951,9.607130432582101e-05,32.0,13,,0.0
indicator_revision_only_dfm_kalman_em,pseudo,2005:Q1:pre_advance:pseudo,2005-04-30,pre_advance,DELTA_SA,DELTA_SA,2005:Q1,0.0,0.43868896012233627,0.6623359873374964,model_implied_state_space,0.3950999999999998,-0.3950999999999998,True,True,40,-1831.5895501079165,-2610.6694668208806,-1831.5895501079165,0.17261582709534196,9.418342996363597e-05,40.0,13,,0.0
joint_indicator_revision_dfm_full_kalman_em,pseudo,2005:Q1:pre_advance:pseudo,2005-04-30,pre_advance,DELTA_SA,DELTA_SA,2005:Q1,0.2598827023391306,0.39461388746481063,0.628183004756425,model_implied_state_space,0.3950999999999998,-0.1352172976608692,True,True,38,-1802.147115227873,-2621.378260846373,-1802.147115227873,0.16952708836106467,9.400849766645473e-05,38.0,13,,0.0
ar,pseudo,2005:Q1:pre_second:pseudo,2005-05-31,pre_second,DELTA_TS,DELTA_TS,2005:Q1,0.04714135981196321,,,not_available,0.27649999999999997,-0.22935864018803676,True,True,0,,,,,,,13,,0.0
no_revision,pseudo,2005:Q1:pre_second:pseudo,2005-05-31,pre_second,DELTA_TS,DELTA_TS,2005:Q1,0.0,,,not_available,0.27649999999999997,-0.27649999999999997,True,True,0,,,,,,,13,,0.0
bridge,pseudo,2005:Q1:pre_second:pseudo,2005-05-31,pre_second,DELTA_TS,DELTA_TS,2005:Q1,0.19854853703044162,,,not_available,0.27649999999999997,-0.07795146296955835,True,True,0,,,,,,,13,,0.0
midas_umidas,pseudo,2005:Q1:pre_second:pseudo,2005-05-31,pre_second,DELTA_TS,DELTA_TS,2005:Q1,0.6899398299977455,,,not_available,0.27649999999999997,0.41343982999774553,True,True,0,,,,,,,13,,0.0
monthly_mixed_frequency_kalman_em,pseudo,2005:Q1:pre_second:pseudo,2005-05-31,pre_second,DELTA_TS,DELTA_TS,2005:Q1,-0.044034611485092245,0.13121889745243243,0.3622414905176275,model_implied_state_space,0.27649999999999997,-0.3205346114850922,True,False,100,-3015.012952744717,-3778.8480385435714,-3015.012952744717,0.6900253507769776,0.00022873493207229987,101.0,13,,0.0
standard_dfm,pseudo,2005:Q1:pre_second:pseudo,2005-05-31,pre_second,DELTA_TS,DELTA_TS,2005:Q1,0.1165898545711248,,,not_available,0.27649999999999997,-0.15991014542887516,True,True,0,,,,,,,13,,0.0
release_dfm,pseudo,2005:Q1:pre_second:pseudo,2005-05-31,pre_second,DELTA_TS,DELTA_TS,2005:Q1,0.07710214238409208,,,not_available,0.27649999999999997,-0.1993978576159079,True,True,0,,,,,,,13,,0.0
revision_dfm_kalman_em,pseudo,2005:Q1:pre_second:pseudo,2005-05-31,pre_second,DELTA_TS,DELTA_TS,2005:Q1,0.0029007993712899527,0.14222024996322702,0.3771210017530541,model_implied_state_space,0.27649999999999997,-0.27359920062871,True,True,38,-1064.3491605674824,-1768.760047139762,-1064.3491605674824,0.09929159081116268,9.319229908310096e-05,38.0,13,,0.0
indicator_revision_only_dfm_kalman_em,pseudo,2005:Q1:pre_second:pseudo,2005-05-31,pre_second,DELTA_TS,DELTA_TS,2005:Q1,0.0,0.14541975252917838,0.3813394190602099,model_implied_state_space,0.27649999999999997,-0.27649999999999997,True,True,43,-1832.7691000024454,-2611.771893987557,-1832.7691000024454,0.17451500775678142,9.515832783976327e-05,43.0,13,,0.0
joint_indicator_revision_dfm_full_kalman_em,pseudo,2005:Q1:pre_second:pseudo,2005-05-31,pre_second,DELTA_TS,DELTA_TS,2005:Q1,0.006257667564306679,0.14092390535688792,0.3753983289212779,model_implied_state_space,0.27649999999999997,-0.2702423324356933,True,True,41,-1802.9873141621647,-2622.599178842016,-1802.9873141621647,0.16825197149182713,9.325801757350375e-05,41.0,13,,0.0
ar,pseudo,2005:Q1:pre_third:pseudo,2005-06-30,pre_third,DELTA_MT,DELTA_MT,2005:Q1,0.11805323624994024,,,not_available,0.6526280956602974,-0.5345748594103572,True,True,0,,,,,,,13,,0.0
no_revision,pseudo,2005:Q1:pre_third:pseudo,2005-06-30,pre_third,DELTA_MT,DELTA_MT,2005:Q1,0.0,,,not_available,0.6526280956602974,-0.6526280956602974,True,True,0,,,,,,,13,,0.0
bridge,pseudo,2005:Q1:pre_third:pseudo,2005-06-30,pre_third,DELTA_MT,DELTA_MT,2005:Q1,-0.742343832627328,,,not_available,0.6526280956602974,-1.3949719282876254,True,True,0,,,,,,,13,,0.0
midas_umidas,pseudo,2005:Q1:pre_third:pseudo,2005-06-30,pre_third,DELTA_MT,DELTA_MT,2005:Q1,0.8992375636631644,,,not_available,0.6526280956602974,0.24660946800286698,True,True,0,,,,,,,13,,0.0
monthly_mixed_frequency_kalman_em,pseudo,2005:Q1:pre_third:pseudo,2005-06-30,pre_third,DELTA_MT,DELTA_MT,2005:Q1,0.08368010987760321,5.056323560687999,2.248627039036932,model_implied_state_space,0.6526280956602974,-0.5689479857826942,True,True,45,-3066.588626997365,-3798.010642165213,-3066.588626997365,0.30646371503962655,9.989380535449201e-05,45.0,13,,0.0
standard_dfm,pseudo,2005:Q1:pre_third:pseudo,2005-06-30,pre_third,DELTA_MT,DELTA_MT,2005:Q1,0.5874745433215338,,,not_available,0.6526280956602974,-0.06515355233876363,True,True,0,,,,,,,13,,0.0
release_dfm,pseudo,2005:Q1:pre_third:pseudo,2005-06-30,pre_third,DELTA_MT,DELTA_MT,2005:Q1,0.6318362345908799,,,not_available,0.6526280956602974,-0.02079186106941755,True,True,0,,,,,,,13,,0.0
revision_dfm_kalman_em,pseudo,2005:Q1:pre_third:pseudo,2005-06-30,pre_third,DELTA_MT,DELTA_MT,2005:Q1,0.005795337392419331,4.949988472820009,2.224856955586136,model_implied_state_space,0.6526280956602974,-0.6468327582678781,True,True,33,-1064.0944128072551,-1773.4808551202702,-1064.0944128072551,0.09825320687605199,9.223984543914287e-05,33.0,13,,0.0
indicator_revision_only_dfm_kalman_em,pseudo,2005:Q1:pre_third:pseudo,2005-06-30,pre_third,DELTA_MT,DELTA_MT,2005:Q1,0.0,4.957591291500402,2.226564908440893,model_implied_state_space,0.6526280956602974,-0.6526280956602974,True,True,30,-1830.1265035712365,-2615.9827800975722,-1830.1265035712365,0.17183359486170957,9.383156822367841e-05,30.0,13,,0.0
joint_indicator_revision_dfm_full_kalman_em,pseudo,2005:Q1:pre_third:pseudo,2005-06-30,pre_third,DELTA_MT,DELTA_MT,2005:Q1,0.0056135641699808225,4.9233948608486156,2.2188724300528446,model_implied_state_space,0.6526280956602974,-0.6470145314903166,True,True,33,-1799.2183639368982,-2626.6490890813634,-1799.2183639368982,0.16766329587539985,9.312630365894443e-05,33.0,13,,0.0
ar,exact,2005:Q2:pre_advance:exact,2005-07-28,pre_advance,DELTA_SA,DELTA_SA,2005:Q2,0.21833891079913448,,,not_available,-0.12680000000000025,0.3451389107991347,True,True,0,,,,,,,13,,0.0
no_revision,exact,2005:Q2:pre_advance:exact,2005-07-28,pre_advance,DELTA_SA,DELTA_SA,2005:Q2,0.0,,,not_available,-0.12680000000000025,0.12680000000000025,True,True,0,,,,,,,13,,0.0
bridge,exact,2005:Q2:pre_advance:exact,2005-07-28,pre_advance,DELTA_SA,DELTA_SA,2005:Q2,0.22072143379207043,,,not_available,-0.12680000000000025,0.3475214337920707,True,True,0,,,,,,,13,,0.0
midas_umidas,exact,2005:Q2:pre_advance:exact,2005-07-28,pre_advance,DELTA_SA,DELTA_SA,2005:Q2,3.1834937249368505,,,not_available,-0.12680000000000025,3.3102937249368507,True,True,0,,,,,,,13,,0.0
monthly_mixed_frequency_kalman_em,exact,2005:Q2:pre_advance:exact,2005-07-28,pre_advance,DELTA_SA,DELTA_SA,2005:Q2,0.17311920759508537,0.32375454727968744,0.5689943297430015,model_implied_state_space,-0.12680000000000025,0.2999192075950856,True,False,100,-3050.1454571602208,-3819.033765343621,-3050.1454571602208,0.7348653653862129,0.0002407910165946709,101.0,13,,0.0
standard_dfm,exact,2005:Q2:pre_advance:exact,2005-07-28,pre_advance,DELTA_SA,DELTA_SA,2005:Q2,0.12854263391274845,,,not_available,-0.12680000000000025,0.2553426339127487,True,True,0,,,,,,,13,,0.0
release_dfm,exact,2005:Q2:pre_advance:exact,2005-07-28,pre_advance,DELTA_SA,DELTA_SA,2005:Q2,0.12854263391274845,,,not_available,-0.12680000000000025,0.2553426339127487,True,True,0,,,,,,,13,,0.0
revision_dfm_kalman_em,exact,2005:Q2:pre_advance:exact,2005-07-28,pre_advance,DELTA_SA,DELTA_SA,2005:Q2,0.08068926396100995,0.39692684383983057,0.6300213042745701,model_implied_state_space,-0.12680000000000025,0.2074892639610102,True,True,32,-1082.4869270866677,-1793.380027981038,-1082.4869270866677,0.10302844581497084,9.508065785303633e-05,32.0,13,,0.0
indicator_revision_only_dfm_kalman_em,exact,2005:Q2:pre_advance:exact,2005-07-28,pre_advance,DELTA_SA,DELTA_SA,2005:Q2,0.0,0.43631673998006093,0.6605427616589715,model_implied_state_space,-0.12680000000000025,0.12680000000000025,True,True,44,-1864.945936723673,-2649.888812568019,-1864.945936723673,0.17420904415098448,9.335360563255982e-05,44.0,13,,0.0
joint_indicator_revision_dfm_full_kalman_em,exact,2005:Q2:pre_advance:exact,2005-07-28,pre_advance,DELTA_SA,DELTA_SA,2005:Q2,0.3196837375507182,0.37851895518922696,0.6152389415415989,model_implied_state_space,-0.12680000000000025,0.44648373755071846,True,True,52,-1834.3333300990244,-2660.6750613460194,-1834.3333300990244,0.18204897258578967,9.91813932269359e-05,52.0,13,,0.0
ar,exact,2005:Q2:pre_second:exact,2005-08-30,pre_second,DELTA_TS,DELTA_TS,2005:Q2,0.15724034422064648,,,not_available,0.022400000000000198,0.13484034422064628,True,True,0,,,,,,,13,,0.0
no_revision,exact,2005:Q2:pre_second:exact,2005-08-30,pre_second,DELTA_TS,DELTA_TS,2005:Q2,0.0,,,not_available,0.022400000000000198,-0.022400000000000198,True,True,0,,,,,,,13,,0.0
bridge,exact,2005:Q2:pre_second:exact,2005-08-30,pre_second,DELTA_TS,DELTA_TS,2005:Q2,0.48923325473563883,,,not_available,0.022400000000000198,0.46683325473563864,True,True,0,,,,,,,13,,0.0
midas_umidas,exact,2005:Q2:pre_second:exact,2005-08-30,pre_second,DELTA_TS,DELTA_TS,2005:Q2,0.40318921264596463,,,not_available,0.022400000000000198,0.38078921264596444,True,True,0,,,,,,,13,,0.0
monthly_mixed_frequency_kalman_em,exact,2005:Q2:pre_second:exact,2005-08-30,pre_second,DELTA_TS,DELTA_TS,2005:Q2,0.07981917906592484,0.13090968586903007,0.3618144356835836,model_implied_state_space,0.022400000000000198,0.05741917906592464,True,False,100,-3069.2671036922025,-3838.9289310359904,-3069.2671036922025,0.7496426067996254,0.00024410241582142067,101.0,13,,0.0
standard_dfm,exact,2005:Q2:pre_second:exact,2005-08-30,pre_second,DELTA_TS,DELTA_TS,2005:Q2,0.10196425444292556,,,not_available,0.022400000000000198,0.07956425444292536,True,True,0,,,,,,,13,,0.0
release_dfm,exact,2005:Q2:pre_second:exact,2005-08-30,pre_second,DELTA_TS,DELTA_TS,2005:Q2,0.07100598606757691,,,not_available,0.022400000000000198,0.04860598606757671,True,True,0,,,,,,,13,,0.0
revision_dfm_kalman_em,exact,2005:Q2:pre_second:exact,2005-08-30,pre_second,DELTA_TS,DELTA_TS,2005:Q2,0.004218364811689579,0.14176027159522742,0.3765106526982038,model_implied_state_space,0.022400000000000198,-0.01818163518831062,True,True,37,-1085.7600007289748,-1792.8159694549722,-1085.7600007289748,0.10541715221552295,9.699190946845135e-05,37.0,13,,0.0
indicator_revision_only_dfm_kalman_em,exact,2005:Q2:pre_second:exact,2005-08-30,pre_second,DELTA_TS,DELTA_TS,2005:Q2,0.0,0.14603418858006056,0.38214419867382593,model_implied_state_space,0.022400000000000198,-0.022400000000000198,True,True,30,-1868.141840506658,-2656.567383677142,-1868.141840506658,0.18527265223769973,9.91119483227392e-05,30.0,13,,0.0
joint_indicator_revision_dfm_full_kalman_em,exact,2005:Q2:pre_second:exact,2005-08-30,pre_second,DELTA_TS,DELTA_TS,2005:Q2,0.008294123591586988,0.140909814744838,0.37537956090447705,model_implied_state_space,0.022400000000000198,-0.01410587640841321,True,True,33,-1837.0970848715913,-2667.330550512309,-1837.0970848715913,0.1688464225487678,9.185092302173051e-05,33.0,13,,0.0
ar,exact,2005:Q2:pre_third:exact,2005-09-28,pre_third,DELTA_MT,DELTA_MT,2005:Q2,-0.1491396090906778,,,not_available,-1.3428060791631933,1.1936664700725155,True,True,0,,,,,,,13,,0.0
no_revision,exact,2005:Q2:pre_third:exact,2005-09-28,pre_third,DELTA_MT,DELTA_MT,2005:Q2,0.0,,,not_available,-1.3428060791631933,1.3428060791631933,True,True,0,,,,,,,13,,0.0
bridge,exact,2005:Q2:pre_third:exact,2005-09-28,pre_third,DELTA_MT,DELTA_MT,2005:Q2,-1.6226863388893742,,,not_available,-1.3428060791631933,-0.2798802597261809,True,True,0,,,,,,,13,,0.0
midas_umidas,exact,2005:Q2:pre_third:exact,2005-09-28,pre_third,DELTA_MT,DELTA_MT,2005:Q2,2.1122926251624445,,,not_available,-1.3428060791631933,3.455098704325638,True,True,0,,,,,,,13,,0.0
monthly_mixed_frequency_kalman_em,exact,2005:Q2:pre_third:exact,2005-09-28,pre_third,DELTA_MT,DELTA_MT,2005:Q2,0.023445747098164826,5.089815180550686,2.2560618742735508,model_implied_state_space,-1.3428060791631933,1.366251826261358,True,False,100,-3083.746236392836,-3858.8630724892832,-3083.746236392836,0.8454312377825772,0.00027399323334048657,101.0,13,,0.0
standard_dfm,exact,2005:Q2:pre_third:exact,2005-09-28,pre_third,DELTA_MT,DELTA_MT,2005:Q2,0.5688873857821344,,,not_available,-1.3428060791631933,1.9116934649453277,True,True,0,,,,,,,13,,0.0
release_dfm,exact,2005:Q2:pre_third:exact,2005-09-28,pre_third,DELTA_MT,DELTA_MT,2005:Q2,0.4803364317521579,,,not_available,-1.3428060791631933,1.8231425109153512,True,True,0,,,,,,,13,,0.0
revision_dfm_kalman_em,exact,2005:Q2:pre_third:exact,2005-09-28,pre_third,DELTA_MT,DELTA_MT,2005:Q2,-0.00036501372424302403,4.931998438109915,2.2208103111499446,model_implied_state_space,-1.3428060791631933,1.3424410654389503,True,True,32,-1085.5133801177558,-1797.0056818131745,-1085.5133801177558,0.1033032613886462,9.50687238368136e-05,32.0,13,,0.0
indicator_revision_only_dfm_kalman_em,exact,2005:Q2:pre_third:exact,2005-09-28,pre_third,DELTA_MT,DELTA_MT,2005:Q2,0.0,4.939962164789881,2.2226025656400834,model_implied_state_space,-1.3428060791631933,1.3428060791631933,True,True,31,-1867.794840113926,-2657.8389243513084,-1867.794840113926,0.17462059527042584,9.343148667831338e-05,31.0,13,,0.0
joint_indicator_revision_dfm_full_kalman_em,exact,2005:Q2:pre_third:exact,2005-09-28,pre_third,DELTA_MT,DELTA_MT,2005:Q2,0.0002788086306493298,4.905540545982952,2.2148454903182193,model_implied_state_space,-1.3428060791631933,1.3430848877938426,True,True,33,-1837.0430687717148,-2668.5783440314913,-1837.0430687717148,0.17491660244718332,9.515552771157319e-05,33.0,13,,0.0
ar,pseudo,2005:Q2:pre_advance:pseudo,2005-07-31,pre_advance,DELTA_SA,DELTA_SA,2005:Q2,0.21833891079913448,,,not_available,-0.12680000000000025,0.3451389107991347,True,True,0,,,,,,,13,,0.0
no_revision,pseudo,2005:Q2:pre_advance:pseudo,2005-07-31,pre_advance,DELTA_SA,DELTA_SA,2005:Q2,0.0,,,not_available,-0.12680000000000025,0.12680000000000025,True,True,0,,,,,,,13,,0.0
bridge,pseudo,2005:Q2:pre_advance:pseudo,2005-07-31,pre_advance,DELTA_SA,DELTA_SA,2005:Q2,0.22072143379207043,,,not_available,-0.12680000000000025,0.3475214337920707,True,True,0,,,,,,,13,,0.0
midas_umidas,pseudo,2005:Q2:pre_advance:pseudo,2005-07-31,pre_advance,DELTA_SA,DELTA_SA,2005:Q2,3.1834937249368505,,,not_available,-0.12680000000000025,3.3102937249368507,True,True,0,,,,,,,13,,0.0
monthly_mixed_frequency_kalman_em,pseudo,2005:Q2:pre_advance:pseudo,2005-07-31,pre_advance,DELTA_SA,DELTA_SA,2005:Q2,0.17311920759508537,0.32375454727968744,0.5689943297430015,model_implied_state_space,-0.12680000000000025,0.2999192075950856,True,False,100,-3050.1454571602208,-3819.033765343621,-3050.1454571602208,0.7348653653862129,0.0002407910165946709,101.0,13,,0.0
standard_dfm,pseudo,2005:Q2:pre_advance:pseudo,2005-07-31,pre_advance,DELTA_SA,DELTA_SA,2005:Q2,0.12854263391274845,,,not_available,-0.12680000000000025,0.2553426339127487,True,True,0,,,,,,,13,,0.0
release_dfm,pseudo,2005:Q2:pre_advance:pseudo,2005-07-31,pre_advance,DELTA_SA,DELTA_SA,2005:Q2,0.12854263391274845,,,not_available,-0.12680000000000025,0.2553426339127487,True,True,0,,,,,,,13,,0.0
revision_dfm_kalman_em,pseudo,2005:Q2:pre_advance:pseudo,2005-07-31,pre_advance,DELTA_SA,DELTA_SA,2005:Q2,0.08068926396100995,0.39692684383983057,0.6300213042745701,model_implied_state_space,-0.12680000000000025,0.2074892639610102,True,True,32,-1082.4869270866677,-1793.380027981038,-1082.4869270866677,0.10302844581497084,9.508065785303633e-05,32.0,13,,0.0
indicator_revision_only_dfm_kalman_em,pseudo,2005:Q2:pre_advance:pseudo,2005-07-31,pre_advance,DELTA_SA,DELTA_SA,2005:Q2,0.0,0.43631673998006093,0.6605427616589715,model_implied_state_space,-0.12680000000000025,0.12680000000000025,True,True,44,-1864.945936723673,-2649.888812568019,-1864.945936723673,0.17420904415098448,9.335360563255982e-05,44.0,13,,0.0
joint_indicator_revision_dfm_full_kalman_em,pseudo,2005:Q2:pre_advance:pseudo,2005-07-31,pre_advance,DELTA_SA,DELTA_SA,2005:Q2,0.3196837375507182,0.37851895518922696,0.6152389415415989,model_implied_state_space,-0.12680000000000025,0.44648373755071846,True,True,52,-1834.3333300990244,-2660.6750613460194,-1834.3333300990244,0.18204897258578967,9.91813932269359e-05,52.0,13,,0.0
ar,pseudo,2005:Q2:pre_second:pseudo,2005-08-31,pre_second,DELTA_TS,DELTA_TS,2005:Q2,0.15724034422064648,,,not_available,0.022400000000000198,0.13484034422064628,True,True,0,,,,,,,13,,0.0
no_revision,pseudo,2005:Q2:pre_second:pseudo,2005-08-31,pre_second,DELTA_TS,DELTA_TS,2005:Q2,0.0,,,not_available,0.022400000000000198,-0.022400000000000198,True,True,0,,,,,,,13,,0.0
bridge,pseudo,2005:Q2:pre_second:pseudo,2005-08-31,pre_second,DELTA_TS,DELTA_TS,2005:Q2,0.48923325473563883,,,not_available,0.022400000000000198,0.46683325473563864,True,True,0,,,,,,,13,,0.0
midas_umidas,pseudo,2005:Q2:pre_second:pseudo,2005-08-31,pre_second,DELTA_TS,DELTA_TS,2005:Q2,0.40318921264596463,,,not_available,0.022400000000000198,0.38078921264596444,True,True,0,,,,,,,13,,0.0
monthly_mixed_frequency_kalman_em,pseudo,2005:Q2:pre_second:pseudo,2005-08-31,pre_second,DELTA_TS,DELTA_TS,2005:Q2,0.07981917906592484,0.13090968586903007,0.3618144356835836,model_implied_state_space,0.022400000000000198,0.05741917906592464,True,False,100,-3069.2671036922025,-3838.9289310359904,-3069.2671036922025,0.7496426067996254,0.00024410241582142067,101.0,13,,0.0
standard_dfm,pseudo,2005:Q2:pre_second:pseudo,2005-08-31,pre_second,DELTA_TS,DELTA_TS,2005:Q2,0.10196425444292556,,,not_available,0.022400000000000198,0.07956425444292536,True,True,0,,,,,,,13,,0.0
release_dfm,pseudo,2005:Q2:pre_second:pseudo,2005-08-31,pre_second,DELTA_TS,DELTA_TS,2005:Q2,0.07100598606757691,,,not_available,0.022400000000000198,0.04860598606757671,True,True,0,,,,,,,13,,0.0
revision_dfm_kalman_em,pseudo,2005:Q2:pre_second:pseudo,2005-08-31,pre_second,DELTA_TS,DELTA_TS,2005:Q2,0.004218364811689579,0.14176027159522742,0.3765106526982038,model_implied_state_space,0.022400000000000198,-0.01818163518831062,True,True,37,-1085.7600007289748,-1792.8159694549722,-1085.7600007289748,0.10541715221552295,9.699190946845135e-05,37.0,13,,0.0
indicator_revision_only_dfm_kalman_em,pseudo,2005:Q2:pre_second:pseudo,2005-08-31,pre_second,DELTA_TS,DELTA_TS,2005:Q2,0.0,0.14603418858006056,0.38214419867382593,model_implied_state_space,0.022400000000000198,-0.022400000000000198,True,True,30,-1868.141840506658,-2656.567383677142,-1868.141840506658,0.18527265223769973,9.91119483227392e-05,30.0,13,,0.0
joint_indicator_revision_dfm_full_kalman_em,pseudo,2005:Q2:pre_second:pseudo,2005-08-31,pre_second,DELTA_TS,DELTA_TS,2005:Q2,0.008294123591586988,0.140909814744838,0.37537956090447705,model_implied_state_space,0.022400000000000198,-0.01410587640841321,True,True,33,-1837.0970848715913,-2667.330550512309,-1837.0970848715913,0.1688464225487678,9.185092302173051e-05,33.0,13,,0.0
ar,pseudo,2005:Q2:pre_third:pseudo,2005-09-30,pre_third,DELTA_MT,DELTA_MT,2005:Q2,-0.1491396090906778,,,not_available,-1.3428060791631933,1.1936664700725155,True,True,0,,,,,,,13,,0.0
no_revision,pseudo,2005:Q2:pre_third:pseudo,2005-09-30,pre_third,DELTA_MT,DELTA_MT,2005:Q2,0.0,,,not_available,-1.3428060791631933,1.3428060791631933,True,True,0,,,,,,,13,,0.0
bridge,pseudo,2005:Q2:pre_third:pseudo,2005-09-30,pre_third,DELTA_MT,DELTA_MT,2005:Q2,-1.6226863388893742,,,not_available,-1.3428060791631933,-0.2798802597261809,True,True,0,,,,,,,13,,0.0
midas_umidas,pseudo,2005:Q2:pre_third:pseudo,2005-09-30,pre_third,DELTA_MT,DELTA_MT,2005:Q2,2.1122926251624445,,,not_available,-1.3428060791631933,3.455098704325638,True,True,0,,,,,,,13,,0.0
monthly_mixed_frequency_kalman_em,pseudo,2005:Q2:pre_third:pseudo,2005-09-30,pre_third,DELTA_MT,DELTA_MT,2005:Q2,0.023445747098164826,5.089815180550686,2.2560618742735508,model_implied_state_space,-1.3428060791631933,1.366251826261358,True,False,100,-3083.746236392836,-3858.8630724892832,-3083.746236392836,0.8454312377825772,0.00027399323334048657,101.0,13,,0.0
standard_dfm,pseudo,2005:Q2:pre_third:pseudo,2005-09-30,pre_third,DELTA_MT,DELTA_MT,2005:Q2,0.5688873857821344,,,not_available,-1.3428060791631933,1.9116934649453277,True,True,0,,,,,,,13,,0.0
release_dfm,pseudo,2005:Q2:pre_third:pseudo,2005-09-30,pre_third,DELTA_MT,DELTA_MT,2005:Q2,0.4803364317521579,,,not_available,-1.3428060791631933,1.8231425109153512,True,True,0,,,,,,,13,,0.0
revision_dfm_kalman_em,pseudo,2005:Q2:pre_third:pseudo,2005-09-30,pre_third,DELTA_MT,DELTA_MT,2005:Q2,-0.00036501372424302403,4.931998438109915,2.2208103111499446,model_implied_state_space,-1.3428060791631933,1.3424410654389503,True,True,32,-1085.5133801177558,-1797.0056818131745,-1085.5133801177558,0.1033032613886462,9.50687238368136e-05,32.0,13,,0.0
indicator_revision_only_dfm_kalman_em,pseudo,2005:Q2:pre_third:pseudo,2005-09-30,pre_third,DELTA_MT,DELTA_MT,2005:Q2,0.0,4.939962164789881,2.2226025656400834,model_implied_state_space,-1.3428060791631933,1.3428060791631933,True,True,31,-1867.794840113926,-2657.8389243513084,-1867.794840113926,0.17462059527042584,9.343148667831338e-05,31.0,13,,0.0
joint_indicator_revision_dfm_full_kalman_em,pseudo,2005:Q2:pre_third:pseudo,2005-09-30,pre_third,DELTA_MT,DELTA_MT,2005:Q2,0.0002788086306493298,4.905540545982952,2.2148454903182193,model_implied_state_space,-1.3428060791631933,1.3430848877938426,True,True,33,-1837.0430687717148,-2668.5783440314913,-1837.0430687717148,0.17491660244718332,9.515552771157319e-05,33.0,13,,0.0
ar,exact,2005:Q3:pre_advance:exact,2005-10-27,pre_advance,DELTA_SA,DELTA_SA,2005:Q3,-0.031815410366425656,,,not_available,0.47940000000000005,-0.5112154103664257,True,True,0,,,,,,,13,,0.0
no_revision,exact,2005:Q3:pre_advance:exact,2005-10-27,pre_advance,DELTA_SA,DELTA_SA,2005:Q3,0.0,,,not_available,0.47940000000000005,-0.47940000000000005,True,True,0,,,,,,,13,,0.0
bridge,exact,2005:Q3:pre_advance:exact,2005-10-27,pre_advance,DELTA_SA,DELTA_SA,2005:Q3,-0.13722876675774653,,,not_available,0.47940000000000005,-0.6166287667577466,True,True,0,,,,,,,13,,0.0
midas_umidas,exact,2005:Q3:pre_advance:exact,2005-10-27,pre_advance,DELTA_SA,DELTA_SA,2005:Q3,-1.097926008146679,,,not_available,0.47940000000000005,-1.5773260081466791,True,True,0,,,,,,,13,,0.0
monthly_mixed_frequency_kalman_em,exact,2005:Q3:pre_advance:exact,2005-10-27,pre_advance,DELTA_SA,DELTA_SA,2005:Q3,-0.4164164462665365,0.3198666325604336,0.5655675313881037,model_implied_state_space,0.47940000000000005,-0.8958164462665366,True,True,94,-3077.69067055778,-3874.508079532733,-3077.69067055778,0.288018590572392,9.35435479262957e-05,94.0,13,,0.0
standard_dfm,exact,2005:Q3:pre_advance:exact,2005-10-27,pre_advance,DELTA_SA,DELTA_SA,2005:Q3,0.10599607607652572,,,not_available,0.47940000000000005,-0.3734039239234743,True,True,0,,,,,,,13,,0.0
release_dfm,exact,2005:Q3:pre_advance:exact,2005-10-27,pre_advance,DELTA_SA,DELTA_SA,2005:Q3,0.10599607607652572,,,not_available,0.47940000000000005,-0.3734039239234743,True,True,0,,,,,,,13,,0.0
revision_dfm_kalman_em,exact,2005:Q3:pre_advance:exact,2005-10-27,pre_advance,DELTA_SA,DELTA_SA,2005:Q3,0.13474565010610906,0.394972439052685,0.6284683278039435,model_implied_state_space,0.47940000000000005,-0.344654349893891,True,True,31,-1104.569545693913,-1817.6113784330482,-1104.569545693913,0.1094527643915626,9.899144737684018e-05,31.0,13,,0.0
indicator_revision_only_dfm_kalman_em,exact,2005:Q3:pre_advance:exact,2005-10-27,pre_advance,DELTA_SA,DELTA_SA,2005:Q3,0.0,0.4334407743083979,0.6583621908253829,model_implied_state_space,0.47940000000000005,-0.47940000000000005,True,True,44,-1912.4533637848588,-2692.656202316803,-1912.4533637848588,0.1906751923190768,9.963984337494169e-05,44.0,13,,0.0
joint_indicator_revision_dfm_full_kalman_em,exact,2005:Q3:pre_advance:exact,2005-10-27,pre_advance,DELTA_SA,DELTA_SA,2005:Q3,0.2729946644941972,0.37622821033593645,0.6133744454539466,model_implied_state_space,0.47940000000000005,-0.20640533550580287,True,True,40,-1881.6492208110528,-2703.5114700089025,-1881.6492208110528,0.1784047064143124,9.475360569201363e-05,40.0,13,,0.0
ar,exact,2005:Q3:pre_second:exact,2005-11-29,pre_second,DELTA_TS,DELTA_TS,2005:Q3,0.04947351053060434,,,not_available,-0.14139999999999997,0.1908735105306043,True,True,0,,,,,,,13,,0.0
no_revision,exact,2005:Q3:pre_second:exact,2005-11-29,pre_second,DELTA_TS,DELTA_TS,2005:Q3,0.0,,,not_available,-0.14139999999999997,0.14139999999999997,True,True,0,,,,,,,13,,0.0
bridge,exact,2005:Q3:pre_second:exact,2005-11-29,pre_second,DELTA_TS,DELTA_TS,2005:Q3,0.5111828037580146,,,not_available,-0.14139999999999997,0.6525828037580146,True,True,0,,,,,,,13,,0.0
midas_umidas,exact,2005:Q3:pre_second:exact,2005-11-29,pre_second,DELTA_TS,DELTA_TS,2005:Q3,0.038085864696976834,,,not_available,-0.14139999999999997,0.1794858646969768,True,True,0,,,,,,,13,,0.0
monthly_mixed_frequency_kalman_em,exact,2005:Q3:pre_second:exact,2005-11-29,pre_second,DELTA_TS,DELTA_TS,2005:Q3,-0.09091132117052769,0.13594735710560402,0.3687103973386213,model_implied_state_space,-0.14139999999999997,0.05048867882947228,True,True,82,-3098.216756554014,-3899.2070011593582,-3098.216756554014,0.2825139588703678,9.114825790025732e-05,82.0,13,,0.0
standard_dfm,exact,2005:Q3:pre_second:exact,2005-11-29,pre_second,DELTA_TS,DELTA_TS,2005:Q3,0.08645353041557424,,,not_available,-0.14139999999999997,0.2278535304155742,True,True,0,,,,,,,13,,0.0
release_dfm,exact,2005:Q3:pre_second:exact,2005-11-29,pre_second,DELTA_TS,DELTA_TS,2005:Q3,0.061522575505668975,,,not_available,-0.14139999999999997,0.20292257550566895,True,True,0,,,,,,,13,,0.0
revision_dfm_kalman_em,exact,2005:Q3:pre_second:exact,2005-11-29,pre_second,DELTA_TS,DELTA_TS,2005:Q3,0.006852513384535186,0.14090131983855603,0.3753682456449347,model_implied_state_space,-0.14139999999999997,0.14825251338453516,True,True,37,-1108.3403872690562,-1816.0200234110387,-1108.3403872690562,0.10464388586228779,9.432092886418609e-05,37.0,13,,0.0
indicator_revision_only_dfm_kalman_em,exact,2005:Q3:pre_second:exact,2005-11-29,pre_second,DELTA_TS,DELTA_TS,2005:Q3,0.0,0.14406822651231965,0.37956320489783996,model_implied_state_space,-0.14139999999999997,0.14139999999999997,True,True,46,-1916.1611201112971,-2694.98553203983,-1916.1611201112971,0.18308989379852392,9.549140568663846e-05,46.0,13,,0.0
joint_indicator_revision_dfm_full_kalman_em,exact,2005:Q3:pre_second:exact,2005-11-29,pre_second,DELTA_TS,DELTA_TS,2005:Q3,0.010554789648551832,0.13987437615073228,0.3739978290722184,model_implied_state_space,-0.14139999999999997,0.1519547896485518,True,True,45,-1884.3955630534074,-2705.9515824846226,-1884.3955630534074,0.1817613393125157,9.639559033785836e-05,45.0,13,,0.0
ar,exact,2005:Q3:pre_third:exact,2005-12-20,pre_third,DELTA_MT,DELTA_MT,2005:Q3,-0.23662663208067602,,,not_available,-1.0195954654559092,0.7829688333752332,True,True,0,,,,,,,13,,0.0
no_revision,exact,2005:Q3:pre_third:exact,2005-12-20,pre_third,DELTA_MT,DELTA_MT,2005:Q3,0.0,,,not_available,-1.0195954654559092,1.0195954654559092,True,True,0,,,,,,,13,,0.0
bridge,exact,2005:Q3:pre_third:exact,2005-12-20,pre_third,DELTA_MT,DELTA_MT,2005:Q3,-1.4818678838542891,,,not_available,-1.0195954654559092,-0.46227241839837996,True,True,0,,,,,,,13,,0.0
midas_umidas,exact,2005:Q3:pre_third:exact,2005-12-20,pre_third,DELTA_MT,DELTA_MT,2005:Q3,0.5118788355479214,,,not_available,-1.0195954654559092,1.5314743010038305,True,True,0,,,,,,,13,,0.0
monthly_mixed_frequency_kalman_em,exact,2005:Q3:pre_third:exact,2005-12-20,pre_third,DELTA_MT,DELTA_MT,2005:Q3,0.0014119887583738944,5.110390379527139,2.26061725631013,model_implied_state_space,-1.0195954654559092,1.021007454214283,True,True,96,-3117.9295986306056,-3921.092923288823,-3117.9295986306056,0.2791948089129619,8.950821423053785e-05,96.0,13,,0.0
standard_dfm,exact,2005:Q3:pre_third:exact,2005-12-20,pre_third,DELTA_MT,DELTA_MT,2005:Q3,0.5286236711039196,,,not_available,-1.0195954654559092,1.5482191365598288,True,True,0,,,,,,,13,,0.0
release_dfm,exact,2005:Q3:pre_third:exact,2005-12-20,pre_third,DELTA_MT,DELTA_MT,2005:Q3,0.3212438148568122,,,not_available,-1.0195954654559092,1.3408392803127214,True,True,0,,,,,,,13,,0.0
revision_dfm_kalman_em,exact,2005:Q3:pre_third:exact,2005-12-20,pre_third,DELTA_MT,DELTA_MT,2005:Q3,0.008294135815994252,4.938643254921039,2.2223058418950887,model_implied_state_space,-1.0195954654559092,1.0278896012719034,True,True,32,-1107.9055555906,-1820.8036933210553,-1107.9055555906,0.10446263074300077,9.419448790060567e-05,32.0,13,,0.0
indicator_revision_only_dfm_kalman_em,exact,2005:Q3:pre_third:exact,2005-12-20,pre_third,DELTA_MT,DELTA_MT,2005:Q3,0.0,4.950502625170587,2.2249724998683886,model_implied_state_space,-1.0195954654559092,1.0195954654559092,True,True,46,-1915.8600269439912,-2696.0172342907904,-1915.8600269439912,0.18468439972548367,9.633807632792904e-05,46.0,13,,0.0
joint_indicator_revision_dfm_full_kalman_em,exact,2005:Q3:pre_third:exact,2005-12-20,pre_third,DELTA_MT,DELTA_MT,2005:Q3,0.00886055769687033,4.9170962539248695,2.217452649759374,model_implied_state_space,-1.0195954654559092,1.0284560231527795,True,True,46,-1883.741574630125,-2706.958566819579,-1883.741574630125,0.17469114673167496,9.267846530024881e-05,46.0,13,,0.0
ar,pseudo,2005:Q3:pre_advance:pseudo,2005-10-31,pre_advance,DELTA_SA,DELTA_SA,2005:Q3,-0.031815410366425656,,,not_available,0.47940000000000005,-0.5112154103664257,True,True,0,,,,,,,13,,0.0
no_revision,pseudo,2005:Q3:pre_advance:pseudo,2005-10-31,pre_advance,DELTA_SA,DELTA_SA,2005:Q3,0.0,,,not_available,0.47940000000000005,-0.47940000000000005,True,True,0,,,,,,,13,,0.0
bridge,pseudo,2005:Q3:pre_advance:pseudo,2005-10-31,pre_advance,DELTA_SA,DELTA_SA,2005:Q3,-0.13722876675774653,,,not_available,0.47940000000000005,-0.6166287667577466,True,True,0,,,,,,,13,,0.0
midas_umidas,pseudo,2005:Q3:pre_advance:pseudo,2005-10-31,pre_advance,DELTA_SA,DELTA_SA,2005:Q3,-1.097926008146679,,,not_available,0.47940000000000005,-1.5773260081466791,True,True,0,,,,,,,13,,0.0
monthly_mixed_frequency_kalman_em,pseudo,2005:Q3:pre_advance:pseudo,2005-10-31,pre_advance,DELTA_SA,DELTA_SA,2005:Q3,-0.4164164462665365,0.3198666325604336,0.5655675313881037,model_implied_state_space,0.47940000000000005,-0.8958164462665366,True,True,94,-3077.69067055778,-3874.508079532733,-3077.69067055778,0.288018590572392,9.35435479262957e-05,94.0,13,,0.0
standard_dfm,pseudo,2005:Q3:pre_advance:pseudo,2005-10-31,pre_advance,DELTA_SA,DELTA_SA,2005:Q3,0.10599607607652572,,,not_available,0.47940000000000005,-0.3734039239234743,True,True,0,,,,,,,13,,0.0
release_dfm,pseudo,2005:Q3:pre_advance:pseudo,2005-10-31,pre_advance,DELTA_SA,DELTA_SA,2005:Q3,0.10599607607652572,,,not_available,0.47940000000000005,-0.3734039239234743,True,True,0,,,,,,,13,,0.0
revision_dfm_kalman_em,pseudo,2005:Q3:pre_advance:pseudo,2005-10-31,pre_advance,DELTA_SA,DELTA_SA,2005:Q3,0.13474565010610906,0.394972439052685,0.6284683278039435,model_implied_state_space,0.47940000000000005,-0.344654349893891,True,True,31,-1104.569545693913,-1817.6113784330482,-1104.569545693913,0.1094527643915626,9.899144737684018e-05,31.0,13,,0.0
indicator_revision_only_dfm_kalman_em,pseudo,2005:Q3:pre_advance:pseudo,2005-10-31,pre_advance,DELTA_SA,DELTA_SA,2005:Q3,0.0,0.4334407743083979,0.6583621908253829,model_implied_state_space,0.47940000000000005,-0.47940000000000005,True,True,44,-1912.4533637848588,-2692.656202316803,-1912.4533637848588,0.1906751923190768,9.963984337494169e-05,44.0,13,,0.0
joint_indicator_revision_dfm_full_kalman_em,pseudo,2005:Q3:pre_advance:pseudo,2005-10-31,pre_advance,DELTA_SA,DELTA_SA,2005:Q3,0.2729946644941972,0.37622821033593645,0.6133744454539466,model_implied_state_space,0.47940000000000005,-0.20640533550580287,True,True,40,-1881.6492208110528,-2703.5114700089025,-1881.6492208110528,0.1784047064143124,9.475360569201363e-05,40.0,13,,0.0
ar,pseudo,2005:Q3:pre_second:pseudo,2005-11-30,pre_second,DELTA_TS,DELTA_TS,2005:Q3,0.04947351053060434,,,not_available,-0.14139999999999997,0.1908735105306043,True,True,0,,,,,,,13,,0.0
no_revision,pseudo,2005:Q3:pre_second:pseudo,2005-11-30,pre_second,DELTA_TS,DELTA_TS,2005:Q3,0.0,,,not_available,-0.14139999999999997,0.14139999999999997,True,True,0,,,,,,,13,,0.0
bridge,pseudo,2005:Q3:pre_second:pseudo,2005-11-30,pre_second,DELTA_TS,DELTA_TS,2005:Q3,0.5111828037580146,,,not_available,-0.14139999999999997,0.6525828037580146,True,True,0,,,,,,,13,,0.0
midas_umidas,pseudo,2005:Q3:pre_second:pseudo,2005-11-30,pre_second,DELTA_TS,DELTA_TS,2005:Q3,0.038085864696976834,,,not_available,-0.14139999999999997,0.1794858646969768,True,True,0,,,,,,,13,,0.0
monthly_mixed_frequency_kalman_em,pseudo,2005:Q3:pre_second:pseudo,2005-11-30,pre_second,DELTA_TS,DELTA_TS,2005:Q3,-0.09091132117052769,0.13594735710560402,0.3687103973386213,model_implied_state_space,-0.14139999999999997,0.05048867882947228,True,True,82,-3098.216756554014,-3899.2070011593582,-3098.216756554014,0.2825139588703678,9.114825790025732e-05,82.0,13,,0.0
standard_dfm,pseudo,2005:Q3:pre_second:pseudo,2005-11-30,pre_second,DELTA_TS,DELTA_TS,2005:Q3,0.08645353041557424,,,not_available,-0.14139999999999997,0.2278535304155742,True,True,0,,,,,,,13,,0.0
release_dfm,pseudo,2005:Q3:pre_second:pseudo,2005-11-30,pre_second,DELTA_TS,DELTA_TS,2005:Q3,0.061522575505668975,,,not_available,-0.14139999999999997,0.20292257550566895,True,True,0,,,,,,,13,,0.0
revision_dfm_kalman_em,pseudo,2005:Q3:pre_second:pseudo,2005-11-30,pre_second,DELTA_TS,DELTA_TS,2005:Q3,0.006852513384535186,0.14090131983855603,0.3753682456449347,model_implied_state_space,-0.14139999999999997,0.14825251338453516,True,True,37,-1108.3403872690562,-1816.0200234110387,-1108.3403872690562,0.10464388586228779,9.432092886418609e-05,37.0,13,,0.0
indicator_revision_only_dfm_kalman_em,pseudo,2005:Q3:pre_second:pseudo,2005-11-30,pre_second,DELTA_TS,DELTA_TS,2005:Q3,0.0,0.14406822651231965,0.37956320489783996,model_implied_state_space,-0.14139999999999997,0.14139999999999997,True,True,46,-1916.1611201112971,-2694.98553203983,-1916.1611201112971,0.18308989379852392,9.549140568663846e-05,46.0,13,,0.0
joint_indicator_revision_dfm_full_kalman_em,pseudo,2005:Q3:pre_second:pseudo,2005-11-30,pre_second,DELTA_TS,DELTA_TS,2005:Q3,0.010554789648551832,0.13987437615073228,0.3739978290722184,model_implied_state_space,-0.14139999999999997,0.1519547896485518,True,True,45,-1884.3955630534074,-2705.9515824846226,-1884.3955630534074,0.1817613393125157,9.639559033785836e-05,45.0,13,,0.0
ar,pseudo,2005:Q3:pre_third:pseudo,2005-12-31,pre_third,DELTA_MT,DELTA_MT,2005:Q3,-0.23662663208067602,,,not_available,-1.0195954654559092,0.7829688333752332,True,True,0,,,,,,,13,,0.0
no_revision,pseudo,2005:Q3:pre_third:pseudo,2005-12-31,pre_third,DELTA_MT,DELTA_MT,2005:Q3,0.0,,,not_available,-1.0195954654559092,1.0195954654559092,True,True,0,,,,,,,13,,0.0
bridge,pseudo,2005:Q3:pre_third:pseudo,2005-12-31,pre_third,DELTA_MT,DELTA_MT,2005:Q3,-1.4818678838542891,,,not_available,-1.0195954654559092,-0.46227241839837996,True,True,0,,,,,,,13,,0.0
midas_umidas,pseudo,2005:Q3:pre_third:pseudo,2005-12-31,pre_third,DELTA_MT,DELTA_MT,2005:Q3,0.5118788355479214,,,not_available,-1.0195954654559092,1.5314743010038305,True,True,0,,,,,,,13,,0.0
monthly_mixed_frequency_kalman_em,pseudo,2005:Q3:pre_third:pseudo,2005-12-31,pre_third,DELTA_MT,DELTA_MT,2005:Q3,0.00032648756724906747,5.11046353646555,2.260633436996266,model_implied_state_space,-1.0195954654559092,1.0199219530231582,True,True,96,-3119.2500336479675,-3922.4071652481202,-3119.2500336479675,0.27944782554504854,8.955141337523702e-05,96.0,13,,0.0
standard_dfm,pseudo,2005:Q3:pre_third:pseudo,2005-12-31,pre_third,DELTA_MT,DELTA_MT,2005:Q3,0.5286236711039196,,,not_available,-1.0195954654559092,1.5482191365598288,True,True,0,,,,,,,13,,0.0
release_dfm,pseudo,2005:Q3:pre_third:pseudo,2005-12-31,pre_third,DELTA_MT,DELTA_MT,2005:Q3,0.3212438148568122,,,not_available,-1.0195954654559092,1.3408392803127214,True,True,0,,,,,,,13,,0.0
revision_dfm_kalman_em,pseudo,2005:Q3:pre_third:pseudo,2005-12-31,pre_third,DELTA_MT,DELTA_MT,2005:Q3,0.008294135815994252,4.938643254921039,2.2223058418950887,model_implied_state_space,-1.0195954654559092,1.0278896012719034,True,True,32,-1107.9055555906,-1820.8036933210553,-1107.9055555906,0.10446263074300077,9.419448790060567e-05,32.0,13,,0.0
indicator_revision_only_dfm_kalman_em,pseudo,2005:Q3:pre_third:pseudo,2005-12-31,pre_third,DELTA_MT,DELTA_MT,2005:Q3,0.0,4.950502625170587,2.2249724998683886,model_implied_state_space,-1.0195954654559092,1.0195954654559092,True,True,46,-1915.8600269439912,-2696.0172342907904,-1915.8600269439912,0.18468439972548367,9.633807632792904e-05,46.0,13,,0.0
joint_indicator_revision_dfm_full_kalman_em,pseudo,2005:Q3:pre_third:pseudo,2005-12-31,pre_third,DELTA_MT,DELTA_MT,2005:Q3,0.00886055769687033,4.9170962539248695,2.217452649759374,model_implied_state_space,-1.0195954654559092,1.0284560231527795,True,True,46,-1883.741574630125,-2706.958566819579,-1883.741574630125,0.17469114673167496,9.267846530024881e-05,46.0,13,,0.0
ar,exact,2005:Q4:pre_advance:exact,2006-01-26,pre_advance,DELTA_SA,DELTA_SA,2005:Q4,0.22729953371432554,,,not_available,0.5086999999999999,-0.2814004662856744,True,True,0,,,,,,,13,,0.0
no_revision,exact,2005:Q4:pre_advance:exact,2006-01-26,pre_advance,DELTA_SA,DELTA_SA,2005:Q4,0.0,,,not_available,0.5086999999999999,-0.5086999999999999,True,True,0,,,,,,,13,,0.0
bridge,exact,2005:Q4:pre_advance:exact,2006-01-26,pre_advance,DELTA_SA,DELTA_SA,2005:Q4,0.22135021472261185,,,not_available,0.5086999999999999,-0.2873497852773881,True,True,0,,,,,,,13,,0.0
midas_umidas,exact,2005:Q4:pre_advance:exact,2006-01-26,pre_advance,DELTA_SA,DELTA_SA,2005:Q4,-8.24286760904817,,,not_available,0.5086999999999999,-8.75156760904817,True,True,0,,,,,,,13,,0.0
monthly_mixed_frequency_kalman_em,exact,2005:Q4:pre_advance:exact,2006-01-26,pre_advance,DELTA_SA,DELTA_SA,2005:Q4,0.4109265799874544,0.3351764540939701,0.5789442581924188,model_implied_state_space,0.5086999999999999,-0.09777342001254552,True,True,85,-3135.1827038544343,-3938.2351540800782,-3135.1827038544343,0.27071255667806327,8.631167778918464e-05,85.0,13,,0.0
standard_dfm,exact,2005:Q4:pre_advance:exact,2006-01-26,pre_advance,DELTA_SA,DELTA_SA,2005:Q4,0.16562850625163694,,,not_available,0.5086999999999999,-0.343071493748363,True,True,0,,,,,,,13,,0.0
release_dfm,exact,2005:Q4:pre_advance:exact,2006-01-26,pre_advance,DELTA_SA,DELTA_SA,2005:Q4,0.16562850625163694,,,not_available,0.5086999999999999,-0.343071493748363,True,True,0,,,,,,,13,,0.0
revision_dfm_kalman_em,exact,2005:Q4:pre_advance:exact,2006-01-26,pre_advance,DELTA_SA,DELTA_SA,2005:Q4,0.19670465159399786,0.39548666798616594,0.6288773075776911,model_implied_state_space,0.5086999999999999,-0.31199534840600207,True,True,36,-1124.8046770153326,-1836.5305822230214,-1124.8046770153326,0.11206832166408276,9.953517622703065e-05,36.0,13,,0.0
indicator_revision_only_dfm_kalman_em,exact,2005:Q4:pre_advance:exact,2006-01-26,pre_advance,DELTA_SA,DELTA_SA,2005:Q4,0.0,0.4332620177838269,0.6582264183271793,model_implied_state_space,0.5086999999999999,-0.5086999999999999,True,True,37,-1945.562235307996,-2736.81884402488,-1945.562235307996,0.19223554592213077,9.874668264550546e-05,37.0,13,,0.0
joint_indicator_revision_dfm_full_kalman_em,exact,2005:Q4:pre_advance:exact,2006-01-26,pre_advance,DELTA_SA,DELTA_SA,2005:Q4,0.313412901713912,0.3797349275202748,0.6162263606178129,model_implied_state_space,0.5086999999999999,-0.19528709828608792,True,True,34,-1914.6330737880123,-2747.6443121926723,-1914.6330737880123,0.18224009880782432,9.51240432659943e-05,34.0,13,,0.0
ar,exact,2005:Q4:pre_second:exact,2006-02-27,pre_second,DELTA_TS,DELTA_TS,2005:Q4,-0.0387977753615627,,,not_available,0.0253000000000001,-0.0640977753615628,True,True,0,,,,,,,13,,0.0
no_revision,exact,2005:Q4:pre_second:exact,2006-02-27,pre_second,DELTA_TS,DELTA_TS,2005:Q4,0.0,,,not_available,0.0253000000000001,-0.0253000000000001,True,True,0,,,,,,,13,,0.0
bridge,exact,2005:Q4:pre_second:exact,2006-02-27,pre_second,DELTA_TS,DELTA_TS,2005:Q4,0.007802897965233591,,,not_available,0.0253000000000001,-0.01749710203476651,True,True,0,,,,,,,13,,0.0
midas_umidas,exact,2005:Q4:pre_second:exact,2006-02-27,pre_second,DELTA_TS,DELTA_TS,2005:Q4,1.8522444871359478,,,not_available,0.0253000000000001,1.8269444871359477,True,True,0,,,,,,,13,,0.0
monthly_mixed_frequency_kalman_em,exact,2005:Q4:pre_second:exact,2006-02-27,pre_second,DELTA_TS,DELTA_TS,2005:Q4,0.13936215569452837,0.1323347399521092,0.36377842150422995,model_implied_state_space,0.0253000000000001,0.11406215569452827,True,True,91,-3157.074167598244,-3962.9089011673764,-3157.074167598244,0.2747209613398809,8.698246173340648e-05,91.0,13,,0.0
standard_dfm,exact,2005:Q4:pre_second:exact,2006-02-27,pre_second,DELTA_TS,DELTA_TS,2005:Q4,0.1376741988741248,,,not_available,0.0253000000000001,0.1123741988741247,True,True,0,,,,,,,13,,0.0
release_dfm,exact,2005:Q4:pre_second:exact,2006-02-27,pre_second,DELTA_TS,DELTA_TS,2005:Q4,0.09356303904053109,,,not_available,0.0253000000000001,0.06826303904053099,True,True,0,,,,,,,13,,0.0
revision_dfm_kalman_em,exact,2005:Q4:pre_second:exact,2006-02-27,pre_second,DELTA_TS,DELTA_TS,2005:Q4,-0.0006556693144381676,0.1402372334285944,0.3744826209967485,model_implied_state_space,0.0253000000000001,-0.025955669314438268,True,True,36,-1126.8923592050126,-1838.0350951835421,-1126.8923592050126,0.11142969710590478,9.878486065579519e-05,36.0,13,,0.0
indicator_revision_only_dfm_kalman_em,exact,2005:Q4:pre_second:exact,2006-02-27,pre_second,DELTA_TS,DELTA_TS,2005:Q4,0.0,0.14398047585566742,0.3794475930292185,model_implied_state_space,0.0253000000000001,-0.0253000000000001,True,True,34,-1949.5431926521935,-2738.423885203289,-1949.5431926521935,0.19062827597531395,9.77213159120869e-05,34.0,13,,0.0
joint_indicator_revision_dfm_full_kalman_em,exact,2005:Q4:pre_second:exact,2006-02-27,pre_second,DELTA_TS,DELTA_TS,2005:Q4,-0.0026388195503785905,0.1392699606480614,0.3731889074558104,model_implied_state_space,0.0253000000000001,-0.02793881955037869,True,True,33,-1918.048292085491,-2749.3412706939666,-1918.048292085491,0.1799746511592275,9.37744896104758e-05,33.0,13,,0.0
ar,exact,2005:Q4:pre_third:exact,2006-03-29,pre_third,DELTA_MT,DELTA_MT,2005:Q4,-0.9966168828104482,,,not_available,0.5620501142612218,-1.55866699707167,True,True,0,,,,,,,13,,0.0
no_revision,exact,2005:Q4:pre_third:exact,2006-03-29,pre_third,DELTA_MT,DELTA_MT,2005:Q4,0.0,,,not_available,0.5620501142612218,-0.5620501142612218,True,True,0,,,,,,,13,,0.0
bridge,exact,2005:Q4:pre_third:exact,2006-03-29,pre_third,DELTA_MT,DELTA_MT,2005:Q4,-1.1919107080270832,,,not_available,0.5620501142612218,-1.753960822288305,True,True,0,,,,,,,13,,0.0
midas_umidas,exact,2005:Q4:pre_third:exact,2006-03-29,pre_third,DELTA_MT,DELTA_MT,2005:Q4,-5.341382046319476,,,not_available,0.5620501142612218,-5.903432160580698,True,True,0,,,,,,,13,,0.0
monthly_mixed_frequency_kalman_em,exact,2005:Q4:pre_third:exact,2006-03-29,pre_third,DELTA_MT,DELTA_MT,2005:Q4,0.16780454268780542,5.073397209159047,2.252420300290123,model_implied_state_space,0.5620501142612218,-0.39424557157341633,True,True,93,-3174.0939854273806,-3982.073526693848,-3174.0939854273806,0.2831840431981618,8.9181230475804e-05,93.0,13,,0.0
standard_dfm,exact,2005:Q4:pre_third:exact,2006-03-29,pre_third,DELTA_MT,DELTA_MT,2005:Q4,0.7073418789978003,,,not_available,0.5620501142612218,0.14529176473657857,True,True,0,,,,,,,13,,0.0
release_dfm,exact,2005:Q4:pre_third:exact,2006-03-29,pre_third,DELTA_MT,DELTA_MT,2005:Q4,1.3107865361866955,,,not_available,0.5620501142612218,0.7487364219254737,True,True,0,,,,,,,13,,0.0
revision_dfm_kalman_em,exact,2005:Q4:pre_third:exact,2006-03-29,pre_third,DELTA_MT,DELTA_MT,2005:Q4,0.005828763958107608,4.924265053133308,2.2190685102387686,model_implied_state_space,0.5620501142612218,-0.5562213503031141,True,True,36,-1126.768310205399,-1839.2129515149836,-1126.768310205399,0.11056112407572982,9.802570726890833e-05,36.0,13,,0.0
indicator_revision_only_dfm_kalman_em,exact,2005:Q4:pre_third:exact,2006-03-29,pre_third,DELTA_MT,DELTA_MT,2005:Q4,0.0,4.9286885990691465,2.2200649988388057,model_implied_state_space,0.5620501142612218,-0.5620501142612218,True,True,34,-1949.104540025899,-2739.4994633580154,-1949.104540025899,0.19372995979847474,9.933350338248285e-05,34.0,13,,0.0
joint_indicator_revision_dfm_full_kalman_em,exact,2005:Q4:pre_third:exact,2006-03-29,pre_third,DELTA_MT,DELTA_MT,2005:Q4,0.005317115668717509,4.889088691609704,2.2111283751988946,model_implied_state_space,0.5620501142612218,-0.5567329985925042,True,True,33,-1917.9373308724898,-2750.3891514094335,-1917.9373308724898,0.17802170341769852,9.276237782098465e-05,33.0,13,,0.0
ar,pseudo,2005:Q4:pre_advance:pseudo,2006-01-31,pre_advance,DELTA_SA,DELTA_SA,2005:Q4,0.22729953371432554,,,not_available,0.5086999999999999,-0.2814004662856744,True,True,0,,,,,,,13,,0.0
no_revision,pseudo,2005:Q4:pre_advance:pseudo,2006-01-31,pre_advance,DELTA_SA,DELTA_SA,2005:Q4,0.0,,,not_available,0.5086999999999999,-0.5086999999999999,True,True,0,,,,,,,13,,0.0
bridge,pseudo,2005:Q4:pre_advance:pseudo,2006-01-31,pre_advance,DELTA_SA,DELTA_SA,2005:Q4,0.22311809207112132,,,not_available,0.5086999999999999,-0.2855819079288786,True,True,0,,,,,,,13,,0.0
midas_umidas,pseudo,2005:Q4:pre_advance:pseudo,2006-01-31,pre_advance,DELTA_SA,DELTA_SA,2005:Q4,-8.114655237340891,,,not_available,0.5086999999999999,-8.62335523734089,True,True,0,,,,,,,13,,0.0
monthly_mixed_frequency_kalman_em,pseudo,2005:Q4:pre_advance:pseudo,2006-01-31,pre_advance,DELTA_SA,DELTA_SA,2005:Q4,0.410764971258577,0.3351810712471863,0.5789482457415225,model_implied_state_space,0.5086999999999999,-0.0979350287414229,True,True,85,-3135.158157740602,-3938.2396753663907,-3135.158157740602,0.26850644962360093,8.560903166946036e-05,85.0,13,,0.0
standard_dfm,pseudo,2005:Q4:pre_advance:pseudo,2006-01-31,pre_advance,DELTA_SA,DELTA_SA,2005:Q4,0.16559873767091293,,,not_available,0.5086999999999999,-0.343101262329087,True,True,0,,,,,,,13,,0.0
release_dfm,pseudo,2005:Q4:pre_advance:pseudo,2006-01-31,pre_advance,DELTA_SA,DELTA_SA,2005:Q4,0.16559873767091293,,,not_available,0.5086999999999999,-0.343101262329087,True,True,0,,,,,,,13,,0.0
revision_dfm_kalman_em,pseudo,2005:Q4:pre_advance:pseudo,2006-01-31,pre_advance,DELTA_SA,DELTA_SA,2005:Q4,0.19667447641917235,0.39548480012954634,0.6288758225035737,model_implied_state_space,0.5086999999999999,-0.3120255235808276,True,True,36,-1124.8054672236908,-1836.5302948490655,-1124.8054672236908,0.1120702215230267,9.953679358909528e-05,36.0,13,,0.0
indicator_revision_only_dfm_kalman_em,pseudo,2005:Q4:pre_advance:pseudo,2006-01-31,pre_advance,DELTA_SA,DELTA_SA,2005:Q4,0.0,0.43326202568495376,0.6582264243290099,model_implied_state_space,0.5086999999999999,-0.5086999999999999,True,True,37,-1945.560263348714,-2736.8169992113294,-1945.560263348714,0.19227142241288675,9.876520974222923e-05,37.0,13,,0.0
joint_indicator_revision_dfm_full_kalman_em,pseudo,2005:Q4:pre_advance:pseudo,2006-01-31,pre_advance,DELTA_SA,DELTA_SA,2005:Q4,0.31338940015069916,0.37973643154188075,0.616227580964923,model_implied_state_space,0.5086999999999999,-0.19531059984930077,True,True,34,-1914.6315190163207,-2747.6424725590027,-1914.6315190163207,0.182238704295969,9.512339263749294e-05,34.0,13,,0.0
ar,pseudo,2005:Q4:pre_second:pseudo,2006-02-28,pre_second,DELTA_TS,DELTA_TS,2005:Q4,-0.0387977753615627,,,not_available,0.0253000000000001,-0.0640977753615628,True,True,0,,,,,,,13,,0.0
no_revision,pseudo,2005:Q4:pre_second:pseudo,2006-02-28,pre_second,DELTA_TS,DELTA_TS,2005:Q4,0.0,,,not_available,0.0253000000000001,-0.0253000000000001,True,True,0,,,,,,,13,,0.0
bridge,pseudo,2005:Q4:pre_second:pseudo,2006-02-28,pre_second,DELTA_TS,DELTA_TS,2005:Q4,0.007802897965233591,,,not_available,0.0253000000000001,-0.01749710203476651,True,True,0,,,,,,,13,,0.0
midas_umidas,pseudo,2005:Q4:pre_second:pseudo,2006-02-28,pre_second,DELTA_TS,DELTA_TS,2005:Q4,1.8522444871359478,,,not_available,0.0253000000000001,1.8269444871359477,True,True,0,,,,,,,13,,0.0
monthly_mixed_frequency_kalman_em,pseudo,2005:Q4:pre_second:pseudo,2006-02-28,pre_second,DELTA_TS,DELTA_TS,2005:Q4,0.13936215569452837,0.1323347399521092,0.36377842150422995,model_implied_state_space,0.0253000000000001,0.11406215569452827,True,True,91,-3157.074167598244,-3962.9089011673764,-3157.074167598244,0.2747209613398809,8.698246173340648e-05,91.0,13,,0.0
standard_dfm,pseudo,2005:Q4:pre_second:pseudo,2006-02-28,pre_second,DELTA_TS,DELTA_TS,2005:Q4,0.1376741988741248,,,not_available,0.0253000000000001,0.1123741988741247,True,True,0,,,,,,,13,,0.0
release_dfm,pseudo,2005:Q4:pre_second:pseudo,2006-02-28,pre_second,DELTA_TS,DELTA_TS,2005:Q4,0.09356303904053109,,,not_available,0.0253000000000001,0.06826303904053099,True,True,0,,,,,,,13,,0.0
revision_dfm_kalman_em,pseudo,2005:Q4:pre_second:pseudo,2006-02-28,pre_second,DELTA_TS,DELTA_TS,2005:Q4,-0.0006556693144381676,0.1402372334285944,0.3744826209967485,model_implied_state_space,0.0253000000000001,-0.025955669314438268,True,True,36,-1126.8923592050126,-1838.0350951835421,-1126.8923592050126,0.11142969710590478,9.878486065579519e-05,36.0,13,,0.0
indicator_revision_only_dfm_kalman_em,pseudo,2005:Q4:pre_second:pseudo,2006-02-28,pre_second,DELTA_TS,DELTA_TS,2005:Q4,0.0,0.14398047585566742,0.3794475930292185,model_implied_state_space,0.0253000000000001,-0.0253000000000001,True,True,34,-1949.5431926521935,-2738.423885203289,-1949.5431926521935,0.19062827597531395,9.77213159120869e-05,34.0,13,,0.0
joint_indicator_revision_dfm_full_kalman_em,pseudo,2005:Q4:pre_second:pseudo,2006-02-28,pre_second,DELTA_TS,DELTA_TS,2005:Q4,-0.0026388195503785905,0.1392699606480614,0.3731889074558104,model_implied_state_space,0.0253000000000001,-0.02793881955037869,True,True,33,-1918.048292085491,-2749.3412706939666,-1918.048292085491,0.1799746511592275,9.37744896104758e-05,33.0,13,,0.0
ar,pseudo,2005:Q4:pre_third:pseudo,2006-03-31,pre_third,DELTA_MT,DELTA_MT,2005:Q4,-0.9966168828104482,,,not_available,0.5620501142612218,-1.55866699707167,True,True,0,,,,,,,13,,0.0
no_revision,pseudo,2005:Q4:pre_third:pseudo,2006-03-31,pre_third,DELTA_MT,DELTA_MT,2005:Q4,0.0,,,not_available,0.5620501142612218,-0.5620501142612218,True,True,0,,,,,,,13,,0.0
bridge,pseudo,2005:Q4:pre_third:pseudo,2006-03-31,pre_third,DELTA_MT,DELTA_MT,2005:Q4,-1.1081762178512657,,,not_available,0.5620501142612218,-1.6702263321124875,True,True,0,,,,,,,13,,0.0
midas_umidas,pseudo,2005:Q4:pre_third:pseudo,2006-03-31,pre_third,DELTA_MT,DELTA_MT,2005:Q4,-5.695596308612043,,,not_available,0.5620501142612218,-6.257646422873265,True,True,0,,,,,,,13,,0.0
monthly_mixed_frequency_kalman_em,pseudo,2005:Q4:pre_third:pseudo,2006-03-31,pre_third,DELTA_MT,DELTA_MT,2005:Q4,0.16865275271768265,5.072230370078671,2.2521612664457824,model_implied_state_space,0.5620501142612218,-0.3933973615435391,True,True,91,-3173.489760747418,-3982.3157658604555,-3173.489760747418,0.287818480317128,9.065784078868916e-05,91.0,13,,0.0
standard_dfm,pseudo,2005:Q4:pre_third:pseudo,2006-03-31,pre_third,DELTA_MT,DELTA_MT,2005:Q4,0.7032373950058517,,,not_available,0.5620501142612218,0.14118728074462994,True,True,0,,,,,,,13,,0.0
release_dfm,pseudo,2005:Q4:pre_third:pseudo,2006-03-31,pre_third,DELTA_MT,DELTA_MT,2005:Q4,1.3085325067148699,,,not_available,0.5620501142612218,0.7464823924536481,True,True,0,,,,,,,13,,0.0
revision_dfm_kalman_em,pseudo,2005:Q4:pre_third:pseudo,2006-03-31,pre_third,DELTA_MT,DELTA_MT,2005:Q4,0.005826976793584349,4.924184646700188,2.2190503930060235,model_implied_state_space,0.5620501142612218,-0.5562231374676374,True,True,36,-1126.7806561595544,-1839.3169223606624,-1126.7806561595544,0.110139913760122,9.765122132707141e-05,36.0,13,,0.0
indicator_revision_only_dfm_kalman_em,pseudo,2005:Q4:pre_third:pseudo,2006-03-31,pre_third,DELTA_MT,DELTA_MT,2005:Q4,0.0,4.928675503241588,2.2200620494124905,model_implied_state_space,0.5620501142612218,-0.5620501142612218,True,True,34,-1949.136870059889,-2739.6552122361068,-1949.136870059889,0.19364925064746785,9.929047857792075e-05,34.0,13,,0.0
joint_indicator_revision_dfm_full_kalman_em,pseudo,2005:Q4:pre_third:pseudo,2006-03-31,pre_third,DELTA_MT,DELTA_MT,2005:Q4,0.005323064669824795,4.8890772162638045,2.211125780290168,model_implied_state_space,0.5620501142612218,-0.556727049591397,True,True,33,-1917.9690339149583,-2750.5439396433153,-1917.9690339149583,0.17790530944694183,9.270020226738846e-05,33.0,13,,0.0
ar,exact,2006:Q1:pre_advance:exact,2006-04-27,pre_advance,DELTA_SA,DELTA_SA,2006:Q1,0.35429482017348324,,,not_available,0.4908000000000001,-0.1365051798265169,True,True,0,,,,,,,13,,0.0
no_revision,exact,2006:Q1:pre_advance:exact,2006-04-27,pre_advance,DELTA_SA,DELTA_SA,2006:Q1,0.0,,,not_available,0.4908000000000001,-0.4908000000000001,True,True,0,,,,,,,13,,0.0
bridge,exact,2006:Q1:pre_advance:exact,2006-04-27,pre_advance,DELTA_SA,DELTA_SA,2006:Q1,0.23181052375819844,,,not_available,0.4908000000000001,-0.2589894762418017,True,True,0,,,,,,,13,,0.0
midas_umidas,exact,2006:Q1:pre_advance:exact,2006-04-27,pre_advance,DELTA_SA,DELTA_SA,2006:Q1,-24.506359124330828,,,not_available,0.4908000000000001,-24.997159124330828,True,True,0,,,,,,,13,,0.0
monthly_mixed_frequency_kalman_em,exact,2006:Q1:pre_advance:exact,2006-04-27,pre_advance,DELTA_SA,DELTA_SA,2006:Q1,0.05282990021951228,0.336307588156334,0.5799203291455939,model_implied_state_space,0.4908000000000001,-0.43797009978048784,True,True,83,-3189.1160221251885,-3998.9295295570887,-3189.1160221251885,0.27297654777294156,8.556215178979298e-05,83.0,13,,0.0
standard_dfm,exact,2006:Q1:pre_advance:exact,2006-04-27,pre_advance,DELTA_SA,DELTA_SA,2006:Q1,0.15176793142866707,,,not_available,0.4908000000000001,-0.33903206857133306,True,True,0,,,,,,,13,,0.0
release_dfm,exact,2006:Q1:pre_advance:exact,2006-04-27,pre_advance,DELTA_SA,DELTA_SA,2006:Q1,0.15176793142866707,,,not_available,0.4908000000000001,-0.33903206857133306,True,True,0,,,,,,,13,,0.0
revision_dfm_kalman_em,exact,2006:Q1:pre_advance:exact,2006-04-27,pre_advance,DELTA_SA,DELTA_SA,2006:Q1,0.12983920056760256,0.3933160240912539,0.6271491242848497,model_implied_state_space,0.4908000000000001,-0.36096079943239756,True,True,36,-1143.4579337681996,-1859.0817515817405,-1143.4579337681996,0.10431453009573488,9.113923707585756e-05,36.0,13,,0.0
indicator_revision_only_dfm_kalman_em,exact,2006:Q1:pre_advance:exact,2006-04-27,pre_advance,DELTA_SA,DELTA_SA,2006:Q1,0.0,0.43326707185359226,0.6582302574734713,model_implied_state_space,0.4908000000000001,-0.4908000000000001,True,True,33,-1978.8942479545344,-2772.8836456345325,-1978.8942479545344,0.19501467730378863,9.848782122306174e-05,33.0,13,,0.0
joint_indicator_revision_dfm_full_kalman_em,exact,2006:Q1:pre_advance:exact,2006-04-27,pre_advance,DELTA_SA,DELTA_SA,2006:Q1,0.4056845501049393,0.38654996897454197,0.6217314283310295,model_implied_state_space,0.4908000000000001,-0.08511544989506081,True,True,33,-1948.2274721473636,-2783.8609562548745,-1948.2274721473636,0.17719233661364342,9.089561538550418e-05,33.0,13,,0.0
ar,exact,2006:Q1:pre_second:exact,2006-05-24,pre_second,DELTA_TS,DELTA_TS,2006:Q1,0.07626955245512601,,,not_available,0.3293999999999997,-0.2531304475448737,True,True,0,,,,,,,13,,0.0
no_revision,exact,2006:Q1:pre_second:exact,2006-05-24,pre_second,DELTA_TS,DELTA_TS,2006:Q1,0.0,,,not_available,0.3293999999999997,-0.3293999999999997,True,True,0,,,,,,,13,,0.0
bridge,exact,2006:Q1:pre_second:exact,2006-05-24,pre_second,DELTA_TS,DELTA_TS,2006:Q1,0.3714240401271933,,,not_available,0.3293999999999997,0.04202404012719363,True,True,0,,,,,,,13,,0.0
midas_umidas,exact,2006:Q1:pre_second:exact,2006-05-24,pre_second,DELTA_TS,DELTA_TS,2006:Q1,0.7670528895089124,,,not_available,0.3293999999999997,0.4376528895089127,True,True,0,,,,,,,13,,0.0
monthly_mixed_frequency_kalman_em,exact,2006:Q1:pre_second:exact,2006-05-24,pre_second,DELTA_TS,DELTA_TS,2006:Q1,0.13960177844950472,0.13502582006639707,0.3674585963974677,model_implied_state_space,0.3293999999999997,-0.18979822155049497,True,True,80,-3206.4227598324646,-4017.8564984300415,-3206.4227598324646,0.3149101883896037,9.81720517025809e-05,80.0,13,,0.0
standard_dfm,exact,2006:Q1:pre_second:exact,2006-05-24,pre_second,DELTA_TS,DELTA_TS,2006:Q1,0.11031236145158196,,,not_available,0.3293999999999997,-0.21908763854841773,True,True,0,,,,,,,13,,0.0
release_dfm,exact,2006:Q1:pre_second:exact,2006-05-24,pre_second,DELTA_TS,DELTA_TS,2006:Q1,0.0886419394730904,,,not_available,0.3293999999999997,-0.2407580605269093,True,True,0,,,,,,,13,,0.0
revision_dfm_kalman_em,exact,2006:Q1:pre_second:exact,2006-05-24,pre_second,DELTA_TS,DELTA_TS,2006:Q1,0.00894078963789191,0.1395238973925511,0.37352897798236634,model_implied_state_space,0.3293999999999997,-0.3204592103621078,True,True,31,-1143.2388291041077,-1863.659291194877,-1143.2388291041077,0.10806787636352055,9.443629082114318e-05,31.0,13,,0.0
indicator_revision_only_dfm_kalman_em,exact,2006:Q1:pre_second:exact,2006-05-24,pre_second,DELTA_TS,DELTA_TS,2006:Q1,0.0,0.1431712934844338,0.37837982700513223,model_implied_state_space,0.3293999999999997,-0.3293999999999997,True,True,33,-1981.1235653894655,-2776.8173607316467,-1981.1235653894655,0.19272502784974677,9.722213795114123e-05,33.0,13,,0.0
joint_indicator_revision_dfm_full_kalman_em,exact,2006:Q1:pre_second:exact,2006-05-24,pre_second,DELTA_TS,DELTA_TS,2006:Q1,0.01699967337203745,0.13839758910055056,0.37201826447171993,model_implied_state_space,0.3293999999999997,-0.31240032662796224,True,True,32,-1949.7666018750551,-2787.799653947984,-1949.7666018750551,0.1925747150139614,9.87077112246643e-05,32.0,13,,0.0
ar,exact,2006:Q1:pre_third:exact,2006-06-28,pre_third,DELTA_MT,DELTA_MT,2006:Q1,0.6297540635145742,,,not_available,-0.29235789170228976,0.922111955216864,True,True,0,,,,,,,13,,0.0
no_revision,exact,2006:Q1:pre_third:exact,2006-06-28,pre_third,DELTA_MT,DELTA_MT,2006:Q1,0.0,,,not_available,-0.29235789170228976,0.29235789170228976,True,True,0,,,,,,,13,,0.0
bridge,exact,2006:Q1:pre_third:exact,2006-06-28,pre_third,DELTA_MT,DELTA_MT,2006:Q1,0.19086668527275075,,,not_available,-0.29235789170228976,0.4832245769750405,True,True,0,,,,,,,13,,0.0
midas_umidas,exact,2006:Q1:pre_third:exact,2006-06-28,pre_third,DELTA_MT,DELTA_MT,2006:Q1,0.441605786643807,,,not_available,-0.29235789170228976,0.7339636783460968,True,True,0,,,,,,,13,,0.0
monthly_mixed_frequency_kalman_em,exact,2006:Q1:pre_third:exact,2006-06-28,pre_third,DELTA_MT,DELTA_MT,2006:Q1,0.13359989989943077,5.02398433436523,2.241424621611271,model_implied_state_space,-0.29235789170228976,0.42595779160172054,True,True,83,-3224.246887075589,-4042.260650647183,-3224.246887075589,0.2801228168095804,8.684559637865973e-05,83.0,13,,0.0
standard_dfm,exact,2006:Q1:pre_third:exact,2006-06-28,pre_third,DELTA_MT,DELTA_MT,2006:Q1,0.6584171016048774,,,not_available,-0.29235789170228976,0.9507749933071672,True,True,0,,,,,,,13,,0.0
release_dfm,exact,2006:Q1:pre_third:exact,2006-06-28,pre_third,DELTA_MT,DELTA_MT,2006:Q1,0.2759997487046846,,,not_available,-0.29235789170228976,0.5683576404069743,True,True,0,,,,,,,13,,0.0
revision_dfm_kalman_em,exact,2006:Q1:pre_third:exact,2006-06-28,pre_third,DELTA_MT,DELTA_MT,2006:Q1,0.00915250039561677,4.881428519301826,2.209395509930675,model_implied_state_space,-0.29235789170228976,0.30151039209790653,True,True,31,-1143.7250663788973,-1865.793066033537,-1143.7250663788973,0.10646952702063572,9.300016961568516e-05,31.0,13,,0.0
indicator_revision_only_dfm_kalman_em,exact,2006:Q1:pre_third:exact,2006-06-28,pre_third,DELTA_MT,DELTA_MT,2006:Q1,0.0,4.903154296917006,2.214306730540511,model_implied_state_space,-0.29235789170228976,0.29235789170228976,True,True,35,-1981.2463872669998,-2778.948675317715,-1981.2463872669998,0.19533469331804554,9.853237608664267e-05,35.0,13,,0.0
joint_indicator_revision_dfm_full_kalman_em,exact,2006:Q1:pre_third:exact,2006-06-28,pre_third,DELTA_MT,DELTA_MT,2006:Q1,0.010830305402800278,4.864116699158563,2.205474257196978,model_implied_state_space,-0.29235789170228976,0.30318819710509004,True,True,33,-1949.7872296942542,-2789.8953506212783,-1949.7872296942542,0.1843064057495667,9.446903880412095e-05,33.0,13,,0.0
ar,pseudo,2006:Q1:pre_advance:pseudo,2006-04-30,pre_advance,DELTA_SA,DELTA_SA,2006:Q1,0.35429482017348324,,,not_available,0.4908000000000001,-0.1365051798265169,True,True,0,,,,,,,13,,0.0
no_revision,pseudo,2006:Q1:pre_advance:pseudo,2006-04-30,pre_advance,DELTA_SA,DELTA_SA,2006:Q1,0.0,,,not_available,0.4908000000000001,-0.4908000000000001,True,True,0,,,,,,,13,,0.0
bridge,pseudo,2006:Q1:pre_advance:pseudo,2006-04-30,pre_advance,DELTA_SA,DELTA_SA,2006:Q1,0.23181052375819844,,,not_available,0.4908000000000001,-0.2589894762418017,True,True,0,,,,,,,13,,0.0
midas_umidas,pseudo,2006:Q1:pre_advance:pseudo,2006-04-30,pre_advance,DELTA_SA,DELTA_SA,2006:Q1,-24.506359124330828,,,not_available,0.4908000000000001,-24.997159124330828,True,True,0,,,,,,,13,,0.0
monthly_mixed_frequency_kalman_em,pseudo,2006:Q1:pre_advance:pseudo,2006-04-30,pre_advance,DELTA_SA,DELTA_SA,2006:Q1,0.05282990021951228,0.336307588156334,0.5799203291455939,model_implied_state_space,0.4908000000000001,-0.43797009978048784,True,True,83,-3189.1160221251885,-3998.9295295570887,-3189.1160221251885,0.27297654777294156,8.556215178979298e-05,83.0,13,,0.0
standard_dfm,pseudo,2006:Q1:pre_advance:pseudo,2006-04-30,pre_advance,DELTA_SA,DELTA_SA,2006:Q1,0.15176793142866707,,,not_available,0.4908000000000001,-0.33903206857133306,True,True,0,,,,,,,13,,0.0
release_dfm,pseudo,2006:Q1:pre_advance:pseudo,2006-04-30,pre_advance,DELTA_SA,DELTA_SA,2006:Q1,0.15176793142866707,,,not_available,0.4908000000000001,-0.33903206857133306,True,True,0,,,,,,,13,,0.0
revision_dfm_kalman_em,pseudo,2006:Q1:pre_advance:pseudo,2006-04-30,pre_advance,DELTA_SA,DELTA_SA,2006:Q1,0.12983920056760256,0.3933160240912539,0.6271491242848497,model_implied_state_space,0.4908000000000001,-0.36096079943239756,True,True,36,-1143.4579337681996,-1859.0817515817405,-1143.4579337681996,0.10431453009573488,9.113923707585756e-05,36.0,13,,0.0
indicator_revision_only_dfm_kalman_em,pseudo,2006:Q1:pre_advance:pseudo,2006-04-30,pre_advance,DELTA_SA,DELTA_SA,2006:Q1,0.0,0.43326707185359226,0.6582302574734713,model_implied_state_space,0.4908000000000001,-0.4908000000000001,True,True,33,-1978.8942479545344,-2772.8836456345325,-1978.8942479545344,0.19501467730378863,9.848782122306174e-05,33.0,13,,0.0
joint_indicator_revision_dfm_full_kalman_em,pseudo,2006:Q1:pre_advance:pseudo,2006-04-30,pre_advance,DELTA_SA,DELTA_SA,2006:Q1,0.4056845501049393,0.38654996897454197,0.6217314283310295,model_implied_state_space,0.4908000000000001,-0.08511544989506081,True,True,33,-1948.2274721473636,-2783.8609562548745,-1948.2274721473636,0.17719233661364342,9.089561538550418e-05,33.0,13,,0.0
ar,pseudo,2006:Q1:pre_second:pseudo,2006-05-31,pre_second,DELTA_TS,DELTA_TS,2006:Q1,0.07626955245512601,,,not_available,0.3293999999999997,-0.2531304475448737,True,True,0,,,,,,,13,,0.0
no_revision,pseudo,2006:Q1:pre_second:pseudo,2006-05-31,pre_second,DELTA_TS,DELTA_TS,2006:Q1,0.0,,,not_available,0.3293999999999997,-0.3293999999999997,True,True,0,,,,,,,13,,0.0
bridge,pseudo,2006:Q1:pre_second:pseudo,2006-05-31,pre_second,DELTA_TS,DELTA_TS,2006:Q1,0.3714240401271933,,,not_available,0.3293999999999997,0.04202404012719363,True,True,0,,,,,,,13,,0.0
midas_umidas,pseudo,2006:Q1:pre_second:pseudo,2006-05-31,pre_second,DELTA_TS,DELTA_TS,2006:Q1,0.7670528895089124,,,not_available,0.3293999999999997,0.4376528895089127,True,True,0,,,,,,,13,,0.0
monthly_mixed_frequency_kalman_em,pseudo,2006:Q1:pre_second:pseudo,2006-05-31,pre_second,DELTA_TS,DELTA_TS,2006:Q1,0.13960177844950472,0.13502582006639707,0.3674585963974677,model_implied_state_space,0.3293999999999997,-0.18979822155049497,True,True,80,-3206.4227598324646,-4017.8564984300415,-3206.4227598324646,0.3149101883896037,9.81720517025809e-05,80.0,13,,0.0
standard_dfm,pseudo,2006:Q1:pre_second:pseudo,2006-05-31,pre_second,DELTA_TS,DELTA_TS,2006:Q1,0.11031236145158196,,,not_available,0.3293999999999997,-0.21908763854841773,True,True,0,,,,,,,13,,0.0
release_dfm,pseudo,2006:Q1:pre_second:pseudo,2006-05-31,pre_second,DELTA_TS,DELTA_TS,2006:Q1,0.0886419394730904,,,not_available,0.3293999999999997,-0.2407580605269093,True,True,0,,,,,,,13,,0.0
revision_dfm_kalman_em,pseudo,2006:Q1:pre_second:pseudo,2006-05-31,pre_second,DELTA_TS,DELTA_TS,2006:Q1,0.00894078963789191,0.1395238973925511,0.37352897798236634,model_implied_state_space,0.3293999999999997,-0.3204592103621078,True,True,31,-1143.2388291041077,-1863.659291194877,-1143.2388291041077,0.10806787636352055,9.443629082114318e-05,31.0,13,,0.0
indicator_revision_only_dfm_kalman_em,pseudo,2006:Q1:pre_second:pseudo,2006-05-31,pre_second,DELTA_TS,DELTA_TS,2006:Q1,0.0,0.1431712934844338,0.37837982700513223,model_implied_state_space,0.3293999999999997,-0.3293999999999997,True,True,33,-1981.1235653894655,-2776.8173607316467,-1981.1235653894655,0.19272502784974677,9.722213795114123e-05,33.0,13,,0.0
joint_indicator_revision_dfm_full_kalman_em,pseudo,2006:Q1:pre_second:pseudo,2006-05-31,pre_second,DELTA_TS,DELTA_TS,2006:Q1,0.01699967337203745,0.13839758910055056,0.37201826447171993,model_implied_state_space,0.3293999999999997,-0.31240032662796224,True,True,32,-1949.7666018750551,-2787.799653947984,-1949.7666018750551,0.1925747150139614,9.87077112246643e-05,32.0,13,,0.0
ar,pseudo,2006:Q1:pre_third:pseudo,2006-06-30,pre_third,DELTA_MT,DELTA_MT,2006:Q1,0.6297540635145742,,,not_available,-0.29235789170228976,0.922111955216864,True,True,0,,,,,,,13,,0.0
no_revision,pseudo,2006:Q1:pre_third:pseudo,2006-06-30,pre_third,DELTA_MT,DELTA_MT,2006:Q1,0.0,,,not_available,-0.29235789170228976,0.29235789170228976,True,True,0,,,,,,,13,,0.0
bridge,pseudo,2006:Q1:pre_third:pseudo,2006-06-30,pre_third,DELTA_MT,DELTA_MT,2006:Q1,0.19086668527275075,,,not_available,-0.29235789170228976,0.4832245769750405,True,True,0,,,,,,,13,,0.0
midas_umidas,pseudo,2006:Q1:pre_third:pseudo,2006-06-30,pre_third,DELTA_MT,DELTA_MT,2006:Q1,0.441605786643807,,,not_available,-0.29235789170228976,0.7339636783460968,True,True,0,,,,,,,13,,0.0
monthly_mixed_frequency_kalman_em,pseudo,2006:Q1:pre_third:pseudo,2006-06-30,pre_third,DELTA_MT,DELTA_MT,2006:Q1,0.13359989989943077,5.02398433436523,2.241424621611271,model_implied_state_space,-0.29235789170228976,0.42595779160172054,True,True,83,-3224.246887075589,-4042.260650647183,-3224.246887075589,0.2801228168095804,8.684559637865973e-05,83.0,13,,0.0
standard_dfm,pseudo,2006:Q1:pre_third:pseudo,2006-06-30,pre_third,DELTA_MT,DELTA_MT,2006:Q1,0.6584171016048774,,,not_available,-0.29235789170228976,0.9507749933071672,True,True,0,,,,,,,13,,0.0
release_dfm,pseudo,2006:Q1:pre_third:pseudo,2006-06-30,pre_third,DELTA_MT,DELTA_MT,2006:Q1,0.2759997487046846,,,not_available,-0.29235789170228976,0.5683576404069743,True,True,0,,,,,,,13,,0.0
revision_dfm_kalman_em,pseudo,2006:Q1:pre_third:pseudo,2006-06-30,pre_third,DELTA_MT,DELTA_MT,2006:Q1,0.00915250039561677,4.881428519301826,2.209395509930675,model_implied_state_space,-0.29235789170228976,0.30151039209790653,True,True,31,-1143.7250663788973,-1865.793066033537,-1143.7250663788973,0.10646952702063572,9.300016961568516e-05,31.0,13,,0.0
indicator_revision_only_dfm_kalman_em,pseudo,2006:Q1:pre_third:pseudo,2006-06-30,pre_third,DELTA_MT,DELTA_MT,2006:Q1,0.0,4.903154296917006,2.214306730540511,model_implied_state_space,-0.29235789170228976,0.29235789170228976,True,True,35,-1981.2463872669998,-2778.948675317715,-1981.2463872669998,0.19533469331804554,9.853237608664267e-05,35.0,13,,0.0
joint_indicator_revision_dfm_full_kalman_em,pseudo,2006:Q1:pre_third:pseudo,2006-06-30,pre_third,DELTA_MT,DELTA_MT,2006:Q1,0.010830305402800278,4.864116699158563,2.205474257196978,model_implied_state_space,-0.29235789170228976,0.30318819710509004,True,True,33,-1949.7872296942542,-2789.8953506212783,-1949.7872296942542,0.1843064057495667,9.446903880412095e-05,33.0,13,,0.0
ar,exact,2006:Q2:pre_advance:exact,2006-07-27,pre_advance,DELTA_SA,DELTA_SA,2006:Q2,0.19275954019070385,,,not_available,0.4434999999999998,-0.25074045980929593,True,True,0,,,,,,,13,,0.0
no_revision,exact,2006:Q2:pre_advance:exact,2006-07-27,pre_advance,DELTA_SA,DELTA_SA,2006:Q2,0.0,,,not_available,0.4434999999999998,-0.4434999999999998,True,True,0,,,,,,,13,,0.0
bridge,exact,2006:Q2:pre_advance:exact,2006-07-27,pre_advance,DELTA_SA,DELTA_SA,2006:Q2,-0.003709582394132216,,,not_available,0.4434999999999998,-0.447209582394132,True,True,0,,,,,,,13,,0.0
midas_umidas,exact,2006:Q2:pre_advance:exact,2006-07-27,pre_advance,DELTA_SA,DELTA_SA,2006:Q2,7.631526192585322,,,not_available,0.4434999999999998,7.188026192585323,True,True,0,,,,,,,13,,0.0
monthly_mixed_frequency_kalman_em,exact,2006:Q2:pre_advance:exact,2006-07-27,pre_advance,DELTA_SA,DELTA_SA,2006:Q2,0.3606084172639985,0.33145470985638426,0.5757210347524088,model_implied_state_space,0.4434999999999998,-0.08289158273600128,True,True,84,-3242.4480402604686,-4062.640507889376,-3242.4480402604686,0.3225366743859013,9.943264072968958e-05,84.0,13,,0.0
standard_dfm,exact,2006:Q2:pre_advance:exact,2006-07-27,pre_advance,DELTA_SA,DELTA_SA,2006:Q2,0.18041479596781063,,,not_available,0.4434999999999998,-0.26308520403218916,True,True,0,,,,,,,13,,0.0
release_dfm,exact,2006:Q2:pre_advance:exact,2006-07-27,pre_advance,DELTA_SA,DELTA_SA,2006:Q2,0.18041479596781063,,,not_available,0.4434999999999998,-0.26308520403218916,True,True,0,,,,,,,13,,0.0
revision_dfm_kalman_em,exact,2006:Q2:pre_advance:exact,2006-07-27,pre_advance,DELTA_SA,DELTA_SA,2006:Q2,0.08138641953411607,0.3922186576655875,0.6262736284289699,model_implied_state_space,0.4434999999999998,-0.3621135804658837,True,True,31,-1159.9886874383635,-1884.781083250096,-1159.9886874383635,0.1061849279233229,9.145241310636423e-05,31.0,13,,0.0
indicator_revision_only_dfm_kalman_em,exact,2006:Q2:pre_advance:exact,2006-07-27,pre_advance,DELTA_SA,DELTA_SA,2006:Q2,0.0,0.4308759634367725,0.6564114284781858,model_implied_state_space,0.4434999999999998,-0.4434999999999998,True,True,39,-2015.4500378211792,-2815.340773554568,-2015.4500378211792,0.19736583077133218,9.786828893039112e-05,39.0,13,,0.0
joint_indicator_revision_dfm_full_kalman_em,exact,2006:Q2:pre_advance:exact,2006-07-27,pre_advance,DELTA_SA,DELTA_SA,2006:Q2,0.3176972075596116,0.3746822945115884,0.6121129752844555,model_implied_state_space,0.4434999999999998,-0.12580279244038817,True,True,35,-1984.160783012493,-2826.283227313554,-1984.160783012493,0.1963071182829026,9.887748620071757e-05,35.0,13,,0.0
ar,exact,2006:Q2:pre_second:exact,2006-08-29,pre_second,DELTA_TS,DELTA_TS,2006:Q2,0.15003765644417788,,,not_available,-0.34259999999999957,0.49263765644417745,True,True,0,,,,,,,13,,0.0
no_revision,exact,2006:Q2:pre_second:exact,2006-08-29,pre_second,DELTA_TS,DELTA_TS,2006:Q2,0.0,,,not_available,-0.34259999999999957,0.34259999999999957,True,True,0,,,,,,,13,,0.0
bridge,exact,2006:Q2:pre_second:exact,2006-08-29,pre_second,DELTA_TS,DELTA_TS,2006:Q2,-0.09619672090274789,,,not_available,-0.34259999999999957,0.24640327909725168,True,True,0,,,,,,,13,,0.0
midas_umidas,exact,2006:Q2:pre_second:exact,2006-08-29,pre_second,DELTA_TS,DELTA_TS,2006:Q2,-0.06269428375548536,,,not_available,-0.34259999999999957,0.2799057162445142,True,True,0,,,,,,,13,,0.0
monthly_mixed_frequency_kalman_em,exact,2006:Q2:pre_second:exact,2006-08-29,pre_second,DELTA_TS,DELTA_TS,2006:Q2,0.1861809585157972,0.13229609317199198,0.36372529905409656,model_implied_state_space,-0.34259999999999957,0.5287809585157968,True,True,84,-3260.8449272879575,-4082.4020873898817,-3260.8449272879575,0.2780120769830319,8.522427944949075e-05,84.0,13,,0.0
standard_dfm,exact,2006:Q2:pre_second:exact,2006-08-29,pre_second,DELTA_TS,DELTA_TS,2006:Q2,0.11872079344451558,,,not_available,-0.34259999999999957,0.46132079344451515,True,True,0,,,,,,,13,,0.0
release_dfm,exact,2006:Q2:pre_second:exact,2006-08-29,pre_second,DELTA_TS,DELTA_TS,2006:Q2,0.09286842184072608,,,not_available,-0.34259999999999957,0.43546842184072565,True,True,0,,,,,,,13,,0.0
revision_dfm_kalman_em,exact,2006:Q2:pre_second:exact,2006-08-29,pre_second,DELTA_TS,DELTA_TS,2006:Q2,-0.00013619841229406404,0.13932717519413307,0.37326555586356086,model_implied_state_space,-0.34259999999999957,0.3424638015877055,True,True,31,-1160.9216146252113,-1885.9139988991365,-1160.9216146252113,0.10970113670896353,9.440463025476618e-05,31.0,13,,0.0
indicator_revision_only_dfm_kalman_em,exact,2006:Q2:pre_second:exact,2006-08-29,pre_second,DELTA_TS,DELTA_TS,2006:Q2,0.0,0.14282874438624682,0.37792690349622743,model_implied_state_space,-0.34259999999999957,0.34259999999999957,True,True,35,-2016.836075461459,-2816.2152029985227,-2016.836075461459,0.19031512009041762,9.430754770039113e-05,35.0,13,,0.0
joint_indicator_revision_dfm_full_kalman_em,exact,2006:Q2:pre_second:exact,2006-08-29,pre_second,DELTA_TS,DELTA_TS,2006:Q2,0.0052251650724648435,0.13813355355640977,0.37166322599419194,model_implied_state_space,-0.34259999999999957,0.3478251650724644,True,True,34,-1984.7170825623637,-2827.272706358097,-1984.7170825623637,0.19040307737964213,9.587711348915399e-05,34.0,13,,0.0
ar,exact,2006:Q2:pre_third:exact,2006-09-27,pre_third,DELTA_MT,DELTA_MT,2006:Q2,-0.6219759728180208,,,not_available,-1.5228742304880587,0.900898257670038,True,True,0,,,,,,,13,,0.0
no_revision,exact,2006:Q2:pre_third:exact,2006-09-27,pre_third,DELTA_MT,DELTA_MT,2006:Q2,0.0,,,not_available,-1.5228742304880587,1.5228742304880587,True,True,0,,,,,,,13,,0.0
bridge,exact,2006:Q2:pre_third:exact,2006-09-27,pre_third,DELTA_MT,DELTA_MT,2006:Q2,-0.12130010195925678,,,not_available,-1.5228742304880587,1.401574128528802,True,True,0,,,,,,,13,,0.0
midas_umidas,exact,2006:Q2:pre_third:exact,2006-09-27,pre_third,DELTA_MT,DELTA_MT,2006:Q2,5.339058585208266,,,not_available,-1.5228742304880587,6.861932815696325,True,True,0,,,,,,,13,,0.0
monthly_mixed_frequency_kalman_em,exact,2006:Q2:pre_third:exact,2006-09-27,pre_third,DELTA_MT,DELTA_MT,2006:Q2,0.17050170507271467,4.9870099107627395,2.2331614161906748,model_implied_state_space,-1.5228742304880587,1.6933759355607734,True,True,76,-3276.073773321121,-4097.618787963407,-3276.073773321121,0.31680693015641737,9.666438051827433e-05,76.0,13,,0.0
standard_dfm,exact,2006:Q2:pre_third:exact,2006-09-27,pre_third,DELTA_MT,DELTA_MT,2006:Q2,0.6584910733278364,,,not_available,-1.5228742304880587,2.181365303815895,True,True,0,,,,,,,13,,0.0
release_dfm,exact,2006:Q2:pre_third:exact,2006-09-27,pre_third,DELTA_MT,DELTA_MT,2006:Q2,0.9167179923830613,,,not_available,-1.5228742304880587,2.43959222287112,True,True,0,,,,,,,13,,0.0
revision_dfm_kalman_em,exact,2006:Q2:pre_third:exact,2006-09-27,pre_third,DELTA_MT,DELTA_MT,2006:Q2,0.005501457732854931,4.865988717595401,2.2058986190655725,model_implied_state_space,-1.5228742304880587,1.5283756882209136,True,True,36,-1160.916911075295,-1883.419605295915,-1160.916911075295,0.11500867887343702,9.89720479431989e-05,36.0,13,,0.0
indicator_revision_only_dfm_kalman_em,exact,2006:Q2:pre_third:exact,2006-09-27,pre_third,DELTA_MT,DELTA_MT,2006:Q2,0.0,4.8691218673316055,2.206608680154142,model_implied_state_space,-1.5228742304880587,1.5228742304880587,True,True,35,-2016.6682040197652,-2817.3475676102394,-2016.6682040197652,0.18989238993276558,9.410591868210864e-05,35.0,13,,0.0
joint_indicator_revision_dfm_full_kalman_em,exact,2006:Q2:pre_third:exact,2006-09-27,pre_third,DELTA_MT,DELTA_MT,2006:Q2,0.0068602145791007985,4.831576991386972,2.198084846266625,model_implied_state_space,-1.5228742304880587,1.5297344450671595,True,True,34,-1984.4437216994902,-2828.378841325922,-1984.4437216994902,0.19109360360653227,9.623804041598799e-05,34.0,13,,0.0
ar,pseudo,2006:Q2:pre_advance:pseudo,2006-07-31,pre_advance,DELTA_SA,DELTA_SA,2006:Q2,0.19275954019070385,,,not_available,0.4434999999999998,-0.25074045980929593,True,True,0,,,,,,,13,,0.0
no_revision,pseudo,2006:Q2:pre_advance:pseudo,2006-07-31,pre_advance,DELTA_SA,DELTA_SA,2006:Q2,0.0,,,not_available,0.4434999999999998,-0.4434999999999998,True,True,0,,,,,,,13,,0.0
bridge,pseudo,2006:Q2:pre_advance:pseudo,2006-07-31,pre_advance,DELTA_SA,DELTA_SA,2006:Q2,-0.003709582394132216,,,not_available,0.4434999999999998,-0.447209582394132,True,True,0,,,,,,,13,,0.0
midas_umidas,pseudo,2006:Q2:pre_advance:pseudo,2006-07-31,pre_advance,DELTA_SA,DELTA_SA,2006:Q2,7.631526192585322,,,not_available,0.4434999999999998,7.188026192585323,True,True,0,,,,,,,13,,0.0
monthly_mixed_frequency_kalman_em,pseudo,2006:Q2:pre_advance:pseudo,2006-07-31,pre_advance,DELTA_SA,DELTA_SA,2006:Q2,0.3606084172639985,0.33145470985638426,0.5757210347524088,model_implied_state_space,0.4434999999999998,-0.08289158273600128,True,True,84,-3242.4480402604686,-4062.640507889376,-3242.4480402604686,0.3225366743859013,9.943264072968958e-05,84.0,13,,0.0
standard_dfm,pseudo,2006:Q2:pre_advance:pseudo,2006-07-31,pre_advance,DELTA_SA,DELTA_SA,2006:Q2,0.18041479596781063,,,not_available,0.4434999999999998,-0.26308520403218916,True,True,0,,,,,,,13,,0.0
release_dfm,pseudo,2006:Q2:pre_advance:pseudo,2006-07-31,pre_advance,DELTA_SA,DELTA_SA,2006:Q2,0.18041479596781063,,,not_available,0.4434999999999998,-0.26308520403218916,True,True,0,,,,,,,13,,0.0
revision_dfm_kalman_em,pseudo,2006:Q2:pre_advance:pseudo,2006-07-31,pre_advance,DELTA_SA,DELTA_SA,2006:Q2,0.08138641953411607,0.3922186576655875,0.6262736284289699,model_implied_state_space,0.4434999999999998,-0.3621135804658837,True,True,31,-1159.9886874383635,-1884.781083250096,-1159.9886874383635,0.1061849279233229,9.145241310636423e-05,31.0,13,,0.0
indicator_revision_only_dfm_kalman_em,pseudo,2006:Q2:pre_advance:pseudo,2006-07-31,pre_advance,DELTA_SA,DELTA_SA,2006:Q2,0.0,0.4308759634367725,0.6564114284781858,model_implied_state_space,0.4434999999999998,-0.4434999999999998,True,True,39,-2015.4500378211792,-2815.340773554568,-2015.4500378211792,0.19736583077133218,9.786828893039112e-05,39.0,13,,0.0
joint_indicator_revision_dfm_full_kalman_em,pseudo,2006:Q2:pre_advance:pseudo,2006-07-31,pre_advance,DELTA_SA,DELTA_SA,2006:Q2,0.3176972075596116,0.3746822945115884,0.6121129752844555,model_implied_state_space,0.4434999999999998,-0.12580279244038817,True,True,35,-1984.160783012493,-2826.283227313554,-1984.160783012493,0.1963071182829026,9.887748620071757e-05,35.0,13,,0.0
ar,pseudo,2006:Q2:pre_second:pseudo,2006-08-31,pre_second,DELTA_TS,DELTA_TS,2006:Q2,0.15003765644417788,,,not_available,-0.34259999999999957,0.49263765644417745,True,True,0,,,,,,,13,,0.0
no_revision,pseudo,2006:Q2:pre_second:pseudo,2006-08-31,pre_second,DELTA_TS,DELTA_TS,2006:Q2,0.0,,,not_available,-0.34259999999999957,0.34259999999999957,True,True,0,,,,,,,13,,0.0
bridge,pseudo,2006:Q2:pre_second:pseudo,2006-08-31,pre_second,DELTA_TS,DELTA_TS,2006:Q2,-0.09696653829506974,,,not_available,-0.34259999999999957,0.24563346170492983,True,True,0,,,,,,,13,,0.0
midas_umidas,pseudo,2006:Q2:pre_second:pseudo,2006-08-31,pre_second,DELTA_TS,DELTA_TS,2006:Q2,-0.0638026357583037,,,not_available,-0.34259999999999957,0.2787973642416959,True,True,0,,,,,,,13,,0.0
monthly_mixed_frequency_kalman_em,pseudo,2006:Q2:pre_second:pseudo,2006-08-31,pre_second,DELTA_TS,DELTA_TS,2006:Q2,0.18612900278065592,0.13229994929285116,0.3637305998852051,model_implied_state_space,-0.34259999999999957,0.5287290027806555,True,True,84,-3260.869852689247,-4082.4060777614495,-3260.869852689247,0.2789409494021129,8.550834650646883e-05,84.0,13,,0.0
standard_dfm,pseudo,2006:Q2:pre_second:pseudo,2006-08-31,pre_second,DELTA_TS,DELTA_TS,2006:Q2,0.11851880070235099,,,not_available,-0.34259999999999957,0.46111880070235056,True,True,0,,,,,,,13,,0.0
release_dfm,pseudo,2006:Q2:pre_second:pseudo,2006-08-31,pre_second,DELTA_TS,DELTA_TS,2006:Q2,0.09264349943882877,,,not_available,-0.34259999999999957,0.43524349943882834,True,True,0,,,,,,,13,,0.0
revision_dfm_kalman_em,pseudo,2006:Q2:pre_second:pseudo,2006-08-31,pre_second,DELTA_TS,DELTA_TS,2006:Q2,-0.00013911691704082685,0.1393270495217439,0.3732653875217255,model_implied_state_space,-0.34259999999999957,0.34246088308295874,True,True,31,-1160.9424854657852,-1885.9277960609309,-1160.9424854657852,0.10970871471431565,9.440945532716303e-05,31.0,13,,0.0
indicator_revision_only_dfm_kalman_em,pseudo,2006:Q2:pre_second:pseudo,2006-08-31,pre_second,DELTA_TS,DELTA_TS,2006:Q2,0.0,0.14282876137729084,0.3779269259754997,model_implied_state_space,-0.34259999999999957,0.34259999999999957,True,True,35,-2016.8578840120058,-2816.2320868037255,-2016.8578840120058,0.19035609470370218,9.432683070729598e-05,35.0,13,,0.0
joint_indicator_revision_dfm_full_kalman_em,pseudo,2006:Q2:pre_second:pseudo,2006-08-31,pre_second,DELTA_TS,DELTA_TS,2006:Q2,0.005235246286821038,0.1381331005255082,0.37166261652943816,model_implied_state_space,-0.34259999999999957,0.3478352462868206,True,True,34,-1984.7387768325775,-2827.289573751539,-1984.7387768325775,0.19039875105249848,9.587388784725598e-05,34.0,13,,0.0
ar,pseudo,2006:Q2:pre_third:pseudo,2006-09-30,pre_third,DELTA_MT,DELTA_MT,2006:Q2,-0.6219759728180208,,,not_available,-1.5228742304880587,0.900898257670038,True,True,0,,,,,,,13,,0.0
no_revision,pseudo,2006:Q2:pre_third:pseudo,2006-09-30,pre_third,DELTA_MT,DELTA_MT,2006:Q2,0.0,,,not_available,-1.5228742304880587,1.5228742304880587,True,True,0,,,,,,,13,,0.0
bridge,pseudo,2006:Q2:pre_third:pseudo,2006-09-30,pre_third,DELTA_MT,DELTA_MT,2006:Q2,-0.12130010195925678,,,not_available,-1.5228742304880587,1.401574128528802,True,True,0,,,,,,,13,,0.0
midas_umidas,pseudo,2006:Q2:pre_third:pseudo,2006-09-30,pre_third,DELTA_MT,DELTA_MT,2006:Q2,5.339058585208266,,,not_available,-1.5228742304880587,6.861932815696325,True,True,0,,,,,,,13,,0.0
monthly_mixed_frequency_kalman_em,pseudo,2006:Q2:pre_third:pseudo,2006-09-30,pre_third,DELTA_MT,DELTA_MT,2006:Q2,0.17050170507271467,4.9870099107627395,2.2331614161906748,model_implied_state_space,-1.5228742304880587,1.6933759355607734,True,True,76,-3276.073773321121,-4097.618787963407,-3276.073773321121,0.31680693015641737,9.666438051827433e-05,76.0,13,,0.0
standard_dfm,pseudo,2006:Q2:pre_third:pseudo,2006-09-30,pre_third,DELTA_MT,DELTA_MT,2006:Q2,0.6584910733278364,,,not_available,-1.5228742304880587,2.181365303815895,True,True,0,,,,,,,13,,0.0
release_dfm,pseudo,2006:Q2:pre_third:pseudo,2006-09-30,pre_third,DELTA_MT,DELTA_MT,2006:Q2,0.9167179923830613,,,not_available,-1.5228742304880587,2.43959222287112,True,True,0,,,,,,,13,,0.0
revision_dfm_kalman_em,pseudo,2006:Q2:pre_third:pseudo,2006-09-30,pre_third,DELTA_MT,DELTA_MT,2006:Q2,0.005501457732854931,4.865988717595401,2.2058986190655725,model_implied_state_space,-1.5228742304880587,1.5283756882209136,True,True,36,-1160.916911075295,-1883.419605295915,-1160.916911075295,0.11500867887343702,9.89720479431989e-05,36.0,13,,0.0
indicator_revision_only_dfm_kalman_em,pseudo,2006:Q2:pre_third:pseudo,2006-09-30,pre_third,DELTA_MT,DELTA_MT,2006:Q2,0.0,4.8691218673316055,2.206608680154142,model_implied_state_space,-1.5228742304880587,1.5228742304880587,True,True,35,-2016.6682040197652,-2817.3475676102394,-2016.6682040197652,0.18989238993276558,9.410591868210864e-05,35.0,13,,0.0
joint_indicator_revision_dfm_full_kalman_em,pseudo,2006:Q2:pre_third:pseudo,2006-09-30,pre_third,DELTA_MT,DELTA_MT,2006:Q2,0.0068602145791007985,4.831576991386972,2.198084846266625,model_implied_state_space,-1.5228742304880587,1.5297344450671595,True,True,34,-1984.4437216994902,-2828.378841325922,-1984.4437216994902,0.19109360360653227,9.623804041598799e-05,34.0,13,,0.0
ar,exact,2006:Q3:pre_advance:exact,2006-10-26,pre_advance,DELTA_SA,DELTA_SA,2006:Q3,0.2698690026860002,,,not_available,0.6269,-0.3570309973139998,True,True,0,,,,,,,13,,0.0
no_revision,exact,2006:Q3:pre_advance:exact,2006-10-26,pre_advance,DELTA_SA,DELTA_SA,2006:Q3,0.0,,,not_available,0.6269,-0.6269,True,True,0,,,,,,,13,,0.0
bridge,exact,2006:Q3:pre_advance:exact,2006-10-26,pre_advance,DELTA_SA,DELTA_SA,2006:Q3,0.18899295657589454,,,not_available,0.6269,-0.43790704342410547,True,True,0,,,,,,,13,,0.0
midas_umidas,exact,2006:Q3:pre_advance:exact,2006-10-26,pre_advance,DELTA_SA,DELTA_SA,2006:Q3,-1.1119282496718563,,,not_available,0.6269,-1.7388282496718563,True,True,0,,,,,,,13,,0.0
monthly_mixed_frequency_kalman_em,exact,2006:Q3:pre_advance:exact,2006-10-26,pre_advance,DELTA_SA,DELTA_SA,2006:Q3,0.010300652673009392,0.33167690367861624,0.5759139724634368,model_implied_state_space,0.6269,-0.6165993473269906,True,True,79,-3293.773876608207,-4122.697636936966,-3293.773876608207,0.28402891962468857,8.61984607761211e-05,79.0,13,,0.0
standard_dfm,exact,2006:Q3:pre_advance:exact,2006-10-26,pre_advance,DELTA_SA,DELTA_SA,2006:Q3,0.1471347337242923,,,not_available,0.6269,-0.4797652662757077,True,True,0,,,,,,,13,,0.0
release_dfm,exact,2006:Q3:pre_advance:exact,2006-10-26,pre_advance,DELTA_SA,DELTA_SA,2006:Q3,0.1471347337242923,,,not_available,0.6269,-0.4797652662757077,True,True,0,,,,,,,13,,0.0
revision_dfm_kalman_em,exact,2006:Q3:pre_advance:exact,2006-10-26,pre_advance,DELTA_SA,DELTA_SA,2006:Q3,0.04015697533660356,0.39134087829253694,0.6255724404835438,model_implied_state_space,0.6269,-0.5867430246633965,True,True,36,-1178.4628255071473,-1903.4028081700756,-1178.4628255071473,0.11151124837283533,9.453515975903032e-05,36.0,13,,0.0
indicator_revision_only_dfm_kalman_em,exact,2006:Q3:pre_advance:exact,2006-10-26,pre_advance,DELTA_SA,DELTA_SA,2006:Q3,0.0,0.4273531271382325,0.6537225153979572,model_implied_state_space,0.6269,-0.6269,True,True,45,-1808.5270375184184,-2853.5651161670194,-1808.5270375184184,0.030225515248503143,1.6703265415227037e-05,45.0,13,,0.0
joint_indicator_revision_dfm_full_kalman_em,exact,2006:Q3:pre_advance:exact,2006-10-26,pre_advance,DELTA_SA,DELTA_SA,2006:Q3,-0.2879082061286624,0.3559556332044309,0.5966201749894408,model_implied_state_space,0.6269,-0.9148082061286624,True,True,46,-1782.6880413367053,-2864.6007649479434,-1782.6880413367053,0.030335790948811336,1.700705186300848e-05,46.0,13,,0.0
ar,exact,2006:Q3:pre_second:exact,2006-11-28,pre_second,DELTA_TS,DELTA_TS,2006:Q3,-0.10248539920862054,,,not_available,-0.24970000000000003,0.1472146007913795,True,True,0,,,,,,,13,,0.0
no_revision,exact,2006:Q3:pre_second:exact,2006-11-28,pre_second,DELTA_TS,DELTA_TS,2006:Q3,0.0,,,not_available,-0.24970000000000003,0.24970000000000003,True,True,0,,,,,,,13,,0.0
bridge,exact,2006:Q3:pre_second:exact,2006-11-28,pre_second,DELTA_TS,DELTA_TS,2006:Q3,-0.4618669505312958,,,not_available,-0.24970000000000003,-0.21216695053129575,True,True,0,,,,,,,13,,0.0
midas_umidas,exact,2006:Q3:pre_second:exact,2006-11-28,pre_second,DELTA_TS,DELTA_TS,2006:Q3,-0.10992479613917538,,,not_available,-0.24970000000000003,0.13977520386082465,True,True,0,,,,,,,13,,0.0
monthly_mixed_frequency_kalman_em,exact,2006:Q3:pre_second:exact,2006-11-28,pre_second,DELTA_TS,DELTA_TS,2006:Q3,0.013616983128604598,0.13616557838807775,0.3690062037257338,model_implied_state_space,-0.24970000000000003,0.26331698312860463,True,True,76,-3312.6371388069674,-4138.068268212737,-3312.6371388069674,0.28423893848548687,8.577117743175369e-05,76.0,13,,0.0
standard_dfm,exact,2006:Q3:pre_second:exact,2006-11-28,pre_second,DELTA_TS,DELTA_TS,2006:Q3,0.09276208638106231,,,not_available,-0.24970000000000003,0.34246208638106235,True,True,0,,,,,,,13,,0.0
release_dfm,exact,2006:Q3:pre_second:exact,2006-11-28,pre_second,DELTA_TS,DELTA_TS,2006:Q3,0.06272920805043714,,,not_available,-0.24970000000000003,0.31242920805043717,True,True,0,,,,,,,13,,0.0
revision_dfm_kalman_em,exact,2006:Q3:pre_second:exact,2006-11-28,pre_second,DELTA_TS,DELTA_TS,2006:Q3,0.0009432167991125784,0.13910022750193862,0.37296142897347795,model_implied_state_space,-0.24970000000000003,0.2506432167991126,True,True,36,-1179.3224178467265,-1904.688523626704,-1179.3224178467265,0.11233015658831391,9.515998811312396e-05,36.0,13,,0.0
indicator_revision_only_dfm_kalman_em,exact,2006:Q3:pre_second:exact,2006-11-28,pre_second,DELTA_TS,DELTA_TS,2006:Q3,0.0,0.14253467482911775,0.377537646903084,model_implied_state_space,-0.24970000000000003,0.24970000000000003,True,True,45,-1809.7735119823496,-2854.6729240497953,-1809.7735119823496,0.030140996282170818,1.66450935928869e-05,45.0,13,,0.0
joint_indicator_revision_dfm_full_kalman_em,exact,2006:Q3:pre_second:exact,2006-11-28,pre_second,DELTA_TS,DELTA_TS,2006:Q3,-0.006664153833683351,0.13924142803894235,0.37315067739311736,model_implied_state_space,-0.24970000000000003,0.24303584616631668,True,True,46,-1784.0054483749982,-2865.8139855582203,-1784.0054483749982,0.02915317229349057,1.633199281863792e-05,46.0,13,,0.0
ar,exact,2006:Q3:pre_third:exact,2006-12-20,pre_third,DELTA_MT,DELTA_MT,2006:Q3,1.7582112346304788,,,not_available,-1.3628466445203344,3.121057879150813,True,True,0,,,,,,,13,,0.0
no_revision,exact,2006:Q3:pre_third:exact,2006-12-20,pre_third,DELTA_MT,DELTA_MT,2006:Q3,0.0,,,not_available,-1.3628466445203344,1.3628466445203344,True,True,0,,,,,,,13,,0.0
bridge,exact,2006:Q3:pre_third:exact,2006-12-20,pre_third,DELTA_MT,DELTA_MT,2006:Q3,0.10635273251836619,,,not_available,-1.3628466445203344,1.4691993770387006,True,True,0,,,,,,,13,,0.0
midas_umidas,exact,2006:Q3:pre_third:exact,2006-12-20,pre_third,DELTA_MT,DELTA_MT,2006:Q3,4.590013703082681,,,not_available,-1.3628466445203344,5.952860347603015,True,True,0,,,,,,,13,,0.0
monthly_mixed_frequency_kalman_em,exact,2006:Q3:pre_third:exact,2006-12-20,pre_third,DELTA_MT,DELTA_MT,2006:Q3,0.11006015884465015,4.9692660650966385,2.2291850674846714,model_implied_state_space,-1.3628466445203344,1.4729068033649846,True,True,80,-3341.164570667596,-4157.278974077898,-3341.164570667596,0.2850904494748647,8.529386479363924e-05,80.0,13,,0.0
standard_dfm,exact,2006:Q3:pre_third:exact,2006-12-20,pre_third,DELTA_MT,DELTA_MT,2006:Q3,0.5944378400789816,,,not_available,-1.3628466445203344,1.957284484599316,True,True,0,,,,,,,13,,0.0
release_dfm,exact,2006:Q3:pre_third:exact,2006-12-20,pre_third,DELTA_MT,DELTA_MT,2006:Q3,0.8466095758360468,,,not_available,-1.3628466445203344,2.2094562203563815,True,True,0,,,,,,,13,,0.0
