haminh109/Revision-Aware-DFM/outputs/full_state_space_release_revision_dfm/frozen/q2_manuscript_best_v1/runs/exact_pseudo_backtest_max_iter50/evidence_dir/cumulative_loss_point.csv
timing_mode,checkpoint_id,outcome_id,baseline_model,model_id,target_quarter,loss_diff_baseline_minus_model,cumulative_loss_diff
exact,pre_advance,A,ar,bridge,2005:Q1,0.026508366163050863,0.026508366163050863
exact,pre_advance,A,ar,bridge,2005:Q2,0.2560509148806347,0.28255928104368555
exact,pre_advance,A,ar,bridge,2005:Q3,-0.1145844705953406,0.16797481044834495
exact,pre_advance,A,ar,bridge,2005:Q4,-1.0670534169249262,-0.8990786064765812
exact,pre_advance,A,ar,bridge,2006:Q1,1.635650125619935,0.7365715191433537
exact,pre_advance,A,ar,bridge,2006:Q2,0.7676987547042062,1.50427027384756
exact,pre_advance,A,ar,bridge,2006:Q3,-0.11413741897171992,1.39013285487584
exact,pre_advance,A,ar,bridge,2006:Q4,-11.423735984280235,-10.033603129404394
exact,pre_advance,A,ar,bridge,2007:Q1,2.9288243316873825,-7.104778797717012
exact,pre_advance,A,ar,bridge,2007:Q2,-0.571880895833992,-7.676659693551004
exact,pre_advance,A,ar,bridge,2007:Q3,-4.421703232049935,-12.098362925600938
exact,pre_advance,A,ar,bridge,2007:Q4,6.981606042021606,-5.116756883579332
exact,pre_advance,A,ar,bridge,2008:Q1,-0.8428265241404629,-5.959583407719795
exact,pre_advance,A,ar,bridge,2008:Q2,-0.577590180740207,-6.537173588460002
exact,pre_advance,A,ar,bridge,2008:Q3,6.239153415743342,-0.2980201727166598
exact,pre_advance,A,ar,bridge,2008:Q4,18.935021625538596,18.637001452821934
exact,pre_advance,A,ar,bridge,2009:Q1,28.976487905078283,47.61348935790022
exact,pre_advance,A,ar,bridge,2009:Q2,-1.09729785178964,46.51619150611058
exact,pre_advance,A,ar,bridge,2009:Q3,4.302859584500106,50.819051090610685
exact,pre_advance,A,ar,bridge,2009:Q4,0.8405391500749353,51.65959024068562
exact,pre_advance,A,ar,bridge,2010:Q1,-7.902887294564819,43.7567029461208
exact,pre_advance,A,ar,bridge,2010:Q2,0.011858308232203796,43.768561254353
exact,pre_advance,A,ar,bridge,2010:Q3,0.18832454713788038,43.956885801490884
exact,pre_advance,A,ar,bridge,2010:Q4,0.2765286183734815,44.23341441986437
exact,pre_advance,A,ar,bridge,2011:Q1,-2.6235720668932383,41.60984235297113
exact,pre_advance,A,ar,bridge,2011:Q2,-1.4729019751695827,40.136940377801544
exact,pre_advance,A,ar,bridge,2011:Q3,-0.0022523077665632663,40.13468807003498
exact,pre_advance,A,ar,bridge,2011:Q4,-1.0827571627863521,39.05193090724863
exact,pre_advance,A,ar,bridge,2012:Q1,-1.0541537717065788,37.99777713554205
exact,pre_advance,A,ar,bridge,2012:Q2,-0.48417209242578196,37.51360504311627
exact,pre_advance,A,ar,bridge,2012:Q3,-0.5745739215873321,36.93903112152894
exact,pre_advance,A,ar,bridge,2012:Q4,-8.166100960885938,28.772930160643003
exact,pre_advance,A,ar,bridge,2013:Q1,0.7861555844576769,29.55908574510068
exact,pre_advance,A,ar,bridge,2013:Q2,-0.38246131422934515,29.176624430871335
exact,pre_advance,A,ar,bridge,2013:Q3,-0.46677534104159646,28.70984908982974
exact,pre_advance,A,ar,bridge,2013:Q4,-0.03976541271587547,28.670083677113862
exact,pre_advance,A,ar,bridge,2014:Q1,3.920388840588135,32.590472517702
exact,pre_advance,A,ar,bridge,2014:Q2,4.10619434075463,36.696666858456624
exact,pre_advance,A,ar,bridge,2014:Q3,-0.056094443733069724,36.64057241472355
exact,pre_advance,A,ar,bridge,2014:Q4,0.15759851648912765,36.79817093121268
exact,pre_advance,A,ar,bridge,2015:Q1,3.3836744740684477,40.18184540528113
exact,pre_advance,A,ar,bridge,2015:Q2,0.8610543008872913,41.04289970616842
exact,pre_advance,A,ar,bridge,2015:Q3,0.6136721270869124,41.656571833255335
exact,pre_advance,A,ar,bridge,2015:Q4,0.6515995292412726,42.30817136249661
exact,pre_advance,A,ar,bridge,2016:Q1,0.7787481652209838,43.08691952771759
exact,pre_advance,A,ar,bridge,2016:Q2,0.05979701929442681,43.14671654701202
exact,pre_advance,A,ar,bridge,2016:Q3,0.36377552260716206,43.51049206961918
exact,pre_advance,A,ar,bridge,2016:Q4,-0.7375381686773931,42.772953900941786
exact,pre_advance,A,ar,bridge,2017:Q1,-0.6640699525926914,42.108883948349096
exact,pre_advance,A,ar,bridge,2017:Q2,-0.12694577975501653,41.98193816859408
exact,pre_advance,A,ar,bridge,2017:Q3,-0.3142545493377593,41.667683619256316
exact,pre_advance,A,ar,bridge,2017:Q4,-1.1500300216843709,40.51765359757194
exact,pre_advance,A,ar,bridge,2018:Q1,-0.8594179119067495,39.6582356856652
exact,pre_advance,A,ar,bridge,2018:Q2,0.39498998888680337,40.053225674552
exact,pre_advance,A,ar,bridge,2018:Q3,-0.14385888757446905,39.909366786977536
exact,pre_advance,A,ar,bridge,2018:Q4,0.09068553162124561,40.00005231859878
exact,pre_advance,A,ar,bridge,2019:Q1,-0.10760998024848467,39.8924423383503
exact,pre_advance,A,ar,bridge,2019:Q2,0.6089661755654483,40.50140851391575
exact,pre_advance,A,ar,bridge,2019:Q3,-0.33271829282384147,40.16869022109191
exact,pre_advance,A,ar,bridge,2019:Q4,-0.1678155923048119,40.000874628787095
exact,pre_advance,A,ar,bridge,2020:Q1,9.102458446038142,49.10333307482524
exact,pre_advance,A,ar,bridge,2020:Q2,532.6153717534214,581.7187048282467
exact,pre_advance,A,ar,bridge,2020:Q3,1642.8717471955658,2224.5904520238128
exact,pre_advance,A,ar,bridge,2020:Q4,-25.236584640080753,2199.353867383732
exact,pre_advance,A,ar,bridge,2021:Q1,12.991205256378658,2212.3450726401106
exact,pre_advance,A,ar,bridge,2021:Q2,15.009953845689985,2227.3550264858004
exact,pre_advance,A,ar,bridge,2021:Q3,-0.30513387574141126,2227.049892610059
exact,pre_advance,A,ar,bridge,2021:Q4,-0.541655458264021,2226.508237151795
exact,pre_advance,A,ar,bridge,2022:Q1,-27.2405600181471,2199.2676771336482
exact,pre_advance,A,ar,bridge,2022:Q2,2.316800833701395,2201.58447796735
exact,pre_advance,A,ar,bridge,2022:Q3,-3.065977252215903,2198.518500715134
exact,pre_advance,A,ar,bridge,2022:Q4,-18.358927656569055,2180.159573058565
exact,pre_advance,A,ar,bridge,2023:Q1,1.7468284771528175,2181.906401535718
exact,pre_advance,A,ar,bridge,2023:Q2,-1.406930289536204,2180.4994712461817
exact,pre_advance,A,ar,bridge,2023:Q3,0.36157263477534407,2180.861043880957
exact,pre_advance,A,ar,bridge,2023:Q4,-6.352938995644128,2174.5081048853126
exact,pre_advance,A,ar,bridge,2024:Q1,0.7855773239734216,2175.293682209286
exact,pre_advance,A,ar,bridge,2024:Q2,-0.6561092188970701,2174.637572990389
exact,pre_advance,A,ar,bridge,2024:Q3,-0.07053545014004434,2174.5670375402487
exact,pre_advance,A,ar,bridge,2024:Q4,-0.00044289376299851135,2174.5665946464856
exact,pre_advance,A,ar,indicator_revision_only_dfm_kalman_em,2005:Q1,-4.269589960443082,-4.269589960443082
exact,pre_advance,A,ar,indicator_revision_only_dfm_kalman_em,2005:Q2,0.18423405390386893,-4.085355906539213
exact,pre_advance,A,ar,indicator_revision_only_dfm_kalman_em,2005:Q3,-0.16206090265923756,-4.247416809198451
exact,pre_advance,A,ar,indicator_revision_only_dfm_kalman_em,2005:Q4,-21.144103542868734,-25.391520352067186
exact,pre_advance,A,ar,indicator_revision_only_dfm_kalman_em,2006:Q1,8.410206250881135,-16.98131410118605
exact,pre_advance,A,ar,indicator_revision_only_dfm_kalman_em,2006:Q2,-4.6175942722795655,-21.598908373465616
exact,pre_advance,A,ar,indicator_revision_only_dfm_kalman_em,2006:Q3,-0.5133872087429887,-22.112295582208603
exact,pre_advance,A,ar,indicator_revision_only_dfm_kalman_em,2006:Q4,-15.429078843265977,-37.54137442547458
exact,pre_advance,A,ar,indicator_revision_only_dfm_kalman_em,2007:Q1,2.3790665368359813,-35.1623078886386
exact,pre_advance,A,ar,indicator_revision_only_dfm_kalman_em,2007:Q2,-1.7191448130158613,-36.88145270165446
exact,pre_advance,A,ar,indicator_revision_only_dfm_kalman_em,2007:Q3,-30.34090239175076,-67.22235509340521
exact,pre_advance,A,ar,indicator_revision_only_dfm_kalman_em,2007:Q4,2.0653138549538745,-65.15704123845134
exact,pre_advance,A,ar,indicator_revision_only_dfm_kalman_em,2008:Q1,-5.822702664341414,-70.97974390279276
exact,pre_advance,A,ar,indicator_revision_only_dfm_kalman_em,2008:Q2,-0.25420711463453377,-71.2339510174273
exact,pre_advance,A,ar,indicator_revision_only_dfm_kalman_em,2008:Q3,0.8397397569058711,-70.39421126052143
exact,pre_advance,A,ar,indicator_revision_only_dfm_kalman_em,2008:Q4,-8.366422223770353,-78.76063348429179
exact,pre_advance,A,ar,indicator_revision_only_dfm_kalman_em,2009:Q1,8.646177402138555,-70.11445608215323
exact,pre_advance,A,ar,indicator_revision_only_dfm_kalman_em,2009:Q2,0.5406204055054811,-69.57383567664775
exact,pre_advance,A,ar,indicator_revision_only_dfm_kalman_em,2009:Q3,2.7064063339098627,-66.86742934273788
exact,pre_advance,A,ar,indicator_revision_only_dfm_kalman_em,2009:Q4,-6.346645150816448,-73.21407449355432
exact,pre_advance,A,ar,indicator_revision_only_dfm_kalman_em,2010:Q1,-7.805242145506294,-81.01931663906062
exact,pre_advance,A,ar,indicator_revision_only_dfm_kalman_em,2010:Q2,-3.6478932294739654,-84.66720986853458
exact,pre_advance,A,ar,indicator_revision_only_dfm_kalman_em,2010:Q3,0.14761407834676843,-84.51959579018782
exact,pre_advance,A,ar,indicator_revision_only_dfm_kalman_em,2010:Q4,0.686476899748753,-83.83311889043907
exact,pre_advance,A,ar,indicator_revision_only_dfm_kalman_em,2011:Q1,-20.609702915293923,-104.44282180573299
exact,pre_advance,A,ar,indicator_revision_only_dfm_kalman_em,2011:Q2,0.3550997250831806,-104.08772208064981
exact,pre_advance,A,ar,indicator_revision_only_dfm_kalman_em,2011:Q3,-1.0681343233402807,-105.15585640399009
exact,pre_advance,A,ar,indicator_revision_only_dfm_kalman_em,2011:Q4,-3.0895720926945494,-108.24542849668464
exact,pre_advance,A,ar,indicator_revision_only_dfm_kalman_em,2012:Q1,-4.796124755253615,-113.04155325193825
exact,pre_advance,A,ar,indicator_revision_only_dfm_kalman_em,2012:Q2,-0.5528648243602701,-113.59441807629852
exact,pre_advance,A,ar,indicator_revision_only_dfm_kalman_em,2012:Q3,-0.16297545321517698,-113.7573935295137
exact,pre_advance,A,ar,indicator_revision_only_dfm_kalman_em,2012:Q4,-12.739518893964133,-126.49691242347784
exact,pre_advance,A,ar,indicator_revision_only_dfm_kalman_em,2013:Q1,1.1069775425056707,-125.38993488097216
exact,pre_advance,A,ar,indicator_revision_only_dfm_kalman_em,2013:Q2,-0.02449691001947296,-125.41443179099164
exact,pre_advance,A,ar,indicator_revision_only_dfm_kalman_em,2013:Q3,0.2643158891833975,-125.15011590180825
exact,pre_advance,A,ar,indicator_revision_only_dfm_kalman_em,2013:Q4,-1.6519321420328368,-126.80204804384108
exact,pre_advance,A,ar,indicator_revision_only_dfm_kalman_em,2014:Q1,3.3808315388276275,-123.42121650501346
exact,pre_advance,A,ar,indicator_revision_only_dfm_kalman_em,2014:Q2,6.205881156482689,-117.21533534853077
exact,pre_advance,A,ar,indicator_revision_only_dfm_kalman_em,2014:Q3,-0.1201072235423014,-117.33544257207308
exact,pre_advance,A,ar,indicator_revision_only_dfm_kalman_em,2014:Q4,-0.004543927572538853,-117.33998649964562
exact,pre_advance,A,ar,indicator_revision_only_dfm_kalman_em,2015:Q1,5.026785616868345,-112.31320088277727
exact,pre_advance,A,ar,indicator_revision_only_dfm_kalman_em,2015:Q2,0.48138751430494936,-111.83181336847231
exact,pre_advance,A,ar,indicator_revision_only_dfm_kalman_em,2015:Q3,-1.4873831928781671,-113.31919656135048
exact,pre_advance,A,ar,indicator_revision_only_dfm_kalman_em,2015:Q4,0.6455760892227713,-112.67362047212771
exact,pre_advance,A,ar,indicator_revision_only_dfm_kalman_em,2016:Q1,-0.8709486099744879,-113.5445690821022
exact,pre_advance,A,ar,indicator_revision_only_dfm_kalman_em,2016:Q2,-0.6658665994156192,-114.21043568151782
exact,pre_advance,A,ar,indicator_revision_only_dfm_kalman_em,2016:Q3,1.0556236267957333,-113.15481205472209
exact,pre_advance,A,ar,indicator_revision_only_dfm_kalman_em,2016:Q4,-2.606559608462306,-115.76137166318439
exact,pre_advance,A,ar,indicator_revision_only_dfm_kalman_em,2017:Q1,-2.99912312064276,-118.76049478382716
exact,pre_advance,A,ar,indicator_revision_only_dfm_kalman_em,2017:Q2,0.45296287027454274,-118.30753191355261
exact,pre_advance,A,ar,indicator_revision_only_dfm_kalman_em,2017:Q3,-1.1939229413694046,-119.50145485492202
exact,pre_advance,A,ar,indicator_revision_only_dfm_kalman_em,2017:Q4,-7.784206234979939,-127.28566108990195
exact,pre_advance,A,ar,indicator_revision_only_dfm_kalman_em,2018:Q1,-0.6957011193647177,-127.98136220926666
exact,pre_advance,A,ar,indicator_revision_only_dfm_kalman_em,2018:Q2,1.052989860554244,-126.92837234871241
exact,pre_advance,A,ar,indicator_revision_only_dfm_kalman_em,2018:Q3,0.008066950650361136,-126.92030539806206
exact,pre_advance,A,ar,indicator_revision_only_dfm_kalman_em,2018:Q4,0.1686302218699297,-126.75167517619212
exact,pre_advance,A,ar,indicator_revision_only_dfm_kalman_em,2019:Q1,-2.486532933155597,-129.2382081093477
exact,pre_advance,A,ar,indicator_revision_only_dfm_kalman_em,2019:Q2,0.34691274551438894,-128.8912953638333
exact,pre_advance,A,ar,indicator_revision_only_dfm_kalman_em,2019:Q3,-0.2876649420182307,-129.17896030585155
exact,pre_advance,A,ar,indicator_revision_only_dfm_kalman_em,2019:Q4,-0.18455076754602118,-129.36351107339758
exact,pre_advance,A,ar,indicator_revision_only_dfm_kalman_em,2020:Q1,32.89738072794482,-96.46613034545275
exact,pre_advance,A,ar,indicator_revision_only_dfm_kalman_em,2020:Q2,957.492314430963,861.0261840855103
exact,pre_advance,A,ar,indicator_revision_only_dfm_kalman_em,2020:Q3,2229.8164960329127,3090.8426801184232
exact,pre_advance,A,ar,indicator_revision_only_dfm_kalman_em,2020:Q4,-10.27260744167585,3080.5700726767473
exact,pre_advance,A,ar,indicator_revision_only_dfm_kalman_em,2021:Q1,9.365543302890199,3089.9356159796375
exact,pre_advance,A,ar,indicator_revision_only_dfm_kalman_em,2021:Q2,6.461705348341482,3096.397321327979
exact,pre_advance,A,ar,indicator_revision_only_dfm_kalman_em,2021:Q3,-5.330793261809511,3091.0665280661697
exact,pre_advance,A,ar,indicator_revision_only_dfm_kalman_em,2021:Q4,13.574264753507943,3104.6407928196777
exact,pre_advance,A,ar,indicator_revision_only_dfm_kalman_em,2022:Q1,-33.25487332481159,3071.385919494866
exact,pre_advance,A,ar,indicator_revision_only_dfm_kalman_em,2022:Q2,-9.594240725145577,3061.7916787697204
exact,pre_advance,A,ar,indicator_revision_only_dfm_kalman_em,2022:Q3,-0.0025961413476294284,3061.789082628373
exact,pre_advance,A,ar,indicator_revision_only_dfm_kalman_em,2022:Q4,-1.239908262114643,3060.5491743662583
exact,pre_advance,A,ar,indicator_revision_only_dfm_kalman_em,2023:Q1,0.2483157032877239,3060.797490069546
exact,pre_advance,A,ar,indicator_revision_only_dfm_kalman_em,2023:Q2,-0.2698655356738898,3060.527624533872
exact,pre_advance,A,ar,indicator_revision_only_dfm_kalman_em,2023:Q3,-2.1898794380434934,3058.3377450958283
exact,pre_advance,A,ar,indicator_revision_only_dfm_kalman_em,2023:Q4,-0.16592662926873325,3058.1718184665597
exact,pre_advance,A,ar,indicator_revision_only_dfm_kalman_em,2024:Q1,0.8661679315010672,3059.0379863980606
exact,pre_advance,A,ar,indicator_revision_only_dfm_kalman_em,2024:Q2,-1.0019044185214134,3058.036081979539
exact,pre_advance,A,ar,indicator_revision_only_dfm_kalman_em,2024:Q3,-0.22593421508024283,3057.810147764459
exact,pre_advance,A,ar,indicator_revision_only_dfm_kalman_em,2024:Q4,-0.07499084385596666,3057.735156920603
exact,pre_advance,A,ar,joint_indicator_revision_dfm_full_kalman_em,2005:Q1,-2.772998239901054,-2.772998239901054
exact,pre_advance,A,ar,joint_indicator_revision_dfm_full_kalman_em,2005:Q2,0.24154569030106465,-2.5314525495999893
exact,pre_advance,A,ar,joint_indicator_revision_dfm_full_kalman_em,2005:Q3,0.3231607242142356,-2.2082918253857535
exact,pre_advance,A,ar,joint_indicator_revision_dfm_full_kalman_em,2005:Q4,-16.439871282090948,-18.6481631074767
exact,pre_advance,A,ar,joint_indicator_revision_dfm_full_kalman_em,2006:Q1,7.832144223552262,-10.816018883924439
exact,pre_advance,A,ar,joint_indicator_revision_dfm_full_kalman_em,2006:Q2,-1.5429735494138122,-12.358992433338251
exact,pre_advance,A,ar,joint_indicator_revision_dfm_full_kalman_em,2006:Q3,0.6945997891003268,-11.664392644237925
exact,pre_advance,A,ar,joint_indicator_revision_dfm_full_kalman_em,2006:Q4,-14.298904682974758,-25.963297327212683
exact,pre_advance,A,ar,joint_indicator_revision_dfm_full_kalman_em,2007:Q1,-0.48653233977595844,-26.44982966698864
exact,pre_advance,A,ar,joint_indicator_revision_dfm_full_kalman_em,2007:Q2,-2.02596058731089,-28.475790254299532
exact,pre_advance,A,ar,joint_indicator_revision_dfm_full_kalman_em,2007:Q3,-3.1984319219434125,-31.674222176242946
exact,pre_advance,A,ar,joint_indicator_revision_dfm_full_kalman_em,2007:Q4,3.242107095904526,-28.43211508033842
exact,pre_advance,A,ar,joint_indicator_revision_dfm_full_kalman_em,2008:Q1,-4.461477480046028,-32.89359256038445
exact,pre_advance,A,ar,joint_indicator_revision_dfm_full_kalman_em,2008:Q2,-0.34792576275344334,-33.24151832313789
exact,pre_advance,A,ar,joint_indicator_revision_dfm_full_kalman_em,2008:Q3,1.3295185540865884,-31.9119997690513
exact,pre_advance,A,ar,joint_indicator_revision_dfm_full_kalman_em,2008:Q4,0.9249769427159862,-30.987022826335313
exact,pre_advance,A,ar,joint_indicator_revision_dfm_full_kalman_em,2009:Q1,8.09971431102608,-22.887308515309233
exact,pre_advance,A,ar,joint_indicator_revision_dfm_full_kalman_em,2009:Q2,0.690381160812134,-22.1969273544971
exact,pre_advance,A,ar,joint_indicator_revision_dfm_full_kalman_em,2009:Q3,5.5849964203662665,-16.611930934130832
exact,pre_advance,A,ar,joint_indicator_revision_dfm_full_kalman_em,2009:Q4,-7.466160957832228,-24.078091891963062
exact,pre_advance,A,ar,joint_indicator_revision_dfm_full_kalman_em,2010:Q1,-5.890242430049265,-29.96833432201233
exact,pre_advance,A,ar,joint_indicator_revision_dfm_full_kalman_em,2010:Q2,-3.776748728886211,-33.745083050898536
exact,pre_advance,A,ar,joint_indicator_revision_dfm_full_kalman_em,2010:Q3,0.15609156610421498,-33.58899148479432
exact,pre_advance,A,ar,joint_indicator_revision_dfm_full_kalman_em,2010:Q4,0.5204020007103576,-33.068589484083965
exact,pre_advance,A,ar,joint_indicator_revision_dfm_full_kalman_em,2011:Q1,-17.989698316080236,-51.0582878001642
exact,pre_advance,A,ar,joint_indicator_revision_dfm_full_kalman_em,2011:Q2,0.5419215585492659,-50.51636624161493
exact,pre_advance,A,ar,joint_indicator_revision_dfm_full_kalman_em,2011:Q3,-0.416529815945653,-50.93289605756058
exact,pre_advance,A,ar,joint_indicator_revision_dfm_full_kalman_em,2011:Q4,-2.0506347512924696,-52.983530808853054
exact,pre_advance,A,ar,joint_indicator_revision_dfm_full_kalman_em,2012:Q1,-3.6604236806906574,-56.64395448954371
exact,pre_advance,A,ar,joint_indicator_revision_dfm_full_kalman_em,2012:Q2,-0.06331228090285212,-56.70726677044656
exact,pre_advance,A,ar,joint_indicator_revision_dfm_full_kalman_em,2012:Q3,-0.05499458492258111,-56.76226135536914
exact,pre_advance,A,ar,joint_indicator_revision_dfm_full_kalman_em,2012:Q4,-9.881454823464596,-66.64371617883374
exact,pre_advance,A,ar,joint_indicator_revision_dfm_full_kalman_em,2013:Q1,1.5737405002155493,-65.06997567861819
exact,pre_advance,A,ar,joint_indicator_revision_dfm_full_kalman_em,2013:Q2,0.03906665063166226,-65.03090902798652
exact,pre_advance,A,ar,joint_indicator_revision_dfm_full_kalman_em,2013:Q3,0.5025027663400451,-64.52840626164648
exact,pre_advance,A,ar,joint_indicator_revision_dfm_full_kalman_em,2013:Q4,-0.6929408084923185,-65.2213470701388
exact,pre_advance,A,ar,joint_indicator_revision_dfm_full_kalman_em,2014:Q1,2.80171843775486,-62.41962863238395
exact,pre_advance,A,ar,joint_indicator_revision_dfm_full_kalman_em,2014:Q2,6.804297926578076,-55.615330705805874
exact,pre_advance,A,ar,joint_indicator_revision_dfm_full_kalman_em,2014:Q3,-0.3135410469209764,-55.92887175272685
exact,pre_advance,A,ar,joint_indicator_revision_dfm_full_kalman_em,2014:Q4,0.0944649605705178,-55.83440679215633
exact,pre_advance,A,ar,joint_indicator_revision_dfm_full_kalman_em,2015:Q1,4.6419908059507184,-51.19241598620561
exact,pre_advance,A,ar,joint_indicator_revision_dfm_full_kalman_em,2015:Q2,0.7219518554935627,-50.470464130712045
exact,pre_advance,A,ar,joint_indicator_revision_dfm_full_kalman_em,2015:Q3,-0.8933296925405514,-51.3637938232526
exact,pre_advance,A,ar,joint_indicator_revision_dfm_full_kalman_em,2015:Q4,0.8762230842599816,-50.487570738992616
exact,pre_advance,A,ar,joint_indicator_revision_dfm_full_kalman_em,2016:Q1,-0.4650265686209425,-50.95259730761356
exact,pre_advance,A,ar,joint_indicator_revision_dfm_full_kalman_em,2016:Q2,-0.317970544206688,-51.270567851820246
exact,pre_advance,A,ar,joint_indicator_revision_dfm_full_kalman_em,2016:Q3,0.94473797448569,-50.325829877334556
exact,pre_advance,A,ar,joint_indicator_revision_dfm_full_kalman_em,2016:Q4,-1.7557393304100284,-52.081569207744586
exact,pre_advance,A,ar,joint_indicator_revision_dfm_full_kalman_em,2017:Q1,-2.0951829065173846,-54.17675211426197
exact,pre_advance,A,ar,joint_indicator_revision_dfm_full_kalman_em,2017:Q2,0.7998521044838844,-53.37690000977809
exact,pre_advance,A,ar,joint_indicator_revision_dfm_full_kalman_em,2017:Q3,-1.4792257301430252,-54.85612573992112
exact,pre_advance,A,ar,joint_indicator_revision_dfm_full_kalman_em,2017:Q4,-5.395245544326805,-60.251371284247924
exact,pre_advance,A,ar,joint_indicator_revision_dfm_full_kalman_em,2018:Q1,-0.3614663740811443,-60.61283765832907
exact,pre_advance,A,ar,joint_indicator_revision_dfm_full_kalman_em,2018:Q2,0.6586121149600981,-59.95422554336897
exact,pre_advance,A,ar,joint_indicator_revision_dfm_full_kalman_em,2018:Q3,-0.045400736010652615,-59.999626279379626
exact,pre_advance,A,ar,joint_indicator_revision_dfm_full_kalman_em,2018:Q4,0.16486391390373298,-59.834762365475896
exact,pre_advance,A,ar,joint_indicator_revision_dfm_full_kalman_em,2019:Q1,-2.2984776225390995,-62.13323998801499
exact,pre_advance,A,ar,joint_indicator_revision_dfm_full_kalman_em,2019:Q2,0.3733653738738903,-61.759874614141104
exact,pre_advance,A,ar,joint_indicator_revision_dfm_full_kalman_em,2019:Q3,-0.16015471222095115,-61.920029326362055
exact,pre_advance,A,ar,joint_indicator_revision_dfm_full_kalman_em,2019:Q4,-0.23286287867126992,-62.152892205033325
exact,pre_advance,A,ar,joint_indicator_revision_dfm_full_kalman_em,2020:Q1,32.27109389122006,-29.881798313813263
exact,pre_advance,A,ar,joint_indicator_revision_dfm_full_kalman_em,2020:Q2,966.9270372792762,937.0452389654629
exact,pre_advance,A,ar,joint_indicator_revision_dfm_full_kalman_em,2020:Q3,2136.2574223993433,3073.302661364806
exact,pre_advance,A,ar,joint_indicator_revision_dfm_full_kalman_em,2020:Q4,-14.713687069189437,3058.588974295617
exact,pre_advance,A,ar,joint_indicator_revision_dfm_full_kalman_em,2021:Q1,2.12962240973763,3060.7185967053547
exact,pre_advance,A,ar,joint_indicator_revision_dfm_full_kalman_em,2021:Q2,5.779223566931405,3066.497820272286
exact,pre_advance,A,ar,joint_indicator_revision_dfm_full_kalman_em,2021:Q3,-5.6924926527335336,3060.8053276195524
exact,pre_advance,A,ar,joint_indicator_revision_dfm_full_kalman_em,2021:Q4,13.076389566817618,3073.8817171863698
exact,pre_advance,A,ar,joint_indicator_revision_dfm_full_kalman_em,2022:Q1,-25.669712899371554,3048.2120042869983
exact,pre_advance,A,ar,joint_indicator_revision_dfm_full_kalman_em,2022:Q2,-10.39122583964018,3037.820778447358
exact,pre_advance,A,ar,joint_indicator_revision_dfm_full_kalman_em,2022:Q3,0.048195640727722415,3037.8689740880855
exact,pre_advance,A,ar,joint_indicator_revision_dfm_full_kalman_em,2022:Q4,-1.052794018440091,3036.8161800696453
exact,pre_advance,A,ar,joint_indicator_revision_dfm_full_kalman_em,2023:Q1,0.6702292138178918,3037.486409283463
exact,pre_advance,A,ar,joint_indicator_revision_dfm_full_kalman_em,2023:Q2,-0.062143428277086174,3037.424265855186
exact,pre_advance,A,ar,joint_indicator_revision_dfm_full_kalman_em,2023:Q3,-2.6265653351194524,3034.797700520067
exact,pre_advance,A,ar,joint_indicator_revision_dfm_full_kalman_em,2023:Q4,-1.046734689642863,3033.750965830424
exact,pre_advance,A,ar,joint_indicator_revision_dfm_full_kalman_em,2024:Q1,0.8645472266006045,3034.6155130570246
exact,pre_advance,A,ar,joint_indicator_revision_dfm_full_kalman_em,2024:Q2,-0.8676598929801278,3033.7478531640445
exact,pre_advance,A,ar,joint_indicator_revision_dfm_full_kalman_em,2024:Q3,-0.6467229778812662,3033.101130186163
exact,pre_advance,A,ar,joint_indicator_revision_dfm_full_kalman_em,2024:Q4,-0.019695949695829204,3033.0814342364674
exact,pre_advance,A,ar,midas_umidas,2005:Q1,-187.61991516685706,-187.61991516685706
exact,pre_advance,A,ar,midas_umidas,2005:Q2,-221.4071400207663,-409.0270551876233
exact,pre_advance,A,ar,midas_umidas,2005:Q3,-286.14988720392984,-695.1769423915532
exact,pre_advance,A,ar,midas_umidas,2005:Q4,-121.10249273577598,-816.2794351273292
exact,pre_advance,A,ar,midas_umidas,2006:Q1,-416.6870798619977,-1232.966514989327
exact,pre_advance,A,ar,midas_umidas,2006:Q2,-219.9009566134752,-1452.8674716028022
exact,pre_advance,A,ar,midas_umidas,2006:Q3,-16.762423352694537,-1469.6298949554966
exact,pre_advance,A,ar,midas_umidas,2006:Q4,-19.79785816021212,-1489.4277531157088
exact,pre_advance,A,ar,midas_umidas,2007:Q1,-18.208297323579018,-1507.6360504392878
exact,pre_advance,A,ar,midas_umidas,2007:Q2,-90.46093777982132,-1598.096988219109
exact,pre_advance,A,ar,midas_umidas,2007:Q3,-331.12591042394655,-1929.2228986430557
exact,pre_advance,A,ar,midas_umidas,2007:Q4,-28.74381121920389,-1957.9667098622597
exact,pre_advance,A,ar,midas_umidas,2008:Q1,-109.21614314993121,-2067.182853012191
exact,pre_advance,A,ar,midas_umidas,2008:Q2,-565.4112016101046,-2632.5940546222955
exact,pre_advance,A,ar,midas_umidas,2008:Q3,-58.18659707392685,-2690.7806516962223
exact,pre_advance,A,ar,midas_umidas,2008:Q4,-32.72816335872051,-2723.5088150549427
exact,pre_advance,A,ar,midas_umidas,2009:Q1,8.583597191782765,-2714.92521786316
exact,pre_advance,A,ar,midas_umidas,2009:Q2,-53.398857345170725,-2768.3240752083307
exact,pre_advance,A,ar,midas_umidas,2009:Q3,-303.9722662119711,-3072.296341420302
exact,pre_advance,A,ar,midas_umidas,2009:Q4,-64.51058242084478,-3136.8069238411467
exact,pre_advance,A,ar,midas_umidas,2010:Q1,0.5983576798366713,-3136.20856616131
exact,pre_advance,A,ar,midas_umidas,2010:Q2,-15.990555884641354,-3152.1991220459513
exact,pre_advance,A,ar,midas_umidas,2010:Q3,-307.65469542037425,-3459.8538174663254
exact,pre_advance,A,ar,midas_umidas,2010:Q4,-38.15978341148763,-3498.013600877813
exact,pre_advance,A,ar,midas_umidas,2011:Q1,-92.03290211789393,-3590.046502995707
exact,pre_advance,A,ar,midas_umidas,2011:Q2,-306.0219822893376,-3896.068485285045
exact,pre_advance,A,ar,midas_umidas,2011:Q3,-32.87401376613379,-3928.942499051179
exact,pre_advance,A,ar,midas_umidas,2011:Q4,-371.5481785272261,-4300.490677578405
exact,pre_advance,A,ar,midas_umidas,2012:Q1,-122.74567380909892,-4423.236351387503
exact,pre_advance,A,ar,midas_umidas,2012:Q2,-29.887974226324037,-4453.124325613828
exact,pre_advance,A,ar,midas_umidas,2012:Q3,-25.052584811400553,-4478.176910425228
exact,pre_advance,A,ar,midas_umidas,2012:Q4,-236.93183359302026,-4715.108744018248
exact,pre_advance,A,ar,midas_umidas,2013:Q1,-289.46108812634054,-5004.569832144589
exact,pre_advance,A,ar,midas_umidas,2013:Q2,-166.0040906633504,-5170.573922807939
exact,pre_advance,A,ar,midas_umidas,2013:Q3,-133.94421055689682,-5304.518133364836
exact,pre_advance,A,ar,midas_umidas,2013:Q4,0.18443708284159316,-5304.333696281995
exact,pre_advance,A,ar,midas_umidas,2014:Q1,-24.411049418002115,-5328.744745699997
exact,pre_advance,A,ar,midas_umidas,2014:Q2,-6.90491544809671,-5335.649661148093
exact,pre_advance,A,ar,midas_umidas,2014:Q3,-128.28898106589693,-5463.9386422139905
exact,pre_advance,A,ar,midas_umidas,2014:Q4,0.023543689470504364,-5463.91509852452
exact,pre_advance,A,ar,midas_umidas,2015:Q1,-16.38452558657344,-5480.299624111093
exact,pre_advance,A,ar,midas_umidas,2015:Q2,-85.02922229388095,-5565.328846404974
exact,pre_advance,A,ar,midas_umidas,2015:Q3,-1.3449577888954591,-5566.673804193869
exact,pre_advance,A,ar,midas_umidas,2015:Q4,-43.1095889017357,-5609.783393095605
exact,pre_advance,A,ar,midas_umidas,2016:Q1,1.1201030328544062,-5608.66329006275
exact,pre_advance,A,ar,midas_umidas,2016:Q2,-0.6664911310980901,-5609.329781193848
exact,pre_advance,A,ar,midas_umidas,2016:Q3,-25.33526065431418,-5634.665041848162
exact,pre_advance,A,ar,midas_umidas,2016:Q4,-11.497059059703178,-5646.162100907865
exact,pre_advance,A,ar,midas_umidas,2017:Q1,-6.069861218333774,-5652.2319621261995
exact,pre_advance,A,ar,midas_umidas,2017:Q2,0.9452815682099753,-5651.28668055799
exact,pre_advance,A,ar,midas_umidas,2017:Q3,-0.4140412856125233,-5651.700721843602
exact,pre_advance,A,ar,midas_umidas,2017:Q4,-0.13420448164649426,-5651.8349263252485
exact,pre_advance,A,ar,midas_umidas,2018:Q1,-3.99725702453765,-5655.832183349786
exact,pre_advance,A,ar,midas_umidas,2018:Q2,-18.26889602605072,-5674.101079375837
exact,pre_advance,A,ar,midas_umidas,2018:Q3,-2.0214950694258955,-5676.122574445263
exact,pre_advance,A,ar,midas_umidas,2018:Q4,-0.8432647553048285,-5676.965839200568
exact,pre_advance,A,ar,midas_umidas,2019:Q1,-2.4406187212482653,-5679.406457921816
exact,pre_advance,A,ar,midas_umidas,2019:Q2,-0.31022506279465656,-5679.71668298461
exact,pre_advance,A,ar,midas_umidas,2019:Q3,-0.5704491640054846,-5680.2871321486155
exact,pre_advance,A,ar,midas_umidas,2019:Q4,-3.7370281645182963,-5684.0241603131335
exact,pre_advance,A,ar,midas_umidas,2020:Q1,-88.42740718616122,-5772.4515674992945
exact,pre_advance,A,ar,midas_umidas,2020:Q2,-3056.459892531503,-8828.911460030798
exact,pre_advance,A,ar,midas_umidas,2020:Q3,-1182.7855619737256,-10011.697022004524
exact,pre_advance,A,ar,midas_umidas,2020:Q4,-9.845816644277402,-10021.542838648802
exact,pre_advance,A,ar,midas_umidas,2021:Q1,-8.101390902855796,-10029.644229551657
exact,pre_advance,A,ar,midas_umidas,2021:Q2,12.942854477099061,-10016.701375074557
exact,pre_advance,A,ar,midas_umidas,2021:Q3,-36.1065026315115,-10052.80787770607
exact,pre_advance,A,ar,midas_umidas,2021:Q4,-50.13772406877304,-10102.945601774842
exact,pre_advance,A,ar,midas_umidas,2022:Q1,11.516273142385177,-10091.429328632457
exact,pre_advance,A,ar,midas_umidas,2022:Q2,-81.47208354712383,-10172.90141217958
exact,pre_advance,A,ar,midas_umidas,2022:Q3,-10.828589581410334,-10183.73000176099
exact,pre_advance,A,ar,midas_umidas,2022:Q4,-26.164088543113774,-10209.894090304104
exact,pre_advance,A,ar,midas_umidas,2023:Q1,0.9839509254703405,-10208.910139378633
exact,pre_advance,A,ar,midas_umidas,2023:Q2,-4.190128232118403,-10213.100267610751
exact,pre_advance,A,ar,midas_umidas,2023:Q3,5.646110506615628,-10207.454157104135
exact,pre_advance,A,ar,midas_umidas,2023:Q4,-0.5226186986627845,-10207.976775802797
exact,pre_advance,A,ar,midas_umidas,2024:Q1,-6.858121252587562,-10214.834897055385
exact,pre_advance,A,ar,midas_umidas,2024:Q2,-0.009088496400308982,-10214.843985551786
exact,pre_advance,A,ar,midas_umidas,2024:Q3,-3.3941584319243674,-10218.23814398371
exact,pre_advance,A,ar,midas_umidas,2024:Q4,0.053104823491227374,-10218.185039160218
exact,pre_advance,A,ar,monthly_mixed_frequency_kalman_em,2005:Q1,-0.1309532617018666,-0.1309532617018666
exact,pre_advance,A,ar,monthly_mixed_frequency_kalman_em,2005:Q2,0.14753841615318034,0.016585154451313727
exact,pre_advance,A,ar,monthly_mixed_frequency_kalman_em,2005:Q3,-7.651572735801368,-7.634987581350054
exact,pre_advance,A,ar,monthly_mixed_frequency_kalman_em,2005:Q4,-8.367218218876491,-16.002205800226545
exact,pre_advance,A,ar,monthly_mixed_frequency_kalman_em,2006:Q1,8.401773702690816,-7.6004320975357285
exact,pre_advance,A,ar,monthly_mixed_frequency_kalman_em,2006:Q2,-0.9324731253613345,-8.532905222897064
exact,pre_advance,A,ar,monthly_mixed_frequency_kalman_em,2006:Q3,0.1207451132603583,-8.412160109636705
exact,pre_advance,A,ar,monthly_mixed_frequency_kalman_em,2006:Q4,-2.0271425991514755,-10.43930270878818
exact,pre_advance,A,ar,monthly_mixed_frequency_kalman_em,2007:Q1,-0.9176630942379065,-11.356965803026085
exact,pre_advance,A,ar,monthly_mixed_frequency_kalman_em,2007:Q2,1.650503306761116,-9.706462496264969
exact,pre_advance,A,ar,monthly_mixed_frequency_kalman_em,2007:Q3,-0.23864375421607353,-9.945106250481043
exact,pre_advance,A,ar,monthly_mixed_frequency_kalman_em,2007:Q4,6.997207782308313,-2.9478984681727303
exact,pre_advance,A,ar,monthly_mixed_frequency_kalman_em,2008:Q1,1.1522771358486743,-1.795621332324056
exact,pre_advance,A,ar,monthly_mixed_frequency_kalman_em,2008:Q2,-1.1639774673225476,-2.9595987996466038
exact,pre_advance,A,ar,monthly_mixed_frequency_kalman_em,2008:Q3,-1.5055677337432662,-4.46516653338987
exact,pre_advance,A,ar,monthly_mixed_frequency_kalman_em,2008:Q4,19.828719595323456,15.363553061933587
exact,pre_advance,A,ar,monthly_mixed_frequency_kalman_em,2009:Q1,30.026519476207667,45.390072538141254
exact,pre_advance,A,ar,monthly_mixed_frequency_kalman_em,2009:Q2,0.6234360589891798,46.01350859713043
exact,pre_advance,A,ar,monthly_mixed_frequency_kalman_em,2009:Q3,3.0868670447663558,49.10037564189679
exact,pre_advance,A,ar,monthly_mixed_frequency_kalman_em,2009:Q4,0.21237966841379752,49.312755310310585
exact,pre_advance,A,ar,monthly_mixed_frequency_kalman_em,2010:Q1,0.5352653175598747,49.84802062787046
exact,pre_advance,A,ar,monthly_mixed_frequency_kalman_em,2010:Q2,-1.7295716816480027,48.11844894622246
exact,pre_advance,A,ar,monthly_mixed_frequency_kalman_em,2010:Q3,0.09466006083124873,48.21310900705371
exact,pre_advance,A,ar,monthly_mixed_frequency_kalman_em,2010:Q4,0.44368029307808654,48.6567893001318
exact,pre_advance,A,ar,monthly_mixed_frequency_kalman_em,2011:Q1,-7.568302368171674,41.08848693196013
exact,pre_advance,A,ar,monthly_mixed_frequency_kalman_em,2011:Q2,-1.8909813495633117,39.197505582396815
exact,pre_advance,A,ar,monthly_mixed_frequency_kalman_em,2011:Q3,-0.01482987381039158,39.18267570858642
exact,pre_advance,A,ar,monthly_mixed_frequency_kalman_em,2011:Q4,-1.2611729857132064,37.921502722873214
exact,pre_advance,A,ar,monthly_mixed_frequency_kalman_em,2012:Q1,-2.0777658558271583,35.843736867046054
exact,pre_advance,A,ar,monthly_mixed_frequency_kalman_em,2012:Q2,-0.41971795455109606,35.42401891249496
exact,pre_advance,A,ar,monthly_mixed_frequency_kalman_em,2012:Q3,-1.1031977635478072,34.320821148947154
exact,pre_advance,A,ar,monthly_mixed_frequency_kalman_em,2012:Q4,-8.79614046082966,25.524680688117492
exact,pre_advance,A,ar,monthly_mixed_frequency_kalman_em,2013:Q1,-0.16602507372025577,25.358655614397236
exact,pre_advance,A,ar,monthly_mixed_frequency_kalman_em,2013:Q2,-0.1711522402698561,25.18750337412738
exact,pre_advance,A,ar,monthly_mixed_frequency_kalman_em,2013:Q3,0.4034768660675936,25.590980240194973
exact,pre_advance,A,ar,monthly_mixed_frequency_kalman_em,2013:Q4,-1.3285405866493138,24.26243965354566
exact,pre_advance,A,ar,monthly_mixed_frequency_kalman_em,2014:Q1,-3.019753654731389,21.24268599881427
exact,pre_advance,A,ar,monthly_mixed_frequency_kalman_em,2014:Q2,6.840799833336887,28.08348583215116
exact,pre_advance,A,ar,monthly_mixed_frequency_kalman_em,2014:Q3,-0.2469538154878657,27.83653201666329
exact,pre_advance,A,ar,monthly_mixed_frequency_kalman_em,2014:Q4,-1.0158512812492113,26.82068073541408
exact,pre_advance,A,ar,monthly_mixed_frequency_kalman_em,2015:Q1,3.8038918396765804,30.62457257509066
exact,pre_advance,A,ar,monthly_mixed_frequency_kalman_em,2015:Q2,0.7804986699477411,31.4050712450384
exact,pre_advance,A,ar,monthly_mixed_frequency_kalman_em,2015:Q3,-1.0244487943977334,30.380622450640665
exact,pre_advance,A,ar,monthly_mixed_frequency_kalman_em,2015:Q4,1.4335216886514017,31.81414413929207
exact,pre_advance,A,ar,monthly_mixed_frequency_kalman_em,2016:Q1,-0.25867440285108856,31.55546973644098
exact,pre_advance,A,ar,monthly_mixed_frequency_kalman_em,2016:Q2,-1.0988838730341761,30.456585863406804
exact,pre_advance,A,ar,monthly_mixed_frequency_kalman_em,2016:Q3,0.8249229314110758,31.28150879481788
exact,pre_advance,A,ar,monthly_mixed_frequency_kalman_em,2016:Q4,0.5074237176634326,31.788932512481313
exact,pre_advance,A,ar,monthly_mixed_frequency_kalman_em,2017:Q1,-2.0839956063771834,29.70493690610413
exact,pre_advance,A,ar,monthly_mixed_frequency_kalman_em,2017:Q2,0.3508494987163564,30.055786404820488
exact,pre_advance,A,ar,monthly_mixed_frequency_kalman_em,2017:Q3,-1.9733439493998075,28.08244245542068
exact,pre_advance,A,ar,monthly_mixed_frequency_kalman_em,2017:Q4,-2.466942865358284,25.615499590062395
exact,pre_advance,A,ar,monthly_mixed_frequency_kalman_em,2018:Q1,-3.06032911326984,22.555170476792554
exact,pre_advance,A,ar,monthly_mixed_frequency_kalman_em,2018:Q2,1.6435991144328903,24.198769591225446
exact,pre_advance,A,ar,monthly_mixed_frequency_kalman_em,2018:Q3,-0.0949237512662102,24.103845839959234
exact,pre_advance,A,ar,monthly_mixed_frequency_kalman_em,2018:Q4,0.12936981191991212,24.233215651879146
exact,pre_advance,A,ar,monthly_mixed_frequency_kalman_em,2019:Q1,-1.8082317569088286,22.424983894970318
exact,pre_advance,A,ar,monthly_mixed_frequency_kalman_em,2019:Q2,0.5993193587548715,23.02430325372519
exact,pre_advance,A,ar,monthly_mixed_frequency_kalman_em,2019:Q3,-0.3013563894513268,22.72294686427386
exact,pre_advance,A,ar,monthly_mixed_frequency_kalman_em,2019:Q4,-0.041176266499851344,22.681770597774012
exact,pre_advance,A,ar,monthly_mixed_frequency_kalman_em,2020:Q1,31.126088554320546,53.80785915209456
exact,pre_advance,A,ar,monthly_mixed_frequency_kalman_em,2020:Q2,764.1305355181689,817.9383946702635
exact,pre_advance,A,ar,monthly_mixed_frequency_kalman_em,2020:Q3,2272.9339379103267,3090.8723325805904
exact,pre_advance,A,ar,monthly_mixed_frequency_kalman_em,2020:Q4,-5.4970798732625115,3085.375252707328
exact,pre_advance,A,ar,monthly_mixed_frequency_kalman_em,2021:Q1,-83.2389289643173,3002.1363237430105
exact,pre_advance,A,ar,monthly_mixed_frequency_kalman_em,2021:Q2,13.771034409089378,3015.9073581520997
exact,pre_advance,A,ar,monthly_mixed_frequency_kalman_em,2021:Q3,-1.2032127342912218,3014.7041454178084
exact,pre_advance,A,ar,monthly_mixed_frequency_kalman_em,2021:Q4,8.611809123321793,3023.3159545411304
exact,pre_advance,A,ar,monthly_mixed_frequency_kalman_em,2022:Q1,-30.068045799297252,2993.2479087418333
exact,pre_advance,A,ar,monthly_mixed_frequency_kalman_em,2022:Q2,-15.275817290902149,2977.972091450931
exact,pre_advance,A,ar,monthly_mixed_frequency_kalman_em,2022:Q3,-0.6232449418194059,2977.348846509112
exact,pre_advance,A,ar,monthly_mixed_frequency_kalman_em,2022:Q4,-1.7448300685729174,2975.604016440539
exact,pre_advance,A,ar,monthly_mixed_frequency_kalman_em,2023:Q1,1.9479597751596789,2977.5519762156987
exact,pre_advance,A,ar,monthly_mixed_frequency_kalman_em,2023:Q2,-0.5251208066647371,2977.026855409034
exact,pre_advance,A,ar,monthly_mixed_frequency_kalman_em,2023:Q3,0.16954911887613466,2977.19640452791
exact,pre_advance,A,ar,monthly_mixed_frequency_kalman_em,2023:Q4,-7.716598142397949,2969.4798063855123
exact,pre_advance,A,ar,monthly_mixed_frequency_kalman_em,2024:Q1,-0.19395618638307788,2969.285850199129
exact,pre_advance,A,ar,monthly_mixed_frequency_kalman_em,2024:Q2,-1.3913858326730766,2967.894464366456
exact,pre_advance,A,ar,monthly_mixed_frequency_kalman_em,2024:Q3,-1.839829041764108,2966.054635324692
exact,pre_advance,A,ar,monthly_mixed_frequency_kalman_em,2024:Q4,-1.087513422701388,2964.9671219019906
exact,pre_advance,A,ar,no_revision,2005:Q1,0.01829276874886654,0.01829276874886654
exact,pre_advance,A,ar,no_revision,2005:Q2,-0.010434082728868699,0.00785868601999784
exact,pre_advance,A,ar,no_revision,2005:Q3,0.04475723724217473,0.05261592326217257
exact,pre_advance,A,ar,no_revision,2005:Q4,-0.005897102113586961,0.04671882114858561
exact,pre_advance,A,ar,no_revision,2006:Q1,0.14435758559098844,0.19107640673957405
exact,pre_advance,A,ar,no_revision,2006:Q2,0.10645890996238783,0.29753531670196187
exact,pre_advance,A,ar,no_revision,2006:Q3,-0.24152679339726402,0.056008523304697855
exact,pre_advance,A,ar,no_revision,2006:Q4,-0.30824079892148304,-0.2522322756167852
exact,pre_advance,A,ar,no_revision,2007:Q1,-0.23848279984936216,-0.49071507546614734
exact,pre_advance,A,ar,no_revision,2007:Q2,0.05512019812272051,-0.43559487734342683
exact,pre_advance,A,ar,no_revision,2007:Q3,-0.19969014430791188,-0.6352850216513387
exact,pre_advance,A,ar,no_revision,2007:Q4,-0.15567398880635874,-0.7909590104576975
exact,pre_advance,A,ar,no_revision,2008:Q1,0.05559234221203191,-0.7353666682456655
exact,pre_advance,A,ar,no_revision,2008:Q2,0.004622952477093177,-0.7307437157685723
exact,pre_advance,A,ar,no_revision,2008:Q3,-0.15221627551749783,-0.8829599912860702
exact,pre_advance,A,ar,no_revision,2008:Q4,0.5818162017862143,-0.3011437894998559
exact,pre_advance,A,ar,no_revision,2009:Q1,0.45423321116048854,0.15308942166063266
exact,pre_advance,A,ar,no_revision,2009:Q2,0.013307526119774815,0.16639694778040748
exact,pre_advance,A,ar,no_revision,2009:Q3,-1.023992772227114,-0.8575958244467066
exact,pre_advance,A,ar,no_revision,2009:Q4,-1.4621885824992091,-2.3197844069459155
exact,pre_advance,A,ar,no_revision,2010:Q1,0.5154181563893694,-1.804366250556546
exact,pre_advance,A,ar,no_revision,2010:Q2,0.1815894544157976,-1.6227767961407484
exact,pre_advance,A,ar,no_revision,2010:Q3,0.02901155984276077,-1.5937652362979877
exact,pre_advance,A,ar,no_revision,2010:Q4,0.21335030884274386,-1.3804149274552437
exact,pre_advance,A,ar,no_revision,2011:Q1,-0.06757887593352563,-1.4479938033887694
exact,pre_advance,A,ar,no_revision,2011:Q2,0.0202217337142232,-1.4277720696745462
exact,pre_advance,A,ar,no_revision,2011:Q3,-0.052984459561723096,-1.4807565292362692
exact,pre_advance,A,ar,no_revision,2011:Q4,0.01895665554257433,-1.4617998736936948
exact,pre_advance,A,ar,no_revision,2012:Q1,0.02232353618393504,-1.4394763375097597
exact,pre_advance,A,ar,no_revision,2012:Q2,0.11942453052189395,-1.3200518069878657
exact,pre_advance,A,ar,no_revision,2012:Q3,0.0006349170808925357,-1.3194168899069731
exact,pre_advance,A,ar,no_revision,2012:Q4,-0.06262090931865316,-1.3820377992256263
exact,pre_advance,A,ar,no_revision,2013:Q1,-0.008932871015000954,-1.3909706702406273
exact,pre_advance,A,ar,no_revision,2013:Q2,0.06324061631598044,-1.3277300539246468
exact,pre_advance,A,ar,no_revision,2013:Q3,0.0315667756852992,-1.2961632782393475
exact,pre_advance,A,ar,no_revision,2013:Q4,-0.17688786721241778,-1.4730511454517652
exact,pre_advance,A,ar,no_revision,2014:Q1,-0.02480433967617479,-1.49785548512794
exact,pre_advance,A,ar,no_revision,2014:Q2,-0.3039643587409291,-1.801819843868869
exact,pre_advance,A,ar,no_revision,2014:Q3,-0.01009808842494786,-1.811917932293817
exact,pre_advance,A,ar,no_revision,2014:Q4,-0.053005079780955394,-1.8649230120747724
exact,pre_advance,A,ar,no_revision,2015:Q1,0.67193818782102,-1.1929848242537524
exact,pre_advance,A,ar,no_revision,2015:Q2,0.08197493566980374,-1.1110098885839488
exact,pre_advance,A,ar,no_revision,2015:Q3,-0.08264742175217066,-1.1936573103361194
exact,pre_advance,A,ar,no_revision,2015:Q4,-0.12441534043486313,-1.3180726507709826
exact,pre_advance,A,ar,no_revision,2016:Q1,0.2275952927293533,-1.0904773580416292
exact,pre_advance,A,ar,no_revision,2016:Q2,-0.0046545719231812915,-1.0951319299648103
exact,pre_advance,A,ar,no_revision,2016:Q3,-0.04584231925914617,-1.1409742492239565
exact,pre_advance,A,ar,no_revision,2016:Q4,0.10114230910276367,-1.0398319401211928
exact,pre_advance,A,ar,no_revision,2017:Q1,0.246574617300388,-0.7932573228208049
exact,pre_advance,A,ar,no_revision,2017:Q2,-0.15926574147033767,-0.9525230642911425
exact,pre_advance,A,ar,no_revision,2017:Q3,0.022454236955837703,-0.9300688273353048
exact,pre_advance,A,ar,no_revision,2017:Q4,0.004727701091471227,-0.9253411262438336
exact,pre_advance,A,ar,no_revision,2018:Q1,0.03223932073775865,-0.8931018055060749
exact,pre_advance,A,ar,no_revision,2018:Q2,-0.05012498584200742,-0.9432267913480823
exact,pre_advance,A,ar,no_revision,2018:Q3,0.0040716179457951085,-0.9391551734022872
exact,pre_advance,A,ar,no_revision,2018:Q4,0.0107967518642271,-0.92835842153806
exact,pre_advance,A,ar,no_revision,2019:Q1,-0.06475700376940074,-0.9931154253074608
exact,pre_advance,A,ar,no_revision,2019:Q2,-0.08251128198875868,-1.0756267072962196
exact,pre_advance,A,ar,no_revision,2019:Q3,-0.02873654465966108,-1.1043632519558806
exact,pre_advance,A,ar,no_revision,2019:Q4,0.0032282376299231016,-1.1011350143259575
exact,pre_advance,A,ar,no_revision,2020:Q1,-0.47755925650978526,-1.5786942708357428
exact,pre_advance,A,ar,no_revision,2020:Q2,-0.5667662532794111,-2.145460524115154
exact,pre_advance,A,ar,no_revision,2020:Q3,-57.60016029331837,-59.74562081743352
exact,pre_advance,A,ar,no_revision,2020:Q4,-40.65854856282156,-100.40416938025507
exact,pre_advance,A,ar,no_revision,2021:Q1,-27.79553131153419,-128.19970069178925
exact,pre_advance,A,ar,no_revision,2021:Q2,-24.119251842538425,-152.31895253432768
exact,pre_advance,A,ar,no_revision,2021:Q3,-0.30877510409469244,-152.62772763842236
exact,pre_advance,A,ar,no_revision,2021:Q4,3.7679008571371924,-148.85982678128516
exact,pre_advance,A,ar,no_revision,2022:Q1,-0.5234667865097897,-149.38329356779496
exact,pre_advance,A,ar,no_revision,2022:Q2,-1.9855199282110494,-151.36881349600603
exact,pre_advance,A,ar,no_revision,2022:Q3,-0.033925124700511525,-151.40273862070654
exact,pre_advance,A,ar,no_revision,2022:Q4,-0.7384306425890252,-152.14116926329558
exact,pre_advance,A,ar,no_revision,2023:Q1,0.371137610273619,-151.77003165302196
exact,pre_advance,A,ar,no_revision,2023:Q2,-0.00528125482766627,-151.77531290784964
exact,pre_advance,A,ar,no_revision,2023:Q3,-0.5551736828791194,-152.33048659072875
exact,pre_advance,A,ar,no_revision,2023:Q4,-0.20210030709286464,-152.53258689782163
exact,pre_advance,A,ar,no_revision,2024:Q1,-0.31218151521482485,-152.84476841303646
exact,pre_advance,A,ar,no_revision,2024:Q2,0.0978852185130688,-152.7468831945234
exact,pre_advance,A,ar,no_revision,2024:Q3,-0.06291573213851451,-152.80979892666193
exact,pre_advance,A,ar,no_revision,2024:Q4,0.026146771737672124,-152.78365215492425
exact,pre_advance,A,ar,release_dfm,2005:Q1,0.005557468690040569,0.005557468690040569
exact,pre_advance,A,ar,release_dfm,2005:Q2,0.17688600917079522,0.18244347786083578
exact,pre_advance,A,ar,release_dfm,2005:Q3,-0.5496284026543578,-0.36718492479352194
exact,pre_advance,A,ar,release_dfm,2005:Q4,-1.598510703674827,-1.9656956284683489
exact,pre_advance,A,ar,release_dfm,2006:Q1,5.895364834230374,3.9296692057620257
exact,pre_advance,A,ar,release_dfm,2006:Q2,0.6326591475203764,4.562328353282402
exact,pre_advance,A,ar,release_dfm,2006:Q3,-1.1815536331980458,3.3807747200843563
exact,pre_advance,A,ar,release_dfm,2006:Q4,-0.08961491202374194,3.2911598080606144
exact,pre_advance,A,ar,release_dfm,2007:Q1,2.277615211128804,5.5687750191894185
exact,pre_advance,A,ar,release_dfm,2007:Q2,1.5721987404672848,7.140973759656704
exact,pre_advance,A,ar,release_dfm,2007:Q3,-0.9325969815824826,6.208376778074221
exact,pre_advance,A,ar,release_dfm,2007:Q4,5.619451697130959,11.82782847520518
exact,pre_advance,A,ar,release_dfm,2008:Q1,0.40717775583222005,12.235006231037401
exact,pre_advance,A,ar,release_dfm,2008:Q2,-0.14854631810386085,12.08645991293354
exact,pre_advance,A,ar,release_dfm,2008:Q3,5.4603986995371985,17.54685861247074
exact,pre_advance,A,ar,release_dfm,2008:Q4,25.320902423246764,42.86776103571751
exact,pre_advance,A,ar,release_dfm,2009:Q1,26.898920136255693,69.7666811719732
exact,pre_advance,A,ar,release_dfm,2009:Q2,0.6708675600601798,70.43754873203338
exact,pre_advance,A,ar,release_dfm,2009:Q3,7.624685900987867,78.06223463302125
exact,pre_advance,A,ar,release_dfm,2009:Q4,-0.05460311648701044,78.00763151653423
exact,pre_advance,A,ar,release_dfm,2010:Q1,-1.3835107224576693,76.62412079407656
exact,pre_advance,A,ar,release_dfm,2010:Q2,-0.9692400609140532,75.65488073316251
exact,pre_advance,A,ar,release_dfm,2010:Q3,-0.16499710555444946,75.48988362760807
exact,pre_advance,A,ar,release_dfm,2010:Q4,0.42205119712596945,75.91193482473403
exact,pre_advance,A,ar,release_dfm,2011:Q1,-7.4780707692330814,68.43386405550095
exact,pre_advance,A,ar,release_dfm,2011:Q2,-1.2601790103089012,67.17368504519204
exact,pre_advance,A,ar,release_dfm,2011:Q3,0.169691482379295,67.34337652757134
exact,pre_advance,A,ar,release_dfm,2011:Q4,-0.5786066882143086,66.76476983935703
exact,pre_advance,A,ar,release_dfm,2012:Q1,-2.2457574597114895,64.51901237964555
exact,pre_advance,A,ar,release_dfm,2012:Q2,-0.29124857939303794,64.2277638002525
exact,pre_advance,A,ar,release_dfm,2012:Q3,-0.2875970641695967,63.94016673608291
exact,pre_advance,A,ar,release_dfm,2012:Q4,-7.029358035026668,56.91080870105624
exact,pre_advance,A,ar,release_dfm,2013:Q1,1.5366394988358543,58.447448199892094
exact,pre_advance,A,ar,release_dfm,2013:Q2,-0.6193290521110049,57.82811914778109
exact,pre_advance,A,ar,release_dfm,2013:Q3,0.5116495142349746,58.33976866201606
exact,pre_advance,A,ar,release_dfm,2013:Q4,0.1881211670679197,58.52788982908398
exact,pre_advance,A,ar,release_dfm,2014:Q1,2.2611836602781894,60.789073489362174
exact,pre_advance,A,ar,release_dfm,2014:Q2,6.950285300050513,67.73935878941269
exact,pre_advance,A,ar,release_dfm,2014:Q3,-0.23970610456212987,67.49965268485056
exact,pre_advance,A,ar,release_dfm,2014:Q4,0.15993158149245626,67.65958426634302
exact,pre_advance,A,ar,release_dfm,2015:Q1,3.4584411620002116,71.11802542834323
exact,pre_advance,A,ar,release_dfm,2015:Q2,0.6081887664408485,71.72621419478408
exact,pre_advance,A,ar,release_dfm,2015:Q3,-0.49388308416577154,71.2323311106183
exact,pre_advance,A,ar,release_dfm,2015:Q4,-0.19969496392135166,71.03263614669696
exact,pre_advance,A,ar,release_dfm,2016:Q1,-1.3432215168252546,69.6894146298717
exact,pre_advance,A,ar,release_dfm,2016:Q2,-0.9852587561590905,68.70415587371262
exact,pre_advance,A,ar,release_dfm,2016:Q3,0.8086089264622582,69.51276480017488
exact,pre_advance,A,ar,release_dfm,2016:Q4,-0.9426756961184087,68.57008910405646
exact,pre_advance,A,ar,release_dfm,2017:Q1,-2.1563377782168565,66.41375132583961
exact,pre_advance,A,ar,release_dfm,2017:Q2,0.8839097043219548,67.29766103016156
exact,pre_advance,A,ar,release_dfm,2017:Q3,-0.4498136888489407,66.84784734131263
exact,pre_advance,A,ar,release_dfm,2017:Q4,-1.472453224608988,65.37539411670365
exact,pre_advance,A,ar,release_dfm,2018:Q1,-1.1961916583162755,64.17920245838737
exact,pre_advance,A,ar,release_dfm,2018:Q2,0.7936938430062765,64.97289630139365
exact,pre_advance,A,ar,release_dfm,2018:Q3,-0.1781213138623781,64.79477498753127
exact,pre_advance,A,ar,release_dfm,2018:Q4,0.16398670734271426,64.95876169487398
exact,pre_advance,A,ar,release_dfm,2019:Q1,-1.3737634057761716,63.58499828909781
exact,pre_advance,A,ar,release_dfm,2019:Q2,0.5864738210399745,64.17147211013778
exact,pre_advance,A,ar,release_dfm,2019:Q3,-0.046367842978673635,64.12510426715912
exact,pre_advance,A,ar,release_dfm,2019:Q4,-0.009652078071393923,64.11545218908772
exact,pre_advance,A,ar,release_dfm,2020:Q1,20.78770088725127,84.90315307633898
exact,pre_advance,A,ar,release_dfm,2020:Q2,712.4929959502995,797.3961490266385
exact,pre_advance,A,ar,release_dfm,2020:Q3,2567.084749771238,3364.4808987978763
exact,pre_advance,A,ar,release_dfm,2020:Q4,-9.760194583218505,3354.720704214658
exact,pre_advance,A,ar,release_dfm,2021:Q1,14.717586220885224,3369.438290435543
exact,pre_advance,A,ar,release_dfm,2021:Q2,11.250739364102031,3380.689029799645
exact,pre_advance,A,ar,release_dfm,2021:Q3,-1.552906580913287,3379.136123218732
exact,pre_advance,A,ar,release_dfm,2021:Q4,14.115040173354647,3393.2511633920867
exact,pre_advance,A,ar,release_dfm,2022:Q1,-52.79943459352654,3340.45172879856
exact,pre_advance,A,ar,release_dfm,2022:Q2,-12.669399125677797,3327.782329672882
exact,pre_advance,A,ar,release_dfm,2022:Q3,0.013300193484457885,3327.7956298663667
exact,pre_advance,A,ar,release_dfm,2022:Q4,-1.3244838241014654,3326.471146042265
exact,pre_advance,A,ar,release_dfm,2023:Q1,0.6909286887191397,3327.162074730984
exact,pre_advance,A,ar,release_dfm,2023:Q2,-0.12096587289956348,3327.0411088580845
exact,pre_advance,A,ar,release_dfm,2023:Q3,-2.313832963877977,3324.7272758942067
exact,pre_advance,A,ar,release_dfm,2023:Q4,-1.707528374686477,3323.0197475195205
exact,pre_advance,A,ar,release_dfm,2024:Q1,0.4624004308907377,3323.482147950411
exact,pre_advance,A,ar,release_dfm,2024:Q2,0.1298334675859058,3323.611981417997
exact,pre_advance,A,ar,release_dfm,2024:Q3,-0.8060037928736986,3322.8059776251234
exact,pre_advance,A,ar,release_dfm,2024:Q4,0.033129491051418665,3322.839107116175
exact,pre_advance,A,ar,revision_dfm_kalman_em,2005:Q1,0.030025956898831394,0.030025956898831394
exact,pre_advance,A,ar,revision_dfm_kalman_em,2005:Q2,-0.14792461864073952,-0.11789866174190813
exact,pre_advance,A,ar,revision_dfm_kalman_em,2005:Q3,-0.8097514869431702,-0.9276501486850783
exact,pre_advance,A,ar,revision_dfm_kalman_em,2005:Q4,-4.234499435313711,-5.162149583998789
exact,pre_advance,A,ar,revision_dfm_kalman_em,2006:Q1,4.6202299272883565,-0.5419196567104327
exact,pre_advance,A,ar,revision_dfm_kalman_em,2006:Q2,-0.006621299477159948,-0.5485409561875927
exact,pre_advance,A,ar,revision_dfm_kalman_em,2006:Q3,0.7573623353485626,0.20882137916096988
exact,pre_advance,A,ar,revision_dfm_kalman_em,2006:Q4,-5.3693737143356595,-5.16055233517469
exact,pre_advance,A,ar,revision_dfm_kalman_em,2007:Q1,-0.5844694973478957,-5.7450218325225855
exact,pre_advance,A,ar,revision_dfm_kalman_em,2007:Q2,1.921304956224126,-3.8237168762984597
exact,pre_advance,A,ar,revision_dfm_kalman_em,2007:Q3,-2.3805749674509498,-6.2042918437494095
exact,pre_advance,A,ar,revision_dfm_kalman_em,2007:Q4,6.899797054723338,0.6955052109739288
exact,pre_advance,A,ar,revision_dfm_kalman_em,2008:Q1,1.17765831155647,1.8731635225303989
exact,pre_advance,A,ar,revision_dfm_kalman_em,2008:Q2,-2.585061405444296,-0.7118978829138971
exact,pre_advance,A,ar,revision_dfm_kalman_em,2008:Q3,6.301100318888337,5.58920243597444
exact,pre_advance,A,ar,revision_dfm_kalman_em,2008:Q4,18.28597856059055,23.87518099656499
exact,pre_advance,A,ar,revision_dfm_kalman_em,2009:Q1,12.48178983320297,36.35697082976796
exact,pre_advance,A,ar,revision_dfm_kalman_em,2009:Q2,-6.509779969000925,29.847190860767036
exact,pre_advance,A,ar,revision_dfm_kalman_em,2009:Q3,5.32283839892799,35.17002925969503
exact,pre_advance,A,ar,revision_dfm_kalman_em,2009:Q4,3.7903588596988387,38.96038811939387
exact,pre_advance,A,ar,revision_dfm_kalman_em,2010:Q1,-5.509067620579772,33.4513204988141
exact,pre_advance,A,ar,revision_dfm_kalman_em,2010:Q2,-2.4303031967520248,31.021017302062074
exact,pre_advance,A,ar,revision_dfm_kalman_em,2010:Q3,-0.6630764729950647,30.357940829067008
exact,pre_advance,A,ar,revision_dfm_kalman_em,2010:Q4,-0.2314005826366915,30.126540246430316
exact,pre_advance,A,ar,revision_dfm_kalman_em,2011:Q1,-10.445625599638984,19.680914646791333
exact,pre_advance,A,ar,revision_dfm_kalman_em,2011:Q2,0.3464430969914037,20.027357743782737
exact,pre_advance,A,ar,revision_dfm_kalman_em,2011:Q3,-0.44636167460705417,19.580996069175683
exact,pre_advance,A,ar,revision_dfm_kalman_em,2011:Q4,-0.6103929491468917,18.97060312002879
exact,pre_advance,A,ar,revision_dfm_kalman_em,2012:Q1,-2.486515629705368,16.48408749032342
exact,pre_advance,A,ar,revision_dfm_kalman_em,2012:Q2,0.4339100434477516,16.917997533771175
exact,pre_advance,A,ar,revision_dfm_kalman_em,2012:Q3,-0.035939213898400886,16.882058319872773
exact,pre_advance,A,ar,revision_dfm_kalman_em,2012:Q4,-5.259885100222393,11.62217321965038
exact,pre_advance,A,ar,revision_dfm_kalman_em,2013:Q1,1.7162767181297391,13.33844993778012
exact,pre_advance,A,ar,revision_dfm_kalman_em,2013:Q2,0.03259314896155174,13.37104308674167
exact,pre_advance,A,ar,revision_dfm_kalman_em,2013:Q3,0.3532226003851492,13.724265687126818
exact,pre_advance,A,ar,revision_dfm_kalman_em,2013:Q4,-0.6978202802662627,13.026445406860557
exact,pre_advance,A,ar,revision_dfm_kalman_em,2014:Q1,-0.6087976758895977,12.417647730970959
exact,pre_advance,A,ar,revision_dfm_kalman_em,2014:Q2,6.934562579004476,19.352210309975433
exact,pre_advance,A,ar,revision_dfm_kalman_em,2014:Q3,-0.49518586397877323,18.85702444599666
exact,pre_advance,A,ar,revision_dfm_kalman_em,2014:Q4,-0.1641724957566083,18.69285195024005
exact,pre_advance,A,ar,revision_dfm_kalman_em,2015:Q1,4.935409008488951,23.628260958729
exact,pre_advance,A,ar,revision_dfm_kalman_em,2015:Q2,0.5142827322511991,24.1425436909802
exact,pre_advance,A,ar,revision_dfm_kalman_em,2015:Q3,-0.9238009620270904,23.21874272895311
exact,pre_advance,A,ar,revision_dfm_kalman_em,2015:Q4,1.7355837624431139,24.954326491396223
exact,pre_advance,A,ar,revision_dfm_kalman_em,2016:Q1,0.395887989739208,25.35021448113543
exact,pre_advance,A,ar,revision_dfm_kalman_em,2016:Q2,-0.12234031390029006,25.227874167235143
exact,pre_advance,A,ar,revision_dfm_kalman_em,2016:Q3,0.8780662951382965,26.10594046237344
exact,pre_advance,A,ar,revision_dfm_kalman_em,2016:Q4,0.13639856532266037,26.2423390276961
exact,pre_advance,A,ar,revision_dfm_kalman_em,2017:Q1,-0.9781745869326528,25.264164440763448
exact,pre_advance,A,ar,revision_dfm_kalman_em,2017:Q2,0.48479223115439135,25.74895667191784
exact,pre_advance,A,ar,revision_dfm_kalman_em,2017:Q3,-3.28745222425563,22.461504447662207
exact,pre_advance,A,ar,revision_dfm_kalman_em,2017:Q4,-6.443776174368242,16.017728273293965
exact,pre_advance,A,ar,revision_dfm_kalman_em,2018:Q1,-0.5903216430906738,15.427406630203292
exact,pre_advance,A,ar,revision_dfm_kalman_em,2018:Q2,2.2269987369239947,17.654405367127286
exact,pre_advance,A,ar,revision_dfm_kalman_em,2018:Q3,-0.019763410743881826,17.634641956383405
exact,pre_advance,A,ar,revision_dfm_kalman_em,2018:Q4,0.07804180994116008,17.712683766324563
exact,pre_advance,A,ar,revision_dfm_kalman_em,2019:Q1,-2.4913916831584744,15.22129208316609
exact,pre_advance,A,ar,revision_dfm_kalman_em,2019:Q2,0.6069629769831973,15.828255060149287
exact,pre_advance,A,ar,revision_dfm_kalman_em,2019:Q3,-0.16966249151618437,15.658592568633102
exact,pre_advance,A,ar,revision_dfm_kalman_em,2019:Q4,-0.3989507760426496,15.259641792590452
exact,pre_advance,A,ar,revision_dfm_kalman_em,2020:Q1,34.97942890190493,50.23907069449538
exact,pre_advance,A,ar,revision_dfm_kalman_em,2020:Q2,855.2669162868448,905.5059869813401
exact,pre_advance,A,ar,revision_dfm_kalman_em,2020:Q3,2292.341790563814,3197.847777545154
exact,pre_advance,A,ar,revision_dfm_kalman_em,2020:Q4,-1.6010675534339989,3196.24670999172
exact,pre_advance,A,ar,revision_dfm_kalman_em,2021:Q1,0.1924006396643243,3196.439110631384
exact,pre_advance,A,ar,revision_dfm_kalman_em,2021:Q2,9.863111067154929,3206.302221698539
exact,pre_advance,A,ar,revision_dfm_kalman_em,2021:Q3,-2.227456356149388,3204.0747653423896
exact,pre_advance,A,ar,revision_dfm_kalman_em,2021:Q4,9.39659819150028,3213.47136353389
exact,pre_advance,A,ar,revision_dfm_kalman_em,2022:Q1,-34.18016110915119,3179.2912024247385
exact,pre_advance,A,ar,revision_dfm_kalman_em,2022:Q2,-8.650660461126174,3170.640541963612
exact,pre_advance,A,ar,revision_dfm_kalman_em,2022:Q3,-0.14713222125722614,3170.4934097423547
exact,pre_advance,A,ar,revision_dfm_kalman_em,2022:Q4,-4.050600056942038,3166.4428096854126
exact,pre_advance,A,ar,revision_dfm_kalman_em,2023:Q1,0.2596732315383059,3166.702482916951
exact,pre_advance,A,ar,revision_dfm_kalman_em,2023:Q2,-0.0020163420449873177,3166.700466574906
exact,pre_advance,A,ar,revision_dfm_kalman_em,2023:Q3,0.6238945527389417,3167.324361127645
exact,pre_advance,A,ar,revision_dfm_kalman_em,2023:Q4,-5.807756659637823,3161.516604468007
exact,pre_advance,A,ar,revision_dfm_kalman_em,2024:Q1,0.8094933245822302,3162.326097792589
exact,pre_advance,A,ar,revision_dfm_kalman_em,2024:Q2,-1.5276711683409525,3160.798426624248
exact,pre_advance,A,ar,revision_dfm_kalman_em,2024:Q3,-1.3962209025441,3159.402205721704
exact,pre_advance,A,ar,revision_dfm_kalman_em,2024:Q4,-0.06117166338070129,3159.341034058323
exact,pre_advance,A,ar,standard_dfm,2005:Q1,0.005557468690040569,0.005557468690040569
exact,pre_advance,A,ar,standard_dfm,2005:Q2,0.17688600917079522,0.18244347786083578
exact,pre_advance,A,ar,standard_dfm,2005:Q3,-0.5496284026543578,-0.36718492479352194
exact,pre_advance,A,ar,standard_dfm,2005:Q4,-1.598510703674827,-1.9656956284683489
exact,pre_advance,A,ar,standard_dfm,2006:Q1,5.895364834230374,3.9296692057620257
exact,pre_advance,A,ar,standard_dfm,2006:Q2,0.6326591475203764,4.562328353282402
exact,pre_advance,A,ar,standard_dfm,2006:Q3,-1.1815536331980458,3.3807747200843563
exact,pre_advance,A,ar,standard_dfm,2006:Q4,-0.08961491202374194,3.2911598080606144
exact,pre_advance,A,ar,standard_dfm,2007:Q1,2.277615211128804,5.5687750191894185
exact,pre_advance,A,ar,standard_dfm,2007:Q2,1.5721987404672848,7.140973759656704
exact,pre_advance,A,ar,standard_dfm,2007:Q3,-0.9325969815824826,6.208376778074221
exact,pre_advance,A,ar,standard_dfm,2007:Q4,5.619451697130959,11.82782847520518
exact,pre_advance,A,ar,standard_dfm,2008:Q1,0.40717775583222005,12.235006231037401
exact,pre_advance,A,ar,standard_dfm,2008:Q2,-0.14854631810386085,12.08645991293354
exact,pre_advance,A,ar,standard_dfm,2008:Q3,5.4603986995371985,17.54685861247074
exact,pre_advance,A,ar,standard_dfm,2008:Q4,25.320902423246764,42.86776103571751
exact,pre_advance,A,ar,standard_dfm,2009:Q1,26.898920136255693,69.7666811719732
exact,pre_advance,A,ar,standard_dfm,2009:Q2,0.6708675600601798,70.43754873203338
exact,pre_advance,A,ar,standard_dfm,2009:Q3,7.624685900987867,78.06223463302125
exact,pre_advance,A,ar,standard_dfm,2009:Q4,-0.05460311648701044,78.00763151653423
exact,pre_advance,A,ar,standard_dfm,2010:Q1,-1.3835107224576693,76.62412079407656
exact,pre_advance,A,ar,standard_dfm,2010:Q2,-0.9692400609140532,75.65488073316251
exact,pre_advance,A,ar,standard_dfm,2010:Q3,-0.16499710555444946,75.48988362760807
exact,pre_advance,A,ar,standard_dfm,2010:Q4,0.42205119712596945,75.91193482473403
exact,pre_advance,A,ar,standard_dfm,2011:Q1,-7.4780707692330814,68.43386405550095
exact,pre_advance,A,ar,standard_dfm,2011:Q2,-1.2601790103089012,67.17368504519204
exact,pre_advance,A,ar,standard_dfm,2011:Q3,0.169691482379295,67.34337652757134
exact,pre_advance,A,ar,standard_dfm,2011:Q4,-0.5786066882143086,66.76476983935703
exact,pre_advance,A,ar,standard_dfm,2012:Q1,-2.2457574597114895,64.51901237964555
exact,pre_advance,A,ar,standard_dfm,2012:Q2,-0.29124857939303794,64.2277638002525
exact,pre_advance,A,ar,standard_dfm,2012:Q3,-0.2875970641695967,63.94016673608291
exact,pre_advance,A,ar,standard_dfm,2012:Q4,-7.029358035026668,56.91080870105624
exact,pre_advance,A,ar,standard_dfm,2013:Q1,1.5366394988358543,58.447448199892094
exact,pre_advance,A,ar,standard_dfm,2013:Q2,-0.6193290521110049,57.82811914778109
exact,pre_advance,A,ar,standard_dfm,2013:Q3,0.5116495142349746,58.33976866201606
exact,pre_advance,A,ar,standard_dfm,2013:Q4,0.1881211670679197,58.52788982908398
exact,pre_advance,A,ar,standard_dfm,2014:Q1,2.2611836602781894,60.789073489362174
exact,pre_advance,A,ar,standard_dfm,2014:Q2,6.950285300050513,67.73935878941269
exact,pre_advance,A,ar,standard_dfm,2014:Q3,-0.23970610456212987,67.49965268485056
exact,pre_advance,A,ar,standard_dfm,2014:Q4,0.15993158149245626,67.65958426634302
exact,pre_advance,A,ar,standard_dfm,2015:Q1,3.4584411620002116,71.11802542834323
exact,pre_advance,A,ar,standard_dfm,2015:Q2,0.6081887664408485,71.72621419478408
exact,pre_advance,A,ar,standard_dfm,2015:Q3,-0.49388308416577154,71.2323311106183
exact,pre_advance,A,ar,standard_dfm,2015:Q4,-0.19969496392135166,71.03263614669696
exact,pre_advance,A,ar,standard_dfm,2016:Q1,-1.3432215168252546,69.6894146298717
exact,pre_advance,A,ar,standard_dfm,2016:Q2,-0.9852587561590905,68.70415587371262
exact,pre_advance,A,ar,standard_dfm,2016:Q3,0.8086089264622582,69.51276480017488
exact,pre_advance,A,ar,standard_dfm,2016:Q4,-0.9426756961184087,68.57008910405646
exact,pre_advance,A,ar,standard_dfm,2017:Q1,-2.1563377782168565,66.41375132583961
exact,pre_advance,A,ar,standard_dfm,2017:Q2,0.8839097043219548,67.29766103016156
exact,pre_advance,A,ar,standard_dfm,2017:Q3,-0.4498136888489407,66.84784734131263
exact,pre_advance,A,ar,standard_dfm,2017:Q4,-1.472453224608988,65.37539411670365
exact,pre_advance,A,ar,standard_dfm,2018:Q1,-1.1961916583162755,64.17920245838737
exact,pre_advance,A,ar,standard_dfm,2018:Q2,0.7936938430062765,64.97289630139365
exact,pre_advance,A,ar,standard_dfm,2018:Q3,-0.1781213138623781,64.79477498753127
exact,pre_advance,A,ar,standard_dfm,2018:Q4,0.16398670734271426,64.95876169487398
exact,pre_advance,A,ar,standard_dfm,2019:Q1,-1.3737634057761716,63.58499828909781
exact,pre_advance,A,ar,standard_dfm,2019:Q2,0.5864738210399745,64.17147211013778
exact,pre_advance,A,ar,standard_dfm,2019:Q3,-0.046367842978673635,64.12510426715912
exact,pre_advance,A,ar,standard_dfm,2019:Q4,-0.009652078071393923,64.11545218908772
exact,pre_advance,A,ar,standard_dfm,2020:Q1,20.78770088725127,84.90315307633898
exact,pre_advance,A,ar,standard_dfm,2020:Q2,712.4929959502995,797.3961490266385
exact,pre_advance,A,ar,standard_dfm,2020:Q3,2567.084749771238,3364.4808987978763
exact,pre_advance,A,ar,standard_dfm,2020:Q4,-9.760194583218505,3354.720704214658
exact,pre_advance,A,ar,standard_dfm,2021:Q1,14.717586220885224,3369.438290435543
exact,pre_advance,A,ar,standard_dfm,2021:Q2,11.250739364102031,3380.689029799645
exact,pre_advance,A,ar,standard_dfm,2021:Q3,-1.552906580913287,3379.136123218732
exact,pre_advance,A,ar,standard_dfm,2021:Q4,14.115040173354647,3393.2511633920867
exact,pre_advance,A,ar,standard_dfm,2022:Q1,-52.79943459352654,3340.45172879856
exact,pre_advance,A,ar,standard_dfm,2022:Q2,-12.669399125677797,3327.782329672882
exact,pre_advance,A,ar,standard_dfm,2022:Q3,0.013300193484457885,3327.7956298663667
exact,pre_advance,A,ar,standard_dfm,2022:Q4,-1.3244838241014654,3326.471146042265
exact,pre_advance,A,ar,standard_dfm,2023:Q1,0.6909286887191397,3327.162074730984
exact,pre_advance,A,ar,standard_dfm,2023:Q2,-0.12096587289956348,3327.0411088580845
exact,pre_advance,A,ar,standard_dfm,2023:Q3,-2.313832963877977,3324.7272758942067
exact,pre_advance,A,ar,standard_dfm,2023:Q4,-1.707528374686477,3323.0197475195205
exact,pre_advance,A,ar,standard_dfm,2024:Q1,0.4624004308907377,3323.482147950411
exact,pre_advance,A,ar,standard_dfm,2024:Q2,0.1298334675859058,3323.611981417997
exact,pre_advance,A,ar,standard_dfm,2024:Q3,-0.8060037928736986,3322.8059776251234
exact,pre_advance,A,ar,standard_dfm,2024:Q4,0.033129491051418665,3322.839107116175
exact,pre_advance,A,no_revision,ar,2005:Q1,-0.01829276874886654,-0.01829276874886654
exact,pre_advance,A,no_revision,ar,2005:Q2,0.010434082728868699,-0.00785868601999784
exact,pre_advance,A,no_revision,ar,2005:Q3,-0.04475723724217473,-0.05261592326217257
exact,pre_advance,A,no_revision,ar,2005:Q4,0.005897102113586961,-0.04671882114858561
exact,pre_advance,A,no_revision,ar,2006:Q1,-0.14435758559098844,-0.19107640673957405
exact,pre_advance,A,no_revision,ar,2006:Q2,-0.10645890996238783,-0.29753531670196187
exact,pre_advance,A,no_revision,ar,2006:Q3,0.24152679339726402,-0.056008523304697855
exact,pre_advance,A,no_revision,ar,2006:Q4,0.30824079892148304,0.2522322756167852
exact,pre_advance,A,no_revision,ar,2007:Q1,0.23848279984936216,0.49071507546614734
exact,pre_advance,A,no_revision,ar,2007:Q2,-0.05512019812272051,0.43559487734342683
exact,pre_advance,A,no_revision,ar,2007:Q3,0.19969014430791188,0.6352850216513387
exact,pre_advance,A,no_revision,ar,2007:Q4,0.15567398880635874,0.7909590104576975
exact,pre_advance,A,no_revision,ar,2008:Q1,-0.05559234221203191,0.7353666682456655
exact,pre_advance,A,no_revision,ar,2008:Q2,-0.004622952477093177,0.7307437157685723
exact,pre_advance,A,no_revision,ar,2008:Q3,0.15221627551749783,0.8829599912860702
exact,pre_advance,A,no_revision,ar,2008:Q4,-0.5818162017862143,0.3011437894998559
exact,pre_advance,A,no_revision,ar,2009:Q1,-0.45423321116048854,-0.15308942166063266
exact,pre_advance,A,no_revision,ar,2009:Q2,-0.013307526119774815,-0.16639694778040748
exact,pre_advance,A,no_revision,ar,2009:Q3,1.023992772227114,0.8575958244467066
exact,pre_advance,A,no_revision,ar,2009:Q4,1.4621885824992091,2.3197844069459155
exact,pre_advance,A,no_revision,ar,2010:Q1,-0.5154181563893694,1.804366250556546
exact,pre_advance,A,no_revision,ar,2010:Q2,-0.1815894544157976,1.6227767961407484
exact,pre_advance,A,no_revision,ar,2010:Q3,-0.02901155984276077,1.5937652362979877
exact,pre_advance,A,no_revision,ar,2010:Q4,-0.21335030884274386,1.3804149274552437
exact,pre_advance,A,no_revision,ar,2011:Q1,0.06757887593352563,1.4479938033887694
exact,pre_advance,A,no_revision,ar,2011:Q2,-0.0202217337142232,1.4277720696745462
exact,pre_advance,A,no_revision,ar,2011:Q3,0.052984459561723096,1.4807565292362692
exact,pre_advance,A,no_revision,ar,2011:Q4,-0.01895665554257433,1.4617998736936948
exact,pre_advance,A,no_revision,ar,2012:Q1,-0.02232353618393504,1.4394763375097597
exact,pre_advance,A,no_revision,ar,2012:Q2,-0.11942453052189395,1.3200518069878657
exact,pre_advance,A,no_revision,ar,2012:Q3,-0.0006349170808925357,1.3194168899069731
exact,pre_advance,A,no_revision,ar,2012:Q4,0.06262090931865316,1.3820377992256263
exact,pre_advance,A,no_revision,ar,2013:Q1,0.008932871015000954,1.3909706702406273
exact,pre_advance,A,no_revision,ar,2013:Q2,-0.06324061631598044,1.3277300539246468
exact,pre_advance,A,no_revision,ar,2013:Q3,-0.0315667756852992,1.2961632782393475
exact,pre_advance,A,no_revision,ar,2013:Q4,0.17688786721241778,1.4730511454517652
exact,pre_advance,A,no_revision,ar,2014:Q1,0.02480433967617479,1.49785548512794
exact,pre_advance,A,no_revision,ar,2014:Q2,0.3039643587409291,1.801819843868869
exact,pre_advance,A,no_revision,ar,2014:Q3,0.01009808842494786,1.811917932293817
exact,pre_advance,A,no_revision,ar,2014:Q4,0.053005079780955394,1.8649230120747724
exact,pre_advance,A,no_revision,ar,2015:Q1,-0.67193818782102,1.1929848242537524
exact,pre_advance,A,no_revision,ar,2015:Q2,-0.08197493566980374,1.1110098885839488
exact,pre_advance,A,no_revision,ar,2015:Q3,0.08264742175217066,1.1936573103361194
exact,pre_advance,A,no_revision,ar,2015:Q4,0.12441534043486313,1.3180726507709826
exact,pre_advance,A,no_revision,ar,2016:Q1,-0.2275952927293533,1.0904773580416292
exact,pre_advance,A,no_revision,ar,2016:Q2,0.0046545719231812915,1.0951319299648103
exact,pre_advance,A,no_revision,ar,2016:Q3,0.04584231925914617,1.1409742492239565
exact,pre_advance,A,no_revision,ar,2016:Q4,-0.10114230910276367,1.0398319401211928
exact,pre_advance,A,no_revision,ar,2017:Q1,-0.246574617300388,0.7932573228208049
exact,pre_advance,A,no_revision,ar,2017:Q2,0.15926574147033767,0.9525230642911425
exact,pre_advance,A,no_revision,ar,2017:Q3,-0.022454236955837703,0.9300688273353048
exact,pre_advance,A,no_revision,ar,2017:Q4,-0.004727701091471227,0.9253411262438336
exact,pre_advance,A,no_revision,ar,2018:Q1,-0.03223932073775865,0.8931018055060749
exact,pre_advance,A,no_revision,ar,2018:Q2,0.05012498584200742,0.9432267913480823
exact,pre_advance,A,no_revision,ar,2018:Q3,-0.0040716179457951085,0.9391551734022872
exact,pre_advance,A,no_revision,ar,2018:Q4,-0.0107967518642271,0.92835842153806
exact,pre_advance,A,no_revision,ar,2019:Q1,0.06475700376940074,0.9931154253074608
exact,pre_advance,A,no_revision,ar,2019:Q2,0.08251128198875868,1.0756267072962196
exact,pre_advance,A,no_revision,ar,2019:Q3,0.02873654465966108,1.1043632519558806
exact,pre_advance,A,no_revision,ar,2019:Q4,-0.0032282376299231016,1.1011350143259575
exact,pre_advance,A,no_revision,ar,2020:Q1,0.47755925650978526,1.5786942708357428
exact,pre_advance,A,no_revision,ar,2020:Q2,0.5667662532794111,2.145460524115154
exact,pre_advance,A,no_revision,ar,2020:Q3,57.60016029331837,59.74562081743352
exact,pre_advance,A,no_revision,ar,2020:Q4,40.65854856282156,100.40416938025507
exact,pre_advance,A,no_revision,ar,2021:Q1,27.79553131153419,128.19970069178925
exact,pre_advance,A,no_revision,ar,2021:Q2,24.119251842538425,152.31895253432768
exact,pre_advance,A,no_revision,ar,2021:Q3,0.30877510409469244,152.62772763842236
exact,pre_advance,A,no_revision,ar,2021:Q4,-3.7679008571371924,148.85982678128516
exact,pre_advance,A,no_revision,ar,2022:Q1,0.5234667865097897,149.38329356779496
exact,pre_advance,A,no_revision,ar,2022:Q2,1.9855199282110494,151.36881349600603
exact,pre_advance,A,no_revision,ar,2022:Q3,0.033925124700511525,151.40273862070654
exact,pre_advance,A,no_revision,ar,2022:Q4,0.7384306425890252,152.14116926329558
exact,pre_advance,A,no_revision,ar,2023:Q1,-0.371137610273619,151.77003165302196
exact,pre_advance,A,no_revision,ar,2023:Q2,0.00528125482766627,151.77531290784964
exact,pre_advance,A,no_revision,ar,2023:Q3,0.5551736828791194,152.33048659072875
exact,pre_advance,A,no_revision,ar,2023:Q4,0.20210030709286464,152.53258689782163
exact,pre_advance,A,no_revision,ar,2024:Q1,0.31218151521482485,152.84476841303646
exact,pre_advance,A,no_revision,ar,2024:Q2,-0.0978852185130688,152.7468831945234
exact,pre_advance,A,no_revision,ar,2024:Q3,0.06291573213851451,152.80979892666193
exact,pre_advance,A,no_revision,ar,2024:Q4,-0.026146771737672124,152.78365215492425
exact,pre_advance,A,no_revision,bridge,2005:Q1,0.008215597414184327,0.008215597414184327
exact,pre_advance,A,no_revision,bridge,2005:Q2,0.2664849976095034,0.2747005950236877
exact,pre_advance,A,no_revision,bridge,2005:Q3,-0.15934170783751533,0.11535888718617238
exact,pre_advance,A,no_revision,bridge,2005:Q4,-1.0611563148113392,-0.9457974276251668
exact,pre_advance,A,no_revision,bridge,2006:Q1,1.4912925400289465,0.5454951124037797
exact,pre_advance,A,no_revision,bridge,2006:Q2,0.6612398447418184,1.206734957145598
exact,pre_advance,A,no_revision,bridge,2006:Q3,0.1273893744255441,1.3341243315711422
exact,pre_advance,A,no_revision,bridge,2006:Q4,-11.115495185358752,-9.78137085378761
exact,pre_advance,A,no_revision,bridge,2007:Q1,3.1673071315367447,-6.614063722250865
exact,pre_advance,A,no_revision,bridge,2007:Q2,-0.6270010939567126,-7.241064816207578
exact,pre_advance,A,no_revision,bridge,2007:Q3,-4.222013087742023,-11.4630779039496
exact,pre_advance,A,no_revision,bridge,2007:Q4,7.137280030827965,-4.325797873121635
exact,pre_advance,A,no_revision,bridge,2008:Q1,-0.8984188663524948,-5.22421673947413
exact,pre_advance,A,no_revision,bridge,2008:Q2,-0.5822131332173002,-5.80642987269143
exact,pre_advance,A,no_revision,bridge,2008:Q3,6.39136969126084,0.5849398185694099
exact,pre_advance,A,no_revision,bridge,2008:Q4,18.35320542375238,18.93814524232179
exact,pre_advance,A,no_revision,bridge,2009:Q1,28.522254693917795,47.46039993623958
exact,pre_advance,A,no_revision,bridge,2009:Q2,-1.1106053779094145,46.34979455833017
exact,pre_advance,A,no_revision,bridge,2009:Q3,5.32685235672722,51.67664691505739
exact,pre_advance,A,no_revision,bridge,2009:Q4,2.3027277325741444,53.97937464763153
exact,pre_advance,A,no_revision,bridge,2010:Q1,-8.418305450954188,45.561069196677344
exact,pre_advance,A,no_revision,bridge,2010:Q2,-0.1697311461835938,45.39133805049375
exact,pre_advance,A,no_revision,bridge,2010:Q3,0.1593129872951196,45.55065103778887
exact,pre_advance,A,no_revision,bridge,2010:Q4,0.06317830953073766,45.61382934731961
exact,pre_advance,A,no_revision,bridge,2011:Q1,-2.555993190959713,43.0578361563599
exact,pre_advance,A,no_revision,bridge,2011:Q2,-1.493123708883806,41.56471244747609
exact,pre_advance,A,no_revision,bridge,2011:Q3,0.05073215179515983,41.61544459927125
exact,pre_advance,A,no_revision,bridge,2011:Q4,-1.1017138183289266,40.513730780942325
exact,pre_advance,A,no_revision,bridge,2012:Q1,-1.0764773078905139,39.43725347305181
exact,pre_advance,A,no_revision,bridge,2012:Q2,-0.6035966229476759,38.833656850104134
exact,pre_advance,A,no_revision,bridge,2012:Q3,-0.5752088386682247,38.25844801143591
exact,pre_advance,A,no_revision,bridge,2012:Q4,-8.103480051567285,30.154967959868625
exact,pre_advance,A,no_revision,bridge,2013:Q1,0.7950884554726778,30.9500564153413
exact,pre_advance,A,no_revision,bridge,2013:Q2,-0.4457019305453256,30.504354484795975
exact,pre_advance,A,no_revision,bridge,2013:Q3,-0.49834211672689566,30.00601236806908
exact,pre_advance,A,no_revision,bridge,2013:Q4,0.1371224544965423,30.14313482256562
exact,pre_advance,A,no_revision,bridge,2014:Q1,3.94519318026431,34.08832800282993
exact,pre_advance,A,no_revision,bridge,2014:Q2,4.410158699495559,38.49848670232549
exact,pre_advance,A,no_revision,bridge,2014:Q3,-0.045996355308121864,38.452490347017374
exact,pre_advance,A,no_revision,bridge,2014:Q4,0.21060359627008304,38.66309394328746
exact,pre_advance,A,no_revision,bridge,2015:Q1,2.7117362862474277,41.374830229534886
exact,pre_advance,A,no_revision,bridge,2015:Q2,0.7790793652174877,42.15390959475238
exact,pre_advance,A,no_revision,bridge,2015:Q3,0.6963195488390831,42.85022914359146
exact,pre_advance,A,no_revision,bridge,2015:Q4,0.7760148696761358,43.6262440132676
exact,pre_advance,A,no_revision,bridge,2016:Q1,0.5511528724916305,44.17739688575923
exact,pre_advance,A,no_revision,bridge,2016:Q2,0.0644515912176081,44.241848476976834
exact,pre_advance,A,no_revision,bridge,2016:Q3,0.40961784186630823,44.65146631884314
exact,pre_advance,A,no_revision,bridge,2016:Q4,-0.8386804777801568,43.81278584106298
exact,pre_advance,A,no_revision,bridge,2017:Q1,-0.9106445698930794,42.9021412711699
exact,pre_advance,A,no_revision,bridge,2017:Q2,0.032319961715321144,42.934461232885226
exact,pre_advance,A,no_revision,bridge,2017:Q3,-0.336708786293597,42.59775244659163
exact,pre_advance,A,no_revision,bridge,2017:Q4,-1.154757722775842,41.44299472381579
exact,pre_advance,A,no_revision,bridge,2018:Q1,-0.8916572326445082,40.55133749117128
exact,pre_advance,A,no_revision,bridge,2018:Q2,0.4451149747288108,40.99645246590009
exact,pre_advance,A,no_revision,bridge,2018:Q3,-0.14793050552026416,40.84852196037983
exact,pre_advance,A,no_revision,bridge,2018:Q4,0.07988877975701851,40.92841074013685
exact,pre_advance,A,no_revision,bridge,2019:Q1,-0.042852976479083926,40.885557763657765
exact,pre_advance,A,no_revision,bridge,2019:Q2,0.691477457554207,41.57703522121197
exact,pre_advance,A,no_revision,bridge,2019:Q3,-0.30398174816418033,41.27305347304779
exact,pre_advance,A,no_revision,bridge,2019:Q4,-0.17104382993473502,41.10200964311306
exact,pre_advance,A,no_revision,bridge,2020:Q1,9.580017702547927,50.682027345660984
exact,pre_advance,A,no_revision,bridge,2020:Q2,533.1821380067008,583.8641653523619
exact,pre_advance,A,no_revision,bridge,2020:Q3,1700.4719074888842,2284.3360728412463
exact,pre_advance,A,no_revision,bridge,2020:Q4,15.421963922740805,2299.758036763987
exact,pre_advance,A,no_revision,bridge,2021:Q1,40.78673656791285,2340.5447733319
exact,pre_advance,A,no_revision,bridge,2021:Q2,39.12920568822841,2379.6739790201286
exact,pre_advance,A,no_revision,bridge,2021:Q3,0.0036412283532811784,2379.677620248482
exact,pre_advance,A,no_revision,bridge,2021:Q4,-4.309556315401213,2375.368063933081
exact,pre_advance,A,no_revision,bridge,2022:Q1,-26.71709323163731,2348.650970701444
exact,pre_advance,A,no_revision,bridge,2022:Q2,4.302320761912444,2352.9532914633564
exact,pre_advance,A,no_revision,bridge,2022:Q3,-3.0320521275153913,2349.921239335841
exact,pre_advance,A,no_revision,bridge,2022:Q4,-17.62049701398003,2332.300742321861
exact,pre_advance,A,no_revision,bridge,2023:Q1,1.3756908668791987,2333.6764331887402
exact,pre_advance,A,no_revision,bridge,2023:Q2,-1.4016490347085375,2332.2747841540317
exact,pre_advance,A,no_revision,bridge,2023:Q3,0.9167463176544635,2333.1915304716863
exact,pre_advance,A,no_revision,bridge,2023:Q4,-6.150838688551263,2327.040691783135
exact,pre_advance,A,no_revision,bridge,2024:Q1,1.0977588391882465,2328.1384506223235
exact,pre_advance,A,no_revision,bridge,2024:Q2,-0.7539944374101389,2327.3844561849132
exact,pre_advance,A,no_revision,bridge,2024:Q3,-0.007619718001529829,2327.3768364669118
exact,pre_advance,A,no_revision,bridge,2024:Q4,-0.026589665500670635,2327.3502468014112
exact,pre_advance,A,no_revision,indicator_revision_only_dfm_kalman_em,2005:Q1,-4.287882729191949,-4.287882729191949
exact,pre_advance,A,no_revision,indicator_revision_only_dfm_kalman_em,2005:Q2,0.19466813663273763,-4.093214592559212
exact,pre_advance,A,no_revision,indicator_revision_only_dfm_kalman_em,2005:Q3,-0.2068181399014123,-4.3000327324606245
exact,pre_advance,A,no_revision,indicator_revision_only_dfm_kalman_em,2005:Q4,-21.138206440755148,-25.438239173215774
exact,pre_advance,A,no_revision,indicator_revision_only_dfm_kalman_em,2006:Q1,8.265848665290147,-17.172390507925627
exact,pre_advance,A,no_revision,indicator_revision_only_dfm_kalman_em,2006:Q2,-4.724053182241954,-21.89644369016758
exact,pre_advance,A,no_revision,indicator_revision_only_dfm_kalman_em,2006:Q3,-0.2718604153457247,-22.168304105513304
exact,pre_advance,A,no_revision,indicator_revision_only_dfm_kalman_em,2006:Q4,-15.120838044344493,-37.289142149857796
exact,pre_advance,A,no_revision,indicator_revision_only_dfm_kalman_em,2007:Q1,2.6175493366853435,-34.67159281317245
exact,pre_advance,A,no_revision,indicator_revision_only_dfm_kalman_em,2007:Q2,-1.7742650111385818,-36.445857824311034
exact,pre_advance,A,no_revision,indicator_revision_only_dfm_kalman_em,2007:Q3,-30.141212247442848,-66.58707007175389
exact,pre_advance,A,no_revision,indicator_revision_only_dfm_kalman_em,2007:Q4,2.2209878437602333,-64.36608222799366
exact,pre_advance,A,no_revision,indicator_revision_only_dfm_kalman_em,2008:Q1,-5.878295006553446,-70.2443772345471
exact,pre_advance,A,no_revision,indicator_revision_only_dfm_kalman_em,2008:Q2,-0.2588300671116269,-70.50320730165873
exact,pre_advance,A,no_revision,indicator_revision_only_dfm_kalman_em,2008:Q3,0.9919560324233689,-69.51125126923536
exact,pre_advance,A,no_revision,indicator_revision_only_dfm_kalman_em,2008:Q4,-8.948238425556568,-78.45948969479193
exact,pre_advance,A,no_revision,indicator_revision_only_dfm_kalman_em,2009:Q1,8.191944190978067,-70.26754550381386
exact,pre_advance,A,no_revision,indicator_revision_only_dfm_kalman_em,2009:Q2,0.5273128793857063,-69.74023262442816
exact,pre_advance,A,no_revision,indicator_revision_only_dfm_kalman_em,2009:Q3,3.730399106136977,-66.00983351829119
exact,pre_advance,A,no_revision,indicator_revision_only_dfm_kalman_em,2009:Q4,-4.884456568317239,-70.89429008660842
exact,pre_advance,A,no_revision,indicator_revision_only_dfm_kalman_em,2010:Q1,-8.320660301895662,-79.21495038850408
exact,pre_advance,A,no_revision,indicator_revision_only_dfm_kalman_em,2010:Q2,-3.829482683889763,-83.04443307239384
exact,pre_advance,A,no_revision,indicator_revision_only_dfm_kalman_em,2010:Q3,0.11860251850400767,-82.92583055388984
exact,pre_advance,A,no_revision,indicator_revision_only_dfm_kalman_em,2010:Q4,0.47312659090600917,-82.45270396298383
exact,pre_advance,A,no_revision,indicator_revision_only_dfm_kalman_em,2011:Q1,-20.5421240393604,-102.99482800234424
exact,pre_advance,A,no_revision,indicator_revision_only_dfm_kalman_em,2011:Q2,0.3348779913689574,-102.65995001097528
exact,pre_advance,A,no_revision,indicator_revision_only_dfm_kalman_em,2011:Q3,-1.0151498637785576,-103.67509987475384
exact,pre_advance,A,no_revision,indicator_revision_only_dfm_kalman_em,2011:Q4,-3.1085287482371236,-106.78362862299096
exact,pre_advance,A,no_revision,indicator_revision_only_dfm_kalman_em,2012:Q1,-4.818448291437551,-111.60207691442851
exact,pre_advance,A,no_revision,indicator_revision_only_dfm_kalman_em,2012:Q2,-0.672289354882164,-112.27436626931068
exact,pre_advance,A,no_revision,indicator_revision_only_dfm_kalman_em,2012:Q3,-0.1636103702960695,-112.43797663960675
exact,pre_advance,A,no_revision,indicator_revision_only_dfm_kalman_em,2012:Q4,-12.67689798464548,-125.11487462425222
exact,pre_advance,A,no_revision,indicator_revision_only_dfm_kalman_em,2013:Q1,1.1159104135206719,-123.99896421073156
exact,pre_advance,A,no_revision,indicator_revision_only_dfm_kalman_em,2013:Q2,-0.0877375263354534,-124.08670173706702
exact,pre_advance,A,no_revision,indicator_revision_only_dfm_kalman_em,2013:Q3,0.2327491134980983,-123.85395262356892
exact,pre_advance,A,no_revision,indicator_revision_only_dfm_kalman_em,2013:Q4,-1.475044274820419,-125.32899689838933
exact,pre_advance,A,no_revision,indicator_revision_only_dfm_kalman_em,2014:Q1,3.4056358785038023,-121.92336101988553
exact,pre_advance,A,no_revision,indicator_revision_only_dfm_kalman_em,2014:Q2,6.509845515223618,-115.41351550466192
exact,pre_advance,A,no_revision,indicator_revision_only_dfm_kalman_em,2014:Q3,-0.11000913511735354,-115.52352463977927
exact,pre_advance,A,no_revision,indicator_revision_only_dfm_kalman_em,2014:Q4,0.04846115220841654,-115.47506348757085
exact,pre_advance,A,no_revision,indicator_revision_only_dfm_kalman_em,2015:Q1,4.354847429047325,-111.12021605852352
exact,pre_advance,A,no_revision,indicator_revision_only_dfm_kalman_em,2015:Q2,0.3994125786351456,-110.72080347988837
exact,pre_advance,A,no_revision,indicator_revision_only_dfm_kalman_em,2015:Q3,-1.4047357711259965,-112.12553925101437
exact,pre_advance,A,no_revision,indicator_revision_only_dfm_kalman_em,2015:Q4,0.7699914296576345,-111.35554782135674
exact,pre_advance,A,no_revision,indicator_revision_only_dfm_kalman_em,2016:Q1,-1.0985439027038413,-112.45409172406058
exact,pre_advance,A,no_revision,indicator_revision_only_dfm_kalman_em,2016:Q2,-0.6612120274924379,-113.11530375155301
exact,pre_advance,A,no_revision,indicator_revision_only_dfm_kalman_em,2016:Q3,1.1014659460548795,-112.01383780549814
exact,pre_advance,A,no_revision,indicator_revision_only_dfm_kalman_em,2016:Q4,-2.70770191756507,-114.72153972306322
exact,pre_advance,A,no_revision,indicator_revision_only_dfm_kalman_em,2017:Q1,-3.245697737943148,-117.96723746100636
exact,pre_advance,A,no_revision,indicator_revision_only_dfm_kalman_em,2017:Q2,0.6122286117448804,-117.35500884926148
exact,pre_advance,A,no_revision,indicator_revision_only_dfm_kalman_em,2017:Q3,-1.2163771783252424,-118.57138602758673
exact,pre_advance,A,no_revision,indicator_revision_only_dfm_kalman_em,2017:Q4,-7.78893393607141,-126.36031996365814
exact,pre_advance,A,no_revision,indicator_revision_only_dfm_kalman_em,2018:Q1,-0.7279404401024764,-127.08826040376061
exact,pre_advance,A,no_revision,indicator_revision_only_dfm_kalman_em,2018:Q2,1.1031148463962515,-125.98514555736436
exact,pre_advance,A,no_revision,indicator_revision_only_dfm_kalman_em,2018:Q3,0.003995332704566028,-125.9811502246598
exact,pre_advance,A,no_revision,indicator_revision_only_dfm_kalman_em,2018:Q4,0.1578334700057026,-125.8233167546541
exact,pre_advance,A,no_revision,indicator_revision_only_dfm_kalman_em,2019:Q1,-2.4217759293861967,-128.2450926840403
exact,pre_advance,A,no_revision,indicator_revision_only_dfm_kalman_em,2019:Q2,0.4294240275031476,-127.81566865653714
exact,pre_advance,A,no_revision,indicator_revision_only_dfm_kalman_em,2019:Q3,-0.25892839735856954,-128.0745970538957
exact,pre_advance,A,no_revision,indicator_revision_only_dfm_kalman_em,2019:Q4,-0.18777900517594429,-128.26237605907164
exact,pre_advance,A,no_revision,indicator_revision_only_dfm_kalman_em,2020:Q1,33.374939984454606,-94.88743607461703
exact,pre_advance,A,no_revision,indicator_revision_only_dfm_kalman_em,2020:Q2,958.0590806842424,863.1716446096254
exact,pre_advance,A,no_revision,indicator_revision_only_dfm_kalman_em,2020:Q3,2287.416656326231,3150.5883009358568
exact,pre_advance,A,no_revision,indicator_revision_only_dfm_kalman_em,2020:Q4,30.385941121145706,3180.9742420570024
exact,pre_advance,A,no_revision,indicator_revision_only_dfm_kalman_em,2021:Q1,37.16107461442439,3218.1353166714266
exact,pre_advance,A,no_revision,indicator_revision_only_dfm_kalman_em,2021:Q2,30.580957190879907,3248.7162738623065
exact,pre_advance,A,no_revision,indicator_revision_only_dfm_kalman_em,2021:Q3,-5.022018157714818,3243.694255704592
exact,pre_advance,A,no_revision,indicator_revision_only_dfm_kalman_em,2021:Q4,9.806363896370751,3253.5006196009626
exact,pre_advance,A,no_revision,indicator_revision_only_dfm_kalman_em,2022:Q1,-32.7314065383018,3220.769213062661
exact,pre_advance,A,no_revision,indicator_revision_only_dfm_kalman_em,2022:Q2,-7.608720796934527,3213.1604922657266
exact,pre_advance,A,no_revision,indicator_revision_only_dfm_kalman_em,2022:Q3,0.031328983352882096,3213.1918212490796
exact,pre_advance,A,no_revision,indicator_revision_only_dfm_kalman_em,2022:Q4,-0.5014776195256175,3212.690343629554
exact,pre_advance,A,no_revision,indicator_revision_only_dfm_kalman_em,2023:Q1,-0.12282190698589512,3212.567521722568
exact,pre_advance,A,no_revision,indicator_revision_only_dfm_kalman_em,2023:Q2,-0.26458428084622354,3212.302937441722
exact,pre_advance,A,no_revision,indicator_revision_only_dfm_kalman_em,2023:Q3,-1.634705755164374,3210.6682316865576
exact,pre_advance,A,no_revision,indicator_revision_only_dfm_kalman_em,2023:Q4,0.03617367782413139,3210.7044053643817
exact,pre_advance,A,no_revision,indicator_revision_only_dfm_kalman_em,2024:Q1,1.1783494467158921,3211.8827548110976
exact,pre_advance,A,no_revision,indicator_revision_only_dfm_kalman_em,2024:Q2,-1.0997896370344822,3210.782965174063
exact,pre_advance,A,no_revision,indicator_revision_only_dfm_kalman_em,2024:Q3,-0.16301848294172833,3210.619946691121
exact,pre_advance,A,no_revision,indicator_revision_only_dfm_kalman_em,2024:Q4,-0.10113761559363879,3210.5188090755278
exact,pre_advance,A,no_revision,joint_indicator_revision_dfm_full_kalman_em,2005:Q1,-2.7912910086499205,-2.7912910086499205
exact,pre_advance,A,no_revision,joint_indicator_revision_dfm_full_kalman_em,2005:Q2,0.25197977302993335,-2.539311235619987
exact,pre_advance,A,no_revision,joint_indicator_revision_dfm_full_kalman_em,2005:Q3,0.27840348697206085,-2.2609077486479263
exact,pre_advance,A,no_revision,joint_indicator_revision_dfm_full_kalman_em,2005:Q4,-16.433974179977362,-18.69488192862529
exact,pre_advance,A,no_revision,joint_indicator_revision_dfm_full_kalman_em,2006:Q1,7.687786637961273,-11.007095290664015
exact,pre_advance,A,no_revision,joint_indicator_revision_dfm_full_kalman_em,2006:Q2,-1.6494324593762,-12.656527750040215
exact,pre_advance,A,no_revision,joint_indicator_revision_dfm_full_kalman_em,2006:Q3,0.9361265824975908,-11.720401167542624
exact,pre_advance,A,no_revision,joint_indicator_revision_dfm_full_kalman_em,2006:Q4,-13.990663884053275,-25.7110650515959
exact,pre_advance,A,no_revision,joint_indicator_revision_dfm_full_kalman_em,2007:Q1,-0.24804953992659629,-25.959114591522496
exact,pre_advance,A,no_revision,joint_indicator_revision_dfm_full_kalman_em,2007:Q2,-2.0810807854336106,-28.040195376956106
exact,pre_advance,A,no_revision,joint_indicator_revision_dfm_full_kalman_em,2007:Q3,-2.9987417776355008,-31.038937154591608
exact,pre_advance,A,no_revision,joint_indicator_revision_dfm_full_kalman_em,2007:Q4,3.3977810847108847,-27.641156069880722
exact,pre_advance,A,no_revision,joint_indicator_revision_dfm_full_kalman_em,2008:Q1,-4.51706982225806,-32.15822589213878
exact,pre_advance,A,no_revision,joint_indicator_revision_dfm_full_kalman_em,2008:Q2,-0.3525487152305365,-32.510774607369314
exact,pre_advance,A,no_revision,joint_indicator_revision_dfm_full_kalman_em,2008:Q3,1.4817348296040862,-31.029039777765227
exact,pre_advance,A,no_revision,joint_indicator_revision_dfm_full_kalman_em,2008:Q4,0.3431607409297719,-30.685879036835455
exact,pre_advance,A,no_revision,joint_indicator_revision_dfm_full_kalman_em,2009:Q1,7.6454810998655915,-23.040397936969864
exact,pre_advance,A,no_revision,joint_indicator_revision_dfm_full_kalman_em,2009:Q2,0.6770736346923591,-22.363324302277505
exact,pre_advance,A,no_revision,joint_indicator_revision_dfm_full_kalman_em,2009:Q3,6.608989192593381,-15.754335109684124
exact,pre_advance,A,no_revision,joint_indicator_revision_dfm_full_kalman_em,2009:Q4,-6.003972375333019,-21.75830748501714
exact,pre_advance,A,no_revision,joint_indicator_revision_dfm_full_kalman_em,2010:Q1,-6.405660586438635,-28.163968071455777
exact,pre_advance,A,no_revision,joint_indicator_revision_dfm_full_kalman_em,2010:Q2,-3.9583381833020086,-32.12230625475779
exact,pre_advance,A,no_revision,joint_indicator_revision_dfm_full_kalman_em,2010:Q3,0.12708000626145421,-31.995226248496333
exact,pre_advance,A,no_revision,joint_indicator_revision_dfm_full_kalman_em,2010:Q4,0.30705169186761366,-31.68817455662872
exact,pre_advance,A,no_revision,joint_indicator_revision_dfm_full_kalman_em,2011:Q1,-17.922119440146712,-49.61029399677543
exact,pre_advance,A,no_revision,joint_indicator_revision_dfm_full_kalman_em,2011:Q2,0.5216998248350427,-49.08859417194039
exact,pre_advance,A,no_revision,joint_indicator_revision_dfm_full_kalman_em,2011:Q3,-0.36354535638392993,-49.452139528324324
exact,pre_advance,A,no_revision,joint_indicator_revision_dfm_full_kalman_em,2011:Q4,-2.069591406835044,-51.52173093515937
exact,pre_advance,A,no_revision,joint_indicator_revision_dfm_full_kalman_em,2012:Q1,-3.6827472168745925,-55.204478152033964
exact,pre_advance,A,no_revision,joint_indicator_revision_dfm_full_kalman_em,2012:Q2,-0.18273681142474607,-55.38721496345871
exact,pre_advance,A,no_revision,joint_indicator_revision_dfm_full_kalman_em,2012:Q3,-0.05562950200347365,-55.44284446546219
exact,pre_advance,A,no_revision,joint_indicator_revision_dfm_full_kalman_em,2012:Q4,-9.818833914145943,-65.26167837960813
exact,pre_advance,A,no_revision,joint_indicator_revision_dfm_full_kalman_em,2013:Q1,1.5826733712305503,-63.67900500837758
exact,pre_advance,A,no_revision,joint_indicator_revision_dfm_full_kalman_em,2013:Q2,-0.024173965684318177,-63.7031789740619
exact,pre_advance,A,no_revision,joint_indicator_revision_dfm_full_kalman_em,2013:Q3,0.4709359906547459,-63.232242983407154
exact,pre_advance,A,no_revision,joint_indicator_revision_dfm_full_kalman_em,2013:Q4,-0.5160529412799006,-63.748295924687056
exact,pre_advance,A,no_revision,joint_indicator_revision_dfm_full_kalman_em,2014:Q1,2.826522777431035,-60.92177314725602
exact,pre_advance,A,no_revision,joint_indicator_revision_dfm_full_kalman_em,2014:Q2,7.108262285319005,-53.81351086193701
exact,pre_advance,A,no_revision,joint_indicator_revision_dfm_full_kalman_em,2014:Q3,-0.30344295849602854,-54.11695382043304
exact,pre_advance,A,no_revision,joint_indicator_revision_dfm_full_kalman_em,2014:Q4,0.1474700403514732,-53.96948378008157
exact,pre_advance,A,no_revision,joint_indicator_revision_dfm_full_kalman_em,2015:Q1,3.9700526181296985,-49.99943116195187
exact,pre_advance,A,no_revision,joint_indicator_revision_dfm_full_kalman_em,2015:Q2,0.6399769198237588,-49.35945424212811
exact,pre_advance,A,no_revision,joint_indicator_revision_dfm_full_kalman_em,2015:Q3,-0.8106822707883807,-50.17013651291649
exact,pre_advance,A,no_revision,joint_indicator_revision_dfm_full_kalman_em,2015:Q4,1.0006384246948448,-49.16949808822165
exact,pre_advance,A,no_revision,joint_indicator_revision_dfm_full_kalman_em,2016:Q1,-0.6926218613502958,-49.86211994957195
exact,pre_advance,A,no_revision,joint_indicator_revision_dfm_full_kalman_em,2016:Q2,-0.3133159722835067,-50.17543592185545
exact,pre_advance,A,no_revision,joint_indicator_revision_dfm_full_kalman_em,2016:Q3,0.9905802937448361,-49.18485562811062
exact,pre_advance,A,no_revision,joint_indicator_revision_dfm_full_kalman_em,2016:Q4,-1.856881639512792,-51.04173726762341
exact,pre_advance,A,no_revision,joint_indicator_revision_dfm_full_kalman_em,2017:Q1,-2.3417575238177726,-53.38349479144118
exact,pre_advance,A,no_revision,joint_indicator_revision_dfm_full_kalman_em,2017:Q2,0.9591178459542221,-52.424376945486955
exact,pre_advance,A,no_revision,joint_indicator_revision_dfm_full_kalman_em,2017:Q3,-1.501679967098863,-53.92605691258582
exact,pre_advance,A,no_revision,joint_indicator_revision_dfm_full_kalman_em,2017:Q4,-5.399973245418276,-59.326030158004095
exact,pre_advance,A,no_revision,joint_indicator_revision_dfm_full_kalman_em,2018:Q1,-0.39370569481890294,-59.719735852823
exact,pre_advance,A,no_revision,joint_indicator_revision_dfm_full_kalman_em,2018:Q2,0.7087371008021055,-59.010998752020896
exact,pre_advance,A,no_revision,joint_indicator_revision_dfm_full_kalman_em,2018:Q3,-0.04947235395644772,-59.06047110597734
exact,pre_advance,A,no_revision,joint_indicator_revision_dfm_full_kalman_em,2018:Q4,0.15406716203950588,-58.90640394393784
exact,pre_advance,A,no_revision,joint_indicator_revision_dfm_full_kalman_em,2019:Q1,-2.233720618769699,-61.14012456270754
exact,pre_advance,A,no_revision,joint_indicator_revision_dfm_full_kalman_em,2019:Q2,0.45587665586264897,-60.684247906844895
exact,pre_advance,A,no_revision,joint_indicator_revision_dfm_full_kalman_em,2019:Q3,-0.13141816756129007,-60.81566607440619
exact,pre_advance,A,no_revision,joint_indicator_revision_dfm_full_kalman_em,2019:Q4,-0.23609111630119303,-61.051757190707384
exact,pre_advance,A,no_revision,joint_indicator_revision_dfm_full_kalman_em,2020:Q1,32.74865314772985,-28.303104042977537
exact,pre_advance,A,no_revision,joint_indicator_revision_dfm_full_kalman_em,2020:Q2,967.4938035325556,939.190699489578
exact,pre_advance,A,no_revision,joint_indicator_revision_dfm_full_kalman_em,2020:Q3,2193.8575826926617,3133.0482821822397
exact,pre_advance,A,no_revision,joint_indicator_revision_dfm_full_kalman_em,2020:Q4,25.944861493632118,3158.993143675872
exact,pre_advance,A,no_revision,joint_indicator_revision_dfm_full_kalman_em,2021:Q1,29.925153721271823,3188.9182973971438
exact,pre_advance,A,no_revision,joint_indicator_revision_dfm_full_kalman_em,2021:Q2,29.898475409469828,3218.8167728066137
exact,pre_advance,A,no_revision,joint_indicator_revision_dfm_full_kalman_em,2021:Q3,-5.383717548638841,3213.433055257975
exact,pre_advance,A,no_revision,joint_indicator_revision_dfm_full_kalman_em,2021:Q4,9.308488709680425,3222.741543967655
exact,pre_advance,A,no_revision,joint_indicator_revision_dfm_full_kalman_em,2022:Q1,-25.146246112861764,3197.5952978547934
exact,pre_advance,A,no_revision,joint_indicator_revision_dfm_full_kalman_em,2022:Q2,-8.40570591142913,3189.189591943364
exact,pre_advance,A,no_revision,joint_indicator_revision_dfm_full_kalman_em,2022:Q3,0.08212076542823395,3189.271712708792
exact,pre_advance,A,no_revision,joint_indicator_revision_dfm_full_kalman_em,2022:Q4,-0.31436337585106566,3188.9573493329412
exact,pre_advance,A,no_revision,joint_indicator_revision_dfm_full_kalman_em,2023:Q1,0.2990916035442728,3189.2564409364854
exact,pre_advance,A,no_revision,joint_indicator_revision_dfm_full_kalman_em,2023:Q2,-0.056862173449419906,3189.199578763036
exact,pre_advance,A,no_revision,joint_indicator_revision_dfm_full_kalman_em,2023:Q3,-2.071391652240333,3187.1281871107954
exact,pre_advance,A,no_revision,joint_indicator_revision_dfm_full_kalman_em,2023:Q4,-0.8446343825499985,3186.2835527282455
exact,pre_advance,A,no_revision,joint_indicator_revision_dfm_full_kalman_em,2024:Q1,1.1767287418154293,3187.460281470061
exact,pre_advance,A,no_revision,joint_indicator_revision_dfm_full_kalman_em,2024:Q2,-0.9655451114931967,3186.494736358568
exact,pre_advance,A,no_revision,joint_indicator_revision_dfm_full_kalman_em,2024:Q3,-0.5838072457427517,3185.910929112825
exact,pre_advance,A,no_revision,joint_indicator_revision_dfm_full_kalman_em,2024:Q4,-0.04584272143350133,3185.8650863913917
exact,pre_advance,A,no_revision,midas_umidas,2005:Q1,-187.63820793560592,-187.63820793560592
exact,pre_advance,A,no_revision,midas_umidas,2005:Q2,-221.39670593803743,-409.03491387364335
exact,pre_advance,A,no_revision,midas_umidas,2005:Q3,-286.194644441172,-695.2295583148153
exact,pre_advance,A,no_revision,midas_umidas,2005:Q4,-121.09659563366239,-816.3261539484777
exact,pre_advance,A,no_revision,midas_umidas,2006:Q1,-416.83143744758866,-1233.1575913960664
exact,pre_advance,A,no_revision,midas_umidas,2006:Q2,-220.00741552343757,-1453.165006919504
exact,pre_advance,A,no_revision,midas_umidas,2006:Q3,-16.520896559297274,-1469.6859034788013
exact,pre_advance,A,no_revision,midas_umidas,2006:Q4,-19.489617361290634,-1489.1755208400918
exact,pre_advance,A,no_revision,midas_umidas,2007:Q1,-17.969814523729656,-1507.1453353638215
exact,pre_advance,A,no_revision,midas_umidas,2007:Q2,-90.51605797794404,-1597.6613933417655
exact,pre_advance,A,no_revision,midas_umidas,2007:Q3,-330.92622027963864,-1928.5876136214042
exact,pre_advance,A,no_revision,midas_umidas,2007:Q4,-28.588137230397532,-1957.1757508518017
exact,pre_advance,A,no_revision,midas_umidas,2008:Q1,-109.27173549214325,-2066.447486343945
exact,pre_advance,A,no_revision,midas_umidas,2008:Q2,-565.4158245625816,-2631.8633109065267
exact,pre_advance,A,no_revision,midas_umidas,2008:Q3,-58.03438079840935,-2689.8976917049363
exact,pre_advance,A,no_revision,midas_umidas,2008:Q4,-33.30997956050672,-2723.207671265443
exact,pre_advance,A,no_revision,midas_umidas,2009:Q1,8.129363980622276,-2715.0783072848208
