haminh109/Revision-Aware-DFM/outputs/full_state_space_release_revision_dfm/frozen/q2_manuscript_best_v1/runs/exact_pseudo_backtest_max_iter50/evidence_dir/cumulative_loss_revision.csv
timing_mode,checkpoint_id,outcome_id,baseline_model,model_id,target_quarter,loss_diff_baseline_minus_model,cumulative_loss_diff
exact,pre_advance,DELTA_SA,ar,bridge,2005:Q1,-0.013846057404504227,-0.013846057404504227
exact,pre_advance,DELTA_SA,ar,bridge,2005:Q2,-0.001650279197283805,-0.015496336601788032
exact,pre_advance,DELTA_SA,ar,bridge,2005:Q3,-0.11888984019706639,-0.13438617679885442
exact,pre_advance,DELTA_SA,ar,bridge,2005:Q4,-0.0033836766731657753,-0.1377698534720202
exact,pre_advance,DELTA_SA,ar,bridge,2006:Q1,-0.04844188468453351,-0.1862117381565537
exact,pre_advance,DELTA_SA,ar,bridge,2006:Q2,-0.1371256323997568,-0.3233373705563105
exact,pre_advance,DELTA_SA,ar,bridge,2006:Q3,-0.0642914456374126,-0.38762881619372314
exact,pre_advance,DELTA_SA,ar,bridge,2006:Q4,0.3455791908551027,-0.042049625338620444
exact,pre_advance,DELTA_SA,ar,bridge,2007:Q1,-0.007824031136799381,-0.049873656475419824
exact,pre_advance,DELTA_SA,ar,bridge,2007:Q2,0.06896631884463494,0.01909266236921512
exact,pre_advance,DELTA_SA,ar,bridge,2007:Q3,0.059803740894769475,0.07889640326398459
exact,pre_advance,DELTA_SA,ar,bridge,2007:Q4,-0.012197856569414467,0.06669854669457012
exact,pre_advance,DELTA_SA,ar,bridge,2008:Q1,-0.004344598103960446,0.06235394859060968
exact,pre_advance,DELTA_SA,ar,bridge,2008:Q2,-0.5744071113634033,-0.5120531627727936
exact,pre_advance,DELTA_SA,ar,bridge,2008:Q3,0.6190200450590351,0.10696688228624152
exact,pre_advance,DELTA_SA,ar,bridge,2008:Q4,3.9506126973357536,4.057579579621995
exact,pre_advance,DELTA_SA,ar,bridge,2009:Q1,-6.0988802018433,-2.0413006222213044
exact,pre_advance,DELTA_SA,ar,bridge,2009:Q2,0.12681370682327298,-1.9144869153980313
exact,pre_advance,DELTA_SA,ar,bridge,2009:Q3,-0.06823089199504906,-1.9827178073930805
exact,pre_advance,DELTA_SA,ar,bridge,2009:Q4,-0.034868451184771665,-2.017586258577852
exact,pre_advance,DELTA_SA,ar,bridge,2010:Q1,-0.08867270219654097,-2.106258960774393
exact,pre_advance,DELTA_SA,ar,bridge,2010:Q2,-0.09358245387922448,-2.1998414146536174
exact,pre_advance,DELTA_SA,ar,bridge,2010:Q3,0.09492216977372347,-2.104919244879894
exact,pre_advance,DELTA_SA,ar,bridge,2010:Q4,-0.5663990366542817,-2.671318281534176
exact,pre_advance,DELTA_SA,ar,bridge,2011:Q1,0.006841226592887183,-2.6644770549412886
exact,pre_advance,DELTA_SA,ar,bridge,2011:Q2,-0.1050182175676507,-2.7694952725089395
exact,pre_advance,DELTA_SA,ar,bridge,2011:Q3,-0.12148482455549064,-2.89098009706443
exact,pre_advance,DELTA_SA,ar,bridge,2011:Q4,0.0628784200154297,-2.8281016770490006
exact,pre_advance,DELTA_SA,ar,bridge,2012:Q1,-0.03588771304329322,-2.8639893900922937
exact,pre_advance,DELTA_SA,ar,bridge,2012:Q2,-0.04882398210555089,-2.9128133721978444
exact,pre_advance,DELTA_SA,ar,bridge,2012:Q3,0.007775069522668765,-2.905038302675176
exact,pre_advance,DELTA_SA,ar,bridge,2012:Q4,0.004271385099178677,-2.9007669175759974
exact,pre_advance,DELTA_SA,ar,bridge,2013:Q1,0.08666220076802948,-2.814104716807968
exact,pre_advance,DELTA_SA,ar,bridge,2013:Q2,0.02549697621248881,-2.788607740595479
exact,pre_advance,DELTA_SA,ar,bridge,2013:Q3,-0.06520892381398459,-2.8538166644094636
exact,pre_advance,DELTA_SA,ar,bridge,2013:Q4,-0.4483601219941009,-3.3021767864035647
exact,pre_advance,DELTA_SA,ar,bridge,2014:Q1,0.08408982928439113,-3.2180869571191737
exact,pre_advance,DELTA_SA,ar,bridge,2014:Q2,0.16274947653538804,-3.055337480583786
exact,pre_advance,DELTA_SA,ar,bridge,2014:Q3,0.02095518071252679,-3.034382299871259
exact,pre_advance,DELTA_SA,ar,bridge,2014:Q4,0.04340036392903157,-2.9909819359422274
exact,pre_advance,DELTA_SA,ar,bridge,2015:Q1,0.09722612747043768,-2.8937558084717896
exact,pre_advance,DELTA_SA,ar,bridge,2015:Q2,0.5270016182401944,-2.366754190231595
exact,pre_advance,DELTA_SA,ar,bridge,2015:Q3,0.006413618385182668,-2.3603405718464123
exact,pre_advance,DELTA_SA,ar,bridge,2015:Q4,0.00046354735142317607,-2.359877024494989
exact,pre_advance,DELTA_SA,ar,bridge,2016:Q1,-0.028693367546870584,-2.38857039204186
exact,pre_advance,DELTA_SA,ar,bridge,2016:Q2,-0.006980417169187542,-2.3955508092110476
exact,pre_advance,DELTA_SA,ar,bridge,2016:Q3,0.008611368466014832,-2.386939440745033
exact,pre_advance,DELTA_SA,ar,bridge,2016:Q4,-0.0009847649917328026,-2.387924205736766
exact,pre_advance,DELTA_SA,ar,bridge,2017:Q1,0.006128595802208259,-2.3817956099345574
exact,pre_advance,DELTA_SA,ar,bridge,2017:Q2,-0.02510746702309855,-2.406903076957656
exact,pre_advance,DELTA_SA,ar,bridge,2017:Q3,0.001522476533105824,-2.40538060042455
exact,pre_advance,DELTA_SA,ar,bridge,2017:Q4,-0.012532396692822634,-2.417912997117373
exact,pre_advance,DELTA_SA,ar,bridge,2018:Q1,-0.0010255262763060394,-2.418938523393679
exact,pre_advance,DELTA_SA,ar,bridge,2018:Q2,0.02459572516719096,-2.394342798226488
exact,pre_advance,DELTA_SA,ar,bridge,2018:Q3,-0.0028625928778965534,-2.3972053911043845
exact,pre_advance,DELTA_SA,ar,bridge,2019:Q1,-0.3022766661113521,-2.6994820572157368
exact,pre_advance,DELTA_SA,ar,bridge,2019:Q2,-0.004735905859539672,-2.7042179630752763
exact,pre_advance,DELTA_SA,ar,bridge,2019:Q3,0.015341164816805735,-2.6888767982584705
exact,pre_advance,DELTA_SA,ar,bridge,2019:Q4,-0.044503658959923934,-2.7333804572183946
exact,pre_advance,DELTA_SA,ar,bridge,2020:Q1,0.04438608098788961,-2.688994376230505
exact,pre_advance,DELTA_SA,ar,bridge,2020:Q2,-3.0940398410540886,-5.783034217284594
exact,pre_advance,DELTA_SA,ar,bridge,2020:Q3,1.4176473053505774,-4.365386911934016
exact,pre_advance,DELTA_SA,ar,bridge,2020:Q4,0.34996403492923833,-4.015422877004778
exact,pre_advance,DELTA_SA,ar,bridge,2021:Q1,-0.013363060193281307,-4.02878593719806
exact,pre_advance,DELTA_SA,ar,bridge,2021:Q2,-0.035774116514449394,-4.064560053712509
exact,pre_advance,DELTA_SA,ar,bridge,2021:Q3,0.0032954658604867682,-4.061264587852023
exact,pre_advance,DELTA_SA,ar,bridge,2021:Q4,-0.0018903674062236324,-4.063154955258247
exact,pre_advance,DELTA_SA,ar,bridge,2022:Q1,-0.0341551593556946,-4.097310114613942
exact,pre_advance,DELTA_SA,ar,bridge,2022:Q2,-0.017409303051808128,-4.11471941766575
exact,pre_advance,DELTA_SA,ar,bridge,2022:Q3,0.00910814997588863,-4.105611267689861
exact,pre_advance,DELTA_SA,ar,bridge,2022:Q4,-0.07401877594323691,-4.179630043633098
exact,pre_advance,DELTA_SA,ar,bridge,2023:Q1,0.0027256207132850974,-4.176904422919813
exact,pre_advance,DELTA_SA,ar,bridge,2023:Q2,-0.21283992077671984,-4.389744343696533
exact,pre_advance,DELTA_SA,ar,bridge,2023:Q3,-0.029134879013246184,-4.418879222709779
exact,pre_advance,DELTA_SA,ar,bridge,2023:Q4,-0.054897300557348844,-4.473776523267128
exact,pre_advance,DELTA_SA,ar,bridge,2024:Q1,0.08308195917709753,-4.390694564090031
exact,pre_advance,DELTA_SA,ar,bridge,2024:Q2,-0.04089950912320479,-4.431594073213235
exact,pre_advance,DELTA_SA,ar,bridge,2024:Q3,0.0020789175935691188,-4.429515155619666
exact,pre_advance,DELTA_SA,ar,bridge,2024:Q4,-0.00014364795373978442,-4.429658803573406
exact,pre_advance,DELTA_SA,ar,indicator_revision_only_dfm_kalman_em,2005:Q1,-0.15257503321613658,-0.15257503321613658
exact,pre_advance,DELTA_SA,ar,indicator_revision_only_dfm_kalman_em,2005:Q2,0.10304262774761302,-0.049532405468523555
exact,pre_advance,DELTA_SA,ar,indicator_revision_only_dfm_kalman_em,2005:Q3,0.03151683579611303,-0.018015569672410525
exact,pre_advance,DELTA_SA,ar,indicator_revision_only_dfm_kalman_em,2005:Q4,-0.17958946757420496,-0.1976050372466155
exact,pre_advance,DELTA_SA,ar,indicator_revision_only_dfm_kalman_em,2006:Q1,-0.22225097588053042,-0.41985601312714593
exact,pre_advance,DELTA_SA,ar,indicator_revision_only_dfm_kalman_em,2006:Q2,-0.1338214718146227,-0.5536774849417686
exact,pre_advance,DELTA_SA,ar,indicator_revision_only_dfm_kalman_em,2006:Q3,-0.2655324769569707,-0.8192099618987393
exact,pre_advance,DELTA_SA,ar,indicator_revision_only_dfm_kalman_em,2006:Q4,1.1280810824986391,0.30887112059989985
exact,pre_advance,DELTA_SA,ar,indicator_revision_only_dfm_kalman_em,2007:Q1,-0.36488258133290913,-0.05601146073300928
exact,pre_advance,DELTA_SA,ar,indicator_revision_only_dfm_kalman_em,2007:Q2,0.2101220628635298,0.15411060213052052
exact,pre_advance,DELTA_SA,ar,indicator_revision_only_dfm_kalman_em,2007:Q3,-0.5038879623481906,-0.34977736021767003
exact,pre_advance,DELTA_SA,ar,indicator_revision_only_dfm_kalman_em,2007:Q4,0.23194641324995732,-0.11783094696771271
exact,pre_advance,DELTA_SA,ar,indicator_revision_only_dfm_kalman_em,2008:Q1,-0.06565748592115798,-0.18348843288887068
exact,pre_advance,DELTA_SA,ar,indicator_revision_only_dfm_kalman_em,2008:Q2,-0.7051418869943866,-0.8886303198832572
exact,pre_advance,DELTA_SA,ar,indicator_revision_only_dfm_kalman_em,2008:Q3,0.8839041046210189,-0.004726215262238376
exact,pre_advance,DELTA_SA,ar,indicator_revision_only_dfm_kalman_em,2008:Q4,0.39399862829546173,0.38927241303322335
exact,pre_advance,DELTA_SA,ar,indicator_revision_only_dfm_kalman_em,2009:Q1,1.3203689037955737,1.709641316828797
exact,pre_advance,DELTA_SA,ar,indicator_revision_only_dfm_kalman_em,2009:Q2,0.36877932291984866,2.0784206397486455
exact,pre_advance,DELTA_SA,ar,indicator_revision_only_dfm_kalman_em,2009:Q3,0.31974831955083616,2.3981689592994817
exact,pre_advance,DELTA_SA,ar,indicator_revision_only_dfm_kalman_em,2009:Q4,0.2461874095178597,2.6443563688173413
exact,pre_advance,DELTA_SA,ar,indicator_revision_only_dfm_kalman_em,2010:Q1,0.012274663642203441,2.656631032459545
exact,pre_advance,DELTA_SA,ar,indicator_revision_only_dfm_kalman_em,2010:Q2,-0.10097637669884518,2.5556546557606996
exact,pre_advance,DELTA_SA,ar,indicator_revision_only_dfm_kalman_em,2010:Q3,0.41001530272678194,2.9656699584874815
exact,pre_advance,DELTA_SA,ar,indicator_revision_only_dfm_kalman_em,2010:Q4,0.33708017745408314,3.3027501359415647
exact,pre_advance,DELTA_SA,ar,indicator_revision_only_dfm_kalman_em,2011:Q1,0.05273638935335863,3.3554865252949235
exact,pre_advance,DELTA_SA,ar,indicator_revision_only_dfm_kalman_em,2011:Q2,0.0864949621817803,3.4419814874767036
exact,pre_advance,DELTA_SA,ar,indicator_revision_only_dfm_kalman_em,2011:Q3,-0.03822954602021156,3.403751941456492
exact,pre_advance,DELTA_SA,ar,indicator_revision_only_dfm_kalman_em,2011:Q4,0.1042486389810256,3.5080005804375176
exact,pre_advance,DELTA_SA,ar,indicator_revision_only_dfm_kalman_em,2012:Q1,0.12270345028699549,3.6307040307245133
exact,pre_advance,DELTA_SA,ar,indicator_revision_only_dfm_kalman_em,2012:Q2,0.05124300972150874,3.681947040446022
exact,pre_advance,DELTA_SA,ar,indicator_revision_only_dfm_kalman_em,2012:Q3,-0.19803121584843814,3.483915824597584
exact,pre_advance,DELTA_SA,ar,indicator_revision_only_dfm_kalman_em,2012:Q4,-0.06160444841889918,3.4223113761786847
exact,pre_advance,DELTA_SA,ar,indicator_revision_only_dfm_kalman_em,2013:Q1,0.13839352919058448,3.560704905369269
exact,pre_advance,DELTA_SA,ar,indicator_revision_only_dfm_kalman_em,2013:Q2,0.010665904843470964,3.5713708102127404
exact,pre_advance,DELTA_SA,ar,indicator_revision_only_dfm_kalman_em,2013:Q3,-0.49085393179229264,3.0805168784204477
exact,pre_advance,DELTA_SA,ar,indicator_revision_only_dfm_kalman_em,2013:Q4,0.8147882022650561,3.895305080685504
exact,pre_advance,DELTA_SA,ar,indicator_revision_only_dfm_kalman_em,2014:Q1,-0.6728261778290336,3.22247890285647
exact,pre_advance,DELTA_SA,ar,indicator_revision_only_dfm_kalman_em,2014:Q2,0.3153905835886226,3.537869486445093
exact,pre_advance,DELTA_SA,ar,indicator_revision_only_dfm_kalman_em,2014:Q3,-0.05736992828325174,3.480499558161841
exact,pre_advance,DELTA_SA,ar,indicator_revision_only_dfm_kalman_em,2014:Q4,0.18045818425062124,3.6609577424124624
exact,pre_advance,DELTA_SA,ar,indicator_revision_only_dfm_kalman_em,2015:Q1,-0.30424364925329495,3.3567140931591677
exact,pre_advance,DELTA_SA,ar,indicator_revision_only_dfm_kalman_em,2015:Q2,1.0249249122593762,4.381639005418544
exact,pre_advance,DELTA_SA,ar,indicator_revision_only_dfm_kalman_em,2015:Q3,-0.3345827492334456,4.0470562561850985
exact,pre_advance,DELTA_SA,ar,indicator_revision_only_dfm_kalman_em,2015:Q4,-0.09676443992777004,3.9502918162573284
exact,pre_advance,DELTA_SA,ar,indicator_revision_only_dfm_kalman_em,2016:Q1,-0.09029065158363185,3.8600011646736965
exact,pre_advance,DELTA_SA,ar,indicator_revision_only_dfm_kalman_em,2016:Q2,0.1360297525459644,3.996030917219661
exact,pre_advance,DELTA_SA,ar,indicator_revision_only_dfm_kalman_em,2016:Q3,-0.021175007572158712,3.974855909647502
exact,pre_advance,DELTA_SA,ar,indicator_revision_only_dfm_kalman_em,2016:Q4,0.02734587565242416,4.002201785299926
exact,pre_advance,DELTA_SA,ar,indicator_revision_only_dfm_kalman_em,2017:Q1,-0.056295362083760514,3.945906423216165
exact,pre_advance,DELTA_SA,ar,indicator_revision_only_dfm_kalman_em,2017:Q2,-0.1998229027002102,3.746083520515955
exact,pre_advance,DELTA_SA,ar,indicator_revision_only_dfm_kalman_em,2017:Q3,-0.09239460605426397,3.653688914461691
exact,pre_advance,DELTA_SA,ar,indicator_revision_only_dfm_kalman_em,2017:Q4,0.035699658663772574,3.6893885731254636
exact,pre_advance,DELTA_SA,ar,indicator_revision_only_dfm_kalman_em,2018:Q1,0.012703611098869368,3.702092184224333
exact,pre_advance,DELTA_SA,ar,indicator_revision_only_dfm_kalman_em,2018:Q2,0.0030213569949030655,3.705113541219236
exact,pre_advance,DELTA_SA,ar,indicator_revision_only_dfm_kalman_em,2018:Q3,0.0032310710133240618,3.70834461223256
exact,pre_advance,DELTA_SA,ar,indicator_revision_only_dfm_kalman_em,2019:Q1,0.3134694480182471,4.021814060250807
exact,pre_advance,DELTA_SA,ar,indicator_revision_only_dfm_kalman_em,2019:Q2,-0.00020861065790184213,4.021605449592905
exact,pre_advance,DELTA_SA,ar,indicator_revision_only_dfm_kalman_em,2019:Q3,-0.020795440927072837,4.000810008665832
exact,pre_advance,DELTA_SA,ar,indicator_revision_only_dfm_kalman_em,2019:Q4,0.022807340587339162,4.023617349253171
exact,pre_advance,DELTA_SA,ar,indicator_revision_only_dfm_kalman_em,2020:Q1,0.04374626691208146,4.067363616165252
exact,pre_advance,DELTA_SA,ar,indicator_revision_only_dfm_kalman_em,2020:Q2,-0.4848885887598303,3.582475027405422
exact,pre_advance,DELTA_SA,ar,indicator_revision_only_dfm_kalman_em,2020:Q3,6.6030936783793335,10.185568705784755
exact,pre_advance,DELTA_SA,ar,indicator_revision_only_dfm_kalman_em,2020:Q4,0.3494364241901803,10.535005129974936
exact,pre_advance,DELTA_SA,ar,indicator_revision_only_dfm_kalman_em,2021:Q1,0.010481372036795358,10.54548650201173
exact,pre_advance,DELTA_SA,ar,indicator_revision_only_dfm_kalman_em,2021:Q2,0.005674643654305938,10.551161145666036
exact,pre_advance,DELTA_SA,ar,indicator_revision_only_dfm_kalman_em,2021:Q3,-0.00428446848418562,10.546876677181851
exact,pre_advance,DELTA_SA,ar,indicator_revision_only_dfm_kalman_em,2021:Q4,-0.009636975615624089,10.537239701566227
exact,pre_advance,DELTA_SA,ar,indicator_revision_only_dfm_kalman_em,2022:Q1,0.05376352283472801,10.591003224400955
exact,pre_advance,DELTA_SA,ar,indicator_revision_only_dfm_kalman_em,2022:Q2,-0.01747374549873487,10.57352947890222
exact,pre_advance,DELTA_SA,ar,indicator_revision_only_dfm_kalman_em,2022:Q3,-0.038912176234116996,10.534617302668103
exact,pre_advance,DELTA_SA,ar,indicator_revision_only_dfm_kalman_em,2022:Q4,0.058622083054108,10.59323938572221
exact,pre_advance,DELTA_SA,ar,indicator_revision_only_dfm_kalman_em,2023:Q1,-0.02740533844308022,10.56583404727913
exact,pre_advance,DELTA_SA,ar,indicator_revision_only_dfm_kalman_em,2023:Q2,0.06172819389498699,10.627562241174118
exact,pre_advance,DELTA_SA,ar,indicator_revision_only_dfm_kalman_em,2023:Q3,-0.03194758936873526,10.595614651805382
exact,pre_advance,DELTA_SA,ar,indicator_revision_only_dfm_kalman_em,2023:Q4,0.03690159867203891,10.63251625047742
exact,pre_advance,DELTA_SA,ar,indicator_revision_only_dfm_kalman_em,2024:Q1,0.07155817897030346,10.704074429447724
exact,pre_advance,DELTA_SA,ar,indicator_revision_only_dfm_kalman_em,2024:Q2,-0.009033581491366181,10.695040847956358
exact,pre_advance,DELTA_SA,ar,indicator_revision_only_dfm_kalman_em,2024:Q3,0.00727617350536104,10.702317021461718
exact,pre_advance,DELTA_SA,ar,indicator_revision_only_dfm_kalman_em,2024:Q4,-0.008788760628669104,10.69352826083305
exact,pre_advance,DELTA_SA,ar,joint_indicator_revision_dfm_full_kalman_em,2005:Q1,-0.039176997362285124,-0.039176997362285124
exact,pre_advance,DELTA_SA,ar,joint_indicator_revision_dfm_full_kalman_em,2005:Q2,-0.0016324093375188614,-0.040809406699803985
exact,pre_advance,DELTA_SA,ar,joint_indicator_revision_dfm_full_kalman_em,2005:Q3,0.2453539145022894,0.20454450780248543
exact,pre_advance,DELTA_SA,ar,joint_indicator_revision_dfm_full_kalman_em,2005:Q4,0.03172583297284929,0.2362703407753347
exact,pre_advance,DELTA_SA,ar,joint_indicator_revision_dfm_full_kalman_em,2006:Q1,0.012620062346148249,0.24889040312148294
exact,pre_advance,DELTA_SA,ar,joint_indicator_revision_dfm_full_kalman_em,2006:Q2,0.03742543441710991,0.28631583753859285
exact,pre_advance,DELTA_SA,ar,joint_indicator_revision_dfm_full_kalman_em,2006:Q3,0.009836180889530574,0.29615201842812344
exact,pre_advance,DELTA_SA,ar,joint_indicator_revision_dfm_full_kalman_em,2006:Q4,1.7820152466924135,2.0781672651205367
exact,pre_advance,DELTA_SA,ar,joint_indicator_revision_dfm_full_kalman_em,2007:Q1,-0.356810094454977,1.7213571706655597
exact,pre_advance,DELTA_SA,ar,joint_indicator_revision_dfm_full_kalman_em,2007:Q2,0.391177704381244,2.1125348750468036
exact,pre_advance,DELTA_SA,ar,joint_indicator_revision_dfm_full_kalman_em,2007:Q3,-0.4731909359701617,1.639343939076642
exact,pre_advance,DELTA_SA,ar,joint_indicator_revision_dfm_full_kalman_em,2007:Q4,-0.14119571259731525,1.4981482264793267
exact,pre_advance,DELTA_SA,ar,joint_indicator_revision_dfm_full_kalman_em,2008:Q1,-0.2457358507363707,1.252412375742956
exact,pre_advance,DELTA_SA,ar,joint_indicator_revision_dfm_full_kalman_em,2008:Q2,-0.7134891972032473,0.5389231785397086
exact,pre_advance,DELTA_SA,ar,joint_indicator_revision_dfm_full_kalman_em,2008:Q3,0.952243983501073,1.4911671620407816
exact,pre_advance,DELTA_SA,ar,joint_indicator_revision_dfm_full_kalman_em,2008:Q4,2.8863415127759944,4.3775086748167755
exact,pre_advance,DELTA_SA,ar,joint_indicator_revision_dfm_full_kalman_em,2009:Q1,1.4387009686070198,5.816209643423795
exact,pre_advance,DELTA_SA,ar,joint_indicator_revision_dfm_full_kalman_em,2009:Q2,-0.12494069616027953,5.691268947263516
exact,pre_advance,DELTA_SA,ar,joint_indicator_revision_dfm_full_kalman_em,2009:Q3,-1.8804750941524753,3.8107938531110404
exact,pre_advance,DELTA_SA,ar,joint_indicator_revision_dfm_full_kalman_em,2009:Q4,0.18859069700045916,3.9993845501114995
exact,pre_advance,DELTA_SA,ar,joint_indicator_revision_dfm_full_kalman_em,2010:Q1,-0.4231359452196904,3.576248604891809
exact,pre_advance,DELTA_SA,ar,joint_indicator_revision_dfm_full_kalman_em,2010:Q2,-0.5470334918904615,3.0292151130013476
exact,pre_advance,DELTA_SA,ar,joint_indicator_revision_dfm_full_kalman_em,2010:Q3,0.5715667246140658,3.6007818376154135
exact,pre_advance,DELTA_SA,ar,joint_indicator_revision_dfm_full_kalman_em,2010:Q4,0.2468822417690887,3.847664079384502
exact,pre_advance,DELTA_SA,ar,joint_indicator_revision_dfm_full_kalman_em,2011:Q1,0.010651295397260563,3.8583153747817627
exact,pre_advance,DELTA_SA,ar,joint_indicator_revision_dfm_full_kalman_em,2011:Q2,-0.11442066425972233,3.7438947105220404
exact,pre_advance,DELTA_SA,ar,joint_indicator_revision_dfm_full_kalman_em,2011:Q3,-0.36994219553440666,3.373952514987634
exact,pre_advance,DELTA_SA,ar,joint_indicator_revision_dfm_full_kalman_em,2011:Q4,0.14768824308324685,3.521640758070881
exact,pre_advance,DELTA_SA,ar,joint_indicator_revision_dfm_full_kalman_em,2012:Q1,-0.09027814567498724,3.4313626123958936
exact,pre_advance,DELTA_SA,ar,joint_indicator_revision_dfm_full_kalman_em,2012:Q2,0.07380694305730917,3.505169555453203
exact,pre_advance,DELTA_SA,ar,joint_indicator_revision_dfm_full_kalman_em,2012:Q3,-0.038592801698149826,3.466576753755053
exact,pre_advance,DELTA_SA,ar,joint_indicator_revision_dfm_full_kalman_em,2012:Q4,0.010787277296194145,3.477364031051247
exact,pre_advance,DELTA_SA,ar,joint_indicator_revision_dfm_full_kalman_em,2013:Q1,-0.00145608012580567,3.4759079509254414
exact,pre_advance,DELTA_SA,ar,joint_indicator_revision_dfm_full_kalman_em,2013:Q2,0.150706665253036,3.626614616178477
exact,pre_advance,DELTA_SA,ar,joint_indicator_revision_dfm_full_kalman_em,2013:Q3,-0.3577845783780578,3.268830037800419
exact,pre_advance,DELTA_SA,ar,joint_indicator_revision_dfm_full_kalman_em,2013:Q4,0.4525675091538339,3.721397546954253
exact,pre_advance,DELTA_SA,ar,joint_indicator_revision_dfm_full_kalman_em,2014:Q1,-0.9320060153915419,2.7893915315627114
exact,pre_advance,DELTA_SA,ar,joint_indicator_revision_dfm_full_kalman_em,2014:Q2,0.32910629687533755,3.118497828438049
exact,pre_advance,DELTA_SA,ar,joint_indicator_revision_dfm_full_kalman_em,2014:Q3,0.011843982956582073,3.130341811394631
exact,pre_advance,DELTA_SA,ar,joint_indicator_revision_dfm_full_kalman_em,2014:Q4,0.10579391651800868,3.23613572791264
exact,pre_advance,DELTA_SA,ar,joint_indicator_revision_dfm_full_kalman_em,2015:Q1,-0.17567614469020454,3.0604595832224355
exact,pre_advance,DELTA_SA,ar,joint_indicator_revision_dfm_full_kalman_em,2015:Q2,1.6276451123982305,4.688104695620666
exact,pre_advance,DELTA_SA,ar,joint_indicator_revision_dfm_full_kalman_em,2015:Q3,-0.32231378002287686,4.365790915597789
exact,pre_advance,DELTA_SA,ar,joint_indicator_revision_dfm_full_kalman_em,2015:Q4,-0.05828848276449364,4.307502432833296
exact,pre_advance,DELTA_SA,ar,joint_indicator_revision_dfm_full_kalman_em,2016:Q1,-0.04056818072166358,4.266934252111632
exact,pre_advance,DELTA_SA,ar,joint_indicator_revision_dfm_full_kalman_em,2016:Q2,0.10180008160386947,4.368734333715501
exact,pre_advance,DELTA_SA,ar,joint_indicator_revision_dfm_full_kalman_em,2016:Q3,0.03915401089098151,4.407888344606483
exact,pre_advance,DELTA_SA,ar,joint_indicator_revision_dfm_full_kalman_em,2016:Q4,-0.02405364912202376,4.383834695484459
exact,pre_advance,DELTA_SA,ar,joint_indicator_revision_dfm_full_kalman_em,2017:Q1,0.10516345167851263,4.488998147162971
exact,pre_advance,DELTA_SA,ar,joint_indicator_revision_dfm_full_kalman_em,2017:Q2,-0.07080050849463651,4.418197638668334
exact,pre_advance,DELTA_SA,ar,joint_indicator_revision_dfm_full_kalman_em,2017:Q3,-0.05210071373914304,4.366096924929192
exact,pre_advance,DELTA_SA,ar,joint_indicator_revision_dfm_full_kalman_em,2017:Q4,-0.11823708150127327,4.247859843427919
exact,pre_advance,DELTA_SA,ar,joint_indicator_revision_dfm_full_kalman_em,2018:Q1,-0.10584224869605816,4.14201759473186
exact,pre_advance,DELTA_SA,ar,joint_indicator_revision_dfm_full_kalman_em,2018:Q2,0.030735436523876412,4.172753031255737
exact,pre_advance,DELTA_SA,ar,joint_indicator_revision_dfm_full_kalman_em,2018:Q3,-0.004884377157799422,4.167868654097937
exact,pre_advance,DELTA_SA,ar,joint_indicator_revision_dfm_full_kalman_em,2019:Q1,0.3043092549674851,4.472177909065422
exact,pre_advance,DELTA_SA,ar,joint_indicator_revision_dfm_full_kalman_em,2019:Q2,-0.007808803321841161,4.4643691057435815
exact,pre_advance,DELTA_SA,ar,joint_indicator_revision_dfm_full_kalman_em,2019:Q3,0.01753724452590477,4.481906350269487
exact,pre_advance,DELTA_SA,ar,joint_indicator_revision_dfm_full_kalman_em,2019:Q4,0.021451722966845926,4.503358073236333
exact,pre_advance,DELTA_SA,ar,joint_indicator_revision_dfm_full_kalman_em,2020:Q1,0.047517814552336474,4.55087588778867
exact,pre_advance,DELTA_SA,ar,joint_indicator_revision_dfm_full_kalman_em,2020:Q2,-2.0407611970612494,2.5101146907274203
exact,pre_advance,DELTA_SA,ar,joint_indicator_revision_dfm_full_kalman_em,2020:Q3,4.249518352179983,6.759633042907403
exact,pre_advance,DELTA_SA,ar,joint_indicator_revision_dfm_full_kalman_em,2020:Q4,-0.8841038223816636,5.875529220525739
exact,pre_advance,DELTA_SA,ar,joint_indicator_revision_dfm_full_kalman_em,2021:Q1,-0.38586858149331643,5.489660639032423
exact,pre_advance,DELTA_SA,ar,joint_indicator_revision_dfm_full_kalman_em,2021:Q2,0.00023695837106222674,5.489897597403486
exact,pre_advance,DELTA_SA,ar,joint_indicator_revision_dfm_full_kalman_em,2021:Q3,-0.033994304340839755,5.455903293062646
exact,pre_advance,DELTA_SA,ar,joint_indicator_revision_dfm_full_kalman_em,2021:Q4,-0.03290339326745103,5.422999899795196
exact,pre_advance,DELTA_SA,ar,joint_indicator_revision_dfm_full_kalman_em,2022:Q1,-0.40312348239206564,5.01987641740313
exact,pre_advance,DELTA_SA,ar,joint_indicator_revision_dfm_full_kalman_em,2022:Q2,-0.2087299623387544,4.811146455064375
exact,pre_advance,DELTA_SA,ar,joint_indicator_revision_dfm_full_kalman_em,2022:Q3,0.05872432780916096,4.869870782873536
exact,pre_advance,DELTA_SA,ar,joint_indicator_revision_dfm_full_kalman_em,2022:Q4,0.10519161697426876,4.975062399847805
exact,pre_advance,DELTA_SA,ar,joint_indicator_revision_dfm_full_kalman_em,2023:Q1,-0.17755334428276465,4.79750905556504
exact,pre_advance,DELTA_SA,ar,joint_indicator_revision_dfm_full_kalman_em,2023:Q2,-0.49844586302591365,4.299063192539126
exact,pre_advance,DELTA_SA,ar,joint_indicator_revision_dfm_full_kalman_em,2023:Q3,0.0013620381922805624,4.300425230731407
exact,pre_advance,DELTA_SA,ar,joint_indicator_revision_dfm_full_kalman_em,2023:Q4,0.03434071612097543,4.334765946852382
exact,pre_advance,DELTA_SA,ar,joint_indicator_revision_dfm_full_kalman_em,2024:Q1,0.07226678427215016,4.4070327311245325
exact,pre_advance,DELTA_SA,ar,joint_indicator_revision_dfm_full_kalman_em,2024:Q2,0.0002786186023210841,4.407311349726854
exact,pre_advance,DELTA_SA,ar,joint_indicator_revision_dfm_full_kalman_em,2024:Q3,-0.019028802701341024,4.388282547025512
exact,pre_advance,DELTA_SA,ar,joint_indicator_revision_dfm_full_kalman_em,2024:Q4,-0.014096513729311299,4.374186033296201
exact,pre_advance,DELTA_SA,ar,midas_umidas,2005:Q1,-39.79782442511904,-39.79782442511904
exact,pre_advance,DELTA_SA,ar,midas_umidas,2005:Q2,-10.838923677867209,-50.636748102986246
exact,pre_advance,DELTA_SA,ar,midas_umidas,2005:Q3,-2.2266161401965463,-52.863364243182794
exact,pre_advance,DELTA_SA,ar,midas_umidas,2005:Q4,-76.51074939414345,-129.37411363732625
exact,pre_advance,DELTA_SA,ar,midas_umidas,2006:Q1,-624.8393306210296,-754.2134442583558
exact,pre_advance,DELTA_SA,ar,midas_umidas,2006:Q2,-51.604849767086456,-805.8182940254422
exact,pre_advance,DELTA_SA,ar,midas_umidas,2006:Q3,-2.8960525487067064,-808.714346574149
exact,pre_advance,DELTA_SA,ar,midas_umidas,2006:Q4,-20.201108426803746,-828.9154550009528
exact,pre_advance,DELTA_SA,ar,midas_umidas,2007:Q1,-339.2425280076646,-1168.1579830086173
exact,pre_advance,DELTA_SA,ar,midas_umidas,2007:Q2,-454.633511999568,-1622.7914950081854
exact,pre_advance,DELTA_SA,ar,midas_umidas,2007:Q3,-1445.2558135582553,-3068.0473085664407
exact,pre_advance,DELTA_SA,ar,midas_umidas,2007:Q4,-109.85550522513594,-3177.9028137915766
exact,pre_advance,DELTA_SA,ar,midas_umidas,2008:Q1,-0.35365323404709553,-3178.256467025624
exact,pre_advance,DELTA_SA,ar,midas_umidas,2008:Q2,-411.67335213949457,-3589.9298191651183
exact,pre_advance,DELTA_SA,ar,midas_umidas,2008:Q3,-16.45737417434109,-3606.3871933394594
exact,pre_advance,DELTA_SA,ar,midas_umidas,2008:Q4,-658.2226269869519,-4264.609820326411
exact,pre_advance,DELTA_SA,ar,midas_umidas,2009:Q1,-1734.2252989344995,-5998.835119260911
exact,pre_advance,DELTA_SA,ar,midas_umidas,2009:Q2,0.22143764520773843,-5998.613681615703
exact,pre_advance,DELTA_SA,ar,midas_umidas,2009:Q3,-124.17561613037812,-6122.7892977460815
exact,pre_advance,DELTA_SA,ar,midas_umidas,2009:Q4,-110.45342341383031,-6233.2427211599115
exact,pre_advance,DELTA_SA,ar,midas_umidas,2010:Q1,-275.02931495153865,-6508.27203611145
exact,pre_advance,DELTA_SA,ar,midas_umidas,2010:Q2,-53.8374493565124,-6562.109485467962
exact,pre_advance,DELTA_SA,ar,midas_umidas,2010:Q3,-504.14983455244965,-7066.259320020412
exact,pre_advance,DELTA_SA,ar,midas_umidas,2010:Q4,-149.3442294107893,-7215.603549431201
exact,pre_advance,DELTA_SA,ar,midas_umidas,2011:Q1,-76.18270495068337,-7291.786254381885
exact,pre_advance,DELTA_SA,ar,midas_umidas,2011:Q2,-451.8456247825397,-7743.631879164424
exact,pre_advance,DELTA_SA,ar,midas_umidas,2011:Q3,0.13060850678497912,-7743.501270657639
exact,pre_advance,DELTA_SA,ar,midas_umidas,2011:Q4,-178.48758528523038,-7921.988855942869
exact,pre_advance,DELTA_SA,ar,midas_umidas,2012:Q1,-165.68145473592898,-8087.670310678798
exact,pre_advance,DELTA_SA,ar,midas_umidas,2012:Q2,-47.673541919471,-8135.343852598269
exact,pre_advance,DELTA_SA,ar,midas_umidas,2012:Q3,-52.97128713099698,-8188.315139729266
exact,pre_advance,DELTA_SA,ar,midas_umidas,2012:Q4,-35.87250645483025,-8224.187646184097
exact,pre_advance,DELTA_SA,ar,midas_umidas,2013:Q1,-78.68787456065915,-8302.875520744756
exact,pre_advance,DELTA_SA,ar,midas_umidas,2013:Q2,-223.52534495242105,-8526.400865697176
exact,pre_advance,DELTA_SA,ar,midas_umidas,2013:Q3,-20.601764879937992,-8547.002630577115
exact,pre_advance,DELTA_SA,ar,midas_umidas,2013:Q4,-23.13177722937727,-8570.134407806492
exact,pre_advance,DELTA_SA,ar,midas_umidas,2014:Q1,-86.83478800644839,-8656.96919581294
exact,pre_advance,DELTA_SA,ar,midas_umidas,2014:Q2,-148.1537614965949,-8805.122957309535
exact,pre_advance,DELTA_SA,ar,midas_umidas,2014:Q3,-21.563616269845912,-8826.686573579382
exact,pre_advance,DELTA_SA,ar,midas_umidas,2014:Q4,-15.719381848727583,-8842.405955428108
exact,pre_advance,DELTA_SA,ar,midas_umidas,2015:Q1,-3.243395945480688,-8845.64935137359
exact,pre_advance,DELTA_SA,ar,midas_umidas,2015:Q2,2.8534791315047823,-8842.795872242084
exact,pre_advance,DELTA_SA,ar,midas_umidas,2015:Q3,-43.68811698390882,-8886.483989225993
exact,pre_advance,DELTA_SA,ar,midas_umidas,2015:Q4,-24.97376828407593,-8911.457757510068
exact,pre_advance,DELTA_SA,ar,midas_umidas,2016:Q1,-25.74251643989478,-8937.200273949964
exact,pre_advance,DELTA_SA,ar,midas_umidas,2016:Q2,-7.70255962492451,-8944.902833574888
exact,pre_advance,DELTA_SA,ar,midas_umidas,2016:Q3,-0.41864452076651637,-8945.321478095655
exact,pre_advance,DELTA_SA,ar,midas_umidas,2016:Q4,-1.6878248577374164,-8947.009302953393
exact,pre_advance,DELTA_SA,ar,midas_umidas,2017:Q1,-1.3964693699196922,-8948.405772323313
exact,pre_advance,DELTA_SA,ar,midas_umidas,2017:Q2,-0.2386418337186688,-8948.644414157032
exact,pre_advance,DELTA_SA,ar,midas_umidas,2017:Q3,-9.894772171959557,-8958.539186328991
exact,pre_advance,DELTA_SA,ar,midas_umidas,2017:Q4,-0.06785400372468789,-8958.607040332716
exact,pre_advance,DELTA_SA,ar,midas_umidas,2018:Q1,-0.8285480132734977,-8959.435588345988
exact,pre_advance,DELTA_SA,ar,midas_umidas,2018:Q2,-12.28694297591861,-8971.722531321908
exact,pre_advance,DELTA_SA,ar,midas_umidas,2018:Q3,-4.533494700401264,-8976.256026022309
exact,pre_advance,DELTA_SA,ar,midas_umidas,2019:Q1,0.29472275296400396,-8975.961303269345
exact,pre_advance,DELTA_SA,ar,midas_umidas,2019:Q2,-0.4369629347732412,-8976.398266204118
exact,pre_advance,DELTA_SA,ar,midas_umidas,2019:Q3,-1.0739336795414602,-8977.47219988366
exact,pre_advance,DELTA_SA,ar,midas_umidas,2019:Q4,-0.7868392335368706,-8978.259039117196
exact,pre_advance,DELTA_SA,ar,midas_umidas,2020:Q1,-1.0551657413495503,-8979.314204858545
exact,pre_advance,DELTA_SA,ar,midas_umidas,2020:Q2,-2064.4350325083146,-11043.74923736686
exact,pre_advance,DELTA_SA,ar,midas_umidas,2020:Q3,-4078.7524783177178,-15122.501715684577
exact,pre_advance,DELTA_SA,ar,midas_umidas,2020:Q4,-6.506950483246874,-15129.008666167823
exact,pre_advance,DELTA_SA,ar,midas_umidas,2021:Q1,-4.596760703579255,-15133.605426871403
exact,pre_advance,DELTA_SA,ar,midas_umidas,2021:Q2,-8.287139872261893,-15141.892566743665
exact,pre_advance,DELTA_SA,ar,midas_umidas,2021:Q3,-0.14777608474144385,-15142.040342828406
exact,pre_advance,DELTA_SA,ar,midas_umidas,2021:Q4,-0.6833823726336178,-15142.72372520104
exact,pre_advance,DELTA_SA,ar,midas_umidas,2022:Q1,-0.3538272900297053,-15143.07755249107
exact,pre_advance,DELTA_SA,ar,midas_umidas,2022:Q2,0.08787319677965562,-15142.989679294289
exact,pre_advance,DELTA_SA,ar,midas_umidas,2022:Q3,0.09018879892358536,-15142.899490495365
exact,pre_advance,DELTA_SA,ar,midas_umidas,2022:Q4,-4.967035646848841,-15147.866526142214
exact,pre_advance,DELTA_SA,ar,midas_umidas,2023:Q1,-0.7470003290390502,-15148.613526471252
exact,pre_advance,DELTA_SA,ar,midas_umidas,2023:Q2,-3.5272575221531364,-15152.140783993405
exact,pre_advance,DELTA_SA,ar,midas_umidas,2023:Q3,-0.22947939040660967,-15152.370263383813
exact,pre_advance,DELTA_SA,ar,midas_umidas,2023:Q4,-0.11970627412494547,-15152.489969657938
exact,pre_advance,DELTA_SA,ar,midas_umidas,2024:Q1,0.18674922130366314,-15152.303220436634
exact,pre_advance,DELTA_SA,ar,midas_umidas,2024:Q2,0.002997525708536584,-15152.300222910924
exact,pre_advance,DELTA_SA,ar,midas_umidas,2024:Q3,-0.20633145236124312,-15152.506554363286
exact,pre_advance,DELTA_SA,ar,midas_umidas,2024:Q4,-1.6360489328221843,-15154.142603296108
exact,pre_advance,DELTA_SA,ar,monthly_mixed_frequency_kalman_em,2005:Q1,-0.10396487979822919,-0.10396487979822919
exact,pre_advance,DELTA_SA,ar,monthly_mixed_frequency_kalman_em,2005:Q2,1.0116414050312383e-05,-0.10395476338417887
exact,pre_advance,DELTA_SA,ar,monthly_mixed_frequency_kalman_em,2005:Q3,-0.5323120047789901,-0.636266768163169
exact,pre_advance,DELTA_SA,ar,monthly_mixed_frequency_kalman_em,2005:Q4,-0.04941763824386257,-0.6856844064070315
exact,pre_advance,DELTA_SA,ar,monthly_mixed_frequency_kalman_em,2006:Q1,-0.04680745658931273,-0.7324918629963443
exact,pre_advance,DELTA_SA,ar,monthly_mixed_frequency_kalman_em,2006:Q2,0.03062929753539881,-0.7018625654609455
exact,pre_advance,DELTA_SA,ar,monthly_mixed_frequency_kalman_em,2006:Q3,-0.16233959976467793,-0.8642021652256234
exact,pre_advance,DELTA_SA,ar,monthly_mixed_frequency_kalman_em,2006:Q4,0.6402773063516567,-0.22392485887396674
exact,pre_advance,DELTA_SA,ar,monthly_mixed_frequency_kalman_em,2007:Q1,-0.37081981814139064,-0.5947446770153574
exact,pre_advance,DELTA_SA,ar,monthly_mixed_frequency_kalman_em,2007:Q2,0.48588905435849267,-0.10885562265686471
exact,pre_advance,DELTA_SA,ar,monthly_mixed_frequency_kalman_em,2007:Q3,-0.22349905525314473,-0.33235467791000944
exact,pre_advance,DELTA_SA,ar,monthly_mixed_frequency_kalman_em,2007:Q4,0.21039613826356218,-0.12195853964644726
exact,pre_advance,DELTA_SA,ar,monthly_mixed_frequency_kalman_em,2008:Q1,0.02625006007803469,-0.09570847956841258
exact,pre_advance,DELTA_SA,ar,monthly_mixed_frequency_kalman_em,2008:Q2,-0.3315299028750738,-0.42723838244348633
exact,pre_advance,DELTA_SA,ar,monthly_mixed_frequency_kalman_em,2008:Q3,0.9486906397569638,0.5214522573134774
exact,pre_advance,DELTA_SA,ar,monthly_mixed_frequency_kalman_em,2008:Q4,0.4148499479939689,0.9363022053074463
exact,pre_advance,DELTA_SA,ar,monthly_mixed_frequency_kalman_em,2009:Q1,1.343124569613644,2.2794267749210904
exact,pre_advance,DELTA_SA,ar,monthly_mixed_frequency_kalman_em,2009:Q2,0.3208207736773789,2.6002475485984693
exact,pre_advance,DELTA_SA,ar,monthly_mixed_frequency_kalman_em,2009:Q3,0.12612764715250613,2.7263751957509754
exact,pre_advance,DELTA_SA,ar,monthly_mixed_frequency_kalman_em,2009:Q4,0.27928740395017254,3.005662599701148
exact,pre_advance,DELTA_SA,ar,monthly_mixed_frequency_kalman_em,2010:Q1,-0.03630786886201787,2.96935473083913
exact,pre_advance,DELTA_SA,ar,monthly_mixed_frequency_kalman_em,2010:Q2,-0.28058627080680265,2.6887684600323274
exact,pre_advance,DELTA_SA,ar,monthly_mixed_frequency_kalman_em,2010:Q3,0.49711004417803917,3.1858785042103666
exact,pre_advance,DELTA_SA,ar,monthly_mixed_frequency_kalman_em,2010:Q4,0.11603729061509183,3.3019157948254585
exact,pre_advance,DELTA_SA,ar,monthly_mixed_frequency_kalman_em,2011:Q1,0.03633374536330422,3.338249540188763
exact,pre_advance,DELTA_SA,ar,monthly_mixed_frequency_kalman_em,2011:Q2,-0.021879268021073706,3.3163702721676893
exact,pre_advance,DELTA_SA,ar,monthly_mixed_frequency_kalman_em,2011:Q3,-0.23130074657649713,3.085069525591192
exact,pre_advance,DELTA_SA,ar,monthly_mixed_frequency_kalman_em,2011:Q4,0.15681939993528043,3.2418889255264727
exact,pre_advance,DELTA_SA,ar,monthly_mixed_frequency_kalman_em,2012:Q1,0.026946705720014452,3.2688356312464872
exact,pre_advance,DELTA_SA,ar,monthly_mixed_frequency_kalman_em,2012:Q2,0.0874889890808171,3.3563246203273045
exact,pre_advance,DELTA_SA,ar,monthly_mixed_frequency_kalman_em,2012:Q3,0.07925576283809785,3.4355803831654024
exact,pre_advance,DELTA_SA,ar,monthly_mixed_frequency_kalman_em,2012:Q4,-0.015958734185183822,3.4196216489802187
exact,pre_advance,DELTA_SA,ar,monthly_mixed_frequency_kalman_em,2013:Q1,0.13536612851415572,3.5549877774943743
exact,pre_advance,DELTA_SA,ar,monthly_mixed_frequency_kalman_em,2013:Q2,0.19865711465021052,3.753644892144585
exact,pre_advance,DELTA_SA,ar,monthly_mixed_frequency_kalman_em,2013:Q3,-0.28462389387726145,3.4690209982673235
exact,pre_advance,DELTA_SA,ar,monthly_mixed_frequency_kalman_em,2013:Q4,0.8375085773607355,4.306529575628059
exact,pre_advance,DELTA_SA,ar,monthly_mixed_frequency_kalman_em,2014:Q1,-0.8524034231697799,3.4541261524582794
exact,pre_advance,DELTA_SA,ar,monthly_mixed_frequency_kalman_em,2014:Q2,0.36507597618595516,3.8192021286442346
exact,pre_advance,DELTA_SA,ar,monthly_mixed_frequency_kalman_em,2014:Q3,0.0628182676657199,3.8820203963099544
exact,pre_advance,DELTA_SA,ar,monthly_mixed_frequency_kalman_em,2014:Q4,0.23721791775155446,4.1192383140615085
exact,pre_advance,DELTA_SA,ar,monthly_mixed_frequency_kalman_em,2015:Q1,-0.18632727298742202,3.9329110410740866
exact,pre_advance,DELTA_SA,ar,monthly_mixed_frequency_kalman_em,2015:Q2,1.6915978533558103,5.624508894429897
exact,pre_advance,DELTA_SA,ar,monthly_mixed_frequency_kalman_em,2015:Q3,-0.24343556726034632,5.381073327169551
exact,pre_advance,DELTA_SA,ar,monthly_mixed_frequency_kalman_em,2015:Q4,-0.04038841833950105,5.34068490883005
exact,pre_advance,DELTA_SA,ar,monthly_mixed_frequency_kalman_em,2016:Q1,-0.021038244826070016,5.3196466640039795
exact,pre_advance,DELTA_SA,ar,monthly_mixed_frequency_kalman_em,2016:Q2,-0.011120209047154578,5.308526454956825
exact,pre_advance,DELTA_SA,ar,monthly_mixed_frequency_kalman_em,2016:Q3,0.04212874052917431,5.350655195485999
exact,pre_advance,DELTA_SA,ar,monthly_mixed_frequency_kalman_em,2016:Q4,-0.09841774017321737,5.252237455312781
exact,pre_advance,DELTA_SA,ar,monthly_mixed_frequency_kalman_em,2017:Q1,0.10005501367718306,5.3522924689899645
exact,pre_advance,DELTA_SA,ar,monthly_mixed_frequency_kalman_em,2017:Q2,-0.007346493678833967,5.344945975311131
exact,pre_advance,DELTA_SA,ar,monthly_mixed_frequency_kalman_em,2017:Q3,0.0005407726132594718,5.34548674792439
exact,pre_advance,DELTA_SA,ar,monthly_mixed_frequency_kalman_em,2017:Q4,-0.12044248169659713,5.225044266227793
exact,pre_advance,DELTA_SA,ar,monthly_mixed_frequency_kalman_em,2018:Q1,0.013985545024550784,5.239029811252344
exact,pre_advance,DELTA_SA,ar,monthly_mixed_frequency_kalman_em,2018:Q2,0.002265299573068577,5.241295110825413
exact,pre_advance,DELTA_SA,ar,monthly_mixed_frequency_kalman_em,2018:Q3,-0.0007479032598116087,5.240547207565601
exact,pre_advance,DELTA_SA,ar,monthly_mixed_frequency_kalman_em,2019:Q1,0.29156372005206843,5.53211092761767
exact,pre_advance,DELTA_SA,ar,monthly_mixed_frequency_kalman_em,2019:Q2,-0.0004200734587747731,5.531690854158895
exact,pre_advance,DELTA_SA,ar,monthly_mixed_frequency_kalman_em,2019:Q3,-0.0864025723956499,5.445288281763245
exact,pre_advance,DELTA_SA,ar,monthly_mixed_frequency_kalman_em,2019:Q4,0.00010960970725629876,5.445397891470502
exact,pre_advance,DELTA_SA,ar,monthly_mixed_frequency_kalman_em,2020:Q1,-0.07607203993760371,5.369325851532898
exact,pre_advance,DELTA_SA,ar,monthly_mixed_frequency_kalman_em,2020:Q2,-6.654857648869366,-1.2855317973364677
exact,pre_advance,DELTA_SA,ar,monthly_mixed_frequency_kalman_em,2020:Q3,5.130172882511302,3.8446410851748345
exact,pre_advance,DELTA_SA,ar,monthly_mixed_frequency_kalman_em,2020:Q4,0.3546457834684638,4.1992868686432985
exact,pre_advance,DELTA_SA,ar,monthly_mixed_frequency_kalman_em,2021:Q1,-0.14470242769065797,4.054584440952641
exact,pre_advance,DELTA_SA,ar,monthly_mixed_frequency_kalman_em,2021:Q2,0.005862019571474598,4.0604464605241155
exact,pre_advance,DELTA_SA,ar,monthly_mixed_frequency_kalman_em,2021:Q3,-0.0039320916941212826,4.056514368829994
exact,pre_advance,DELTA_SA,ar,monthly_mixed_frequency_kalman_em,2021:Q4,9.178871272652074e-06,4.056523547701267
exact,pre_advance,DELTA_SA,ar,monthly_mixed_frequency_kalman_em,2022:Q1,0.02025229920995171,4.076775846911219
exact,pre_advance,DELTA_SA,ar,monthly_mixed_frequency_kalman_em,2022:Q2,0.05339708552271462,4.130172932433934
exact,pre_advance,DELTA_SA,ar,monthly_mixed_frequency_kalman_em,2022:Q3,0.051987928137212445,4.182160860571146
exact,pre_advance,DELTA_SA,ar,monthly_mixed_frequency_kalman_em,2022:Q4,0.003097939086393983,4.18525879965754
exact,pre_advance,DELTA_SA,ar,monthly_mixed_frequency_kalman_em,2023:Q1,0.00811609428237399,4.1933748939399145
exact,pre_advance,DELTA_SA,ar,monthly_mixed_frequency_kalman_em,2023:Q2,-0.035496542101736084,4.157878351838178
exact,pre_advance,DELTA_SA,ar,monthly_mixed_frequency_kalman_em,2023:Q3,0.026404796490649547,4.184283148328828
exact,pre_advance,DELTA_SA,ar,monthly_mixed_frequency_kalman_em,2023:Q4,0.02173056298329921,4.206013711312127
exact,pre_advance,DELTA_SA,ar,monthly_mixed_frequency_kalman_em,2024:Q1,0.02033085350865349,4.2263445648207805
exact,pre_advance,DELTA_SA,ar,monthly_mixed_frequency_kalman_em,2024:Q2,0.0026781477802028295,4.229022712600983
exact,pre_advance,DELTA_SA,ar,monthly_mixed_frequency_kalman_em,2024:Q3,0.006623685469548422,4.235646398070531
exact,pre_advance,DELTA_SA,ar,monthly_mixed_frequency_kalman_em,2024:Q4,-0.002064436504543533,4.233581961565988
exact,pre_advance,DELTA_SA,ar,no_revision,2005:Q1,-0.15257503321613658,-0.15257503321613658
exact,pre_advance,DELTA_SA,ar,no_revision,2005:Q2,0.10304262774761302,-0.049532405468523555
exact,pre_advance,DELTA_SA,ar,no_revision,2005:Q3,0.03151683579611303,-0.018015569672410525
exact,pre_advance,DELTA_SA,ar,no_revision,2005:Q4,-0.17958946757420496,-0.1976050372466155
exact,pre_advance,DELTA_SA,ar,no_revision,2006:Q1,-0.22225097588053042,-0.41985601312714593
exact,pre_advance,DELTA_SA,ar,no_revision,2006:Q2,-0.1338214718146227,-0.5536774849417686
exact,pre_advance,DELTA_SA,ar,no_revision,2006:Q3,-0.2655324769569707,-0.8192099618987393
exact,pre_advance,DELTA_SA,ar,no_revision,2006:Q4,1.1280810824986391,0.30887112059989985
exact,pre_advance,DELTA_SA,ar,no_revision,2007:Q1,-0.36488258133290913,-0.05601146073300928
exact,pre_advance,DELTA_SA,ar,no_revision,2007:Q2,0.2101220628635298,0.15411060213052052
exact,pre_advance,DELTA_SA,ar,no_revision,2007:Q3,-0.5038879623481906,-0.34977736021767003
exact,pre_advance,DELTA_SA,ar,no_revision,2007:Q4,0.23194641324995732,-0.11783094696771271
exact,pre_advance,DELTA_SA,ar,no_revision,2008:Q1,-0.06565748592115798,-0.18348843288887068
exact,pre_advance,DELTA_SA,ar,no_revision,2008:Q2,-0.7051418869943866,-0.8886303198832572
exact,pre_advance,DELTA_SA,ar,no_revision,2008:Q3,0.8839041046210189,-0.004726215262238376
exact,pre_advance,DELTA_SA,ar,no_revision,2008:Q4,0.39399862829546173,0.38927241303322335
exact,pre_advance,DELTA_SA,ar,no_revision,2009:Q1,1.3203689037955737,1.709641316828797
exact,pre_advance,DELTA_SA,ar,no_revision,2009:Q2,0.36877932291984866,2.0784206397486455
exact,pre_advance,DELTA_SA,ar,no_revision,2009:Q3,0.31974831955083616,2.3981689592994817
exact,pre_advance,DELTA_SA,ar,no_revision,2009:Q4,0.2461874095178597,2.6443563688173413
exact,pre_advance,DELTA_SA,ar,no_revision,2010:Q1,0.012274663642203441,2.656631032459545
exact,pre_advance,DELTA_SA,ar,no_revision,2010:Q2,-0.10097637669884518,2.5556546557606996
exact,pre_advance,DELTA_SA,ar,no_revision,2010:Q3,0.41001530272678194,2.9656699584874815
exact,pre_advance,DELTA_SA,ar,no_revision,2010:Q4,0.33708017745408314,3.3027501359415647
exact,pre_advance,DELTA_SA,ar,no_revision,2011:Q1,0.05273638935335863,3.3554865252949235
exact,pre_advance,DELTA_SA,ar,no_revision,2011:Q2,0.0864949621817803,3.4419814874767036
exact,pre_advance,DELTA_SA,ar,no_revision,2011:Q3,-0.03822954602021156,3.403751941456492
exact,pre_advance,DELTA_SA,ar,no_revision,2011:Q4,0.1042486389810256,3.5080005804375176
exact,pre_advance,DELTA_SA,ar,no_revision,2012:Q1,0.12270345028699549,3.6307040307245133
exact,pre_advance,DELTA_SA,ar,no_revision,2012:Q2,0.05124300972150874,3.681947040446022
exact,pre_advance,DELTA_SA,ar,no_revision,2012:Q3,-0.19803121584843814,3.483915824597584
exact,pre_advance,DELTA_SA,ar,no_revision,2012:Q4,-0.06160444841889918,3.4223113761786847
exact,pre_advance,DELTA_SA,ar,no_revision,2013:Q1,0.13839352919058448,3.560704905369269
exact,pre_advance,DELTA_SA,ar,no_revision,2013:Q2,0.010665904843470964,3.5713708102127404
exact,pre_advance,DELTA_SA,ar,no_revision,2013:Q3,-0.49085393179229264,3.0805168784204477
exact,pre_advance,DELTA_SA,ar,no_revision,2013:Q4,0.8147882022650561,3.895305080685504
exact,pre_advance,DELTA_SA,ar,no_revision,2014:Q1,-0.6728261778290336,3.22247890285647
exact,pre_advance,DELTA_SA,ar,no_revision,2014:Q2,0.3153905835886226,3.537869486445093
exact,pre_advance,DELTA_SA,ar,no_revision,2014:Q3,-0.05736992828325174,3.480499558161841
exact,pre_advance,DELTA_SA,ar,no_revision,2014:Q4,0.18045818425062124,3.6609577424124624
exact,pre_advance,DELTA_SA,ar,no_revision,2015:Q1,-0.30424364925329495,3.3567140931591677
exact,pre_advance,DELTA_SA,ar,no_revision,2015:Q2,1.0249249122593762,4.381639005418544
exact,pre_advance,DELTA_SA,ar,no_revision,2015:Q3,-0.3345827492334456,4.0470562561850985
exact,pre_advance,DELTA_SA,ar,no_revision,2015:Q4,-0.09676443992777004,3.9502918162573284
exact,pre_advance,DELTA_SA,ar,no_revision,2016:Q1,-0.09029065158363185,3.8600011646736965
exact,pre_advance,DELTA_SA,ar,no_revision,2016:Q2,0.1360297525459644,3.996030917219661
exact,pre_advance,DELTA_SA,ar,no_revision,2016:Q3,-0.021175007572158712,3.974855909647502
exact,pre_advance,DELTA_SA,ar,no_revision,2016:Q4,0.02734587565242416,4.002201785299926
exact,pre_advance,DELTA_SA,ar,no_revision,2017:Q1,-0.056295362083760514,3.945906423216165
exact,pre_advance,DELTA_SA,ar,no_revision,2017:Q2,-0.1998229027002102,3.746083520515955
exact,pre_advance,DELTA_SA,ar,no_revision,2017:Q3,-0.09239460605426397,3.653688914461691
exact,pre_advance,DELTA_SA,ar,no_revision,2017:Q4,0.035699658663772574,3.6893885731254636
exact,pre_advance,DELTA_SA,ar,no_revision,2018:Q1,0.012703611098869368,3.702092184224333
exact,pre_advance,DELTA_SA,ar,no_revision,2018:Q2,0.0030213569949030655,3.705113541219236
exact,pre_advance,DELTA_SA,ar,no_revision,2018:Q3,0.0032310710133240618,3.70834461223256
exact,pre_advance,DELTA_SA,ar,no_revision,2019:Q1,0.3134694480182471,4.021814060250807
exact,pre_advance,DELTA_SA,ar,no_revision,2019:Q2,-0.00020861065790184213,4.021605449592905
exact,pre_advance,DELTA_SA,ar,no_revision,2019:Q3,-0.020795440927072837,4.000810008665832
exact,pre_advance,DELTA_SA,ar,no_revision,2019:Q4,0.022807340587339162,4.023617349253171
exact,pre_advance,DELTA_SA,ar,no_revision,2020:Q1,0.04374626691208146,4.067363616165252
exact,pre_advance,DELTA_SA,ar,no_revision,2020:Q2,-0.4848885887598303,3.582475027405422
exact,pre_advance,DELTA_SA,ar,no_revision,2020:Q3,6.6030936783793335,10.185568705784755
exact,pre_advance,DELTA_SA,ar,no_revision,2020:Q4,0.3494364241901803,10.535005129974936
exact,pre_advance,DELTA_SA,ar,no_revision,2021:Q1,0.010481372036795358,10.54548650201173
exact,pre_advance,DELTA_SA,ar,no_revision,2021:Q2,0.005674643654305938,10.551161145666036
exact,pre_advance,DELTA_SA,ar,no_revision,2021:Q3,-0.00428446848418562,10.546876677181851
exact,pre_advance,DELTA_SA,ar,no_revision,2021:Q4,-0.009636975615624089,10.537239701566227
exact,pre_advance,DELTA_SA,ar,no_revision,2022:Q1,0.05376352283472801,10.591003224400955
exact,pre_advance,DELTA_SA,ar,no_revision,2022:Q2,-0.01747374549873487,10.57352947890222
exact,pre_advance,DELTA_SA,ar,no_revision,2022:Q3,-0.038912176234116996,10.534617302668103
exact,pre_advance,DELTA_SA,ar,no_revision,2022:Q4,0.058622083054108,10.59323938572221
exact,pre_advance,DELTA_SA,ar,no_revision,2023:Q1,-0.02740533844308022,10.56583404727913
exact,pre_advance,DELTA_SA,ar,no_revision,2023:Q2,0.06172819389498699,10.627562241174118
exact,pre_advance,DELTA_SA,ar,no_revision,2023:Q3,-0.03194758936873526,10.595614651805382
exact,pre_advance,DELTA_SA,ar,no_revision,2023:Q4,0.03690159867203891,10.63251625047742
exact,pre_advance,DELTA_SA,ar,no_revision,2024:Q1,0.07155817897030346,10.704074429447724
exact,pre_advance,DELTA_SA,ar,no_revision,2024:Q2,-0.009033581491366181,10.695040847956358
exact,pre_advance,DELTA_SA,ar,no_revision,2024:Q3,0.00727617350536104,10.702317021461718
exact,pre_advance,DELTA_SA,ar,no_revision,2024:Q4,-0.008788760628669104,10.69352826083305
exact,pre_advance,DELTA_SA,ar,release_dfm,2005:Q1,-0.06457257404199222,-0.06457257404199222
exact,pre_advance,DELTA_SA,ar,release_dfm,2005:Q2,0.053921007054112874,-0.010651566987879349
exact,pre_advance,DELTA_SA,ar,release_dfm,2005:Q3,0.12191070539466523,0.11125913840678588
exact,pre_advance,DELTA_SA,ar,release_dfm,2005:Q4,-0.03851182739693776,0.07274731100984812
exact,pre_advance,DELTA_SA,ar,release_dfm,2006:Q1,-0.09630907940028732,-0.023561768390439206
exact,pre_advance,DELTA_SA,ar,release_dfm,2006:Q2,-0.006343046395281451,-0.029904814785720657
exact,pre_advance,DELTA_SA,ar,release_dfm,2006:Q3,-0.1027035776815714,-0.13260839246729206
exact,pre_advance,DELTA_SA,ar,release_dfm,2006:Q4,1.027604740275896,0.894996347808604
exact,pre_advance,DELTA_SA,ar,release_dfm,2007:Q1,-0.41408575323464875,0.4809105945739553
exact,pre_advance,DELTA_SA,ar,release_dfm,2007:Q2,0.3272665697635969,0.8081771643375522
exact,pre_advance,DELTA_SA,ar,release_dfm,2007:Q3,-0.3348463681699476,0.47333079616760454
exact,pre_advance,DELTA_SA,ar,release_dfm,2007:Q4,0.23170019018880764,0.7050309863564121
exact,pre_advance,DELTA_SA,ar,release_dfm,2008:Q1,-0.09998664863071857,0.6050443377256935
exact,pre_advance,DELTA_SA,ar,release_dfm,2008:Q2,-0.7880304720767606,-0.18298613435106703
exact,pre_advance,DELTA_SA,ar,release_dfm,2008:Q3,0.9004291296287447,0.7174429952776776
exact,pre_advance,DELTA_SA,ar,release_dfm,2008:Q4,2.0518569757106677,2.7692999709883455
exact,pre_advance,DELTA_SA,ar,release_dfm,2009:Q1,-1.309095775368377,1.4602041956199685
exact,pre_advance,DELTA_SA,ar,release_dfm,2009:Q2,0.2955691866755835,1.7557733822955521
exact,pre_advance,DELTA_SA,ar,release_dfm,2009:Q3,0.06344779921680788,1.81922118151236
exact,pre_advance,DELTA_SA,ar,release_dfm,2009:Q4,0.2826198032348088,2.101840984747169
exact,pre_advance,DELTA_SA,ar,release_dfm,2010:Q1,-0.2394524503358354,1.8623885344113336
exact,pre_advance,DELTA_SA,ar,release_dfm,2010:Q2,-0.43427508410354165,1.428113450307792
exact,pre_advance,DELTA_SA,ar,release_dfm,2010:Q3,0.5008024804713807,1.9289159307791726
exact,pre_advance,DELTA_SA,ar,release_dfm,2010:Q4,0.25584879905282176,2.1847647298319943
exact,pre_advance,DELTA_SA,ar,release_dfm,2011:Q1,0.016558704882428145,2.2013234347144226
exact,pre_advance,DELTA_SA,ar,release_dfm,2011:Q2,0.014075986477936647,2.2153994211923593
exact,pre_advance,DELTA_SA,ar,release_dfm,2011:Q3,-0.15806562807392172,2.0573337931184374
exact,pre_advance,DELTA_SA,ar,release_dfm,2011:Q4,0.1550867166435113,2.212420509761949
exact,pre_advance,DELTA_SA,ar,release_dfm,2012:Q1,-0.06456927922788744,2.1478512305340614
exact,pre_advance,DELTA_SA,ar,release_dfm,2012:Q2,0.07649001778942476,2.224341248323486
exact,pre_advance,DELTA_SA,ar,release_dfm,2012:Q3,-0.09411694703936069,2.1302243012841253
exact,pre_advance,DELTA_SA,ar,release_dfm,2012:Q4,0.0020050161951079247,2.1322293174792333
exact,pre_advance,DELTA_SA,ar,release_dfm,2013:Q1,0.09100039082084746,2.2232297083000807
exact,pre_advance,DELTA_SA,ar,release_dfm,2013:Q2,0.19390107916547772,2.4171307874655583
exact,pre_advance,DELTA_SA,ar,release_dfm,2013:Q3,-0.3479050431917394,2.069225744273819
exact,pre_advance,DELTA_SA,ar,release_dfm,2013:Q4,0.4497329579020113,2.51895870217583
exact,pre_advance,DELTA_SA,ar,release_dfm,2014:Q1,-0.8583308373830141,1.6606278647928159
exact,pre_advance,DELTA_SA,ar,release_dfm,2014:Q2,0.3652294107029636,2.0258572754957793
exact,pre_advance,DELTA_SA,ar,release_dfm,2014:Q3,0.014034904851747756,2.039892180347527
exact,pre_advance,DELTA_SA,ar,release_dfm,2014:Q4,0.08228803521466005,2.1221802155621874
exact,pre_advance,DELTA_SA,ar,release_dfm,2015:Q1,-0.3118423605282016,1.810337855033986
exact,pre_advance,DELTA_SA,ar,release_dfm,2015:Q2,1.303571697936936,3.113909552970922
exact,pre_advance,DELTA_SA,ar,release_dfm,2015:Q3,-0.23002657645394253,2.8838829765169796
exact,pre_advance,DELTA_SA,ar,release_dfm,2015:Q4,-0.07014253561235238,2.813740440904627
exact,pre_advance,DELTA_SA,ar,release_dfm,2016:Q1,-0.06222528198854255,2.7515151589160847
exact,pre_advance,DELTA_SA,ar,release_dfm,2016:Q2,0.1155909482653528,2.8671061071814377
exact,pre_advance,DELTA_SA,ar,release_dfm,2016:Q3,0.012368181166111498,2.879474288347549
exact,pre_advance,DELTA_SA,ar,release_dfm,2016:Q4,-2.457762946924194e-05,2.8794497107180796
exact,pre_advance,DELTA_SA,ar,release_dfm,2017:Q1,0.03677153658568007,2.91622124730376
exact,pre_advance,DELTA_SA,ar,release_dfm,2017:Q2,-0.10011724287491425,2.8161040044288455
exact,pre_advance,DELTA_SA,ar,release_dfm,2017:Q3,-0.05757220247213498,2.7585318019567104
exact,pre_advance,DELTA_SA,ar,release_dfm,2017:Q4,-0.018795635845599436,2.739736166111111
exact,pre_advance,DELTA_SA,ar,release_dfm,2018:Q1,-0.07137453950156954,2.668361626609541
exact,pre_advance,DELTA_SA,ar,release_dfm,2018:Q2,0.02732140167321683,2.6956830282827577
exact,pre_advance,DELTA_SA,ar,release_dfm,2018:Q3,-0.01517884791799765,2.68050418036476
exact,pre_advance,DELTA_SA,ar,release_dfm,2019:Q1,0.3056651959381532,2.986169376302913
exact,pre_advance,DELTA_SA,ar,release_dfm,2019:Q2,-0.006542066970037506,2.9796273093328756
exact,pre_advance,DELTA_SA,ar,release_dfm,2019:Q3,0.00455915341715029,2.9841864627500256
exact,pre_advance,DELTA_SA,ar,release_dfm,2019:Q4,0.022458742746033496,3.006645205496059
exact,pre_advance,DELTA_SA,ar,release_dfm,2020:Q1,0.07929702576198414,3.085942231258043
exact,pre_advance,DELTA_SA,ar,release_dfm,2020:Q2,-6.343919910050831,-3.2579776787927877
exact,pre_advance,DELTA_SA,ar,release_dfm,2020:Q3,6.585229036056756,3.327251357263968
exact,pre_advance,DELTA_SA,ar,release_dfm,2020:Q4,0.3553294223382184,3.6825807796021865
exact,pre_advance,DELTA_SA,ar,release_dfm,2021:Q1,0.0024895334042016413,3.685070313006388
exact,pre_advance,DELTA_SA,ar,release_dfm,2021:Q2,0.006350212614450523,3.6914205256208383
exact,pre_advance,DELTA_SA,ar,release_dfm,2021:Q3,0.003397448164514403,3.694817973785353
exact,pre_advance,DELTA_SA,ar,release_dfm,2021:Q4,0.00022254856130138077,3.695040522346654
exact,pre_advance,DELTA_SA,ar,release_dfm,2022:Q1,0.023981972330910026,3.719022494677564
exact,pre_advance,DELTA_SA,ar,release_dfm,2022:Q2,0.04202620704813953,3.7610487017257035
exact,pre_advance,DELTA_SA,ar,release_dfm,2022:Q3,0.021558902901119156,3.7826076046268224
exact,pre_advance,DELTA_SA,ar,release_dfm,2022:Q4,0.007549276239000424,3.790156880865823
exact,pre_advance,DELTA_SA,ar,release_dfm,2023:Q1,0.0036429627516611184,3.7937998436174842
exact,pre_advance,DELTA_SA,ar,release_dfm,2023:Q2,-0.015892029036106203,3.7779078145813783
exact,pre_advance,DELTA_SA,ar,release_dfm,2023:Q3,0.011327669946062588,3.789235484527441
exact,pre_advance,DELTA_SA,ar,release_dfm,2023:Q4,0.01429794297308309,3.803533427500524
exact,pre_advance,DELTA_SA,ar,release_dfm,2024:Q1,-0.001782041940785073,3.801751385559739
exact,pre_advance,DELTA_SA,ar,release_dfm,2024:Q2,0.0030115301445589647,3.804762915704298
exact,pre_advance,DELTA_SA,ar,release_dfm,2024:Q3,0.0003461342174390092,3.805109049921737
exact,pre_advance,DELTA_SA,ar,release_dfm,2024:Q4,2.561095288898528e-05,3.805134660874626
exact,pre_advance,DELTA_SA,ar,revision_dfm_kalman_em,2005:Q1,-0.1129675755852654,-0.1129675755852654
exact,pre_advance,DELTA_SA,ar,revision_dfm_kalman_em,2005:Q2,0.0843212106559895,-0.0286463649292759
exact,pre_advance,DELTA_SA,ar,revision_dfm_kalman_em,2005:Q3,0.13506009057603144,0.10641372564675554
exact,pre_advance,DELTA_SA,ar,revision_dfm_kalman_em,2005:Q4,-0.03002338897710108,0.07639033666965446
exact,pre_advance,DELTA_SA,ar,revision_dfm_kalman_em,2006:Q1,-0.12673093026035365,-0.05034059359069919
exact,pre_advance,DELTA_SA,ar,revision_dfm_kalman_em,2006:Q2,-0.05998019184414603,-0.11032078543484522
exact,pre_advance,DELTA_SA,ar,revision_dfm_kalman_em,2006:Q3,-0.18214993718327477,-0.29247072261812
exact,pre_advance,DELTA_SA,ar,revision_dfm_kalman_em,2006:Q4,1.1920493786863107,0.8995786560681907
exact,pre_advance,DELTA_SA,ar,revision_dfm_kalman_em,2007:Q1,-0.9084189219201397,-0.00884026585194908
exact,pre_advance,DELTA_SA,ar,revision_dfm_kalman_em,2007:Q2,0.4920384971538736,0.4831982313019245
exact,pre_advance,DELTA_SA,ar,revision_dfm_kalman_em,2007:Q3,-0.42660545947750295,0.05659277182442157
exact,pre_advance,DELTA_SA,ar,revision_dfm_kalman_em,2007:Q4,0.21152008297043856,0.26811285479486013
exact,pre_advance,DELTA_SA,ar,revision_dfm_kalman_em,2008:Q1,-0.015845056189596685,0.25226779860526344
exact,pre_advance,DELTA_SA,ar,revision_dfm_kalman_em,2008:Q2,-0.4682021593336725,-0.21593436072840905
exact,pre_advance,DELTA_SA,ar,revision_dfm_kalman_em,2008:Q3,0.904201230361477,0.688266869633068
exact,pre_advance,DELTA_SA,ar,revision_dfm_kalman_em,2008:Q4,1.9477325572971838,2.635999426930252
exact,pre_advance,DELTA_SA,ar,revision_dfm_kalman_em,2009:Q1,1.3931731649346168,4.029172591864869
exact,pre_advance,DELTA_SA,ar,revision_dfm_kalman_em,2009:Q2,0.27136693714685833,4.300539529011727
exact,pre_advance,DELTA_SA,ar,revision_dfm_kalman_em,2009:Q3,-1.3317284725983791,2.9688110564133483
exact,pre_advance,DELTA_SA,ar,revision_dfm_kalman_em,2009:Q4,0.2751017932555172,3.2439128496688654
exact,pre_advance,DELTA_SA,ar,revision_dfm_kalman_em,2010:Q1,-0.16140366886900157,3.082509180799864
exact,pre_advance,DELTA_SA,ar,revision_dfm_kalman_em,2010:Q2,-0.6395253596656324,2.4429838211342316
exact,pre_advance,DELTA_SA,ar,revision_dfm_kalman_em,2010:Q3,0.6001972081825464,3.043181029316778
exact,pre_advance,DELTA_SA,ar,revision_dfm_kalman_em,2010:Q4,0.24136732718128506,3.284548356498063
exact,pre_advance,DELTA_SA,ar,revision_dfm_kalman_em,2011:Q1,0.0031205922746479417,3.287668948772711
exact,pre_advance,DELTA_SA,ar,revision_dfm_kalman_em,2011:Q2,-0.07691009544579894,3.210758853326912
exact,pre_advance,DELTA_SA,ar,revision_dfm_kalman_em,2011:Q3,-0.40741200447966275,2.8033468488472493
exact,pre_advance,DELTA_SA,ar,revision_dfm_kalman_em,2011:Q4,0.1548916699749338,2.958238518822183
exact,pre_advance,DELTA_SA,ar,revision_dfm_kalman_em,2012:Q1,-0.07836146239831179,2.8798770564238714
exact,pre_advance,DELTA_SA,ar,revision_dfm_kalman_em,2012:Q2,0.0886506385505193,2.968527694974391
exact,pre_advance,DELTA_SA,ar,revision_dfm_kalman_em,2012:Q3,-0.054729125947065305,2.9137985690273256
exact,pre_advance,DELTA_SA,ar,revision_dfm_kalman_em,2012:Q4,-0.00033416538320387573,2.9134644036441215
exact,pre_advance,DELTA_SA,ar,revision_dfm_kalman_em,2013:Q1,-0.027861721136943185,2.8856026825071783
exact,pre_advance,DELTA_SA,ar,revision_dfm_kalman_em,2013:Q2,0.24735361643089177,3.13295629893807
exact,pre_advance,DELTA_SA,ar,revision_dfm_kalman_em,2013:Q3,-0.32993951662735116,2.803016782310719
exact,pre_advance,DELTA_SA,ar,revision_dfm_kalman_em,2013:Q4,0.38553898338607606,3.188555765696795
exact,pre_advance,DELTA_SA,ar,revision_dfm_kalman_em,2014:Q1,-1.1756026230202852,2.0129531426765097
exact,pre_advance,DELTA_SA,ar,revision_dfm_kalman_em,2014:Q2,0.32292952724730106,2.335882669923811
exact,pre_advance,DELTA_SA,ar,revision_dfm_kalman_em,2014:Q3,-0.0106979073855447,2.325184762538266
exact,pre_advance,DELTA_SA,ar,revision_dfm_kalman_em,2014:Q4,0.06116898137718907,2.386353743915455
exact,pre_advance,DELTA_SA,ar,revision_dfm_kalman_em,2015:Q1,-0.40591029994791084,1.9804434439675442
exact,pre_advance,DELTA_SA,ar,revision_dfm_kalman_em,2015:Q2,1.5453304886447425,3.525773932612287
exact,pre_advance,DELTA_SA,ar,revision_dfm_kalman_em,2015:Q3,-0.2355966595962723,3.2901772730160146
exact,pre_advance,DELTA_SA,ar,revision_dfm_kalman_em,2015:Q4,-0.0720702045301507,3.218107068485864
exact,pre_advance,DELTA_SA,ar,revision_dfm_kalman_em,2016:Q1,-0.02858701849000226,3.1895200499958616
exact,pre_advance,DELTA_SA,ar,revision_dfm_kalman_em,2016:Q2,0.06861253431551796,3.2581325843113795
exact,pre_advance,DELTA_SA,ar,revision_dfm_kalman_em,2016:Q3,0.04107029116165542,3.299202875473035
exact,pre_advance,DELTA_SA,ar,revision_dfm_kalman_em,2016:Q4,0.010260677104427195,3.3094635525774625
exact,pre_advance,DELTA_SA,ar,revision_dfm_kalman_em,2017:Q1,0.07065200037300833,3.3801155529504707
exact,pre_advance,DELTA_SA,ar,revision_dfm_kalman_em,2017:Q2,-0.023863718849484374,3.3562518341009864
exact,pre_advance,DELTA_SA,ar,revision_dfm_kalman_em,2017:Q3,-0.06859495467918408,3.287656879421802
exact,pre_advance,DELTA_SA,ar,revision_dfm_kalman_em,2017:Q4,-0.054933499473610585,3.2327233799481916
exact,pre_advance,DELTA_SA,ar,revision_dfm_kalman_em,2018:Q1,-0.08650213707968837,3.1462212428685032
exact,pre_advance,DELTA_SA,ar,revision_dfm_kalman_em,2018:Q2,0.026426610412798503,3.1726478532813016
exact,pre_advance,DELTA_SA,ar,revision_dfm_kalman_em,2018:Q3,-0.008811416820997892,3.1638364364603038
exact,pre_advance,DELTA_SA,ar,revision_dfm_kalman_em,2019:Q1,0.29074981504101327,3.454586251501317
exact,pre_advance,DELTA_SA,ar,revision_dfm_kalman_em,2019:Q2,-0.004402974218552968,3.450183277282764
exact,pre_advance,DELTA_SA,ar,revision_dfm_kalman_em,2019:Q3,0.017617047186335517,3.4678003244690996
exact,pre_advance,DELTA_SA,ar,revision_dfm_kalman_em,2019:Q4,0.018904802324716873,3.4867051267938165
exact,pre_advance,DELTA_SA,ar,revision_dfm_kalman_em,2020:Q1,0.0836473091410844,3.570352435934901
exact,pre_advance,DELTA_SA,ar,revision_dfm_kalman_em,2020:Q2,-3.8351318022041743,-0.26477936626927345
exact,pre_advance,DELTA_SA,ar,revision_dfm_kalman_em,2020:Q3,5.399030505563076,5.134251139293802
exact,pre_advance,DELTA_SA,ar,revision_dfm_kalman_em,2020:Q4,-0.30243702538911876,4.8318141139046835
exact,pre_advance,DELTA_SA,ar,revision_dfm_kalman_em,2021:Q1,-0.061656622275517534,4.770157491629166
exact,pre_advance,DELTA_SA,ar,revision_dfm_kalman_em,2021:Q2,0.007806036325198088,4.777963527954364
exact,pre_advance,DELTA_SA,ar,revision_dfm_kalman_em,2021:Q3,0.0032735172855748126,4.781237045239939
exact,pre_advance,DELTA_SA,ar,revision_dfm_kalman_em,2021:Q4,-0.01592203111684689,4.765315014123092
exact,pre_advance,DELTA_SA,ar,revision_dfm_kalman_em,2022:Q1,0.047373692464051806,4.812688706587144
exact,pre_advance,DELTA_SA,ar,revision_dfm_kalman_em,2022:Q2,0.0977805491589175,4.910469255746062
exact,pre_advance,DELTA_SA,ar,revision_dfm_kalman_em,2022:Q3,0.09299790993610886,5.003467165682171
exact,pre_advance,DELTA_SA,ar,revision_dfm_kalman_em,2022:Q4,0.001047814850413567,5.004514980532584
exact,pre_advance,DELTA_SA,ar,revision_dfm_kalman_em,2023:Q1,-0.012818822170499525,4.9916961583620845
exact,pre_advance,DELTA_SA,ar,revision_dfm_kalman_em,2023:Q2,-0.059923720330146146,4.931772438031938
exact,pre_advance,DELTA_SA,ar,revision_dfm_kalman_em,2023:Q3,0.028074799815925502,4.959847237847864
exact,pre_advance,DELTA_SA,ar,revision_dfm_kalman_em,2023:Q4,0.0370779323558422,4.996925170203706
exact,pre_advance,DELTA_SA,ar,revision_dfm_kalman_em,2024:Q1,0.05820613582631101,5.055131306030018
exact,pre_advance,DELTA_SA,ar,revision_dfm_kalman_em,2024:Q2,0.0033513445423436045,5.058482650572361
exact,pre_advance,DELTA_SA,ar,revision_dfm_kalman_em,2024:Q3,-0.005176430525027009,5.053306220047334
exact,pre_advance,DELTA_SA,ar,revision_dfm_kalman_em,2024:Q4,-0.0003877699063097309,5.052918450141025
exact,pre_advance,DELTA_SA,ar,standard_dfm,2005:Q1,-0.06457257404199222,-0.06457257404199222
exact,pre_advance,DELTA_SA,ar,standard_dfm,2005:Q2,0.053921007054112874,-0.010651566987879349
exact,pre_advance,DELTA_SA,ar,standard_dfm,2005:Q3,0.12191070539466523,0.11125913840678588
exact,pre_advance,DELTA_SA,ar,standard_dfm,2005:Q4,-0.03851182739693776,0.07274731100984812
exact,pre_advance,DELTA_SA,ar,standard_dfm,2006:Q1,-0.09630907940028732,-0.023561768390439206
exact,pre_advance,DELTA_SA,ar,standard_dfm,2006:Q2,-0.006343046395281451,-0.029904814785720657
exact,pre_advance,DELTA_SA,ar,standard_dfm,2006:Q3,-0.1027035776815714,-0.13260839246729206
exact,pre_advance,DELTA_SA,ar,standard_dfm,2006:Q4,1.027604740275896,0.894996347808604
exact,pre_advance,DELTA_SA,ar,standard_dfm,2007:Q1,-0.41408575323464875,0.4809105945739553
exact,pre_advance,DELTA_SA,ar,standard_dfm,2007:Q2,0.3272665697635969,0.8081771643375522
exact,pre_advance,DELTA_SA,ar,standard_dfm,2007:Q3,-0.3348463681699476,0.47333079616760454
exact,pre_advance,DELTA_SA,ar,standard_dfm,2007:Q4,0.23170019018880764,0.7050309863564121
exact,pre_advance,DELTA_SA,ar,standard_dfm,2008:Q1,-0.09998664863071857,0.6050443377256935
exact,pre_advance,DELTA_SA,ar,standard_dfm,2008:Q2,-0.7880304720767606,-0.18298613435106703
exact,pre_advance,DELTA_SA,ar,standard_dfm,2008:Q3,0.9004291296287447,0.7174429952776776
exact,pre_advance,DELTA_SA,ar,standard_dfm,2008:Q4,2.0518569757106677,2.7692999709883455
exact,pre_advance,DELTA_SA,ar,standard_dfm,2009:Q1,-1.309095775368377,1.4602041956199685
exact,pre_advance,DELTA_SA,ar,standard_dfm,2009:Q2,0.2955691866755835,1.7557733822955521
exact,pre_advance,DELTA_SA,ar,standard_dfm,2009:Q3,0.06344779921680788,1.81922118151236
exact,pre_advance,DELTA_SA,ar,standard_dfm,2009:Q4,0.2826198032348088,2.101840984747169
exact,pre_advance,DELTA_SA,ar,standard_dfm,2010:Q1,-0.2394524503358354,1.8623885344113336
exact,pre_advance,DELTA_SA,ar,standard_dfm,2010:Q2,-0.43427508410354165,1.428113450307792
exact,pre_advance,DELTA_SA,ar,standard_dfm,2010:Q3,0.5008024804713807,1.9289159307791726
exact,pre_advance,DELTA_SA,ar,standard_dfm,2010:Q4,0.25584879905282176,2.1847647298319943
exact,pre_advance,DELTA_SA,ar,standard_dfm,2011:Q1,0.016558704882428145,2.2013234347144226
exact,pre_advance,DELTA_SA,ar,standard_dfm,2011:Q2,0.014075986477936647,2.2153994211923593
exact,pre_advance,DELTA_SA,ar,standard_dfm,2011:Q3,-0.15806562807392172,2.0573337931184374
exact,pre_advance,DELTA_SA,ar,standard_dfm,2011:Q4,0.1550867166435113,2.212420509761949
exact,pre_advance,DELTA_SA,ar,standard_dfm,2012:Q1,-0.06456927922788744,2.1478512305340614
exact,pre_advance,DELTA_SA,ar,standard_dfm,2012:Q2,0.07649001778942476,2.224341248323486
exact,pre_advance,DELTA_SA,ar,standard_dfm,2012:Q3,-0.09411694703936069,2.1302243012841253
exact,pre_advance,DELTA_SA,ar,standard_dfm,2012:Q4,0.0020050161951079247,2.1322293174792333
exact,pre_advance,DELTA_SA,ar,standard_dfm,2013:Q1,0.09100039082084746,2.2232297083000807
exact,pre_advance,DELTA_SA,ar,standard_dfm,2013:Q2,0.19390107916547772,2.4171307874655583
exact,pre_advance,DELTA_SA,ar,standard_dfm,2013:Q3,-0.3479050431917394,2.069225744273819
exact,pre_advance,DELTA_SA,ar,standard_dfm,2013:Q4,0.4497329579020113,2.51895870217583
exact,pre_advance,DELTA_SA,ar,standard_dfm,2014:Q1,-0.8583308373830141,1.6606278647928159
exact,pre_advance,DELTA_SA,ar,standard_dfm,2014:Q2,0.3652294107029636,2.0258572754957793
exact,pre_advance,DELTA_SA,ar,standard_dfm,2014:Q3,0.014034904851747756,2.039892180347527
exact,pre_advance,DELTA_SA,ar,standard_dfm,2014:Q4,0.08228803521466005,2.1221802155621874
exact,pre_advance,DELTA_SA,ar,standard_dfm,2015:Q1,-0.3118423605282016,1.810337855033986
exact,pre_advance,DELTA_SA,ar,standard_dfm,2015:Q2,1.303571697936936,3.113909552970922
exact,pre_advance,DELTA_SA,ar,standard_dfm,2015:Q3,-0.23002657645394253,2.8838829765169796
exact,pre_advance,DELTA_SA,ar,standard_dfm,2015:Q4,-0.07014253561235238,2.813740440904627
exact,pre_advance,DELTA_SA,ar,standard_dfm,2016:Q1,-0.06222528198854255,2.7515151589160847
exact,pre_advance,DELTA_SA,ar,standard_dfm,2016:Q2,0.1155909482653528,2.8671061071814377
exact,pre_advance,DELTA_SA,ar,standard_dfm,2016:Q3,0.012368181166111498,2.879474288347549
exact,pre_advance,DELTA_SA,ar,standard_dfm,2016:Q4,-2.457762946924194e-05,2.8794497107180796
exact,pre_advance,DELTA_SA,ar,standard_dfm,2017:Q1,0.03677153658568007,2.91622124730376
exact,pre_advance,DELTA_SA,ar,standard_dfm,2017:Q2,-0.10011724287491425,2.8161040044288455
exact,pre_advance,DELTA_SA,ar,standard_dfm,2017:Q3,-0.05757220247213498,2.7585318019567104
exact,pre_advance,DELTA_SA,ar,standard_dfm,2017:Q4,-0.018795635845599436,2.739736166111111
exact,pre_advance,DELTA_SA,ar,standard_dfm,2018:Q1,-0.07137453950156954,2.668361626609541
exact,pre_advance,DELTA_SA,ar,standard_dfm,2018:Q2,0.02732140167321683,2.6956830282827577
exact,pre_advance,DELTA_SA,ar,standard_dfm,2018:Q3,-0.01517884791799765,2.68050418036476
exact,pre_advance,DELTA_SA,ar,standard_dfm,2019:Q1,0.3056651959381532,2.986169376302913
exact,pre_advance,DELTA_SA,ar,standard_dfm,2019:Q2,-0.006542066970037506,2.9796273093328756
exact,pre_advance,DELTA_SA,ar,standard_dfm,2019:Q3,0.00455915341715029,2.9841864627500256
exact,pre_advance,DELTA_SA,ar,standard_dfm,2019:Q4,0.022458742746033496,3.006645205496059
exact,pre_advance,DELTA_SA,ar,standard_dfm,2020:Q1,0.07929702576198414,3.085942231258043
exact,pre_advance,DELTA_SA,ar,standard_dfm,2020:Q2,-6.343919910050831,-3.2579776787927877
exact,pre_advance,DELTA_SA,ar,standard_dfm,2020:Q3,6.585229036056756,3.327251357263968
exact,pre_advance,DELTA_SA,ar,standard_dfm,2020:Q4,0.3553294223382184,3.6825807796021865
exact,pre_advance,DELTA_SA,ar,standard_dfm,2021:Q1,0.0024895334042016413,3.685070313006388
exact,pre_advance,DELTA_SA,ar,standard_dfm,2021:Q2,0.006350212614450523,3.6914205256208383
exact,pre_advance,DELTA_SA,ar,standard_dfm,2021:Q3,0.003397448164514403,3.694817973785353
exact,pre_advance,DELTA_SA,ar,standard_dfm,2021:Q4,0.00022254856130138077,3.695040522346654
exact,pre_advance,DELTA_SA,ar,standard_dfm,2022:Q1,0.023981972330910026,3.719022494677564
exact,pre_advance,DELTA_SA,ar,standard_dfm,2022:Q2,0.04202620704813953,3.7610487017257035
exact,pre_advance,DELTA_SA,ar,standard_dfm,2022:Q3,0.021558902901119156,3.7826076046268224
exact,pre_advance,DELTA_SA,ar,standard_dfm,2022:Q4,0.007549276239000424,3.790156880865823
exact,pre_advance,DELTA_SA,ar,standard_dfm,2023:Q1,0.0036429627516611184,3.7937998436174842
exact,pre_advance,DELTA_SA,ar,standard_dfm,2023:Q2,-0.015892029036106203,3.7779078145813783
exact,pre_advance,DELTA_SA,ar,standard_dfm,2023:Q3,0.011327669946062588,3.789235484527441
exact,pre_advance,DELTA_SA,ar,standard_dfm,2023:Q4,0.01429794297308309,3.803533427500524
exact,pre_advance,DELTA_SA,ar,standard_dfm,2024:Q1,-0.001782041940785073,3.801751385559739
exact,pre_advance,DELTA_SA,ar,standard_dfm,2024:Q2,0.0030115301445589647,3.804762915704298
exact,pre_advance,DELTA_SA,ar,standard_dfm,2024:Q3,0.0003461342174390092,3.805109049921737
exact,pre_advance,DELTA_SA,ar,standard_dfm,2024:Q4,2.561095288898528e-05,3.805134660874626
exact,pre_advance,DELTA_SA,no_revision,ar,2005:Q1,0.15257503321613658,0.15257503321613658
exact,pre_advance,DELTA_SA,no_revision,ar,2005:Q2,-0.10304262774761302,0.049532405468523555
exact,pre_advance,DELTA_SA,no_revision,ar,2005:Q3,-0.03151683579611303,0.018015569672410525
exact,pre_advance,DELTA_SA,no_revision,ar,2005:Q4,0.17958946757420496,0.1976050372466155
exact,pre_advance,DELTA_SA,no_revision,ar,2006:Q1,0.22225097588053042,0.41985601312714593
exact,pre_advance,DELTA_SA,no_revision,ar,2006:Q2,0.1338214718146227,0.5536774849417686
exact,pre_advance,DELTA_SA,no_revision,ar,2006:Q3,0.2655324769569707,0.8192099618987393
exact,pre_advance,DELTA_SA,no_revision,ar,2006:Q4,-1.1280810824986391,-0.30887112059989985
exact,pre_advance,DELTA_SA,no_revision,ar,2007:Q1,0.36488258133290913,0.05601146073300928
exact,pre_advance,DELTA_SA,no_revision,ar,2007:Q2,-0.2101220628635298,-0.15411060213052052
exact,pre_advance,DELTA_SA,no_revision,ar,2007:Q3,0.5038879623481906,0.34977736021767003
exact,pre_advance,DELTA_SA,no_revision,ar,2007:Q4,-0.23194641324995732,0.11783094696771271
exact,pre_advance,DELTA_SA,no_revision,ar,2008:Q1,0.06565748592115798,0.18348843288887068
exact,pre_advance,DELTA_SA,no_revision,ar,2008:Q2,0.7051418869943866,0.8886303198832572
exact,pre_advance,DELTA_SA,no_revision,ar,2008:Q3,-0.8839041046210189,0.004726215262238376
exact,pre_advance,DELTA_SA,no_revision,ar,2008:Q4,-0.39399862829546173,-0.38927241303322335
exact,pre_advance,DELTA_SA,no_revision,ar,2009:Q1,-1.3203689037955737,-1.709641316828797
exact,pre_advance,DELTA_SA,no_revision,ar,2009:Q2,-0.36877932291984866,-2.0784206397486455
exact,pre_advance,DELTA_SA,no_revision,ar,2009:Q3,-0.31974831955083616,-2.3981689592994817
exact,pre_advance,DELTA_SA,no_revision,ar,2009:Q4,-0.2461874095178597,-2.6443563688173413
exact,pre_advance,DELTA_SA,no_revision,ar,2010:Q1,-0.012274663642203441,-2.656631032459545
exact,pre_advance,DELTA_SA,no_revision,ar,2010:Q2,0.10097637669884518,-2.5556546557606996
exact,pre_advance,DELTA_SA,no_revision,ar,2010:Q3,-0.41001530272678194,-2.9656699584874815
exact,pre_advance,DELTA_SA,no_revision,ar,2010:Q4,-0.33708017745408314,-3.3027501359415647
exact,pre_advance,DELTA_SA,no_revision,ar,2011:Q1,-0.05273638935335863,-3.3554865252949235
exact,pre_advance,DELTA_SA,no_revision,ar,2011:Q2,-0.0864949621817803,-3.4419814874767036
exact,pre_advance,DELTA_SA,no_revision,ar,2011:Q3,0.03822954602021156,-3.403751941456492
exact,pre_advance,DELTA_SA,no_revision,ar,2011:Q4,-0.1042486389810256,-3.5080005804375176
exact,pre_advance,DELTA_SA,no_revision,ar,2012:Q1,-0.12270345028699549,-3.6307040307245133
exact,pre_advance,DELTA_SA,no_revision,ar,2012:Q2,-0.05124300972150874,-3.681947040446022
exact,pre_advance,DELTA_SA,no_revision,ar,2012:Q3,0.19803121584843814,-3.483915824597584
exact,pre_advance,DELTA_SA,no_revision,ar,2012:Q4,0.06160444841889918,-3.4223113761786847
exact,pre_advance,DELTA_SA,no_revision,ar,2013:Q1,-0.13839352919058448,-3.560704905369269
exact,pre_advance,DELTA_SA,no_revision,ar,2013:Q2,-0.010665904843470964,-3.5713708102127404
exact,pre_advance,DELTA_SA,no_revision,ar,2013:Q3,0.49085393179229264,-3.0805168784204477
exact,pre_advance,DELTA_SA,no_revision,ar,2013:Q4,-0.8147882022650561,-3.895305080685504
exact,pre_advance,DELTA_SA,no_revision,ar,2014:Q1,0.6728261778290336,-3.22247890285647
exact,pre_advance,DELTA_SA,no_revision,ar,2014:Q2,-0.3153905835886226,-3.537869486445093
exact,pre_advance,DELTA_SA,no_revision,ar,2014:Q3,0.05736992828325174,-3.480499558161841
exact,pre_advance,DELTA_SA,no_revision,ar,2014:Q4,-0.18045818425062124,-3.6609577424124624
exact,pre_advance,DELTA_SA,no_revision,ar,2015:Q1,0.30424364925329495,-3.3567140931591677
exact,pre_advance,DELTA_SA,no_revision,ar,2015:Q2,-1.0249249122593762,-4.381639005418544
exact,pre_advance,DELTA_SA,no_revision,ar,2015:Q3,0.3345827492334456,-4.0470562561850985
exact,pre_advance,DELTA_SA,no_revision,ar,2015:Q4,0.09676443992777004,-3.9502918162573284
exact,pre_advance,DELTA_SA,no_revision,ar,2016:Q1,0.09029065158363185,-3.8600011646736965
exact,pre_advance,DELTA_SA,no_revision,ar,2016:Q2,-0.1360297525459644,-3.996030917219661
exact,pre_advance,DELTA_SA,no_revision,ar,2016:Q3,0.021175007572158712,-3.974855909647502
exact,pre_advance,DELTA_SA,no_revision,ar,2016:Q4,-0.02734587565242416,-4.002201785299926
exact,pre_advance,DELTA_SA,no_revision,ar,2017:Q1,0.056295362083760514,-3.945906423216165
exact,pre_advance,DELTA_SA,no_revision,ar,2017:Q2,0.1998229027002102,-3.746083520515955
exact,pre_advance,DELTA_SA,no_revision,ar,2017:Q3,0.09239460605426397,-3.653688914461691
exact,pre_advance,DELTA_SA,no_revision,ar,2017:Q4,-0.035699658663772574,-3.6893885731254636
exact,pre_advance,DELTA_SA,no_revision,ar,2018:Q1,-0.012703611098869368,-3.702092184224333
exact,pre_advance,DELTA_SA,no_revision,ar,2018:Q2,-0.0030213569949030655,-3.705113541219236
exact,pre_advance,DELTA_SA,no_revision,ar,2018:Q3,-0.0032310710133240618,-3.70834461223256
exact,pre_advance,DELTA_SA,no_revision,ar,2019:Q1,-0.3134694480182471,-4.021814060250807
exact,pre_advance,DELTA_SA,no_revision,ar,2019:Q2,0.00020861065790184213,-4.021605449592905
exact,pre_advance,DELTA_SA,no_revision,ar,2019:Q3,0.020795440927072837,-4.000810008665832
exact,pre_advance,DELTA_SA,no_revision,ar,2019:Q4,-0.022807340587339162,-4.023617349253171
exact,pre_advance,DELTA_SA,no_revision,ar,2020:Q1,-0.04374626691208146,-4.067363616165252
exact,pre_advance,DELTA_SA,no_revision,ar,2020:Q2,0.4848885887598303,-3.582475027405422
exact,pre_advance,DELTA_SA,no_revision,ar,2020:Q3,-6.6030936783793335,-10.185568705784755
exact,pre_advance,DELTA_SA,no_revision,ar,2020:Q4,-0.3494364241901803,-10.535005129974936
exact,pre_advance,DELTA_SA,no_revision,ar,2021:Q1,-0.010481372036795358,-10.54548650201173
exact,pre_advance,DELTA_SA,no_revision,ar,2021:Q2,-0.005674643654305938,-10.551161145666036
exact,pre_advance,DELTA_SA,no_revision,ar,2021:Q3,0.00428446848418562,-10.546876677181851
exact,pre_advance,DELTA_SA,no_revision,ar,2021:Q4,0.009636975615624089,-10.537239701566227
exact,pre_advance,DELTA_SA,no_revision,ar,2022:Q1,-0.05376352283472801,-10.591003224400955
exact,pre_advance,DELTA_SA,no_revision,ar,2022:Q2,0.01747374549873487,-10.57352947890222
exact,pre_advance,DELTA_SA,no_revision,ar,2022:Q3,0.038912176234116996,-10.534617302668103
exact,pre_advance,DELTA_SA,no_revision,ar,2022:Q4,-0.058622083054108,-10.59323938572221
exact,pre_advance,DELTA_SA,no_revision,ar,2023:Q1,0.02740533844308022,-10.56583404727913
exact,pre_advance,DELTA_SA,no_revision,ar,2023:Q2,-0.06172819389498699,-10.627562241174118
exact,pre_advance,DELTA_SA,no_revision,ar,2023:Q3,0.03194758936873526,-10.595614651805382
exact,pre_advance,DELTA_SA,no_revision,ar,2023:Q4,-0.03690159867203891,-10.63251625047742
exact,pre_advance,DELTA_SA,no_revision,ar,2024:Q1,-0.07155817897030346,-10.704074429447724
exact,pre_advance,DELTA_SA,no_revision,ar,2024:Q2,0.009033581491366181,-10.695040847956358
exact,pre_advance,DELTA_SA,no_revision,ar,2024:Q3,-0.00727617350536104,-10.702317021461718
exact,pre_advance,DELTA_SA,no_revision,ar,2024:Q4,0.008788760628669104,-10.69352826083305
exact,pre_advance,DELTA_SA,no_revision,bridge,2005:Q1,0.13872897581163235,0.13872897581163235
exact,pre_advance,DELTA_SA,no_revision,bridge,2005:Q2,-0.10469290694489683,0.03403606886673552
exact,pre_advance,DELTA_SA,no_revision,bridge,2005:Q3,-0.15040667599317942,-0.1163706071264439
exact,pre_advance,DELTA_SA,no_revision,bridge,2005:Q4,0.17620579090103922,0.05983518377459532
exact,pre_advance,DELTA_SA,no_revision,bridge,2006:Q1,0.1738090911959969,0.23364427497059223
exact,pre_advance,DELTA_SA,no_revision,bridge,2006:Q2,-0.0033041605851341083,0.23034011438545812
exact,pre_advance,DELTA_SA,no_revision,bridge,2006:Q3,0.2012410313195581,0.4315811457050162
exact,pre_advance,DELTA_SA,no_revision,bridge,2006:Q4,-0.7825018916435365,-0.35092074593852024
exact,pre_advance,DELTA_SA,no_revision,bridge,2007:Q1,0.35705855019610977,0.00613780425758953
exact,pre_advance,DELTA_SA,no_revision,bridge,2007:Q2,-0.14115574401889486,-0.13501793976130533
exact,pre_advance,DELTA_SA,no_revision,bridge,2007:Q3,0.56369170324296,0.4286737634816547
exact,pre_advance,DELTA_SA,no_revision,bridge,2007:Q4,-0.2441442698193718,0.1845294936622829
exact,pre_advance,DELTA_SA,no_revision,bridge,2008:Q1,0.061312887817197535,0.24584238147948045
exact,pre_advance,DELTA_SA,no_revision,bridge,2008:Q2,0.13073477563098335,0.3765771571104638
exact,pre_advance,DELTA_SA,no_revision,bridge,2008:Q3,-0.2648840595619838,0.11169309754848
exact,pre_advance,DELTA_SA,no_revision,bridge,2008:Q4,3.556614069040292,3.6683071665887717
exact,pre_advance,DELTA_SA,no_revision,bridge,2009:Q1,-7.419249105638873,-3.7509419390501018
exact,pre_advance,DELTA_SA,no_revision,bridge,2009:Q2,-0.24196561609657566,-3.9929075551466773
exact,pre_advance,DELTA_SA,no_revision,bridge,2009:Q3,-0.3879792115458852,-4.380886766692562
exact,pre_advance,DELTA_SA,no_revision,bridge,2009:Q4,-0.2810558607026314,-4.661942627395193
exact,pre_advance,DELTA_SA,no_revision,bridge,2010:Q1,-0.10094736583874442,-4.762889993233938
exact,pre_advance,DELTA_SA,no_revision,bridge,2010:Q2,0.007393922819620702,-4.755496070414317
exact,pre_advance,DELTA_SA,no_revision,bridge,2010:Q3,-0.31509313295305846,-5.070589203367375
exact,pre_advance,DELTA_SA,no_revision,bridge,2010:Q4,-0.9034792141083648,-5.97406841747574
exact,pre_advance,DELTA_SA,no_revision,bridge,2011:Q1,-0.045895162760471446,-6.019963580236212
exact,pre_advance,DELTA_SA,no_revision,bridge,2011:Q2,-0.191513179749431,-6.211476759985643
exact,pre_advance,DELTA_SA,no_revision,bridge,2011:Q3,-0.08325527853527909,-6.294732038520921
exact,pre_advance,DELTA_SA,no_revision,bridge,2011:Q4,-0.0413702189655959,-6.336102257486517
exact,pre_advance,DELTA_SA,no_revision,bridge,2012:Q1,-0.15859116333028872,-6.494693420816805
exact,pre_advance,DELTA_SA,no_revision,bridge,2012:Q2,-0.10006699182705964,-6.594760412643865
exact,pre_advance,DELTA_SA,no_revision,bridge,2012:Q3,0.2058062853711069,-6.388954127272758
exact,pre_advance,DELTA_SA,no_revision,bridge,2012:Q4,0.06587583351807785,-6.32307829375468
exact,pre_advance,DELTA_SA,no_revision,bridge,2013:Q1,-0.051731328422555005,-6.374809622177235
exact,pre_advance,DELTA_SA,no_revision,bridge,2013:Q2,0.014831071369017845,-6.359978550808217
exact,pre_advance,DELTA_SA,no_revision,bridge,2013:Q3,0.42564500797830807,-5.934333542829909
exact,pre_advance,DELTA_SA,no_revision,bridge,2013:Q4,-1.263148324259157,-7.197481867089065
exact,pre_advance,DELTA_SA,no_revision,bridge,2014:Q1,0.7569160071134248,-6.44056585997564
exact,pre_advance,DELTA_SA,no_revision,bridge,2014:Q2,-0.15264110705323453,-6.593206967028875
exact,pre_advance,DELTA_SA,no_revision,bridge,2014:Q3,0.07832510899577853,-6.514881858033097
exact,pre_advance,DELTA_SA,no_revision,bridge,2014:Q4,-0.13705782032158967,-6.651939678354687
exact,pre_advance,DELTA_SA,no_revision,bridge,2015:Q1,0.40146977672373263,-6.250469901630954
exact,pre_advance,DELTA_SA,no_revision,bridge,2015:Q2,-0.4979232940191818,-6.748393195650135
exact,pre_advance,DELTA_SA,no_revision,bridge,2015:Q3,0.3409963676186283,-6.407396828031507
exact,pre_advance,DELTA_SA,no_revision,bridge,2015:Q4,0.09722798727919321,-6.310168840752314
exact,pre_advance,DELTA_SA,no_revision,bridge,2016:Q1,0.06159728403676126,-6.248571556715553
exact,pre_advance,DELTA_SA,no_revision,bridge,2016:Q2,-0.14301016971515193,-6.391581726430704
exact,pre_advance,DELTA_SA,no_revision,bridge,2016:Q3,0.029786376038173544,-6.361795350392531
exact,pre_advance,DELTA_SA,no_revision,bridge,2016:Q4,-0.02833064064415696,-6.390125991036688
exact,pre_advance,DELTA_SA,no_revision,bridge,2017:Q1,0.06242395788596877,-6.327702033150719
exact,pre_advance,DELTA_SA,no_revision,bridge,2017:Q2,0.17471543567711162,-6.152986597473608
exact,pre_advance,DELTA_SA,no_revision,bridge,2017:Q3,0.0939170825873698,-6.059069514886238
exact,pre_advance,DELTA_SA,no_revision,bridge,2017:Q4,-0.04823205535659521,-6.107301570242833
exact,pre_advance,DELTA_SA,no_revision,bridge,2018:Q1,-0.013729137375175407,-6.121030707618009
exact,pre_advance,DELTA_SA,no_revision,bridge,2018:Q2,0.021574368172287896,-6.099456339445721
exact,pre_advance,DELTA_SA,no_revision,bridge,2018:Q3,-0.006093663891220615,-6.105550003336942
exact,pre_advance,DELTA_SA,no_revision,bridge,2019:Q1,-0.6157461141295992,-6.721296117466542
exact,pre_advance,DELTA_SA,no_revision,bridge,2019:Q2,-0.00452729520163783,-6.72582341266818
exact,pre_advance,DELTA_SA,no_revision,bridge,2019:Q3,0.03613660574387857,-6.689686806924301
exact,pre_advance,DELTA_SA,no_revision,bridge,2019:Q4,-0.06731099954726309,-6.7569978064715635
exact,pre_advance,DELTA_SA,no_revision,bridge,2020:Q1,0.0006398140758081539,-6.756357992395755
exact,pre_advance,DELTA_SA,no_revision,bridge,2020:Q2,-2.609151252294258,-9.365509244690013
exact,pre_advance,DELTA_SA,no_revision,bridge,2020:Q3,-5.185446373028756,-14.55095561771877
exact,pre_advance,DELTA_SA,no_revision,bridge,2020:Q4,0.0005276107390580565,-14.550428006979713
exact,pre_advance,DELTA_SA,no_revision,bridge,2021:Q1,-0.023844432230076665,-14.574272439209789
exact,pre_advance,DELTA_SA,no_revision,bridge,2021:Q2,-0.04144876016875534,-14.615721199378545
exact,pre_advance,DELTA_SA,no_revision,bridge,2021:Q3,0.007579934344672388,-14.608141265033872
exact,pre_advance,DELTA_SA,no_revision,bridge,2021:Q4,0.0077466082094004565,-14.600394656824472
exact,pre_advance,DELTA_SA,no_revision,bridge,2022:Q1,-0.08791868219042262,-14.688313339014895
exact,pre_advance,DELTA_SA,no_revision,bridge,2022:Q2,6.44424469267435e-05,-14.688248896567968
exact,pre_advance,DELTA_SA,no_revision,bridge,2022:Q3,0.048020326210005626,-14.640228570357962
exact,pre_advance,DELTA_SA,no_revision,bridge,2022:Q4,-0.1326408589973449,-14.772869429355307
exact,pre_advance,DELTA_SA,no_revision,bridge,2023:Q1,0.030130959156365315,-14.742738470198942
exact,pre_advance,DELTA_SA,no_revision,bridge,2023:Q2,-0.27456811467170683,-15.01730658487065
exact,pre_advance,DELTA_SA,no_revision,bridge,2023:Q3,0.0028127103554890787,-15.01449387451516
exact,pre_advance,DELTA_SA,no_revision,bridge,2023:Q4,-0.09179889922938775,-15.10629277374455
exact,pre_advance,DELTA_SA,no_revision,bridge,2024:Q1,0.011523780206794065,-15.094768993537755
exact,pre_advance,DELTA_SA,no_revision,bridge,2024:Q2,-0.031865927631838604,-15.126634921169593
exact,pre_advance,DELTA_SA,no_revision,bridge,2024:Q3,-0.005197255911791921,-15.131832177081385
exact,pre_advance,DELTA_SA,no_revision,bridge,2024:Q4,0.00864511267492932,-15.123187064406457
exact,pre_advance,DELTA_SA,no_revision,indicator_revision_only_dfm_kalman_em,2005:Q1,0.0,0.0
exact,pre_advance,DELTA_SA,no_revision,indicator_revision_only_dfm_kalman_em,2005:Q2,0.0,0.0
exact,pre_advance,DELTA_SA,no_revision,indicator_revision_only_dfm_kalman_em,2005:Q3,0.0,0.0
exact,pre_advance,DELTA_SA,no_revision,indicator_revision_only_dfm_kalman_em,2005:Q4,0.0,0.0
exact,pre_advance,DELTA_SA,no_revision,indicator_revision_only_dfm_kalman_em,2006:Q1,0.0,0.0
exact,pre_advance,DELTA_SA,no_revision,indicator_revision_only_dfm_kalman_em,2006:Q2,0.0,0.0
exact,pre_advance,DELTA_SA,no_revision,indicator_revision_only_dfm_kalman_em,2006:Q3,0.0,0.0
exact,pre_advance,DELTA_SA,no_revision,indicator_revision_only_dfm_kalman_em,2006:Q4,0.0,0.0
exact,pre_advance,DELTA_SA,no_revision,indicator_revision_only_dfm_kalman_em,2007:Q1,0.0,0.0
exact,pre_advance,DELTA_SA,no_revision,indicator_revision_only_dfm_kalman_em,2007:Q2,0.0,0.0
exact,pre_advance,DELTA_SA,no_revision,indicator_revision_only_dfm_kalman_em,2007:Q3,0.0,0.0
exact,pre_advance,DELTA_SA,no_revision,indicator_revision_only_dfm_kalman_em,2007:Q4,0.0,0.0
exact,pre_advance,DELTA_SA,no_revision,indicator_revision_only_dfm_kalman_em,2008:Q1,0.0,0.0
exact,pre_advance,DELTA_SA,no_revision,indicator_revision_only_dfm_kalman_em,2008:Q2,0.0,0.0
exact,pre_advance,DELTA_SA,no_revision,indicator_revision_only_dfm_kalman_em,2008:Q3,0.0,0.0
exact,pre_advance,DELTA_SA,no_revision,indicator_revision_only_dfm_kalman_em,2008:Q4,0.0,0.0
exact,pre_advance,DELTA_SA,no_revision,indicator_revision_only_dfm_kalman_em,2009:Q1,0.0,0.0
exact,pre_advance,DELTA_SA,no_revision,indicator_revision_only_dfm_kalman_em,2009:Q2,0.0,0.0
exact,pre_advance,DELTA_SA,no_revision,indicator_revision_only_dfm_kalman_em,2009:Q3,0.0,0.0
exact,pre_advance,DELTA_SA,no_revision,indicator_revision_only_dfm_kalman_em,2009:Q4,0.0,0.0
exact,pre_advance,DELTA_SA,no_revision,indicator_revision_only_dfm_kalman_em,2010:Q1,0.0,0.0
exact,pre_advance,DELTA_SA,no_revision,indicator_revision_only_dfm_kalman_em,2010:Q2,0.0,0.0
exact,pre_advance,DELTA_SA,no_revision,indicator_revision_only_dfm_kalman_em,2010:Q3,0.0,0.0
exact,pre_advance,DELTA_SA,no_revision,indicator_revision_only_dfm_kalman_em,2010:Q4,0.0,0.0
exact,pre_advance,DELTA_SA,no_revision,indicator_revision_only_dfm_kalman_em,2011:Q1,0.0,0.0
exact,pre_advance,DELTA_SA,no_revision,indicator_revision_only_dfm_kalman_em,2011:Q2,0.0,0.0
exact,pre_advance,DELTA_SA,no_revision,indicator_revision_only_dfm_kalman_em,2011:Q3,0.0,0.0
exact,pre_advance,DELTA_SA,no_revision,indicator_revision_only_dfm_kalman_em,2011:Q4,0.0,0.0
exact,pre_advance,DELTA_SA,no_revision,indicator_revision_only_dfm_kalman_em,2012:Q1,0.0,0.0
exact,pre_advance,DELTA_SA,no_revision,indicator_revision_only_dfm_kalman_em,2012:Q2,0.0,0.0
exact,pre_advance,DELTA_SA,no_revision,indicator_revision_only_dfm_kalman_em,2012:Q3,0.0,0.0
exact,pre_advance,DELTA_SA,no_revision,indicator_revision_only_dfm_kalman_em,2012:Q4,0.0,0.0
exact,pre_advance,DELTA_SA,no_revision,indicator_revision_only_dfm_kalman_em,2013:Q1,0.0,0.0
exact,pre_advance,DELTA_SA,no_revision,indicator_revision_only_dfm_kalman_em,2013:Q2,0.0,0.0
exact,pre_advance,DELTA_SA,no_revision,indicator_revision_only_dfm_kalman_em,2013:Q3,0.0,0.0
exact,pre_advance,DELTA_SA,no_revision,indicator_revision_only_dfm_kalman_em,2013:Q4,0.0,0.0
exact,pre_advance,DELTA_SA,no_revision,indicator_revision_only_dfm_kalman_em,2014:Q1,0.0,0.0
exact,pre_advance,DELTA_SA,no_revision,indicator_revision_only_dfm_kalman_em,2014:Q2,0.0,0.0
exact,pre_advance,DELTA_SA,no_revision,indicator_revision_only_dfm_kalman_em,2014:Q3,0.0,0.0
exact,pre_advance,DELTA_SA,no_revision,indicator_revision_only_dfm_kalman_em,2014:Q4,0.0,0.0
exact,pre_advance,DELTA_SA,no_revision,indicator_revision_only_dfm_kalman_em,2015:Q1,0.0,0.0
exact,pre_advance,DELTA_SA,no_revision,indicator_revision_only_dfm_kalman_em,2015:Q2,0.0,0.0
exact,pre_advance,DELTA_SA,no_revision,indicator_revision_only_dfm_kalman_em,2015:Q3,0.0,0.0
exact,pre_advance,DELTA_SA,no_revision,indicator_revision_only_dfm_kalman_em,2015:Q4,0.0,0.0
exact,pre_advance,DELTA_SA,no_revision,indicator_revision_only_dfm_kalman_em,2016:Q1,0.0,0.0
exact,pre_advance,DELTA_SA,no_revision,indicator_revision_only_dfm_kalman_em,2016:Q2,0.0,0.0
exact,pre_advance,DELTA_SA,no_revision,indicator_revision_only_dfm_kalman_em,2016:Q3,0.0,0.0
exact,pre_advance,DELTA_SA,no_revision,indicator_revision_only_dfm_kalman_em,2016:Q4,0.0,0.0
exact,pre_advance,DELTA_SA,no_revision,indicator_revision_only_dfm_kalman_em,2017:Q1,0.0,0.0
exact,pre_advance,DELTA_SA,no_revision,indicator_revision_only_dfm_kalman_em,2017:Q2,0.0,0.0
exact,pre_advance,DELTA_SA,no_revision,indicator_revision_only_dfm_kalman_em,2017:Q3,0.0,0.0
exact,pre_advance,DELTA_SA,no_revision,indicator_revision_only_dfm_kalman_em,2017:Q4,0.0,0.0
exact,pre_advance,DELTA_SA,no_revision,indicator_revision_only_dfm_kalman_em,2018:Q1,0.0,0.0
exact,pre_advance,DELTA_SA,no_revision,indicator_revision_only_dfm_kalman_em,2018:Q2,0.0,0.0
exact,pre_advance,DELTA_SA,no_revision,indicator_revision_only_dfm_kalman_em,2018:Q3,0.0,0.0
exact,pre_advance,DELTA_SA,no_revision,indicator_revision_only_dfm_kalman_em,2019:Q1,0.0,0.0
exact,pre_advance,DELTA_SA,no_revision,indicator_revision_only_dfm_kalman_em,2019:Q2,0.0,0.0
exact,pre_advance,DELTA_SA,no_revision,indicator_revision_only_dfm_kalman_em,2019:Q3,0.0,0.0
exact,pre_advance,DELTA_SA,no_revision,indicator_revision_only_dfm_kalman_em,2019:Q4,0.0,0.0
exact,pre_advance,DELTA_SA,no_revision,indicator_revision_only_dfm_kalman_em,2020:Q1,0.0,0.0
exact,pre_advance,DELTA_SA,no_revision,indicator_revision_only_dfm_kalman_em,2020:Q2,0.0,0.0
exact,pre_advance,DELTA_SA,no_revision,indicator_revision_only_dfm_kalman_em,2020:Q3,0.0,0.0
exact,pre_advance,DELTA_SA,no_revision,indicator_revision_only_dfm_kalman_em,2020:Q4,0.0,0.0
exact,pre_advance,DELTA_SA,no_revision,indicator_revision_only_dfm_kalman_em,2021:Q1,0.0,0.0
exact,pre_advance,DELTA_SA,no_revision,indicator_revision_only_dfm_kalman_em,2021:Q2,0.0,0.0
exact,pre_advance,DELTA_SA,no_revision,indicator_revision_only_dfm_kalman_em,2021:Q3,0.0,0.0
exact,pre_advance,DELTA_SA,no_revision,indicator_revision_only_dfm_kalman_em,2021:Q4,0.0,0.0
exact,pre_advance,DELTA_SA,no_revision,indicator_revision_only_dfm_kalman_em,2022:Q1,0.0,0.0
exact,pre_advance,DELTA_SA,no_revision,indicator_revision_only_dfm_kalman_em,2022:Q2,0.0,0.0
exact,pre_advance,DELTA_SA,no_revision,indicator_revision_only_dfm_kalman_em,2022:Q3,0.0,0.0
exact,pre_advance,DELTA_SA,no_revision,indicator_revision_only_dfm_kalman_em,2022:Q4,0.0,0.0
exact,pre_advance,DELTA_SA,no_revision,indicator_revision_only_dfm_kalman_em,2023:Q1,0.0,0.0
exact,pre_advance,DELTA_SA,no_revision,indicator_revision_only_dfm_kalman_em,2023:Q2,0.0,0.0
exact,pre_advance,DELTA_SA,no_revision,indicator_revision_only_dfm_kalman_em,2023:Q3,0.0,0.0
exact,pre_advance,DELTA_SA,no_revision,indicator_revision_only_dfm_kalman_em,2023:Q4,0.0,0.0
exact,pre_advance,DELTA_SA,no_revision,indicator_revision_only_dfm_kalman_em,2024:Q1,0.0,0.0
exact,pre_advance,DELTA_SA,no_revision,indicator_revision_only_dfm_kalman_em,2024:Q2,0.0,0.0
exact,pre_advance,DELTA_SA,no_revision,indicator_revision_only_dfm_kalman_em,2024:Q3,0.0,0.0
exact,pre_advance,DELTA_SA,no_revision,indicator_revision_only_dfm_kalman_em,2024:Q4,0.0,0.0
exact,pre_advance,DELTA_SA,no_revision,joint_indicator_revision_dfm_full_kalman_em,2005:Q1,0.11339803585385147,0.11339803585385147
exact,pre_advance,DELTA_SA,no_revision,joint_indicator_revision_dfm_full_kalman_em,2005:Q2,-0.10467503708513189,0.008722998768719584
exact,pre_advance,DELTA_SA,no_revision,joint_indicator_revision_dfm_full_kalman_em,2005:Q3,0.21383707870617638,0.22256007747489598
exact,pre_advance,DELTA_SA,no_revision,joint_indicator_revision_dfm_full_kalman_em,2005:Q4,0.21131530054705427,0.43387537802195025
exact,pre_advance,DELTA_SA,no_revision,joint_indicator_revision_dfm_full_kalman_em,2006:Q1,0.23487103822667865,0.668746416248629
exact,pre_advance,DELTA_SA,no_revision,joint_indicator_revision_dfm_full_kalman_em,2006:Q2,0.1712469062317326,0.8399933224803615
exact,pre_advance,DELTA_SA,no_revision,joint_indicator_revision_dfm_full_kalman_em,2006:Q3,0.2753686578465013,1.1153619803268628
exact,pre_advance,DELTA_SA,no_revision,joint_indicator_revision_dfm_full_kalman_em,2006:Q4,0.6539341641937745,1.7692961445206374
exact,pre_advance,DELTA_SA,no_revision,joint_indicator_revision_dfm_full_kalman_em,2007:Q1,0.008072486877932106,1.7773686313985695
exact,pre_advance,DELTA_SA,no_revision,joint_indicator_revision_dfm_full_kalman_em,2007:Q2,0.18105564151771417,1.9584242729162837
exact,pre_advance,DELTA_SA,no_revision,joint_indicator_revision_dfm_full_kalman_em,2007:Q3,0.030697026378028847,1.9891212992943126
exact,pre_advance,DELTA_SA,no_revision,joint_indicator_revision_dfm_full_kalman_em,2007:Q4,-0.3731421258472726,1.6159791734470401
exact,pre_advance,DELTA_SA,no_revision,joint_indicator_revision_dfm_full_kalman_em,2008:Q1,-0.18007836481521272,1.4359008086318275
exact,pre_advance,DELTA_SA,no_revision,joint_indicator_revision_dfm_full_kalman_em,2008:Q2,-0.008347310208860703,1.4275534984229667
exact,pre_advance,DELTA_SA,no_revision,joint_indicator_revision_dfm_full_kalman_em,2008:Q3,0.06833987888005415,1.495893377303021
exact,pre_advance,DELTA_SA,no_revision,joint_indicator_revision_dfm_full_kalman_em,2008:Q4,2.4923428844805326,3.9882362617835536
exact,pre_advance,DELTA_SA,no_revision,joint_indicator_revision_dfm_full_kalman_em,2009:Q1,0.11833206481144604,4.106568326594999
exact,pre_advance,DELTA_SA,no_revision,joint_indicator_revision_dfm_full_kalman_em,2009:Q2,-0.4937200190801282,3.612848307514871
exact,pre_advance,DELTA_SA,no_revision,joint_indicator_revision_dfm_full_kalman_em,2009:Q3,-2.2002234137033114,1.4126248938115595
exact,pre_advance,DELTA_SA,no_revision,joint_indicator_revision_dfm_full_kalman_em,2009:Q4,-0.05759671251740054,1.355028181294159
exact,pre_advance,DELTA_SA,no_revision,joint_indicator_revision_dfm_full_kalman_em,2010:Q1,-0.4354106088618938,0.919617572432265
exact,pre_advance,DELTA_SA,no_revision,joint_indicator_revision_dfm_full_kalman_em,2010:Q2,-0.4460571151916163,0.47356045724064877
exact,pre_advance,DELTA_SA,no_revision,joint_indicator_revision_dfm_full_kalman_em,2010:Q3,0.16155142188728386,0.6351118791279327
exact,pre_advance,DELTA_SA,no_revision,joint_indicator_revision_dfm_full_kalman_em,2010:Q4,-0.0901979356849944,0.5449139434429382
exact,pre_advance,DELTA_SA,no_revision,joint_indicator_revision_dfm_full_kalman_em,2011:Q1,-0.042085093956098066,0.5028288494868401
exact,pre_advance,DELTA_SA,no_revision,joint_indicator_revision_dfm_full_kalman_em,2011:Q2,-0.20091562644150263,0.3019132230453375
exact,pre_advance,DELTA_SA,no_revision,joint_indicator_revision_dfm_full_kalman_em,2011:Q3,-0.3317126495141951,-0.02979942646885758
exact,pre_advance,DELTA_SA,no_revision,joint_indicator_revision_dfm_full_kalman_em,2011:Q4,0.04343960410222124,0.013640177633363657
exact,pre_advance,DELTA_SA,no_revision,joint_indicator_revision_dfm_full_kalman_em,2012:Q1,-0.21298159596198274,-0.19934141832861907
exact,pre_advance,DELTA_SA,no_revision,joint_indicator_revision_dfm_full_kalman_em,2012:Q2,0.022563933335800423,-0.17677748499281865
exact,pre_advance,DELTA_SA,no_revision,joint_indicator_revision_dfm_full_kalman_em,2012:Q3,0.1594384141502883,-0.017339070842530335
exact,pre_advance,DELTA_SA,no_revision,joint_indicator_revision_dfm_full_kalman_em,2012:Q4,0.07239172571509332,0.05505265487256299
exact,pre_advance,DELTA_SA,no_revision,joint_indicator_revision_dfm_full_kalman_em,2013:Q1,-0.13984960931639015,-0.08479695444382716
exact,pre_advance,DELTA_SA,no_revision,joint_indicator_revision_dfm_full_kalman_em,2013:Q2,0.14004076040956503,0.05524380596573787
exact,pre_advance,DELTA_SA,no_revision,joint_indicator_revision_dfm_full_kalman_em,2013:Q3,0.13306935341423481,0.18831315937997267
exact,pre_advance,DELTA_SA,no_revision,joint_indicator_revision_dfm_full_kalman_em,2013:Q4,-0.3622206931112222,-0.1739075337312495
exact,pre_advance,DELTA_SA,no_revision,joint_indicator_revision_dfm_full_kalman_em,2014:Q1,-0.2591798375625083,-0.4330873712937578
exact,pre_advance,DELTA_SA,no_revision,joint_indicator_revision_dfm_full_kalman_em,2014:Q2,0.01371571328671499,-0.4193716580070428
exact,pre_advance,DELTA_SA,no_revision,joint_indicator_revision_dfm_full_kalman_em,2014:Q3,0.06921391123983381,-0.350157746767209
exact,pre_advance,DELTA_SA,no_revision,joint_indicator_revision_dfm_full_kalman_em,2014:Q4,-0.07466426773261256,-0.4248220144998216
exact,pre_advance,DELTA_SA,no_revision,joint_indicator_revision_dfm_full_kalman_em,2015:Q1,0.1285675045630904,-0.2962545099367312
exact,pre_advance,DELTA_SA,no_revision,joint_indicator_revision_dfm_full_kalman_em,2015:Q2,0.6027202001388543,0.3064656902021231
exact,pre_advance,DELTA_SA,no_revision,joint_indicator_revision_dfm_full_kalman_em,2015:Q3,0.012268969210568748,0.31873465941269186
exact,pre_advance,DELTA_SA,no_revision,joint_indicator_revision_dfm_full_kalman_em,2015:Q4,0.0384759571632764,0.35721061657596825
exact,pre_advance,DELTA_SA,no_revision,joint_indicator_revision_dfm_full_kalman_em,2016:Q1,0.04972247086196827,0.40693308743793655
exact,pre_advance,DELTA_SA,no_revision,joint_indicator_revision_dfm_full_kalman_em,2016:Q2,-0.034229670942094934,0.3727034164958416
exact,pre_advance,DELTA_SA,no_revision,joint_indicator_revision_dfm_full_kalman_em,2016:Q3,0.06032901846314022,0.4330324349589818
exact,pre_advance,DELTA_SA,no_revision,joint_indicator_revision_dfm_full_kalman_em,2016:Q4,-0.05139952477444792,0.3816329101845339
exact,pre_advance,DELTA_SA,no_revision,joint_indicator_revision_dfm_full_kalman_em,2017:Q1,0.16145881376227314,0.543091723946807
exact,pre_advance,DELTA_SA,no_revision,joint_indicator_revision_dfm_full_kalman_em,2017:Q2,0.12902239420557365,0.6721141181523806
exact,pre_advance,DELTA_SA,no_revision,joint_indicator_revision_dfm_full_kalman_em,2017:Q3,0.04029389231512094,0.7124080104675016
exact,pre_advance,DELTA_SA,no_revision,joint_indicator_revision_dfm_full_kalman_em,2017:Q4,-0.15393674016504585,0.5584712703024557
exact,pre_advance,DELTA_SA,no_revision,joint_indicator_revision_dfm_full_kalman_em,2018:Q1,-0.11854585979492752,0.4399254105075282
exact,pre_advance,DELTA_SA,no_revision,joint_indicator_revision_dfm_full_kalman_em,2018:Q2,0.027714079528973347,0.46763949003650157
exact,pre_advance,DELTA_SA,no_revision,joint_indicator_revision_dfm_full_kalman_em,2018:Q3,-0.008115448171123483,0.4595240418653781
exact,pre_advance,DELTA_SA,no_revision,joint_indicator_revision_dfm_full_kalman_em,2019:Q1,-0.009160193050761973,0.4503638488146161
exact,pre_advance,DELTA_SA,no_revision,joint_indicator_revision_dfm_full_kalman_em,2019:Q2,-0.007600192663939319,0.4427636561506768
