haminh109/Revision-Aware-DFM/outputs/full_state_space_release_revision_dfm/frozen/q2_manuscript_best_v1/runs/exact_pseudo_backtest_max_iter50/evidence_dir/density_revision_records.csv
model_id,timing_mode,checkpoint_id,outcome_id,forecast_origin,forecast_origin_date,target_quarter,forecast_value,realized_value,forecast_error,calibration_n,predictive_variance,predictive_sd,log_score,crps,lower_68,upper_68,covered_68,lower_90,upper_90,covered_90,density_method
ar,exact,pre_advance,DELTA_SA,2008:Q1:pre_advance:exact,2008-04-29,2008:Q1,0.1411112771385929,0.3031999999999999,-0.1620887228614069,12,0.4246599209606872,0.6516593596049145,-0.5216391003274016,0.16829114156909322,-0.5105480824663216,0.7927706367435075,True,-0.9307729840444243,1.2129955383216102,True,expanding_residual_calibrated_gaussian
ar,exact,pre_advance,DELTA_SA,2008:Q2:pre_advance:exact,2008-07-30,2008:Q2,0.282369571934375,1.3898,-1.1074304280656249,13,0.39034904148426913,0.6247791941832483,-2.0194860795511382,0.7740465723702007,-0.34240962224887334,0.9071487661176234,False,-0.7453007516617591,1.3100398955305093,False,expanding_residual_calibrated_gaussian
ar,exact,pre_advance,DELTA_SA,2008:Q3:pre_advance:exact,2008-10-29,2008:Q3,0.714132038935611,-0.2618,0.975932038935611,14,0.4397619285178273,0.6631454806585259,-1.5910855613659503,0.6432416168089662,0.05098655827708509,1.377277519594137,False,-0.37664521012204255,1.8049092879932644,True,expanding_residual_calibrated_gaussian
ar,exact,pre_advance,DELTA_SA,2008:Q4:pre_advance:exact,2009-01-29,2008:Q4,0.0793056065031563,-2.4444,2.523705606503156,15,0.489619774192295,0.6997283574304353,-7.065993877277928,2.128979418739733,-0.6204227509272789,0.7790339639335916,False,-1.0716451200970913,1.230256333103404,False,expanding_residual_calibrated_gaussian
ar,exact,pre_advance,DELTA_SA,2009:Q1:pre_advance:exact,2009-04-28,2009:Q1,-0.8004772054187677,0.4245000000000001,-1.2249772054187678,16,0.8724453144493385,0.9340478116506341,-1.7106897986157223,0.780994262062496,-1.7345250170694018,0.13357060623186645,False,-2.3368491361583987,0.7358947253208634,True,expanding_residual_calibrated_gaussian
ar,exact,pre_advance,DELTA_SA,2009:Q2:pre_advance:exact,2009-07-30,2009:Q2,0.6102794438475987,0.0030000000000001,0.6072794438475986,17,0.9222140123109045,0.9603197448302854,-1.0783968070362877,0.3727179747460258,-0.3500403009826867,1.570599188677884,True,-0.9693059714696084,2.189864859164806,True,expanding_residual_calibrated_gaussian
ar,exact,pre_advance,DELTA_SA,2009:Q3:pre_advance:exact,2009-10-28,2009:Q3,0.1888383411693894,-0.7522000000000002,0.9410383411693896,18,0.8865924051252095,0.9415903595116135,-1.3581674818799925,0.5668761957151592,-0.752752018342224,1.130428700681003,True,-1.3599399767758287,1.7376166591146076,True,expanding_residual_calibrated_gaussian
ar,exact,pre_advance,DELTA_SA,2009:Q4:pre_advance:exact,2010-01-28,2009:Q4,-0.3373558541688579,0.1962000000000001,-0.5335558541688581,19,0.8781524605607329,0.9370978927309211,-1.0160623635177632,0.3370191538924492,-1.274453746899779,0.5997420385620633,True,-1.8787447218358952,1.2040330134981794,True,expanding_residual_calibrated_gaussian
ar,exact,pre_advance,DELTA_SA,2010:Q1:pre_advance:exact,2010-04-29,2010:Q1,0.0283511514001251,-0.2023000000000001,0.2306511514001252,20,0.8524346657244032,0.9232738844592124,-0.8703138879330322,0.23863310708399726,-0.8949227330590873,0.9516250358593376,True,-1.490299246122185,1.5470015489224351,True,expanding_residual_calibrated_gaussian
ar,exact,pre_advance,DELTA_SA,2010:Q2:pre_advance:exact,2010-07-29,2010:Q2,-0.0683836223313969,-0.7725,0.704116377668603,21,0.8109702893599383,0.9005388883107371,-1.119847402563579,0.4195430597384302,-0.9689225106421341,0.8321552659793402,True,-1.5496382789801597,1.4128710343173658,True,expanding_residual_calibrated_gaussian
ar,exact,pre_advance,DELTA_SA,2010:Q3:pre_advance:exact,2010-10-28,2010:Q3,-0.3068047363098523,0.5148000000000001,-0.8216047363098524,22,0.7899349260972257,0.8887828340473424,-1.2283082997812595,0.4908373271508362,-1.1955875703571945,0.5819780977374901,True,-1.7687224044648318,1.1551129318451272,True,expanding_residual_calibrated_gaussian
ar,exact,pre_advance,DELTA_SA,2010:Q4:pre_advance:exact,2011-01-27,2010:Q4,0.3116384840461248,-0.3850000000000002,0.696638484046125,23,0.791799161277662,0.8898309734312815,-1.1086720253691276,0.41506072418806556,-0.5781924893851567,1.2014694574774063,True,-1.1520032199760777,1.7752801880683273,True,expanding_residual_calibrated_gaussian
ar,exact,pre_advance,DELTA_SA,2011:Q1:pre_advance:exact,2011-04-27,2011:Q1,-0.1541999785436481,0.0939000000000001,-0.2480999785436481,24,0.773738675420703,0.8796241671422534,-0.8304547245180531,0.23329698515263542,-1.0338241456859016,0.7254241885986054,True,-1.6010529802217517,1.2926530231344555,True,expanding_residual_calibrated_gaussian
ar,exact,pre_advance,DELTA_SA,2011:Q2:pre_advance:exact,2011-07-28,2011:Q2,0.1222021712976695,-0.2928,0.4150021712976696,25,0.7462367244305209,0.8638499432369727,-0.8879792263438715,0.2799198536520927,-0.7416477719393032,0.9860521145346423,True,-1.2987045409774884,1.5431088835728275,True,expanding_residual_calibrated_gaussian
ar,exact,pre_advance,DELTA_SA,2011:Q3:pre_advance:exact,2011-10-26,2011:Q3,-0.0436641708390723,-0.4595999999999995,0.4159358291609272,26,0.7206453648374204,0.8489083371232847,-0.8751675826735014,0.27809947979240607,-0.892572507962357,0.8052441662842125,True,-1.4399941281056503,1.3526657864275056,True,expanding_residual_calibrated_gaussian
ar,exact,pre_advance,DELTA_SA,2011:Q4:pre_advance:exact,2012-01-26,2011:Q4,-0.1664617652864937,0.2299000000000002,-0.3963617652864939,27,0.6967414461618726,0.834710396581876,-0.8510090843233009,0.268773725368105,-1.0011721618683698,0.6682486312953823,True,-1.5394381885582942,1.2065146579853068,True,expanding_residual_calibrated_gaussian
ar,exact,pre_advance,DELTA_SA,2012:Q1:pre_advance:exact,2012-04-26,2012:Q1,0.146748410605829,-0.3447,0.491448410605829,28,0.679983491168534,0.8246111151133811,-0.9036888332276318,0.30621476713210716,-0.6778627045075521,0.9713595257192101,True,-1.209616172912914,1.503112994124572,True,expanding_residual_calibrated_gaussian
ar,exact,pre_advance,DELTA_SA,2012:Q2:pre_advance:exact,2012-07-26,2012:Q2,-0.1038122691178062,0.1949,-0.2987122691178063,29,0.6612840302735421,0.8131937224754887,-0.7796191025501159,0.2333282296174999,-0.9170059915932949,0.7093814533576825,True,-1.4413969129457829,1.2337723747101703,True,expanding_residual_calibrated_gaussian
ar,exact,pre_advance,DELTA_SA,2012:Q3:pre_advance:exact,2012-10-25,2012:Q3,0.1733371102203946,0.6579000000000002,-0.4845628897796055,30,0.6438563178730354,0.8024065789068753,-0.8811384352741132,0.3008349535144477,-0.6290694686864806,0.9757436891272699,True,-1.1465042613843017,1.493178481825091,True,expanding_residual_calibrated_gaussian
ar,exact,pre_advance,DELTA_SA,2012:Q4:pre_advance:exact,2013-01-29,2012:Q4,0.3745038169834829,0.2694999999999999,0.1050038169834829,31,0.6330238634687501,0.7956279680031051,-0.699023789583475,0.19145478602830163,-0.4211241510196222,1.170131784986588,True,-0.9341877318904543,1.6831953658574201,True,expanding_residual_calibrated_gaussian
ar,exact,pre_advance,DELTA_SA,2013:Q1:pre_advance:exact,2013-04-25,2013:Q1,0.2735383342584925,-0.1162,0.3897383342584926,32,0.6126399752717877,0.7827132139371277,-0.797917996315205,0.25877542445430474,-0.5091748796786352,1.05625154819562,True,-1.0139103345488356,1.5609870030658206,True,expanding_residual_calibrated_gaussian
ar,exact,pre_advance,DELTA_SA,2013:Q2:pre_advance:exact,2013-07-30,2013:Q2,-0.006310028729751,0.8419999999999999,-0.8483100287297509,33,0.5965539991783618,0.7723690822258241,-1.263801488289796,0.5188987238475902,-0.7786791109555751,0.7660590534960732,False,-1.2767441149740777,1.2641240575145756,True,expanding_residual_calibrated_gaussian
ar,exact,pre_advance,DELTA_SA,2013:Q3:pre_advance:exact,2013-11-06,2013:Q3,0.4736264614294589,0.7550000000000003,-0.2813735385705413,34,0.603912299441874,0.7771179443571445,-0.7323238689713444,0.22181365810630127,-0.30349148292768563,1.2507444057866035,True,-0.8046188079154626,1.7518717307743805,True,expanding_residual_calibrated_gaussian
ar,exact,pre_advance,DELTA_SA,2013:Q4:pre_advance:exact,2014-01-29,2013:Q4,0.3920541653838421,-0.8431000000000002,1.2351541653838425,35,0.5893693534627156,0.7677039490993358,-1.9488571467999536,0.8369678767730119,-0.37564978371549373,1.159758114483178,False,-0.8707064597171688,1.654814790484853,True,expanding_residual_calibrated_gaussian
ar,exact,pre_advance,DELTA_SA,2014:Q1:pre_advance:exact,2014-04-29,2014:Q1,-0.3707296002667286,-1.0928,0.7220703997332714,36,0.6118962719422345,0.7822379893243708,-1.0993831706801003,0.43132525150904244,-1.1529675895910994,0.41150838905764225,True,-1.657396594146147,0.9159373936126898,True,expanding_residual_calibrated_gaussian
ar,exact,pre_advance,DELTA_SA,2014:Q2:pre_advance:exact,2014-07-29,2014:Q2,-0.3807469573065625,0.2237999999999997,-0.6045469573065623,37,0.6061187067786769,0.7785362591290639,-0.9700884618422942,0.36034773600917935,-1.1592832164356264,0.3977893018225014,True,-1.6613251468482344,0.8998312322351094,True,expanding_residual_calibrated_gaussian
ar,exact,pre_advance,DELTA_SA,2014:Q3:pre_advance:exact,2014-10-29,2014:Q3,0.0960389505392824,0.3467000000000002,-0.2506610494607177,38,0.602621916044835,0.776287263868753,-0.7178372194563353,0.2134262828680568,-0.6802483133294707,0.8723262144080354,True,-1.1808399709914705,1.3729178720700355,True,expanding_residual_calibrated_gaussian
ar,exact,pre_advance,DELTA_SA,2014:Q4:pre_advance:exact,2015-01-29,2014:Q4,0.1688907339298215,-0.4497999999999997,0.6186907339298213,39,0.589512433759291,0.7677971306011054,-0.9793654161063403,0.3682178025575947,-0.598906396671284,0.9366878645309269,True,-1.0940231611023399,1.431804628961983,True,expanding_residual_calibrated_gaussian
ar,exact,pre_advance,DELTA_SA,2015:Q1:pre_advance:exact,2015-04-28,2015:Q1,-0.1664187565321353,-0.9973,0.8308812434678646,40,0.5819679549174603,0.7628682421738765,-1.2413971558008312,0.5074387982689682,-0.9292869987060118,0.5964494856417412,False,-1.42122535155793,1.0883878384936594,True,expanding_residual_calibrated_gaussian
ar,exact,pre_advance,DELTA_SA,2015:Q2:pre_advance:exact,2015-07-29,2015:Q2,-0.3349089662402753,1.3627000000000002,-1.6976089662402756,41,0.5810925653894671,0.7622942774214346,-3.127220859549192,1.2744286892597698,-1.0972032436617098,0.42738531118115936,False,-1.5887714732612739,0.9189535407807232,False,expanding_residual_calibrated_gaussian
ar,exact,pre_advance,DELTA_SA,2015:Q3:pre_advance:exact,2015-10-28,2015:Q3,0.677687720737902,0.5856999999999999,0.091987720737902,42,0.6438913268592905,0.8024283936023765,-0.7053966593985387,0.19172579676784313,-0.12474067286447454,1.4801161143402783,True,-0.6421895328478104,1.9975649743236144,True,expanding_residual_calibrated_gaussian
ar,exact,pre_advance,DELTA_SA,2015:Q4:pre_advance:exact,2016-01-28,2015:Q4,0.3567967296908301,0.314,0.04279672969083,43,0.6285881067771159,0.7928354853165415,-0.6882558798461244,0.18620305906183193,-0.43603875562571137,1.1496322150073714,True,-0.9473015939079139,1.660895053289574,True,expanding_residual_calibrated_gaussian
ar,exact,pre_advance,DELTA_SA,2016:Q1:pre_advance:exact,2016-04-27,2016:Q1,0.2661399341306913,0.3027000000000001,-0.0365600658693087,44,0.6139753007284686,0.7835657603089026,-0.6761267555224536,0.18379579110396738,-0.5174258261782112,1.049705694439594,True,-1.022711048668395,1.5549909169297778,True,expanding_residual_calibrated_gaussian
ar,exact,pre_advance,DELTA_SA,2016:Q2:pre_advance:exact,2016-07-28,2016:Q2,0.2681291742259852,-0.1195999999999999,0.3877291742259852,45,0.6002201447530114,0.7747387590362389,-0.7889414533631408,0.2568889937278131,-0.5066095848102536,1.0428679332622242,True,-1.006202683514655,1.5424610319666254,True,expanding_residual_calibrated_gaussian
ar,exact,pre_advance,DELTA_SA,2016:Q3:pre_advance:exact,2016-10-27,2016:Q3,0.0452506389225619,0.2565999999999997,-0.2113493610774377,46,0.5892752251909242,0.767642641592378,-0.6924088332221303,0.20246284636944822,-0.7223920026698162,0.8128932805149399,True,-1.2174091443032702,1.3079104221483941,True,expanding_residual_calibrated_gaussian
ar,exact,pre_advance,DELTA_SA,2016:Q4:pre_advance:exact,2017-01-26,2016:Q4,0.1492374075003102,-0.0169999999999999,0.1662374075003101,47,0.5780679783539887,0.7603078181591905,-0.6688094199741477,0.19212296478211155,-0.6110704106588802,0.9095452256595007,True,-1.1013576647983947,1.3998324797990152,True,expanding_residual_calibrated_gaussian
ar,exact,pre_advance,DELTA_SA,2017:Q1:pre_advance:exact,2017-04-27,2017:Q1,0.0659129056715515,0.4599999999999998,-0.3940870943284483,48,0.5660158927960915,0.7523402772656077,-0.7715630298030036,0.2563386952535299,-0.6864273715940562,0.8182531829371592,True,-1.1715767280904597,1.3034025394335627,True,expanding_residual_calibrated_gaussian
ar,exact,pre_advance,DELTA_SA,2017:Q2:pre_advance:exact,2017-07-27,2017:Q2,0.3338386109932738,0.4662000000000001,-0.1323613890067263,49,0.5584239974626165,0.747277724452306,-0.6433067473119927,0.18396366867472547,-0.4134391134590322,1.0811163354455797,True,-0.8953238644121446,1.5630010863986923,True,expanding_residual_calibrated_gaussian
ar,exact,pre_advance,DELTA_SA,2017:Q3:pre_advance:exact,2017-10-26,2017:Q3,0.259901632394651,0.3077000000000001,-0.047798367605349,50,0.5476949804923225,0.7400641732257565,-0.62000588380572,0.1741804440563133,-0.48016254083110543,0.9999658056204075,True,-0.9573956071125771,1.4771988719018792,True,expanding_residual_calibrated_gaussian
ar,exact,pre_advance,DELTA_SA,2017:Q4:pre_advance:exact,2018-01-25,2017:Q4,0.1708964419460579,-0.0190000000000001,0.189896441946058,51,0.5369160240366202,0.7327455383942096,-0.641563028654198,0.1907629760218069,-0.5618490964481517,0.9036419803402675,True,-1.034362714514167,1.3761555984062828,True,expanding_residual_calibrated_gaussian
ar,exact,pre_advance,DELTA_SA,2018:Q1:pre_advance:exact,2018-04-26,2018:Q1,0.0389715350373021,-0.1434999999999999,0.182471535037302,52,0.5267930880403595,0.7258051308997199,-0.6300672271324429,0.18782245572880818,-0.6868335958624178,0.764776665937022,True,-1.15487166698309,1.2328147370576943,True,expanding_residual_calibrated_gaussian
ar,exact,pre_advance,DELTA_SA,2018:Q2:pre_advance:exact,2018-07-26,2018:Q2,-0.0088385496543845,0.1665000000000001,-0.1753385496543846,53,0.5170056828139263,0.7190310722172766,-0.6188201954267755,0.18500749559632343,-0.727869621871661,0.7101925225628921,True,-1.1915394166817779,1.1738623173730087,True,expanding_residual_calibrated_gaussian
ar,exact,pre_advance,DELTA_SA,2018:Q3:pre_advance:exact,2018-10-25,2018:Q3,0.0614125513665548,0.0043999999999999,0.0570125513665549,54,0.5081923625633052,0.7128761200680699,-0.5836889470322514,0.1684136175513826,-0.6514635687015151,0.7742886714346247,True,-1.111164320294503,1.2339894230276127,True,expanding_residual_calibrated_gaussian
ar,exact,pre_advance,DELTA_SA,2019:Q1:pre_advance:exact,2019-04-25,2019:Q1,0.4648889202031996,-0.1047000000000002,0.5695889202031998,55,0.49878361160320517,0.7062461409474782,-0.8963698048573119,0.338986945399842,-0.24135722074427857,1.171135061150678,True,-0.6967826062547404,1.6265604466611396,True,expanding_residual_calibrated_gaussian
ar,exact,pre_advance,DELTA_SA,2019:Q2:pre_advance:exact,2019-07-25,2019:Q2,-0.026254198058714,-0.0171000000000001,-0.0091541980587139,56,0.49460715461731874,0.7032831255030357,-0.5670275169664123,0.1644012691111298,-0.7295373235617497,0.6770289274443217,True,-1.1830519978161498,1.1305436016987216,True,expanding_residual_calibrated_gaussian
ar,exact,pre_advance,DELTA_SA,2019:Q3:pre_advance:exact,2019-10-29,2019:Q3,0.0592963312990124,0.205,-0.1457036687009876,57,0.4858482509348452,0.6970281564864114,-0.5798569928225081,0.17499861097318486,-0.637731825187399,0.7563244877854237,True,-1.0872129599849596,1.2058056225829845,True,expanding_residual_calibrated_gaussian
ar,exact,pre_advance,DELTA_SA,2019:Q4:pre_advance:exact,2020-01-29,2019:Q4,0.1665444581766966,0.0148000000000001,0.1517444581766964,58,0.47801482290201397,0.6913861604790871,-0.573967190113861,0.17480702992157698,-0.5248417023023905,0.8579306186557837,True,-0.9706845755113824,1.3037734918647756,True,expanding_residual_calibrated_gaussian
ar,exact,pre_advance,DELTA_SA,2020:Q1:pre_advance:exact,2020-04-28,2020:Q1,0.0727039693006021,-0.2644999999999999,0.3372039693006021,59,0.4699454540287458,0.6855256771476513,-0.6623476299446294,0.2250728918055988,-0.6128217078470493,0.7582296464482534,True,-1.054885427124076,1.2002933657252803,True,expanding_residual_calibrated_gaussian
ar,exact,pre_advance,DELTA_SA,2020:Q2:pre_advance:exact,2020-07-29,2020:Q2,0.2227703703745247,1.1996999999999964,-0.9769296296254716,60,0.4633299063050595,0.6806834112163007,-1.564207068240888,0.6390663462374115,-0.457913040841776,0.9034537815908255,False,-0.8968542073703079,1.3423949481193573,True,expanding_residual_calibrated_gaussian
ar,exact,pre_advance,DELTA_SA,2020:Q3:pre_advance:exact,2020-10-28,2020:Q3,2.555388340709694,-0.0142999999999986,2.5696883407096927,61,0.4731454145990595,0.6878556640742733,-7.522847625660335,2.1816380500082992,1.8675326766354208,3.2432440047839672,False,1.423966456838012,3.686810224581376,False,expanding_residual_calibrated_gaussian
ar,exact,pre_advance,DELTA_SA,2020:Q4:pre_advance:exact,2021-01-27,2020:Q4,0.6762934737196877,0.0797999999999996,0.5964934737196881,62,0.5685691512043828,0.7540352453329903,-0.9495169919172453,0.3552266664301345,-0.07774177161330253,1.430328719052678,True,-0.5639841344155245,1.9165710818549,True,expanding_residual_calibrated_gaussian
ar,exact,pre_advance,DELTA_SA,2021:Q1:pre_advance:exact,2021-04-28,2021:Q1,0.1141893782717202,0.0112000000000005,0.1029893782717197,63,0.5636130826110703,0.7507416883396515,-0.6416545472906743,0.1810721726427309,-0.6365523100679313,0.8649310666113716,True,-1.1206708106974272,1.3490495672408678,True,expanding_residual_calibrated_gaussian
ar,exact,pre_advance,DELTA_SA,2021:Q2:pre_advance:exact,2021-07-28,2021:Q2,0.1447917586216602,0.0527999999999995,0.0919917586216607,64,0.5546697293624968,0.7447615251625831,-0.6318757195786155,0.178574324882565,-0.5999697665409229,0.8895532837842433,True,-1.0802319372559246,1.3698154544992451,True,expanding_residual_calibrated_gaussian
ar,exact,pre_advance,DELTA_SA,2021:Q3:pre_advance:exact,2021-10-27,2021:Q3,0.1470672919152162,0.0880999999999998,0.0589672919152164,65,0.5460031020574964,0.7389202271270535,-0.6195573997266206,0.17455825520115806,-0.5918529352118373,0.8859875190422697,True,-1.0683483237025233,1.3624829075329559,True,expanding_residual_calibrated_gaussian
ar,exact,pre_advance,DELTA_SA,2021:Q4:pre_advance:exact,2022-01-26,2021:Q4,0.0843496025345156,0.0993000000000003,-0.0149503974654847,66,0.5376173159953284,0.7332239194102497,-0.608842267951364,0.17147235565309304,-0.648874316875734,0.8175735219447653,True,-1.1216964206750075,1.2903956257440388,True,expanding_residual_calibrated_gaussian
ar,exact,pre_advance,DELTA_SA,2022:Q1:pre_advance:exact,2022-04-27,2022:Q1,0.1550189766333507,-0.0959000000000001,0.2509189766333508,67,0.5296334449502283,0.7277591943426261,-0.6605911189768326,0.20424931942728886,-0.5727402177092754,0.8827781709759769,True,-1.0420383737283991,1.3520763269951006,True,expanding_residual_calibrated_gaussian
ar,exact,pre_advance,DELTA_SA,2022:Q2:pre_advance:exact,2022-07-27,2022:Q2,0.0252303062888912,0.3589,-0.3336696937111088,68,0.5221205833509792,0.7225791190942201,-0.7006287116837964,0.22926296027888418,-0.6973488128053289,0.7478094253831113,True,-1.1633065785126364,1.2137671910904189,True,expanding_residual_calibrated_gaussian
ar,exact,pre_advance,DELTA_SA,2022:Q3:pre_advance:exact,2022-10-26,2022:Q3,0.0582376027017708,0.3631999999999999,-0.3049623972982291,69,0.5170440952862215,0.7190577829953734,-0.6790612725907783,0.21887916290806014,-0.6608201802936026,0.7772953856971442,True,-1.1245071996458538,1.2409824050493954,True,expanding_residual_calibrated_gaussian
ar,exact,pre_advance,DELTA_SA,2022:Q4:pre_advance:exact,2023-01-25,2022:Q4,0.1085327350948528,-0.2158000000000002,0.324332735094853,70,0.5117107809798078,0.7153396263173234,-0.686725038944003,0.22485162629936795,-0.6068068912224706,0.8238723614121762,True,-1.0680962437553074,1.285161713945013,True,expanding_residual_calibrated_gaussian
ar,exact,pre_advance,DELTA_SA,2023:Q1:pre_advance:exact,2023-04-26,2023:Q1,0.0808547693367951,0.2098999999999999,-0.1290452306632048,71,0.5052529556877762,0.7108114768964948,-0.5940700358033237,0.1754337822678137,-0.6299567075596997,0.79166624623329,True,-1.0883260665151369,1.2500356051887271,True,expanding_residual_calibrated_gaussian
ar,exact,pre_advance,DELTA_SA,2023:Q2:pre_advance:exact,2023-07-26,2023:Q2,0.0786861488683192,-0.3529,0.4315861488683192,72,0.49875415056219585,0.7062252831513439,-0.7578494222821266,0.2671058040228351,-0.6275391342830248,0.7849114320196631,True,-1.0829510695679991,1.2403233673046377,True,expanding_residual_calibrated_gaussian
ar,exact,pre_advance,DELTA_SA,2023:Q3:pre_advance:exact,2023-10-25,2023:Q3,0.0656009239904817,0.2763,-0.2106990760095182,73,0.4935312336732911,0.702517781748826,-0.6108299460340085,0.18919788661757594,-0.6369168577583443,0.7681187057393076,True,-1.0899379973169774,1.221139845297941,True,expanding_residual_calibrated_gaussian
ar,exact,pre_advance,DELTA_SA,2023:Q4:pre_advance:exact,2024-01-24,2023:Q4,0.1337989225363234,-0.0709999999999997,0.2047989225363231,74,0.4879417764281283,0.6985282932194861,-0.6031380396936661,0.18702661406173296,-0.5647293706831626,0.8323272157558095,True,-1.0151778740939696,1.2827757191666165,True,expanding_residual_calibrated_gaussian
ar,exact,pre_advance,DELTA_SA,2024:Q1:pre_advance:exact,2024-04-24,2024:Q1,0.092510887819583,-0.3404999999999998,0.4330108878195828,75,0.4815565525077868,0.6939427588121276,-0.7482522844348619,0.26659644124024073,-0.6014318709925446,0.7864536466317107,True,-1.0489233759092558,1.2339451515484219,True,expanding_residual_calibrated_gaussian
ar,exact,pre_advance,DELTA_SA,2024:Q2:pre_advance:exact,2024-07-24,2024:Q2,0.0533853342525936,0.1112999999999999,-0.0579146657474063,76,0.4767625909354181,0.6904799714223564,-0.5520878085058887,0.1632984869684089,-0.6370946371697628,0.74386530567495,True,-1.0823531510788182,1.1891238195840055,True,expanding_residual_calibrated_gaussian
ar,exact,pre_advance,DELTA_SA,2024:Q3:pre_advance:exact,2024-10-29,2024:Q3,0.0945532127990609,0.0087999999999999,0.085753212799061,77,0.47075844595313016,0.6861183906244827,-0.5500438374932397,0.16461260959286741,-0.5915651778254217,0.7806716034235436,True,-1.0340111105377263,1.2231175361358482,True,expanding_residual_calibrated_gaussian
ar,exact,pre_advance,DELTA_SA,2024:Q4:pre_advance:exact,2025-01-29,2024:Q4,0.0885662047910598,0.0939000000000001,-0.0053337952089402,78,0.46464473290488045,0.6816485406020323,-0.5357280569854314,0.1593144904134395,-0.5930823358109725,0.7702147453930921,True,-1.0326458695243708,1.2097782791064904,True,expanding_residual_calibrated_gaussian
ar,exact,pre_second,DELTA_TS,2008:Q1:pre_second:exact,2008-05-28,2008:Q1,0.0600251098958206,0.0587,0.0013251098958205,12,0.05163235358648373,0.22722753703388093,0.5628478605106191,0.053105016943716485,-0.16720242713806033,0.28725264692970154,True,-0.3137309285376084,0.43378114832924963,True,expanding_residual_calibrated_gaussian
ar,exact,pre_second,DELTA_TS,2008:Q2:pre_second:exact,2008-08-27,2008:Q2,0.100772173228941,-0.4531,0.5538721732289411,13,0.04746467013458396,0.21786387983000755,-2.626661389178188,0.4317210799179194,-0.11709170660106655,0.31863605305894854,False,-0.2575820196911666,0.4591263661490486,False,expanding_residual_calibrated_gaussian
ar,exact,pre_second,DELTA_TS,2008:Q3:pre_second:exact,2008-11-24,2008:Q3,-0.1583427007994933,0.0033999999999999,-0.1617427007994932,14,0.0626755102994184,0.2503507745133184,0.25725416590968936,0.09880196316323268,-0.4086934753128117,0.09200807371382508,True,-0.5701330802678353,0.2534476786688486,True,expanding_residual_calibrated_gaussian
ar,exact,pre_second,DELTA_TS,2008:Q4:pre_second:exact,2009-02-26,2008:Q4,0.0931111879520567,-0.0942999999999996,0.1874111879520563,15,0.06198909538547986,0.24897609400398235,0.1881604110330149,0.11194906717547887,-0.15586490605192566,0.34208728195603905,True,-0.3164180432946044,0.5026404191987177,True,expanding_residual_calibrated_gaussian
ar,exact,pre_second,DELTA_TS,2009:Q1:pre_second:exact,2009-05-28,2009:Q1,0.1325678027393972,0.2259999999999999,-0.0934321972606027,16,0.05885829135750111,0.24260727803901744,0.4232151815776731,0.07087615222568355,-0.11003947529962024,0.37517508077841466,True,-0.26648565846790484,0.5316212639466993,True,expanding_residual_calibrated_gaussian
ar,exact,pre_second,DELTA_TS,2009:Q2:pre_second:exact,2009-08-26,2009:Q2,0.2749823419517103,0.2766999999999999,-0.0017176580482896,17,0.05672629505267802,0.2381728260164833,0.5157941707708975,0.05566473500679489,0.036809515935226994,0.5131551679681936,True,-0.1167770947627842,0.6667417786662048,True,expanding_residual_calibrated_gaussian
ar,exact,pre_second,DELTA_TS,2009:Q3:pre_second:exact,2009-11-23,2009:Q3,0.2248763601779096,-0.5463999999999998,0.7712763601779095,18,0.05359548775522431,0.2315069928862286,-5.005395070078936,0.640714775976085,-0.006630632708319012,0.45638335306413824,False,-0.15591875673563219,0.6056714770914514,False,expanding_residual_calibrated_gaussian
ar,exact,pre_second,DELTA_TS,2009:Q4:pre_second:exact,2010-02-25,2009:Q4,-0.2121082936084128,-0.3730000000000002,0.1608917063915873,19,0.07756059854534765,0.2784970350746084,0.1925324538513868,0.10116689856159168,-0.4906053286830212,0.06638874146619558,True,-0.6701951518461138,0.24597856462928816,True,expanding_residual_calibrated_gaussian
ar,exact,pre_second,DELTA_TS,2010:Q1:pre_second:exact,2010-05-26,2010:Q1,-0.1805736028353486,-0.2984,0.1178263971646513,20,0.07370585262747227,0.27148821821116337,0.29071918649301176,0.08353180887789231,-0.45206182104651194,0.09091461537581477,True,-0.6271319832345734,0.2659847775638762,True,expanding_residual_calibrated_gaussian
ar,exact,pre_second,DELTA_TS,2010:Q2:pre_second:exact,2010-08-26,2010:Q2,-0.1040265308932921,0.1048,-0.2088265308932921,21,0.0700415606353572,0.26465366167003473,0.09909011187963435,0.12437470579677638,-0.36868019256332685,0.16062713077674262,True,-0.5393430661772365,0.3312900043906523,True,expanding_residual_calibrated_gaussian
ar,exact,pre_second,DELTA_TS,2010:Q3:pre_second:exact,2010-11-22,2010:Q3,0.0998453241604311,0.0339999999999998,0.0658453241604313,22,0.07098060420561815,0.2664218538438958,0.3731949917430748,0.06872077705514933,-0.16657652968346467,0.36626717800432684,True,-0.33837962843383584,0.5380702767546981,True,expanding_residual_calibrated_gaussian
ar,exact,pre_second,DELTA_TS,2010:Q4:pre_second:exact,2011-02-24,2010:Q4,0.0543732040476938,0.3264,-0.2720267959523061,23,0.06776836589807013,0.26032357922030447,-0.11907560904074532,0.1649447553761277,-0.20595037517261067,0.31469678326799827,False,-0.3738209794138129,0.48256738750920053,True,expanding_residual_calibrated_gaussian
ar,exact,pre_second,DELTA_TS,2011:Q1:pre_second:exact,2011-05-25,2011:Q1,0.1840968521247026,0.0726999999999999,0.1113968521247026,24,0.0700767944659788,0.264720219223955,0.3216028266462603,0.08029379847534159,-0.08062336709925241,0.44881707134865756,True,-0.25132916059320864,0.6195228648426138,True,expanding_residual_calibrated_gaussian
ar,exact,pre_second,DELTA_TS,2011:Q2:pre_second:exact,2011-08-25,2011:Q2,0.0826892785471069,0.3447000000000001,-0.2620107214528931,25,0.06723120147378164,0.25928980210139707,-0.07967841508900364,0.15807132817787437,-0.17660052355429018,0.34197908064850396,False,-0.34380449287090553,0.5091830499651193,True,expanding_residual_calibrated_gaussian
ar,exact,pre_second,DELTA_TS,2011:Q3:pre_second:exact,2011-11-21,2011:Q3,0.2196184979915967,-0.1896000000000002,0.4092184979915969,26,0.0687823645686042,0.26226392159159867,-0.7978508272343043,0.27462997961339586,-0.04264542360000198,0.48188241958319533,False,-0.21176726465686088,0.6510042606400542,True,expanding_residual_calibrated_gaussian
ar,exact,pre_second,DELTA_TS,2011:Q4:pre_second:exact,2012-02-28,2011:Q4,-0.0390680507254161,-0.0276,-0.0114680507254161,27,0.07072487799945637,0.26594149356476204,0.404610637026921,0.062346449860018395,-0.3050095442901781,0.22687344283934593,True,-0.47650288097230653,0.39836677952147437,True,expanding_residual_calibrated_gaussian
ar,exact,pre_second,DELTA_TS,2012:Q1:pre_second:exact,2012-05-30,2012:Q1,0.0201593821295551,0.0121,0.0080593821295551,28,0.06834419067188502,0.26142721868980096,0.42218562838517315,0.061193340410660345,-0.24126783656024586,0.28158660081935605,True,-0.4098501267161997,0.4501688909753099,True,expanding_residual_calibrated_gaussian
ar,exact,pre_second,DELTA_TS,2012:Q2:pre_second:exact,2012-08-28,2012:Q2,0.0542284222174149,-0.4791000000000001,0.533328422217415,29,0.0660246454454121,0.2569526132293892,-1.7141130551230463,0.39191347773713875,-0.20272419101197434,0.31118103544680414,False,-0.36842101560760476,0.4768778600424346,False,expanding_residual_calibrated_gaussian
ar,exact,pre_second,DELTA_TS,2012:Q3:pre_second:exact,2012-11-28,2012:Q3,-0.1690199464195982,0.4342999999999999,-0.6033199464195982,30,0.07104872098788102,0.2665496595155976,-2.158330803572821,0.4551067689720561,-0.4355696059351958,0.09752971309599942,False,-0.607455120636509,0.26941522779731253,False,expanding_residual_calibrated_gaussian
ar,exact,pre_second,DELTA_TS,2012:Q4:pre_second:exact,2013-02-27,2012:Q4,0.2334352574488747,0.2525,-0.0190647425511252,31,0.08378353873722587,0.2894538628818518,0.31865176161176306,0.06814468083535447,-0.056018605432977125,0.5228891203307265,True,-0.24267397874745336,0.7095444936452028,True,expanding_residual_calibrated_gaussian
ar,exact,pre_second,DELTA_TS,2013:Q1:pre_second:exact,2013-05-29,2013:Q1,0.1899848579887264,-0.6094000000000002,0.7993848579887266,32,0.0812705840721508,0.2850799608393245,-3.595364050458443,0.6389737591489406,-0.0950951028505981,0.47506481882805096,False,-0.2789299495690202,0.6588996655464731,False,expanding_residual_calibrated_gaussian
ar,exact,pre_second,DELTA_TS,2013:Q2:pre_second:exact,2013-08-28,2013:Q2,-0.2371281731179624,-0.0339999999999998,-0.2031281731179626,33,0.09545799770109731,0.30896277720964593,0.03947442035874607,0.12364138035506043,-0.5460909503276083,0.07183460409168355,True,-0.7453267178042482,0.27107037156832336,True,expanding_residual_calibrated_gaussian
ar,exact,pre_second,DELTA_TS,2013:Q3:pre_second:exact,2013-12-04,2013:Q3,0.0214258366188206,0.5327999999999999,-0.5113741633811792,34,0.09490532510322071,0.3080670789020156,-1.119208189406339,0.3499810768410606,-0.28664124228319504,0.3294929155208362,False,-0.4852994154575052,0.5281510886951464,False,expanding_residual_calibrated_gaussian
ar,exact,pre_second,DELTA_TS,2013:Q4:pre_second:exact,2014-02-27,2013:Q4,0.2638284005265996,0.2418,0.0220284005265996,35,0.10179226846287516,0.31904900636559763,0.2210884969798185,0.0751666716739282,-0.055220605838998016,0.5828774068921972,True,-0.26096051476911697,0.7886173158223162,True,expanding_residual_calibrated_gaussian
ar,exact,pre_second,DELTA_TS,2014:Q1:pre_second:exact,2014-05-28,2014:Q1,0.1500423574002036,-1.9455,2.0955423574002037,36,0.09891233029446758,0.3145033072870102,-21.960106853684337,1.9181028674387677,-0.1644609498868066,0.4645456646872138,False,-0.3672695482790685,0.6673542630794758,False,expanding_residual_calibrated_gaussian
ar,exact,pre_second,DELTA_TS,2014:Q2:pre_second:exact,2014-08-27,2014:Q2,-0.7957150664800472,0.4200999999999997,-1.215815066480047,37,0.20890749744655665,0.4570639971016714,-3.673951203083005,0.9590478704207419,-1.2527790635817186,-0.3386510693783758,False,-1.5475184398616686,-0.0439116930984258,False,expanding_residual_calibrated_gaussian
ar,exact,pre_second,DELTA_TS,2014:Q3:pre_second:exact,2014-11-24,2014:Q3,0.18616178702778,1.0710000000000002,-0.8848382129722201,38,0.24940188373217378,0.4994015255605191,-1.7942263043341802,0.6183835907356846,-0.3132397385327391,0.6855633125882991,False,-0.6352806235955382,1.007604197651098,False,expanding_residual_calibrated_gaussian
ar,exact,pre_second,DELTA_TS,2014:Q4:pre_second:exact,2015-02-26,2014:Q4,0.4841223334290574,0.0249999999999999,0.4591223334290575,39,0.26638656437892777,0.5161265003649084,-0.6531882023533115,0.2735992402740629,-0.03200416693585095,1.000248833793966,True,-0.3648302126619325,1.3330748795200473,True,expanding_residual_calibrated_gaussian
ar,exact,pre_second,DELTA_TS,2015:Q1:pre_second:exact,2015-05-28,2015:Q1,0.0561086229840617,0.5774,-0.5212913770159383,40,0.2637631042463154,0.513578722540484,-0.7677168126679716,0.31469429688913486,-0.45747009955642226,0.5696873455245457,False,-0.7886532015117571,0.9008704474798805,True,expanding_residual_calibrated_gaussian
ar,exact,pre_second,DELTA_TS,2015:Q2:pre_second:exact,2015-08-26,2015:Q2,0.3625495083294923,0.2363999999999997,0.1261495083294925,41,0.26538668172090285,0.515156948629156,-0.28563696004767425,0.1326520913798773,-0.15260744029966367,0.8777064569586482,True,-0.4848082670724281,1.2099072837314127,True,expanding_residual_calibrated_gaussian
ar,exact,pre_second,DELTA_TS,2015:Q3:pre_second:exact,2015-11-23,2015:Q3,0.1202330462125123,-0.0944999999999998,0.2147330462125121,42,0.25907061689474675,0.508989800383806,-0.33260295500161696,0.1545625937710238,-0.38875675417129374,0.6292228465963183,True,-0.7169806730300969,0.9574467654551215,True,expanding_residual_calibrated_gaussian
ar,exact,pre_second,DELTA_TS,2015:Q4:pre_second:exact,2016-02-25,2015:Q4,0.0072572058068582,0.3811,-0.3738427941931417,43,0.2535570656965029,0.5035445022006525,-0.5084509707760168,0.2235831457038956,-0.4962872963937943,0.5108017080075107,True,-0.8209997949693587,0.8355142065830751,True,expanding_residual_calibrated_gaussian
ar,exact,pre_second,DELTA_TS,2016:Q1:pre_second:exact,2016-05-26,2016:Q1,0.2376238772222749,0.2323999999999999,0.005223877222275,44,0.2517593208876505,0.501756236520933,-0.2293518677513138,0.11727960926123304,-0.26413235929865814,0.7393801137432079,True,-0.5876916882647025,1.0629394427092524,True,expanding_residual_calibrated_gaussian
ar,exact,pre_second,DELTA_TS,2016:Q2:pre_second:exact,2016-08-25,2016:Q2,0.1766591280750276,0.3151999999999999,-0.1385408719249723,45,0.2460662563463859,0.49605065905246604,-0.25686213427130694,0.13126116862113596,-0.31939153097743844,0.6727097871274936,True,-0.6392715976190892,0.9925898537691444,True,expanding_residual_calibrated_gaussian
ar,exact,pre_second,DELTA_TS,2016:Q3:pre_second:exact,2016-11-28,2016:Q3,0.2085726636292308,0.3584,-0.1498273363707691,46,0.24129409251548758,0.49121695055798675,-0.2545854677956068,0.13288624602575394,-0.282644286928756,0.6997896141872175,True,-0.5994073191161158,1.0165526463745773,True,expanding_residual_calibrated_gaussian
ar,exact,pre_second,DELTA_TS,2016:Q4:pre_second:exact,2017-02-27,2016:Q4,0.1857855496112392,0.2233,-0.0375144503887607,47,0.2367872182612091,0.48660786909092324,-0.2016135831236965,0.11487103734884474,-0.3008223194796841,0.6723934187021624,True,-0.6146131687660931,0.9861842679885714,True,expanding_residual_calibrated_gaussian
ar,exact,pre_second,DELTA_TS,2017:Q1:pre_second:exact,2017-05-25,2017:Q1,0.1537243117302007,0.2690000000000001,-0.1152756882697993,48,0.2318514113250413,0.48150951322382124,-0.21676657165166183,0.12348389992986362,-0.32778520149362056,0.6352338249540219,True,-0.6382883575076395,0.9457369809680409,True,expanding_residual_calibrated_gaussian
ar,exact,pre_second,DELTA_TS,2017:Q2:pre_second:exact,2017-08-29,2017:Q2,0.1888077505774061,0.0266999999999999,0.1621077505774062,49,0.22745827282961703,0.4769258567425518,-0.2363107660131393,0.13322793784225903,-0.28811810616514566,0.6657336073199579,True,-0.5956654746725185,0.9732809758273306,True,expanding_residual_calibrated_gaussian
ar,exact,pre_second,DELTA_TS,2017:Q3:pre_second:exact,2017-11-28,2017:Q3,0.0439172242577536,-0.1394999999999999,0.1834172242577536,50,0.22317550364793337,0.4724145463974764,-0.2444110328971197,0.1384590624817563,-0.4284973221397228,0.51633177065523,True,-0.73313555580877,0.8209700043242771,True,expanding_residual_calibrated_gaussian
ar,exact,pre_second,DELTA_TS,2017:Q4:pre_second:exact,2018-02-27,2017:Q4,-0.0345783611468029,0.3519000000000001,-0.386478361146803,51,0.21916890047584336,0.46815478260490234,-0.5007366030526792,0.22992405524329002,-0.5027331437517052,0.43357642145809944,True,-0.8046244532891546,0.7354677309955487,True,expanding_residual_calibrated_gaussian
ar,exact,pre_second,DELTA_TS,2018:Q1:pre_second:exact,2018-05-29,2018:Q1,0.1964108625937384,-0.1833000000000002,0.3797108625937386,52,0.21826762422320553,0.46719120734791825,-0.48820524985274394,0.22594348558860722,-0.27078034475417984,0.6636020699416567,True,-0.5720502892923222,0.964872014479799,True,expanding_residual_calibrated_gaussian
ar,exact,pre_second,DELTA_TS,2018:Q2:pre_second:exact,2018-08-28,2018:Q2,-0.0306561516332095,-0.0674999999999999,0.0368438483667903,53,0.21643506008666558,0.4652258162297806,-0.15684214158590182,0.10988439083290294,-0.4958819678629901,0.4345696645965711,True,-0.7958845228102231,0.7345722195438043,True,expanding_residual_calibrated_gaussian
ar,exact,pre_second,DELTA_TS,2018:Q3:pre_second:exact,2018-11-27,2018:Q3,-0.022605780705315,-0.1484999999999998,0.1258942192946848,54,0.21235175235477546,0.4608163976626434,-0.18150158170801217,0.12132701859610806,-0.48342217836795837,0.4382106169573284,True,-0.7805813037594259,0.7353697423487958,True,expanding_residual_calibrated_gaussian
ar,exact,pre_second,DELTA_TS,2019:Q1:pre_second:exact,2019-05-29,2019:Q1,-0.5635001866146694,0.0609999999999999,-0.6245001866146693,55,0.20857810327972326,0.4567035179191455,-1.0701204234341113,0.4028035885402158,-1.0202037045338148,-0.1067966686955239,False,-1.3147106245054725,0.18771025127613372,True,expanding_residual_calibrated_gaussian
ar,exact,pre_second,DELTA_TS,2019:Q2:pre_second:exact,2019-08-28,2019:Q2,0.0553867231403613,-0.0236,0.0789867231403613,56,0.21253233072143982,0.46101228912192765,-0.15928549171684772,0.11312199387282265,-0.40562556598156635,0.5163990122622889,True,-0.7029110126910422,0.8136844589717648,True,expanding_residual_calibrated_gaussian
ar,exact,pre_second,DELTA_TS,2019:Q3:pre_second:exact,2019-11-26,2019:Q3,0.0400819187290437,-0.0214000000000003,0.061481918729044,57,0.20879332912841236,0.4569390868905968,-0.14478542354478735,0.11007964753767821,-0.4168571681615531,0.4970210056196405,True,-0.7115159956388484,0.7916798330969357,True,expanding_residual_calibrated_gaussian
ar,exact,pre_second,DELTA_TS,2019:Q4:pre_second:exact,2020-02-26,2019:Q4,0.0389260285033676,0.0318999999999998,0.0070260285033678,58,0.20515532919709886,0.45294075682929974,-0.1270649029921758,0.10589345888753937,-0.4140147283259321,0.49186678533266737,True,-0.7060952181614509,0.7839472751681861,True,expanding_residual_calibrated_gaussian
ar,exact,pre_second,DELTA_TS,2020:Q1:pre_second:exact,2020-05-27,2020:Q1,0.0626050123543775,0.0540000000000002,0.0086050123543772,59,0.2016230683454751,0.44902457432246967,-0.1184444971086222,0.10500057310473883,-0.3864195619680922,0.5116295866768472,True,-0.6759746873102775,0.8011847120190326,True,expanding_residual_calibrated_gaussian
ar,exact,pre_second,DELTA_TS,2020:Q2:pre_second:exact,2020-08-26,2020:Q2,0.2226642124584019,0.3214000000000006,-0.0987357875415986,60,0.19820954639415053,0.44520730721109075,-0.13431533073376267,0.1127427672537812,-0.22254309475268885,0.6678715196694927,True,-0.5096366415530591,0.9549650664698628,True,expanding_residual_calibrated_gaussian
ar,exact,pre_second,DELTA_TS,2020:Q3:pre_second:exact,2020-11-24,2020:Q3,1.0697573673306875,0.3727000000000018,0.6970573673306859,61,0.1951509519909051,0.4417589297240126,-1.346853044860015,0.4694498052851576,0.627998437606675,1.5115162970547,False,0.34312858953594483,1.7963861451254302,True,expanding_residual_calibrated_gaussian
ar,exact,pre_second,DELTA_TS,2020:Q4:pre_second:exact,2021-02-24,2020:Q4,-0.0619677598879055,0.2328999999999998,-0.2948677598879055,62,0.19931301802343382,0.4464448656031714,-0.33061586638710216,0.1793217096729213,-0.5084126254910769,0.38447710571526594,True,-0.7963042163091446,0.6723686965333336,True,expanding_residual_calibrated_gaussian
ar,exact,pre_second,DELTA_TS,2021:Q1:pre_second:exact,2021-05-26,2021:Q1,0.0741194561374736,-0.0379000000000004,0.1120194561374741,63,0.1977981627476692,0.4447450536517176,-0.14040456804036788,0.11513159940420202,-0.370625597514244,0.5188645097891912,True,-0.6574210584302812,0.8056599707052284,True,expanding_residual_calibrated_gaussian
ar,exact,pre_second,DELTA_TS,2021:Q2:pre_second:exact,2021-08-25,2021:Q2,0.0542172340461517,0.1697000000000006,-0.1154827659538488,64,0.19477095607992942,0.4413286259466175,-0.13520881064513052,0.11512338292431931,-0.3871113919004658,0.4955458599927692,True,-0.6717037570196516,0.7801382251119551,True,expanding_residual_calibrated_gaussian
ar,exact,pre_second,DELTA_TS,2021:Q3:pre_second:exact,2021-11-23,2021:Q3,0.0647130031895999,0.1993999999999998,-0.1346869968103998,65,0.1920466532069789,0.4382312782161708,-0.14115969384649107,0.11879789154453695,-0.3735182750265709,0.5029442814057707,True,-0.6561133042278483,0.7855393106070482,True,expanding_residual_calibrated_gaussian
ar,exact,pre_second,DELTA_TS,2021:Q4:pre_second:exact,2022-02-23,2021:Q4,0.0785903836922474,-0.0928000000000004,0.1713903836922479,66,0.18948475339593748,0.4352984647295893,-0.16472712099491824,0.12830588360755563,-0.35670808103734186,0.5138888484218367,True,-0.637411874824625,0.7945926422091197,True,expanding_residual_calibrated_gaussian
ar,exact,pre_second,DELTA_TS,2022:Q1:pre_second:exact,2022-05-25,2022:Q1,0.0505502027361366,-0.0639,0.1144502027361367,67,0.18693863593858515,0.43236400860685104,-0.11548625715015426,0.11305752249098727,-0.38181380587071445,0.4829142113429876,True,-0.6606253049841199,0.7617257104563931,True,expanding_residual_calibrated_gaussian
ar,exact,pre_second,DELTA_TS,2022:Q2:pre_second:exact,2022-08-24,2022:Q2,0.0719132614688264,-0.0022999999999999,0.0742132614688264,68,0.18426340216141537,0.429259131715815,-0.08818895982650019,0.1054216193340154,-0.3573458702469886,0.5011723931846414,True,-0.6341551782359717,0.7779817011736244,True,expanding_residual_calibrated_gaussian
ar,exact,pre_second,DELTA_TS,2022:Q3:pre_second:exact,2022-11-29,2022:Q3,0.0720417926744967,0.3147000000000002,-0.2426582073255034,69,0.18158546164621112,0.4261284567430473,-0.2280598895221308,0.1532677444311284,-0.3540866640685506,0.49817024941754395,True,-0.6288771449465381,0.7729607302955316,True,expanding_residual_calibrated_gaussian
ar,exact,pre_second,DELTA_TS,2022:Q4:pre_second:exact,2023-02-22,2022:Q4,0.0816900767583872,-0.1016999999999996,0.1833900767583869,70,0.18000059971529436,0.42426477548259217,-0.1549626744779048,0.130289771530442,-0.342574698724205,0.5059548522409794,True,-0.6161633779819066,0.779543531498681,True,expanding_residual_calibrated_gaussian
ar,exact,pre_second,DELTA_TS,2023:Q1:pre_second:exact,2023-05-24,2023:Q1,0.0603343116893237,0.7302,-0.6698656883106762,71,0.17778621232408265,0.4216470233786581,-1.317317021229071,0.4521053994033158,-0.36131271168933443,0.4819813350679818,False,-0.6332133240083543,0.7538819473870016,True,expanding_residual_calibrated_gaussian
ar,exact,pre_second,DELTA_TS,2023:Q2:pre_second:exact,2023-08-29,2023:Q2,0.1087417862766018,0.0009000000000001,0.1078417862766016,72,0.18201559123540537,0.4266328529724421,-0.09905447141681467,0.11051943428773629,-0.3178910666958403,0.5353746392490439,True,-0.5930068093117737,0.8104903818649773,True,expanding_residual_calibrated_gaussian
ar,exact,pre_second,DELTA_TS,2023:Q3:pre_second:exact,2023-11-28,2023:Q3,0.0694852593005626,-0.2930999999999999,0.3625852593005625,73,0.17960128035813674,0.42379391260155774,-0.4264303496931727,0.2157663533263277,-0.35430865330099515,0.49327917190212034,True,-0.6275936949220648,0.76656421352319,True,expanding_residual_calibrated_gaussian
ar,exact,pre_second,DELTA_TS,2023:Q4:pre_second:exact,2024-02-27,2023:Q4,0.0457694123409471,0.1876999999999999,-0.1419305876590528,74,0.17874564951655075,0.42278321811130437,-0.11439185573979256,0.11763413526882684,-0.37701380577035726,0.4685526304522515,True,-0.6496470973836472,0.7411859220655415,True,expanding_residual_calibrated_gaussian
ar,exact,pre_second,DELTA_TS,2024:Q1:pre_second:exact,2024-05-29,2024:Q1,0.0752473310114067,0.1602999999999999,-0.0850526689885931,75,0.17669131648409309,0.42034666227304945,-0.07273361701101388,0.10507517316651371,-0.34509933126164277,0.49559399328445614,True,-0.6161614010053643,0.7666560630281777,True,expanding_residual_calibrated_gaussian
ar,exact,pre_second,DELTA_TS,2024:Q2:pre_second:exact,2024-08-28,2024:Q2,0.0787934106925951,0.0381,0.0406934106925951,76,0.17448190073188005,0.4177103071889417,-0.050716746602249445,0.09919710156533919,-0.3389168964963466,0.4965037178815368,True,-0.6082789031021492,0.7658657244873395,True,expanding_residual_calibrated_gaussian
ar,exact,pre_second,DELTA_TS,2024:Q3:pre_second:exact,2024-11-26,2024:Q3,0.0684695138011854,0.2393999999999998,-0.1709304861988143,77,0.1721921611365497,0.4149604332180957,-0.1242054561256252,0.12467302606905718,-0.34649091941691035,0.4834299470192811,True,-0.6140796598189535,0.7510186874213243,True,expanding_residual_calibrated_gaussian
ar,exact,pre_second,DELTA_TS,2024:Q4:pre_second:exact,2025-02-26,2024:Q4,0.0796362276898672,0.1044,-0.0247637723101328,78,0.17042006966033174,0.41281965755076605,-0.03599330149312971,0.09706633238224974,-0.3331834298608989,0.4924558852406332,True,-0.599391683309375,0.7586641386891094,True,expanding_residual_calibrated_gaussian
ar,exact,pre_third,DELTA_MT,2008:Q1:pre_third:exact,2008-06-25,2008:Q1,1.7202185393012928,-2.6557,4.375918539301293,12,2.662597258247354,1.6317466893630745,-5.0044512733058095,3.4589760806592005,0.08847184993821822,3.3519652286643673,False,-0.9637659209636176,4.404202999566203,False,expanding_residual_calibrated_gaussian
ar,exact,pre_third,DELTA_MT,2008:Q2:pre_third:exact,2008-09-25,2008:Q2,0.8561377278079947,-0.4218999999999999,1.2780377278079946,13,3.550515918355108,1.884281273683711,-1.782505147811972,0.7734964036157251,-1.0281435458757162,2.7404190014917056,True,-2.243229159407397,3.9555046150233864,True,expanding_residual_calibrated_gaussian
ar,exact,pre_third,DELTA_MT,2008:Q3:pre_third:exact,2008-12-22,2008:Q3,0.3889916780206182,-1.5739999999999998,1.962991678020618,14,3.2893061297126414,1.8136444330994543,-2.1000138103429613,1.1974663908189358,-1.4246527550788362,2.2026361111200723,False,-2.594187945763366,3.3721713018046025,True,expanding_residual_calibrated_gaussian
ar,exact,pre_third,DELTA_MT,2008:Q4:pre_third:exact,2009-03-25,2008:Q4,1.55880959294112,-2.1294000000000004,3.68820959294112,15,3.129839317023177,1.769135189018402,-3.6625265488688568,2.713950631523193,-0.21032559607728185,3.327944781959522,False,-1.3511588392832767,4.468778025165517,False,expanding_residual_calibrated_gaussian
ar,exact,pre_third,DELTA_MT,2009:Q1:pre_third:exact,2009-06-24,2009:Q1,5.114549559835748,1.0301,4.084449559835748,16,3.383023906445801,1.8392998413651325,-3.993976824569991,3.063684131969613,3.275249718470615,6.9538494012008805,False,2.089170544715042,8.139928574956453,False,expanding_residual_calibrated_gaussian
ar,exact,pre_third,DELTA_MT,2009:Q2:pre_third:exact,2009-09-29,2009:Q2,3.6942436934611953,0.0229,3.6713436934611954,17,3.681657837423894,1.918764664419244,-3.4011493304806386,2.6297649286773326,1.7754790290419513,5.613008357880439,False,0.5381566759248773,6.850330710997513,False,expanding_residual_calibrated_gaussian
ar,exact,pre_third,DELTA_MT,2009:Q3:pre_third:exact,2009-12-21,2009:Q3,1.3747717542886857,-0.8215000000000001,2.196271754288686,18,3.774085607726071,1.9427005965217778,-2.2220610806474705,1.35113428969719,-0.5679288422330921,3.3174723508104638,False,-1.820686367980949,4.5702298765583205,True,expanding_residual_calibrated_gaussian
ar,exact,pre_third,DELTA_MT,2009:Q4:pre_third:exact,2010-03-25,2009:Q4,0.8095983736769883,-1.1592000000000002,1.9687983736769883,19,3.5941997899315865,1.8958374903803297,-2.097824537707247,1.1926112509095217,-1.0862391167033414,2.7054358640573177,False,-2.308776798485674,3.9279735458396505,True,expanding_residual_calibrated_gaussian
ar,exact,pre_third,DELTA_MT,2010:Q1:pre_third:exact,2010-06-24,2010:Q1,-1.3464424050967403,-0.7871999999999999,-0.5592424050967404,20,3.4168029990892737,1.8484596287420707,-1.5790579614245943,0.4989649914386048,-3.1949020338388108,0.5020172236453304,True,-4.386887929706507,1.6940031195130265,True,expanding_residual_calibrated_gaussian
ar,exact,pre_third,DELTA_MT,2010:Q2:pre_third:exact,2010-09-29,2010:Q2,0.2800605402442713,2.2092,-1.9291394597557288,21,3.4494319742397663,1.8572646484116813,-2.0774914202473393,1.1686255763888622,-1.57720410816741,2.137325188655953,False,-2.7748679529044336,3.334989033392976,True,expanding_residual_calibrated_gaussian
ar,exact,pre_third,DELTA_MT,2010:Q3:pre_third:exact,2010-12-21,2010:Q3,0.7022323196041835,0.5615999999999999,0.1406323196041836,22,3.791806472793666,1.9472561394931243,-1.5879677260575698,0.45911410541347747,-1.2450238198889407,2.6494884590973076,True,-2.500719004044604,3.905183643252971,True,expanding_residual_calibrated_gaussian
ar,exact,pre_third,DELTA_MT,2010:Q4:pre_third:exact,2011-03-24,2010:Q4,0.3765823791324805,-0.9972999999999996,1.37388237913248,23,3.673701688842954,1.9166902954945417,-1.8264390893515152,0.824802892828095,-1.5401079163620612,2.2932726746270222,True,-2.7760926051544055,3.5292573634193665,True,expanding_residual_calibrated_gaussian
ar,exact,pre_third,DELTA_MT,2011:Q1:pre_third:exact,2011-06-23,2011:Q1,-1.0718182190136771,-2.8618,1.789981780986323,24,3.5151069987136476,1.8748618612350212,-2.003225613556003,1.0724914486352717,-2.946680080248698,0.8030436422213441,True,-4.155691551499089,2.0120551134717353,True,expanding_residual_calibrated_gaussian
ar,exact,pre_third,DELTA_MT,2011:Q2:pre_third:exact,2011-09-28,2011:Q2,0.608687331840768,1.4003,-0.7916126681592319,25,3.3818242491019572,1.8389736945105977,-1.620795964991235,0.5636419746648129,-1.2302863626698297,2.4476610263513656,True,-2.416155219443337,3.633529883124873,True,expanding_residual_calibrated_gaussian
ar,exact,pre_third,DELTA_MT,2011:Q3:pre_third:exact,2011-12-21,2011:Q3,-0.3933440393749206,-1.9037,1.5103559606250794,26,3.4051307522859444,1.8452996375347674,-1.8665416613928416,0.8986202527337042,-2.238643676909688,1.4519555981598469,True,-3.4285918409862197,2.6419037622363786,True,expanding_residual_calibrated_gaussian
ar,exact,pre_third,DELTA_MT,2011:Q4:pre_third:exact,2012-03-28,2011:Q4,-2.7473739680588154,1.6146000000000005,-4.361973968058816,27,3.2786891114480317,1.8107150829017888,-4.414249431476113,3.3499759760754344,-4.5580890509606045,-0.9366588851570266,False,-5.725735239545559,0.2309873034279275,False,expanding_residual_calibrated_gaussian
ar,exact,pre_third,DELTA_MT,2012:Q1:pre_third:exact,2012-06-27,2012:Q1,-2.2410735922632004,1.5244000000000002,-3.7654735922632,28,4.251700848287106,2.0619652878472774,-3.310023884136299,2.657239543416712,-4.303038880110478,-0.17910830441592296,False,-5.632704674626831,1.15055749010043,False,expanding_residual_calibrated_gaussian
ar,exact,pre_third,DELTA_MT,2012:Q2:pre_third:exact,2012-09-26,2012:Q2,-0.552390073549228,0.5443,-1.096690073549228,29,4.875101910707206,2.2079632946920125,-1.834363291565468,0.7289431896911717,-2.7603533682412404,1.6555732211427845,True,-4.184166506999107,3.079386359900651,True,expanding_residual_calibrated_gaussian
ar,exact,pre_third,DELTA_MT,2012:Q3:pre_third:exact,2012-12-19,2012:Q3,0.4323044465369809,-2.5269,2.959204446536981,30,4.828503145797742,2.197385525072408,-2.6129982618053913,1.9004878016961824,-1.765081078535427,2.629689971609389,False,-3.182073104189034,4.046681997262996,True,expanding_residual_calibrated_gaussian
ar,exact,pre_third,DELTA_MT,2012:Q4:pre_third:exact,2013-03-27,2012:Q4,0.5831210866907051,0.0847999999999999,0.4983210866907051,31,4.825145087063621,2.1966212889489216,-1.7315912087330916,0.5582466079945068,-1.6135002022582166,2.7797423756396267,True,-3.0299994074757466,4.196241580857157,True,expanding_residual_calibrated_gaussian
ar,exact,pre_third,DELTA_MT,2013:Q1:pre_third:exact,2013-06-25,2013:Q1,1.014584232915781,2.2271,-1.212515767084219,32,4.672733343598733,2.1616506062726075,-1.8471269587968502,0.7696014170109767,-1.1470663733568265,3.1762348391883886,True,-2.541014607013566,4.570183072845128,True,expanding_residual_calibrated_gaussian
ar,exact,pre_third,DELTA_MT,2013:Q2:pre_third:exact,2013-09-25,2013:Q2,1.0385568946874906,-1.4062,2.4447568946874907,33,4.650686829889752,2.156545114271842,-2.3300216454730838,1.5048568960730735,-1.1179882195843516,3.1951020089593327,False,-2.508644158207026,4.585757947582007,True,expanding_residual_calibrated_gaussian
ar,exact,pre_third,DELTA_MT,2013:Q3:pre_third:exact,2013-12-19,2013:Q3,0.4541913002950837,-0.6842999999999999,1.1384913002950836,34,4.594346335898137,2.143442636484153,-1.822412371689547,0.7366407777510551,-1.689251336189069,2.5976339367792365,True,-3.071458094488301,3.9798406950784684,True,expanding_residual_calibrated_gaussian
ar,exact,pre_third,DELTA_MT,2013:Q4:pre_third:exact,2014-03-26,2013:Q4,-0.6314836412317248,0.9040000000000004,-1.5354836412317252,35,4.4625163963839825,2.112466898293079,-1.9309631623359276,0.9203147200576427,-2.743950539524804,1.4809832570613541,True,-4.106182480704023,2.8432151982405727,True,expanding_residual_calibrated_gaussian
ar,exact,pre_third,DELTA_MT,2014:Q1:pre_third:exact,2014-06-24,2014:Q1,-0.9781149028640296,1.5587000000000002,-2.5368149028640294,36,4.487628231360045,2.118402282702708,-2.38661974629743,1.5805444031973763,-3.0965171855667375,1.1402873798386786,False,-4.4625765809098565,2.5063467751817976,True,expanding_residual_calibrated_gaussian
ar,exact,pre_third,DELTA_MT,2014:Q2:pre_third:exact,2014-09-25,2014:Q2,2.7691950804953116,0.6755000000000004,2.093695080495311,37,4.653767715734706,2.157259306558835,-2.158745941592965,1.2566852429101425,0.6119357739364766,4.926454387054147,True,-0.779180714172806,6.31757087516343,True,expanding_residual_calibrated_gaussian
ar,exact,pre_third,DELTA_MT,2014:Q3:pre_third:exact,2014-12-22,2014:Q3,-1.5584745254200678,-0.0165000000000006,-1.5419745254200672,38,4.5824831381227105,2.140673524412985,-1.9394910335058186,0.9251674437908409,-3.699148049833053,0.5821989989929173,True,-5.0795691361697575,1.9626200853296214,True,expanding_residual_calibrated_gaussian
ar,exact,pre_third,DELTA_MT,2014:Q4:pre_third:exact,2015-03-26,2014:Q4,-0.19951112191033,-0.1787999999999998,-0.0207111219103302,39,4.589920826913814,2.142410051067212,-1.6809166480950253,0.5007503432408525,-2.341921172977542,1.9428989291568821,True,-3.7234620648255228,3.3244398210048627,True,expanding_residual_calibrated_gaussian
ar,exact,pre_third,DELTA_MT,2015:Q1:pre_third:exact,2015-06-23,2015:Q1,0.6358367482773168,3.8228,-3.186963251722683,40,4.482988142120996,2.1173068134120276,-2.801892012651689,2.115040973691788,-1.4814700651347108,2.7531435616893445,False,-2.8468230431325208,4.118496539687154,True,expanding_residual_calibrated_gaussian
ar,exact,pre_third,DELTA_MT,2015:Q2:pre_third:exact,2015-09-24,2015:Q2,1.173500632020969,-1.4206999999999996,2.5942006320209687,41,4.724189726290471,2.1735201232770933,-2.407564996954001,1.6150478079636261,-1.0000194912561242,3.3470207552980624,False,-2.401621826003369,4.748623090045307,True,expanding_residual_calibrated_gaussian
ar,exact,pre_third,DELTA_MT,2015:Q3:pre_third:exact,2015-12-21,2015:Q3,-1.0382128035491247,-0.3723000000000001,-0.6659128035491246,42,4.710805805603045,2.1704390812927796,-1.7409342649392847,0.5880947345625219,-3.2086518848419043,1.132226277743655,True,-4.608267398490774,2.531841791392525,True,expanding_residual_calibrated_gaussian
ar,exact,pre_third,DELTA_MT,2015:Q4:pre_third:exact,2016-03-24,2015:Q4,-0.240254393282667,-0.6463000000000001,0.406045606717333,43,4.634470829454959,2.1527821137901904,-1.7034872324352723,0.5335575145697181,-2.3930365070728574,1.9125277205075233,True,-3.7812658611867187,3.3007570746213846,True,expanding_residual_calibrated_gaussian
ar,exact,pre_third,DELTA_MT,2016:Q1:pre_third:exact,2016-06-27,2016:Q1,1.1881172366799224,1.2657999999999998,-0.0776827633200774,44,4.527140257521183,2.1277077472061765,-1.6746502510967356,0.4983659693272651,-0.9395905105262541,3.315824983886099,True,-2.311650568404903,4.687885041764748,True,expanding_residual_calibrated_gaussian
ar,exact,pre_third,DELTA_MT,2016:Q2:pre_third:exact,2016-09-28,2016:Q2,0.3712740935413687,-0.1234999999999999,0.4947740935413687,45,4.4328180017714365,2.1054258480819117,-1.6910686735367677,0.5382008385771414,-1.734151754540543,2.47669994162328,True,-3.091843248953543,3.83439143603628,True,expanding_residual_calibrated_gaussian
ar,exact,pre_third,DELTA_MT,2016:Q3:pre_third:exact,2016-12-21,2016:Q3,0.9989944643381364,-0.6490999999999998,1.6480944643381363,46,4.334337042202406,2.0819070685797687,-1.9655597550628467,0.9814529195306094,-1.0829126042416322,3.0809015329179053,True,-2.4254379283912035,4.423426857067477,True,expanding_residual_calibrated_gaussian
ar,exact,pre_third,DELTA_MT,2016:Q4:pre_third:exact,2017-03-29,2016:Q4,0.1040380422599227,0.1576999999999997,-0.0536619577400769,47,4.266774017576946,2.065617103331822,-1.6447049996636596,0.48328046240669076,-1.961579061071899,2.1696551455917445,True,-3.293599742048418,3.5016758265682637,True,expanding_residual_calibrated_gaussian
ar,exact,pre_third,DELTA_MT,2017:Q1:pre_third:exact,2017-06-28,2017:Q1,-0.8654830718520448,0.5367999999999999,-1.4022830718520447,48,4.183646244282709,2.0453963538352924,-1.8695401684820487,0.8471880502659112,-2.9108794256873374,1.1799132819832476,True,-4.229860683011342,2.498894539307253,True,expanding_residual_calibrated_gaussian
ar,exact,pre_third,DELTA_MT,2017:Q2:pre_third:exact,2017-09-27,2017:Q2,1.5616879913834607,-0.8029999999999999,2.3646879913834606,49,4.173465246594149,2.0429060787501094,-2.303228715389457,1.4620300348296598,-0.48121808736664873,3.60459407013357,False,-1.7985934817698666,4.921969464536788,True,expanding_residual_calibrated_gaussian
ar,exact,pre_third,DELTA_MT,2017:Q3:pre_third:exact,2017-12-20,2017:Q3,0.7536980282541998,0.0375999999999998,0.7160980282542,50,4.157816655447545,2.0390724988208597,-1.6931001264706098,0.5758304787215658,-1.2853744705666599,2.7927705270750596,True,-2.6002777670482926,4.107673823556692,True,expanding_residual_calibrated_gaussian
ar,exact,pre_third,DELTA_MT,2017:Q4:pre_third:exact,2018-03-27,2017:Q4,-0.2141667239450817,1.6974,-1.9115667239450815,51,4.075285633461834,2.0187336707604184,-2.069731802444393,1.144407850117883,-2.2329003947055,1.8045669468153367,True,-3.5346881241444152,3.1063546762542518,True,expanding_residual_calibrated_gaussian
ar,exact,pre_third,DELTA_MT,2018:Q1:pre_third:exact,2018-06-27,2018:Q1,0.4135295734801323,1.3022000000000002,-0.8886704265198679,52,4.111054590789875,2.027573572226141,-1.7218285140279332,0.6267803220065552,-1.6140439987460087,2.4411031457062733,True,-2.9215321707069886,3.748591317667253,True,expanding_residual_calibrated_gaussian
ar,exact,pre_third,DELTA_MT,2018:Q2:pre_third:exact,2018-09-26,2018:Q2,0.4427843067490631,-2.0182,2.4609843067490633,53,4.068059522724158,2.01694311340805,-2.364911354910952,1.540158989695637,-1.5741588066589869,2.459727420157113,False,-2.8747918886949626,3.760360502193089,True,expanding_residual_calibrated_gaussian
ar,exact,pre_third,DELTA_MT,2018:Q3:pre_third:exact,2018-12-20,2018:Q3,-0.7922329392393577,-0.8374000000000001,0.0451670607606424,54,4.064876041875277,2.0161537743622824,-1.620381095427143,0.4715686669044012,-2.80838671360164,1.2239208351229247,True,-4.108510787491058,2.5240449090123427,True,expanding_residual_calibrated_gaussian
ar,exact,pre_third,DELTA_MT,2018:Q4:pre_third:exact,2019-04-25,2018:Q4,-0.7287504381451138,-1.5995,0.8707495618548862,55,3.9934396954865212,1.9983592508571928,-1.7061962969855686,0.6160205150104686,-2.7271096890023063,1.269608812712079,True,-4.015758899869594,2.558258023579367,True,expanding_residual_calibrated_gaussian
ar,exact,pre_third,DELTA_MT,2019:Q1:pre_third:exact,2019-06-26,2019:Q1,0.2950732870417027,-0.6073999999999997,0.9024732870417024,56,3.923335153222517,1.9807410616288332,-1.706206224092417,0.6241497605787595,-1.6856677745871305,2.275814348670536,True,-2.962955832230193,3.5531024063135987,True,expanding_residual_calibrated_gaussian
ar,exact,pre_third,DELTA_MT,2019:Q2:pre_third:exact,2019-09-25,2019:Q2,-0.4623798722339782,1.3697,-1.8320798722339784,57,3.8560750626471685,1.963689146134685,-2.0289879516042046,1.0953412846515609,-2.426069018368663,1.5013092739007068,True,-3.6923610864588543,2.767601341990898,True,expanding_residual_calibrated_gaussian
ar,exact,pre_third,DELTA_MT,2019:Q3:pre_third:exact,2019-12-19,2019:Q3,0.5233605281748179,2.6594,-2.1360394718251823,58,3.8830010184524735,1.9705331812614761,-2.1847605146610216,1.3033896137619085,-1.4471726530866582,2.493893709436294,False,-2.717878122051344,3.76459917840098,True,expanding_residual_calibrated_gaussian
ar,exact,pre_third,DELTA_MT,2019:Q4:pre_third:exact,2020-03-25,2019:Q4,0.2849310965873983,0.6275,-0.3425689034126016,59,3.9311299992070072,1.9827077442747347,-1.6183281643692664,0.48690306103295633,-1.6977766476873364,2.267638840862133,True,-2.976332927767671,3.5461951209424676,True,expanding_residual_calibrated_gaussian
ar,exact,pre_third,DELTA_MT,2020:Q1:pre_third:exact,2020-06-24,2020:Q1,0.1841743620429881,-0.1679000000000003,0.3520743620429885,60,3.874332194654225,1.9683323384668112,-1.6121223142129606,0.4850461280270135,-1.7841579764238231,2.1525067005097993,True,-3.0534442239300192,3.4217929480159954,True,expanding_residual_calibrated_gaussian
ar,exact,pre_third,DELTA_MT,2020:Q2:pre_third:exact,2020-09-29,2020:Q2,3.4133521633512327,3.4068000000000005,0.0065521633512322,61,3.809820193351216,1.951876070182535,-1.587735164779092,0.45615240841646176,1.4614760931686976,5.3652282335337675,True,0.20280172995170354,6.623902596750762,True,expanding_residual_calibrated_gaussian
ar,exact,pre_third,DELTA_MT,2020:Q3:pre_third:exact,2020-12-21,2020:Q3,18.90965041100232,1.4142999999999972,17.495350411002324,62,3.7500113671164987,1.9364946080783438,-42.39133239351324,16.402800324528126,16.973155802923976,20.846145019080666,False,15.724400231332687,22.094900590671955,False,expanding_residual_calibrated_gaussian
ar,exact,pre_third,DELTA_MT,2020:Q4:pre_third:exact,2021-03-24,2020:Q4,-0.6267577451399444,0.2858999999999998,-0.9126577451399442,63,8.325639664805818,2.8854184557540035,-2.028631300645738,0.7885212898308622,-3.512176200893948,2.258660710614059,True,-5.372848757359632,4.119333267079744,True,expanding_residual_calibrated_gaussian
ar,exact,pre_third,DELTA_MT,2021:Q1:pre_third:exact,2021-06-23,2021:Q1,0.3306981725669118,-0.6600999999999999,0.9907981725669116,64,8.232942372456053,2.869310435009787,-2.032629354780492,0.805693852696495,-2.538612262442875,3.2000086075766987,True,-4.388897503308643,5.050293848442466,True,expanding_residual_calibrated_gaussian
ar,exact,pre_third,DELTA_MT,2021:Q2:pre_third:exact,2021-09-29,2021:Q2,-0.157957585070116,0.2582999999999993,-0.4162575850701153,65,8.10607283528441,2.847116582664716,-1.9759329793459621,0.6895925969537604,-3.005074167734832,2.6891589975945998,True,-4.841047622419854,4.525132452279623,True,expanding_residual_calibrated_gaussian
ar,exact,pre_third,DELTA_MT,2021:Q3:pre_third:exact,2021-12-21,2021:Q3,-0.0887519818537052,1.0375,-1.1262519818537051,66,7.998810553055413,2.828216850429863,-2.0378744673309073,0.8375365361496138,-2.916968832283568,2.7394648685761576,True,-4.740754726088534,4.563250762381124,True,expanding_residual_calibrated_gaussian
ar,exact,pre_third,DELTA_MT,2021:Q4:pre_third:exact,2022-03-29,2021:Q4,-0.4758059826426706,0.1469000000000004,-0.6227059826426711,67,7.9242073387226535,2.814996863004052,-1.9783666538398261,0.7125814902650881,-3.2908028456467227,2.3391908803613815,True,-5.106063782611902,4.154451817326561,True,expanding_residual_calibrated_gaussian
ar,exact,pre_third,DELTA_MT,2022:Q1:pre_third:exact,2022-06-28,2022:Q1,-0.1190106977561327,0.5592000000000001,-0.6782106977561329,68,7.828433918654802,2.797933866025929,-1.9771979190937417,0.7191284452479982,-2.916944563782062,2.6789231682697965,True,-4.721202365259236,4.4831809697469716,True,expanding_residual_calibrated_gaussian
ar,exact,pre_third,DELTA_MT,2022:Q2:pre_third:exact,2022-09-28,2022:Q2,0.6040262600518358,1.2039,-0.5998737399481642,69,7.736840155341487,2.7815175993226227,-1.9651907324133957,0.7014392510835455,-2.177491339270787,3.3855438593744585,True,-3.9711630516233316,5.179215571727003,True,expanding_residual_calibrated_gaussian
ar,exact,pre_third,DELTA_MT,2022:Q3:pre_third:exact,2022-12-21,2022:Q3,1.0211250045875602,-0.3241,1.3452250045875602,70,7.6445158175422385,2.764871754266776,-2.054294127986644,0.9022160003001013,-1.7437467496792158,3.785996758854336,True,-3.5266843284738263,5.568934337648947,True,expanding_residual_calibrated_gaussian
ar,exact,pre_third,DELTA_MT,2022:Q4:pre_third:exact,2023-03-29,2022:Q4,0.1857974722041957,0.2157999999999997,-0.030002527795804,71,7.5439770922171325,2.7466301338580577,-1.9293729478764718,0.6420044105074802,-2.560832661653862,2.9324276060622534,True,-4.3320070653664375,4.703602009774829,True,expanding_residual_calibrated_gaussian
ar,exact,pre_third,DELTA_MT,2023:Q1:pre_third:exact,2023-06-28,2023:Q1,-2.3142388313830553,0.9250000000000004,-3.2392388313830556,72,7.44275320016594,2.7281409787923243,-2.6274505357424496,2.0141929886686913,-5.04237981017538,0.413902147409269,False,-6.801631415184549,2.1731537524184388,True,expanding_residual_calibrated_gaussian
ar,exact,pre_third,DELTA_MT,2023:Q2:pre_third:exact,2023-09-27,2023:Q2,-12.594883125101848,0.4737,-13.06858312510185,73,7.53746420856079,2.7454442643333317,-13.258146838284407,11.519633103129825,-15.34032738943518,-9.849438860768517,False,-17.110737080883645,-8.079029169320052,False,expanding_residual_calibrated_gaussian
ar,exact,pre_third,DELTA_MT,2023:Q3:pre_third:exact,2023-12-20,2023:Q3,0.1589788757875312,-0.1657999999999999,0.3247788757875312,74,9.926283611924022,3.150600516080073,-2.071844841041659,0.7496241886923206,-2.991621640292542,3.3095793918676044,True,-5.023297810161957,5.341255561737019,True,expanding_residual_calibrated_gaussian
ar,exact,pre_third,DELTA_MT,2023:Q4:pre_third:exact,2024-03-27,2023:Q4,0.1545541656044839,0.0226999999999999,0.131854165604484,75,9.79214476530297,3.129240285644899,-2.060616515993442,0.7335038642189763,-2.974686120040415,3.283794451249383,True,-4.992588067841189,5.301696399050157,True,expanding_residual_calibrated_gaussian
ar,exact,pre_third,DELTA_MT,2024:Q1:pre_third:exact,2024-06-26,2024:Q1,0.2517512521361831,-0.5680999999999999,0.819851252136183,76,9.662087784566731,3.108389902275249,-2.0878265785946404,0.8121854603493427,-2.856638650139066,3.360141154411432,True,-4.861095152600592,5.364597656872959,True,expanding_residual_calibrated_gaussian
ar,exact,pre_third,DELTA_MT,2024:Q2:pre_third:exact,2024-09-25,2024:Q2,0.4003926973988654,0.6000000000000001,-0.1996073026011346,77,9.538133033645058,3.0883868011706466,-2.048676037200955,0.7268854205629477,-2.687994103771781,3.488779498569512,True,-4.679551533935728,5.480336928733459,True,expanding_residual_calibrated_gaussian
ar,exact,pre_third,DELTA_MT,2024:Q3:pre_third:exact,2024-12-18,2024:Q3,0.2716681107299452,0.2678000000000002,0.0038681107299449,78,9.417878873711093,3.068856281045284,-2.040244272855279,0.7171782438502436,-2.797188170315339,3.3405243917752294,True,-4.776151273740197,5.319487495200088,True,expanding_residual_calibrated_gaussian
ar,exact,pre_third,DELTA_MT,2024:Q4:pre_third:exact,2025-03-26,2024:Q4,0.3361469452895664,-0.5985,0.9346469452895664,79,9.298440509881198,3.049334437197927,-2.0808356150904888,0.8260156064676983,-2.7131874919083607,3.3854813824874936,True,-4.679561863523471,5.351855754102603,True,expanding_residual_calibrated_gaussian
ar,pseudo,pre_advance,DELTA_SA,2008:Q1:pre_advance:pseudo,2008-04-30,2008:Q1,0.1411112771385929,0.3031999999999999,-0.1620887228614069,12,0.4246599209606872,0.6516593596049145,-0.5216391003274016,0.16829114156909322,-0.5105480824663216,0.7927706367435075,True,-0.9307729840444243,1.2129955383216102,True,expanding_residual_calibrated_gaussian
ar,pseudo,pre_advance,DELTA_SA,2008:Q2:pre_advance:pseudo,2008-07-31,2008:Q2,0.282369571934375,1.3898,-1.1074304280656249,13,0.39034904148426913,0.6247791941832483,-2.0194860795511382,0.7740465723702007,-0.34240962224887334,0.9071487661176234,False,-0.7453007516617591,1.3100398955305093,False,expanding_residual_calibrated_gaussian
ar,pseudo,pre_advance,DELTA_SA,2008:Q3:pre_advance:pseudo,2008-10-31,2008:Q3,0.714132038935611,-0.2618,0.975932038935611,14,0.4397619285178273,0.6631454806585259,-1.5910855613659503,0.6432416168089662,0.05098655827708509,1.377277519594137,False,-0.37664521012204255,1.8049092879932644,True,expanding_residual_calibrated_gaussian
ar,pseudo,pre_advance,DELTA_SA,2008:Q4:pre_advance:pseudo,2009-01-31,2008:Q4,0.0793056065031563,-2.4444,2.523705606503156,15,0.489619774192295,0.6997283574304353,-7.065993877277928,2.128979418739733,-0.6204227509272789,0.7790339639335916,False,-1.0716451200970913,1.230256333103404,False,expanding_residual_calibrated_gaussian
ar,pseudo,pre_advance,DELTA_SA,2009:Q1:pre_advance:pseudo,2009-04-30,2009:Q1,-0.8004772054187677,0.4245000000000001,-1.2249772054187678,16,0.8724453144493385,0.9340478116506341,-1.7106897986157223,0.780994262062496,-1.7345250170694018,0.13357060623186645,False,-2.3368491361583987,0.7358947253208634,True,expanding_residual_calibrated_gaussian
ar,pseudo,pre_advance,DELTA_SA,2009:Q2:pre_advance:pseudo,2009-07-31,2009:Q2,0.6102794438475987,0.0030000000000001,0.6072794438475986,17,0.9222140123109045,0.9603197448302854,-1.0783968070362877,0.3727179747460258,-0.3500403009826867,1.570599188677884,True,-0.9693059714696084,2.189864859164806,True,expanding_residual_calibrated_gaussian
ar,pseudo,pre_advance,DELTA_SA,2009:Q3:pre_advance:pseudo,2009-10-31,2009:Q3,0.1888383411693894,-0.7522000000000002,0.9410383411693896,18,0.8865924051252095,0.9415903595116135,-1.3581674818799925,0.5668761957151592,-0.752752018342224,1.130428700681003,True,-1.3599399767758287,1.7376166591146076,True,expanding_residual_calibrated_gaussian
ar,pseudo,pre_advance,DELTA_SA,2009:Q4:pre_advance:pseudo,2010-01-31,2009:Q4,-0.3373558541688579,0.1962000000000001,-0.5335558541688581,19,0.8781524605607329,0.9370978927309211,-1.0160623635177632,0.3370191538924492,-1.274453746899779,0.5997420385620633,True,-1.8787447218358952,1.2040330134981794,True,expanding_residual_calibrated_gaussian
ar,pseudo,pre_advance,DELTA_SA,2010:Q1:pre_advance:pseudo,2010-04-30,2010:Q1,0.0283511514001251,-0.2023000000000001,0.2306511514001252,20,0.8524346657244032,0.9232738844592124,-0.8703138879330322,0.23863310708399726,-0.8949227330590873,0.9516250358593376,True,-1.490299246122185,1.5470015489224351,True,expanding_residual_calibrated_gaussian
ar,pseudo,pre_advance,DELTA_SA,2010:Q2:pre_advance:pseudo,2010-07-31,2010:Q2,-0.0683836223313969,-0.7725,0.704116377668603,21,0.8109702893599383,0.9005388883107371,-1.119847402563579,0.4195430597384302,-0.9689225106421341,0.8321552659793402,True,-1.5496382789801597,1.4128710343173658,True,expanding_residual_calibrated_gaussian
ar,pseudo,pre_advance,DELTA_SA,2010:Q3:pre_advance:pseudo,2010-10-31,2010:Q3,-0.3068047363098523,0.5148000000000001,-0.8216047363098524,22,0.7899349260972257,0.8887828340473424,-1.2283082997812595,0.4908373271508362,-1.1955875703571945,0.5819780977374901,True,-1.7687224044648318,1.1551129318451272,True,expanding_residual_calibrated_gaussian
ar,pseudo,pre_advance,DELTA_SA,2010:Q4:pre_advance:pseudo,2011-01-31,2010:Q4,0.3116384840461248,-0.3850000000000002,0.696638484046125,23,0.791799161277662,0.8898309734312815,-1.1086720253691276,0.41506072418806556,-0.5781924893851567,1.2014694574774063,True,-1.1520032199760777,1.7752801880683273,True,expanding_residual_calibrated_gaussian
ar,pseudo,pre_advance,DELTA_SA,2011:Q1:pre_advance:pseudo,2011-04-30,2011:Q1,-0.1541999785436481,0.0939000000000001,-0.2480999785436481,24,0.773738675420703,0.8796241671422534,-0.8304547245180531,0.23329698515263542,-1.0338241456859016,0.7254241885986054,True,-1.6010529802217517,1.2926530231344555,True,expanding_residual_calibrated_gaussian
ar,pseudo,pre_advance,DELTA_SA,2011:Q2:pre_advance:pseudo,2011-07-31,2011:Q2,0.1222021712976695,-0.2928,0.4150021712976696,25,0.7462367244305209,0.8638499432369727,-0.8879792263438715,0.2799198536520927,-0.7416477719393032,0.9860521145346423,True,-1.2987045409774884,1.5431088835728275,True,expanding_residual_calibrated_gaussian
ar,pseudo,pre_advance,DELTA_SA,2011:Q3:pre_advance:pseudo,2011-10-31,2011:Q3,-0.0436641708390723,-0.4595999999999995,0.4159358291609272,26,0.7206453648374204,0.8489083371232847,-0.8751675826735014,0.27809947979240607,-0.892572507962357,0.8052441662842125,True,-1.4399941281056503,1.3526657864275056,True,expanding_residual_calibrated_gaussian
ar,pseudo,pre_advance,DELTA_SA,2011:Q4:pre_advance:pseudo,2012-01-31,2011:Q4,-0.1664617652864937,0.2299000000000002,-0.3963617652864939,27,0.6967414461618726,0.834710396581876,-0.8510090843233009,0.268773725368105,-1.0011721618683698,0.6682486312953823,True,-1.5394381885582942,1.2065146579853068,True,expanding_residual_calibrated_gaussian
ar,pseudo,pre_advance,DELTA_SA,2012:Q1:pre_advance:pseudo,2012-04-30,2012:Q1,0.146748410605829,-0.3447,0.491448410605829,28,0.679983491168534,0.8246111151133811,-0.9036888332276318,0.30621476713210716,-0.6778627045075521,0.9713595257192101,True,-1.209616172912914,1.503112994124572,True,expanding_residual_calibrated_gaussian
ar,pseudo,pre_advance,DELTA_SA,2012:Q2:pre_advance:pseudo,2012-07-31,2012:Q2,-0.1038122691178062,0.1949,-0.2987122691178063,29,0.6612840302735421,0.8131937224754887,-0.7796191025501159,0.2333282296174999,-0.9170059915932949,0.7093814533576825,True,-1.4413969129457829,1.2337723747101703,True,expanding_residual_calibrated_gaussian
ar,pseudo,pre_advance,DELTA_SA,2012:Q3:pre_advance:pseudo,2012-10-31,2012:Q3,0.1733371102203946,0.6579000000000002,-0.4845628897796055,30,0.6438563178730354,0.8024065789068753,-0.8811384352741132,0.3008349535144477,-0.6290694686864806,0.9757436891272699,True,-1.1465042613843017,1.493178481825091,True,expanding_residual_calibrated_gaussian
ar,pseudo,pre_advance,DELTA_SA,2012:Q4:pre_advance:pseudo,2013-01-31,2012:Q4,0.3745038169834829,0.2694999999999999,0.1050038169834829,31,0.6330238634687501,0.7956279680031051,-0.699023789583475,0.19145478602830163,-0.4211241510196222,1.170131784986588,True,-0.9341877318904543,1.6831953658574201,True,expanding_residual_calibrated_gaussian
ar,pseudo,pre_advance,DELTA_SA,2013:Q1:pre_advance:pseudo,2013-04-30,2013:Q1,0.2735383342584925,-0.1162,0.3897383342584926,32,0.6126399752717877,0.7827132139371277,-0.797917996315205,0.25877542445430474,-0.5091748796786352,1.05625154819562,True,-1.0139103345488356,1.5609870030658206,True,expanding_residual_calibrated_gaussian
ar,pseudo,pre_advance,DELTA_SA,2013:Q2:pre_advance:pseudo,2013-07-31,2013:Q2,-0.006310028729751,0.8419999999999999,-0.8483100287297509,33,0.5965539991783618,0.7723690822258241,-1.263801488289796,0.5188987238475902,-0.7786791109555751,0.7660590534960732,False,-1.2767441149740777,1.2641240575145756,True,expanding_residual_calibrated_gaussian
ar,pseudo,pre_advance,DELTA_SA,2013:Q3:pre_advance:pseudo,2013-10-31,2013:Q3,0.4736264614294589,0.7550000000000003,-0.2813735385705413,34,0.603912299441874,0.7771179443571445,-0.7323238689713444,0.22181365810630127,-0.30349148292768563,1.2507444057866035,True,-0.8046188079154626,1.7518717307743805,True,expanding_residual_calibrated_gaussian
ar,pseudo,pre_advance,DELTA_SA,2013:Q4:pre_advance:pseudo,2014-01-31,2013:Q4,0.3920541653838421,-0.8431000000000002,1.2351541653838425,35,0.5893693534627156,0.7677039490993358,-1.9488571467999536,0.8369678767730119,-0.37564978371549373,1.159758114483178,False,-0.8707064597171688,1.654814790484853,True,expanding_residual_calibrated_gaussian
ar,pseudo,pre_advance,DELTA_SA,2014:Q1:pre_advance:pseudo,2014-04-30,2014:Q1,-0.3707296002667286,-1.0928,0.7220703997332714,36,0.6118962719422345,0.7822379893243708,-1.0993831706801003,0.43132525150904244,-1.1529675895910994,0.41150838905764225,True,-1.657396594146147,0.9159373936126898,True,expanding_residual_calibrated_gaussian
ar,pseudo,pre_advance,DELTA_SA,2014:Q2:pre_advance:pseudo,2014-07-31,2014:Q2,-0.3807469573065625,0.2237999999999997,-0.6045469573065623,37,0.6061187067786769,0.7785362591290639,-0.9700884618422942,0.36034773600917935,-1.1592832164356264,0.3977893018225014,True,-1.6613251468482344,0.8998312322351094,True,expanding_residual_calibrated_gaussian
ar,pseudo,pre_advance,DELTA_SA,2014:Q3:pre_advance:pseudo,2014-10-31,2014:Q3,0.0960389505392824,0.3467000000000002,-0.2506610494607177,38,0.602621916044835,0.776287263868753,-0.7178372194563353,0.2134262828680568,-0.6802483133294707,0.8723262144080354,True,-1.1808399709914705,1.3729178720700355,True,expanding_residual_calibrated_gaussian
ar,pseudo,pre_advance,DELTA_SA,2014:Q4:pre_advance:pseudo,2015-01-31,2014:Q4,0.1688907339298215,-0.4497999999999997,0.6186907339298213,39,0.589512433759291,0.7677971306011054,-0.9793654161063403,0.3682178025575947,-0.598906396671284,0.9366878645309269,True,-1.0940231611023399,1.431804628961983,True,expanding_residual_calibrated_gaussian
ar,pseudo,pre_advance,DELTA_SA,2015:Q1:pre_advance:pseudo,2015-04-30,2015:Q1,-0.1664187565321353,-0.9973,0.8308812434678646,40,0.5819679549174603,0.7628682421738765,-1.2413971558008312,0.5074387982689682,-0.9292869987060118,0.5964494856417412,False,-1.42122535155793,1.0883878384936594,True,expanding_residual_calibrated_gaussian
ar,pseudo,pre_advance,DELTA_SA,2015:Q2:pre_advance:pseudo,2015-07-31,2015:Q2,-0.3349089662402753,1.3627000000000002,-1.6976089662402756,41,0.5810925653894671,0.7622942774214346,-3.127220859549192,1.2744286892597698,-1.0972032436617098,0.42738531118115936,False,-1.5887714732612739,0.9189535407807232,False,expanding_residual_calibrated_gaussian
ar,pseudo,pre_advance,DELTA_SA,2015:Q3:pre_advance:pseudo,2015-10-31,2015:Q3,0.677687720737902,0.5856999999999999,0.091987720737902,42,0.6438913268592905,0.8024283936023765,-0.7053966593985387,0.19172579676784313,-0.12474067286447454,1.4801161143402783,True,-0.6421895328478104,1.9975649743236144,True,expanding_residual_calibrated_gaussian
ar,pseudo,pre_advance,DELTA_SA,2015:Q4:pre_advance:pseudo,2016-01-31,2015:Q4,0.3567967296908301,0.314,0.04279672969083,43,0.6285881067771159,0.7928354853165415,-0.6882558798461244,0.18620305906183193,-0.43603875562571137,1.1496322150073714,True,-0.9473015939079139,1.660895053289574,True,expanding_residual_calibrated_gaussian
ar,pseudo,pre_advance,DELTA_SA,2016:Q1:pre_advance:pseudo,2016-04-30,2016:Q1,0.2661399341306913,0.3027000000000001,-0.0365600658693087,44,0.6139753007284686,0.7835657603089026,-0.6761267555224536,0.18379579110396738,-0.5174258261782112,1.049705694439594,True,-1.022711048668395,1.5549909169297778,True,expanding_residual_calibrated_gaussian
ar,pseudo,pre_advance,DELTA_SA,2016:Q2:pre_advance:pseudo,2016-07-31,2016:Q2,0.2681291742259852,-0.1195999999999999,0.3877291742259852,45,0.6002201447530114,0.7747387590362389,-0.7889414533631408,0.2568889937278131,-0.5066095848102536,1.0428679332622242,True,-1.006202683514655,1.5424610319666254,True,expanding_residual_calibrated_gaussian
ar,pseudo,pre_advance,DELTA_SA,2016:Q3:pre_advance:pseudo,2016-10-31,2016:Q3,0.0452506389225619,0.2565999999999997,-0.2113493610774377,46,0.5892752251909242,0.767642641592378,-0.6924088332221303,0.20246284636944822,-0.7223920026698162,0.8128932805149399,True,-1.2174091443032702,1.3079104221483941,True,expanding_residual_calibrated_gaussian
ar,pseudo,pre_advance,DELTA_SA,2016:Q4:pre_advance:pseudo,2017-01-31,2016:Q4,0.1492374075003102,-0.0169999999999999,0.1662374075003101,47,0.5780679783539887,0.7603078181591905,-0.6688094199741477,0.19212296478211155,-0.6110704106588802,0.9095452256595007,True,-1.1013576647983947,1.3998324797990152,True,expanding_residual_calibrated_gaussian
ar,pseudo,pre_advance,DELTA_SA,2017:Q1:pre_advance:pseudo,2017-04-30,2017:Q1,0.0659129056715515,0.4599999999999998,-0.3940870943284483,48,0.5660158927960915,0.7523402772656077,-0.7715630298030036,0.2563386952535299,-0.6864273715940562,0.8182531829371592,True,-1.1715767280904597,1.3034025394335627,True,expanding_residual_calibrated_gaussian
ar,pseudo,pre_advance,DELTA_SA,2017:Q2:pre_advance:pseudo,2017-07-31,2017:Q2,0.3338386109932738,0.4662000000000001,-0.1323613890067263,49,0.5584239974626165,0.747277724452306,-0.6433067473119927,0.18396366867472547,-0.4134391134590322,1.0811163354455797,True,-0.8953238644121446,1.5630010863986923,True,expanding_residual_calibrated_gaussian
ar,pseudo,pre_advance,DELTA_SA,2017:Q3:pre_advance:pseudo,2017-10-31,2017:Q3,0.259901632394651,0.3077000000000001,-0.047798367605349,50,0.5476949804923225,0.7400641732257565,-0.62000588380572,0.1741804440563133,-0.48016254083110543,0.9999658056204075,True,-0.9573956071125771,1.4771988719018792,True,expanding_residual_calibrated_gaussian
ar,pseudo,pre_advance,DELTA_SA,2017:Q4:pre_advance:pseudo,2018-01-31,2017:Q4,0.1708964419460579,-0.0190000000000001,0.189896441946058,51,0.5369160240366202,0.7327455383942096,-0.641563028654198,0.1907629760218069,-0.5618490964481517,0.9036419803402675,True,-1.034362714514167,1.3761555984062828,True,expanding_residual_calibrated_gaussian
ar,pseudo,pre_advance,DELTA_SA,2018:Q1:pre_advance:pseudo,2018-04-30,2018:Q1,0.0389715350373021,-0.1434999999999999,0.182471535037302,52,0.5267930880403595,0.7258051308997199,-0.6300672271324429,0.18782245572880818,-0.6868335958624178,0.764776665937022,True,-1.15487166698309,1.2328147370576943,True,expanding_residual_calibrated_gaussian
ar,pseudo,pre_advance,DELTA_SA,2018:Q2:pre_advance:pseudo,2018-07-31,2018:Q2,-0.0088385496543845,0.1665000000000001,-0.1753385496543846,53,0.5170056828139263,0.7190310722172766,-0.6188201954267755,0.18500749559632343,-0.727869621871661,0.7101925225628921,True,-1.1915394166817779,1.1738623173730087,True,expanding_residual_calibrated_gaussian
ar,pseudo,pre_advance,DELTA_SA,2018:Q3:pre_advance:pseudo,2018-10-31,2018:Q3,0.0614125513665548,0.0043999999999999,0.0570125513665549,54,0.5081923625633052,0.7128761200680699,-0.5836889470322514,0.1684136175513826,-0.6514635687015151,0.7742886714346247,True,-1.111164320294503,1.2339894230276127,True,expanding_residual_calibrated_gaussian
ar,pseudo,pre_advance,DELTA_SA,2019:Q1:pre_advance:pseudo,2019-04-30,2019:Q1,0.4648889202031996,-0.1047000000000002,0.5695889202031998,55,0.49878361160320517,0.7062461409474782,-0.8963698048573119,0.338986945399842,-0.24135722074427857,1.171135061150678,True,-0.6967826062547404,1.6265604466611396,True,expanding_residual_calibrated_gaussian
ar,pseudo,pre_advance,DELTA_SA,2019:Q2:pre_advance:pseudo,2019-07-31,2019:Q2,-0.026254198058714,-0.0171000000000001,-0.0091541980587139,56,0.49460715461731874,0.7032831255030357,-0.5670275169664123,0.1644012691111298,-0.7295373235617497,0.6770289274443217,True,-1.1830519978161498,1.1305436016987216,True,expanding_residual_calibrated_gaussian
ar,pseudo,pre_advance,DELTA_SA,2019:Q3:pre_advance:pseudo,2019-10-31,2019:Q3,0.0592963312990124,0.205,-0.1457036687009876,57,0.4858482509348452,0.6970281564864114,-0.5798569928225081,0.17499861097318486,-0.637731825187399,0.7563244877854237,True,-1.0872129599849596,1.2058056225829845,True,expanding_residual_calibrated_gaussian
ar,pseudo,pre_advance,DELTA_SA,2019:Q4:pre_advance:pseudo,2020-01-31,2019:Q4,0.1665444581766966,0.0148000000000001,0.1517444581766964,58,0.47801482290201397,0.6913861604790871,-0.573967190113861,0.17480702992157698,-0.5248417023023905,0.8579306186557837,True,-0.9706845755113824,1.3037734918647756,True,expanding_residual_calibrated_gaussian
ar,pseudo,pre_advance,DELTA_SA,2020:Q1:pre_advance:pseudo,2020-04-30,2020:Q1,0.0727039693006021,-0.2644999999999999,0.3372039693006021,59,0.4699454540287458,0.6855256771476513,-0.6623476299446294,0.2250728918055988,-0.6128217078470493,0.7582296464482534,True,-1.054885427124076,1.2002933657252803,True,expanding_residual_calibrated_gaussian
ar,pseudo,pre_advance,DELTA_SA,2020:Q2:pre_advance:pseudo,2020-07-31,2020:Q2,0.2227703703745247,1.1996999999999964,-0.9769296296254716,60,0.4633299063050595,0.6806834112163007,-1.564207068240888,0.6390663462374115,-0.457913040841776,0.9034537815908255,False,-0.8968542073703079,1.3423949481193573,True,expanding_residual_calibrated_gaussian
ar,pseudo,pre_advance,DELTA_SA,2020:Q3:pre_advance:pseudo,2020-10-31,2020:Q3,2.555388340709694,-0.0142999999999986,2.5696883407096927,61,0.4731454145990595,0.6878556640742733,-7.522847625660335,2.1816380500082992,1.8675326766354208,3.2432440047839672,False,1.423966456838012,3.686810224581376,False,expanding_residual_calibrated_gaussian
ar,pseudo,pre_advance,DELTA_SA,2020:Q4:pre_advance:pseudo,2021-01-31,2020:Q4,0.6762934737196877,0.0797999999999996,0.5964934737196881,62,0.5685691512043828,0.7540352453329903,-0.9495169919172453,0.3552266664301345,-0.07774177161330253,1.430328719052678,True,-0.5639841344155245,1.9165710818549,True,expanding_residual_calibrated_gaussian
ar,pseudo,pre_advance,DELTA_SA,2021:Q1:pre_advance:pseudo,2021-04-30,2021:Q1,0.1141893782717202,0.0112000000000005,0.1029893782717197,63,0.5636130826110703,0.7507416883396515,-0.6416545472906743,0.1810721726427309,-0.6365523100679313,0.8649310666113716,True,-1.1206708106974272,1.3490495672408678,True,expanding_residual_calibrated_gaussian
ar,pseudo,pre_advance,DELTA_SA,2021:Q2:pre_advance:pseudo,2021-07-31,2021:Q2,0.1447917586216602,0.0527999999999995,0.0919917586216607,64,0.5546697293624968,0.7447615251625831,-0.6318757195786155,0.178574324882565,-0.5999697665409229,0.8895532837842433,True,-1.0802319372559246,1.3698154544992451,True,expanding_residual_calibrated_gaussian
ar,pseudo,pre_advance,DELTA_SA,2021:Q3:pre_advance:pseudo,2021-10-31,2021:Q3,0.1470672919152162,0.0880999999999998,0.0589672919152164,65,0.5460031020574964,0.7389202271270535,-0.6195573997266206,0.17455825520115806,-0.5918529352118373,0.8859875190422697,True,-1.0683483237025233,1.3624829075329559,True,expanding_residual_calibrated_gaussian
ar,pseudo,pre_advance,DELTA_SA,2021:Q4:pre_advance:pseudo,2022-01-31,2021:Q4,0.0843496025345156,0.0993000000000003,-0.0149503974654847,66,0.5376173159953284,0.7332239194102497,-0.608842267951364,0.17147235565309304,-0.648874316875734,0.8175735219447653,True,-1.1216964206750075,1.2903956257440388,True,expanding_residual_calibrated_gaussian
ar,pseudo,pre_advance,DELTA_SA,2022:Q1:pre_advance:pseudo,2022-04-30,2022:Q1,0.1550189766333507,-0.0959000000000001,0.2509189766333508,67,0.5296334449502283,0.7277591943426261,-0.6605911189768326,0.20424931942728886,-0.5727402177092754,0.8827781709759769,True,-1.0420383737283991,1.3520763269951006,True,expanding_residual_calibrated_gaussian
ar,pseudo,pre_advance,DELTA_SA,2022:Q2:pre_advance:pseudo,2022-07-31,2022:Q2,0.0252303062888912,0.3589,-0.3336696937111088,68,0.5221205833509792,0.7225791190942201,-0.7006287116837964,0.22926296027888418,-0.6973488128053289,0.7478094253831113,True,-1.1633065785126364,1.2137671910904189,True,expanding_residual_calibrated_gaussian
ar,pseudo,pre_advance,DELTA_SA,2022:Q3:pre_advance:pseudo,2022-10-31,2022:Q3,0.0582376027017708,0.3631999999999999,-0.3049623972982291,69,0.5170440952862215,0.7190577829953734,-0.6790612725907783,0.21887916290806014,-0.6608201802936026,0.7772953856971442,True,-1.1245071996458538,1.2409824050493954,True,expanding_residual_calibrated_gaussian
ar,pseudo,pre_advance,DELTA_SA,2022:Q4:pre_advance:pseudo,2023-01-31,2022:Q4,0.1085327350948528,-0.2158000000000002,0.324332735094853,70,0.5117107809798078,0.7153396263173234,-0.686725038944003,0.22485162629936795,-0.6068068912224706,0.8238723614121762,True,-1.0680962437553074,1.285161713945013,True,expanding_residual_calibrated_gaussian
ar,pseudo,pre_advance,DELTA_SA,2023:Q1:pre_advance:pseudo,2023-04-30,2023:Q1,0.0808547693367951,0.2098999999999999,-0.1290452306632048,71,0.5052529556877762,0.7108114768964948,-0.5940700358033237,0.1754337822678137,-0.6299567075596997,0.79166624623329,True,-1.0883260665151369,1.2500356051887271,True,expanding_residual_calibrated_gaussian
ar,pseudo,pre_advance,DELTA_SA,2023:Q2:pre_advance:pseudo,2023-07-31,2023:Q2,0.0786861488683192,-0.3529,0.4315861488683192,72,0.49875415056219585,0.7062252831513439,-0.7578494222821266,0.2671058040228351,-0.6275391342830248,0.7849114320196631,True,-1.0829510695679991,1.2403233673046377,True,expanding_residual_calibrated_gaussian
ar,pseudo,pre_advance,DELTA_SA,2023:Q3:pre_advance:pseudo,2023-10-31,2023:Q3,0.0656009239904817,0.2763,-0.2106990760095182,73,0.4935312336732911,0.702517781748826,-0.6108299460340085,0.18919788661757594,-0.6369168577583443,0.7681187057393076,True,-1.0899379973169774,1.221139845297941,True,expanding_residual_calibrated_gaussian
ar,pseudo,pre_advance,DELTA_SA,2023:Q4:pre_advance:pseudo,2024-01-31,2023:Q4,0.1337989225363234,-0.0709999999999997,0.2047989225363231,74,0.4879417764281283,0.6985282932194861,-0.6031380396936661,0.18702661406173296,-0.5647293706831626,0.8323272157558095,True,-1.0151778740939696,1.2827757191666165,True,expanding_residual_calibrated_gaussian
ar,pseudo,pre_advance,DELTA_SA,2024:Q1:pre_advance:pseudo,2024-04-30,2024:Q1,0.092510887819583,-0.3404999999999998,0.4330108878195828,75,0.4815565525077868,0.6939427588121276,-0.7482522844348619,0.26659644124024073,-0.6014318709925446,0.7864536466317107,True,-1.0489233759092558,1.2339451515484219,True,expanding_residual_calibrated_gaussian
ar,pseudo,pre_advance,DELTA_SA,2024:Q2:pre_advance:pseudo,2024-07-31,2024:Q2,0.0533853342525936,0.1112999999999999,-0.0579146657474063,76,0.4767625909354181,0.6904799714223564,-0.5520878085058887,0.1632984869684089,-0.6370946371697628,0.74386530567495,True,-1.0823531510788182,1.1891238195840055,True,expanding_residual_calibrated_gaussian
ar,pseudo,pre_advance,DELTA_SA,2024:Q3:pre_advance:pseudo,2024-10-31,2024:Q3,0.0945532127990609,0.0087999999999999,0.085753212799061,77,0.47075844595313016,0.6861183906244827,-0.5500438374932397,0.16461260959286741,-0.5915651778254217,0.7806716034235436,True,-1.0340111105377263,1.2231175361358482,True,expanding_residual_calibrated_gaussian
ar,pseudo,pre_advance,DELTA_SA,2024:Q4:pre_advance:pseudo,2025-01-31,2024:Q4,0.0885662047910598,0.0939000000000001,-0.0053337952089402,78,0.46464473290488045,0.6816485406020323,-0.5357280569854314,0.1593144904134395,-0.5930823358109725,0.7702147453930921,True,-1.0326458695243708,1.2097782791064904,True,expanding_residual_calibrated_gaussian
ar,pseudo,pre_second,DELTA_TS,2008:Q1:pre_second:pseudo,2008-05-31,2008:Q1,0.0600251098958206,0.0587,0.0013251098958205,12,0.05163235358648373,0.22722753703388093,0.5628478605106191,0.053105016943716485,-0.16720242713806033,0.28725264692970154,True,-0.3137309285376084,0.43378114832924963,True,expanding_residual_calibrated_gaussian
ar,pseudo,pre_second,DELTA_TS,2008:Q2:pre_second:pseudo,2008-08-31,2008:Q2,0.100772173228941,-0.4531,0.5538721732289411,13,0.04746467013458396,0.21786387983000755,-2.626661389178188,0.4317210799179194,-0.11709170660106655,0.31863605305894854,False,-0.2575820196911666,0.4591263661490486,False,expanding_residual_calibrated_gaussian
ar,pseudo,pre_second,DELTA_TS,2008:Q3:pre_second:pseudo,2008-11-30,2008:Q3,-0.1583427007994933,0.0033999999999999,-0.1617427007994932,14,0.0626755102994184,0.2503507745133184,0.25725416590968936,0.09880196316323268,-0.4086934753128117,0.09200807371382508,True,-0.5701330802678353,0.2534476786688486,True,expanding_residual_calibrated_gaussian
ar,pseudo,pre_second,DELTA_TS,2008:Q4:pre_second:pseudo,2009-02-28,2008:Q4,0.0931111879520567,-0.0942999999999996,0.1874111879520563,15,0.06198909538547986,0.24897609400398235,0.1881604110330149,0.11194906717547887,-0.15586490605192566,0.34208728195603905,True,-0.3164180432946044,0.5026404191987177,True,expanding_residual_calibrated_gaussian
ar,pseudo,pre_second,DELTA_TS,2009:Q1:pre_second:pseudo,2009-05-31,2009:Q1,0.1325678027393972,0.2259999999999999,-0.0934321972606027,16,0.05885829135750111,0.24260727803901744,0.4232151815776731,0.07087615222568355,-0.11003947529962024,0.37517508077841466,True,-0.26648565846790484,0.5316212639466993,True,expanding_residual_calibrated_gaussian
ar,pseudo,pre_second,DELTA_TS,2009:Q2:pre_second:pseudo,2009-08-31,2009:Q2,0.2749823419517103,0.2766999999999999,-0.0017176580482896,17,0.05672629505267802,0.2381728260164833,0.5157941707708975,0.05566473500679489,0.036809515935226994,0.5131551679681936,True,-0.1167770947627842,0.6667417786662048,True,expanding_residual_calibrated_gaussian
ar,pseudo,pre_second,DELTA_TS,2009:Q3:pre_second:pseudo,2009-11-30,2009:Q3,0.2248763601779096,-0.5463999999999998,0.7712763601779095,18,0.05359548775522431,0.2315069928862286,-5.005395070078936,0.640714775976085,-0.006630632708319012,0.45638335306413824,False,-0.15591875673563219,0.6056714770914514,False,expanding_residual_calibrated_gaussian
ar,pseudo,pre_second,DELTA_TS,2009:Q4:pre_second:pseudo,2010-02-28,2009:Q4,-0.2121082936084128,-0.3730000000000002,0.1608917063915873,19,0.07756059854534765,0.2784970350746084,0.1925324538513868,0.10116689856159168,-0.4906053286830212,0.06638874146619558,True,-0.6701951518461138,0.24597856462928816,True,expanding_residual_calibrated_gaussian
ar,pseudo,pre_second,DELTA_TS,2010:Q1:pre_second:pseudo,2010-05-31,2010:Q1,-0.1805736028353486,-0.2984,0.1178263971646513,20,0.07370585262747227,0.27148821821116337,0.29071918649301176,0.08353180887789231,-0.45206182104651194,0.09091461537581477,True,-0.6271319832345734,0.2659847775638762,True,expanding_residual_calibrated_gaussian
ar,pseudo,pre_second,DELTA_TS,2010:Q2:pre_second:pseudo,2010-08-31,2010:Q2,-0.1040265308932921,0.1048,-0.2088265308932921,21,0.0700415606353572,0.26465366167003473,0.09909011187963435,0.12437470579677638,-0.36868019256332685,0.16062713077674262,True,-0.5393430661772365,0.3312900043906523,True,expanding_residual_calibrated_gaussian
ar,pseudo,pre_second,DELTA_TS,2010:Q3:pre_second:pseudo,2010-11-30,2010:Q3,0.0998453241604311,0.0339999999999998,0.0658453241604313,22,0.07098060420561815,0.2664218538438958,0.3731949917430748,0.06872077705514933,-0.16657652968346467,0.36626717800432684,True,-0.33837962843383584,0.5380702767546981,True,expanding_residual_calibrated_gaussian
ar,pseudo,pre_second,DELTA_TS,2010:Q4:pre_second:pseudo,2011-02-28,2010:Q4,0.0543732040476938,0.3264,-0.2720267959523061,23,0.06776836589807013,0.26032357922030447,-0.11907560904074532,0.1649447553761277,-0.20595037517261067,0.31469678326799827,False,-0.3738209794138129,0.48256738750920053,True,expanding_residual_calibrated_gaussian
ar,pseudo,pre_second,DELTA_TS,2011:Q1:pre_second:pseudo,2011-05-31,2011:Q1,0.1840968521247026,0.0726999999999999,0.1113968521247026,24,0.0700767944659788,0.264720219223955,0.3216028266462603,0.08029379847534159,-0.08062336709925241,0.44881707134865756,True,-0.25132916059320864,0.6195228648426138,True,expanding_residual_calibrated_gaussian
ar,pseudo,pre_second,DELTA_TS,2011:Q2:pre_second:pseudo,2011-08-31,2011:Q2,0.0826892785471069,0.3447000000000001,-0.2620107214528931,25,0.06723120147378164,0.25928980210139707,-0.07967841508900364,0.15807132817787437,-0.17660052355429018,0.34197908064850396,False,-0.34380449287090553,0.5091830499651193,True,expanding_residual_calibrated_gaussian
ar,pseudo,pre_second,DELTA_TS,2011:Q3:pre_second:pseudo,2011-11-30,2011:Q3,0.2196184979915967,-0.1896000000000002,0.4092184979915969,26,0.0687823645686042,0.26226392159159867,-0.7978508272343043,0.27462997961339586,-0.04264542360000198,0.48188241958319533,False,-0.21176726465686088,0.6510042606400542,True,expanding_residual_calibrated_gaussian
ar,pseudo,pre_second,DELTA_TS,2011:Q4:pre_second:pseudo,2012-02-29,2011:Q4,-0.0390680507254161,-0.0276,-0.0114680507254161,27,0.07072487799945637,0.26594149356476204,0.404610637026921,0.062346449860018395,-0.3050095442901781,0.22687344283934593,True,-0.47650288097230653,0.39836677952147437,True,expanding_residual_calibrated_gaussian
ar,pseudo,pre_second,DELTA_TS,2012:Q1:pre_second:pseudo,2012-05-31,2012:Q1,0.0201593821295551,0.0121,0.0080593821295551,28,0.06834419067188502,0.26142721868980096,0.42218562838517315,0.061193340410660345,-0.24126783656024586,0.28158660081935605,True,-0.4098501267161997,0.4501688909753099,True,expanding_residual_calibrated_gaussian
ar,pseudo,pre_second,DELTA_TS,2012:Q2:pre_second:pseudo,2012-08-31,2012:Q2,0.0542284222174149,-0.4791000000000001,0.533328422217415,29,0.0660246454454121,0.2569526132293892,-1.7141130551230463,0.39191347773713875,-0.20272419101197434,0.31118103544680414,False,-0.36842101560760476,0.4768778600424346,False,expanding_residual_calibrated_gaussian
ar,pseudo,pre_second,DELTA_TS,2012:Q3:pre_second:pseudo,2012-11-30,2012:Q3,-0.1690199464195982,0.4342999999999999,-0.6033199464195982,30,0.07104872098788102,0.2665496595155976,-2.158330803572821,0.4551067689720561,-0.4355696059351958,0.09752971309599942,False,-0.607455120636509,0.26941522779731253,False,expanding_residual_calibrated_gaussian
ar,pseudo,pre_second,DELTA_TS,2012:Q4:pre_second:pseudo,2013-02-28,2012:Q4,0.2334352574488747,0.2525,-0.0190647425511252,31,0.08378353873722587,0.2894538628818518,0.31865176161176306,0.06814468083535447,-0.056018605432977125,0.5228891203307265,True,-0.24267397874745336,0.7095444936452028,True,expanding_residual_calibrated_gaussian
ar,pseudo,pre_second,DELTA_TS,2013:Q1:pre_second:pseudo,2013-05-31,2013:Q1,0.1899848579887264,-0.6094000000000002,0.7993848579887266,32,0.0812705840721508,0.2850799608393245,-3.595364050458443,0.6389737591489406,-0.0950951028505981,0.47506481882805096,False,-0.2789299495690202,0.6588996655464731,False,expanding_residual_calibrated_gaussian
ar,pseudo,pre_second,DELTA_TS,2013:Q2:pre_second:pseudo,2013-08-31,2013:Q2,-0.2371281731179624,-0.0339999999999998,-0.2031281731179626,33,0.09545799770109731,0.30896277720964593,0.03947442035874607,0.12364138035506043,-0.5460909503276083,0.07183460409168355,True,-0.7453267178042482,0.27107037156832336,True,expanding_residual_calibrated_gaussian
ar,pseudo,pre_second,DELTA_TS,2013:Q3:pre_second:pseudo,2013-11-30,2013:Q3,0.0214258366188206,0.5327999999999999,-0.5113741633811792,34,0.09490532510322071,0.3080670789020156,-1.119208189406339,0.3499810768410606,-0.28664124228319504,0.3294929155208362,False,-0.4852994154575052,0.5281510886951464,False,expanding_residual_calibrated_gaussian
ar,pseudo,pre_second,DELTA_TS,2013:Q4:pre_second:pseudo,2014-02-28,2013:Q4,0.2638284005265996,0.2418,0.0220284005265996,35,0.10179226846287516,0.31904900636559763,0.2210884969798185,0.0751666716739282,-0.055220605838998016,0.5828774068921972,True,-0.26096051476911697,0.7886173158223162,True,expanding_residual_calibrated_gaussian
ar,pseudo,pre_second,DELTA_TS,2014:Q1:pre_second:pseudo,2014-05-31,2014:Q1,0.1500423574002036,-1.9455,2.0955423574002037,36,0.09891233029446758,0.3145033072870102,-21.960106853684337,1.9181028674387677,-0.1644609498868066,0.4645456646872138,False,-0.3672695482790685,0.6673542630794758,False,expanding_residual_calibrated_gaussian
ar,pseudo,pre_second,DELTA_TS,2014:Q2:pre_second:pseudo,2014-08-31,2014:Q2,-0.7957150664800472,0.4200999999999997,-1.215815066480047,37,0.20890749744655665,0.4570639971016714,-3.673951203083005,0.9590478704207419,-1.2527790635817186,-0.3386510693783758,False,-1.5475184398616686,-0.0439116930984258,False,expanding_residual_calibrated_gaussian
ar,pseudo,pre_second,DELTA_TS,2014:Q3:pre_second:pseudo,2014-11-30,2014:Q3,0.18616178702778,1.0710000000000002,-0.8848382129722201,38,0.24940188373217378,0.4994015255605191,-1.7942263043341802,0.6183835907356846,-0.3132397385327391,0.6855633125882991,False,-0.6352806235955382,1.007604197651098,False,expanding_residual_calibrated_gaussian
ar,pseudo,pre_second,DELTA_TS,2014:Q4:pre_second:pseudo,2015-02-28,2014:Q4,0.4841223334290574,0.0249999999999999,0.4591223334290575,39,0.26638656437892777,0.5161265003649084,-0.6531882023533115,0.2735992402740629,-0.03200416693585095,1.000248833793966,True,-0.3648302126619325,1.3330748795200473,True,expanding_residual_calibrated_gaussian
