haminh109/Revision-Aware-DFM/outputs/full_state_space_release_revision_dfm/frozen/q1_validation_smoke/runs/exact_pseudo_backtest_max_iter1/evidence_dir/cumulative_loss_point.csv
timing_mode,checkpoint_id,outcome_id,baseline_model,model_id,target_quarter,loss_diff_baseline_minus_model,cumulative_loss_diff
exact,pre_advance,A,ar,bridge,2024:Q4,-0.00044289376299851135,-0.00044289376299851135
exact,pre_advance,A,ar,indicator_revision_only_dfm_kalman_em,2024:Q4,-0.05638288527103613,-0.05638288527103613
exact,pre_advance,A,ar,joint_indicator_revision_dfm_full_kalman_em,2024:Q4,-0.001051890920782353,-0.001051890920782353
exact,pre_advance,A,ar,midas_umidas,2024:Q4,0.053104823491227374,0.053104823491227374
exact,pre_advance,A,ar,monthly_mixed_frequency_kalman_em,2024:Q4,-0.184541966220509,-0.184541966220509
exact,pre_advance,A,ar,no_revision,2024:Q4,0.026146771737672124,0.026146771737672124
exact,pre_advance,A,ar,release_dfm,2024:Q4,0.033129491051418665,0.033129491051418665
exact,pre_advance,A,ar,revision_dfm_kalman_em,2024:Q4,-0.0598715753394079,-0.0598715753394079
exact,pre_advance,A,ar,spf,2024:Q4,-0.05692555044772479,-0.05692555044772479
exact,pre_advance,A,ar,standard_dfm,2024:Q4,0.033129491051418665,0.033129491051418665
exact,pre_advance,A,no_revision,ar,2024:Q4,-0.026146771737672124,-0.026146771737672124
exact,pre_advance,A,no_revision,bridge,2024:Q4,-0.026589665500670635,-0.026589665500670635
exact,pre_advance,A,no_revision,indicator_revision_only_dfm_kalman_em,2024:Q4,-0.08252965700870826,-0.08252965700870826
exact,pre_advance,A,no_revision,joint_indicator_revision_dfm_full_kalman_em,2024:Q4,-0.027198662658454477,-0.027198662658454477
exact,pre_advance,A,no_revision,midas_umidas,2024:Q4,0.02695805175355525,0.02695805175355525
exact,pre_advance,A,no_revision,monthly_mixed_frequency_kalman_em,2024:Q4,-0.21068873795818113,-0.21068873795818113
exact,pre_advance,A,no_revision,release_dfm,2024:Q4,0.006982719313746541,0.006982719313746541
exact,pre_advance,A,no_revision,revision_dfm_kalman_em,2024:Q4,-0.08601834707708003,-0.08601834707708003
exact,pre_advance,A,no_revision,spf,2024:Q4,-0.08307232218539692,-0.08307232218539692
exact,pre_advance,A,no_revision,standard_dfm,2024:Q4,0.006982719313746541,0.006982719313746541
exact,pre_advance,A,bridge,ar,2024:Q4,0.00044289376299851135,0.00044289376299851135
exact,pre_advance,A,bridge,indicator_revision_only_dfm_kalman_em,2024:Q4,-0.05593999150803762,-0.05593999150803762
exact,pre_advance,A,bridge,joint_indicator_revision_dfm_full_kalman_em,2024:Q4,-0.0006089971577838416,-0.0006089971577838416
exact,pre_advance,A,bridge,midas_umidas,2024:Q4,0.053547717254225885,0.053547717254225885
exact,pre_advance,A,bridge,monthly_mixed_frequency_kalman_em,2024:Q4,-0.1840990724575105,-0.1840990724575105
exact,pre_advance,A,bridge,no_revision,2024:Q4,0.026589665500670635,0.026589665500670635
exact,pre_advance,A,bridge,release_dfm,2024:Q4,0.033572384814417176,0.033572384814417176
exact,pre_advance,A,bridge,revision_dfm_kalman_em,2024:Q4,-0.05942868157640939,-0.05942868157640939
exact,pre_advance,A,bridge,spf,2024:Q4,-0.05648265668472628,-0.05648265668472628
exact,pre_advance,A,bridge,standard_dfm,2024:Q4,0.033572384814417176,0.033572384814417176
exact,pre_advance,A,midas_umidas,ar,2024:Q4,-0.053104823491227374,-0.053104823491227374
exact,pre_advance,A,midas_umidas,bridge,2024:Q4,-0.053547717254225885,-0.053547717254225885
exact,pre_advance,A,midas_umidas,indicator_revision_only_dfm_kalman_em,2024:Q4,-0.1094877087622635,-0.1094877087622635
exact,pre_advance,A,midas_umidas,joint_indicator_revision_dfm_full_kalman_em,2024:Q4,-0.05415671441200973,-0.05415671441200973
exact,pre_advance,A,midas_umidas,monthly_mixed_frequency_kalman_em,2024:Q4,-0.23764678971173636,-0.23764678971173636
exact,pre_advance,A,midas_umidas,no_revision,2024:Q4,-0.02695805175355525,-0.02695805175355525
exact,pre_advance,A,midas_umidas,release_dfm,2024:Q4,-0.01997533243980871,-0.01997533243980871
exact,pre_advance,A,midas_umidas,revision_dfm_kalman_em,2024:Q4,-0.11297639883063527,-0.11297639883063527
exact,pre_advance,A,midas_umidas,spf,2024:Q4,-0.11003037393895217,-0.11003037393895217
exact,pre_advance,A,midas_umidas,standard_dfm,2024:Q4,-0.01997533243980871,-0.01997533243980871
exact,pre_advance,A,spf,ar,2024:Q4,0.05692555044772479,0.05692555044772479
exact,pre_advance,A,spf,bridge,2024:Q4,0.05648265668472628,0.05648265668472628
exact,pre_advance,A,spf,indicator_revision_only_dfm_kalman_em,2024:Q4,0.0005426651766886614,0.0005426651766886614
exact,pre_advance,A,spf,joint_indicator_revision_dfm_full_kalman_em,2024:Q4,0.05587365952694244,0.05587365952694244
exact,pre_advance,A,spf,midas_umidas,2024:Q4,0.11003037393895217,0.11003037393895217
exact,pre_advance,A,spf,monthly_mixed_frequency_kalman_em,2024:Q4,-0.1276164157727842,-0.1276164157727842
exact,pre_advance,A,spf,no_revision,2024:Q4,0.08307232218539692,0.08307232218539692
exact,pre_advance,A,spf,release_dfm,2024:Q4,0.09005504149914345,0.09005504149914345
exact,pre_advance,A,spf,revision_dfm_kalman_em,2024:Q4,-0.0029460248916831078,-0.0029460248916831078
exact,pre_advance,A,spf,standard_dfm,2024:Q4,0.09005504149914345,0.09005504149914345
exact,pre_advance,A,standard_dfm,ar,2024:Q4,-0.033129491051418665,-0.033129491051418665
exact,pre_advance,A,standard_dfm,bridge,2024:Q4,-0.033572384814417176,-0.033572384814417176
exact,pre_advance,A,standard_dfm,indicator_revision_only_dfm_kalman_em,2024:Q4,-0.08951237632245479,-0.08951237632245479
exact,pre_advance,A,standard_dfm,joint_indicator_revision_dfm_full_kalman_em,2024:Q4,-0.03418138197220102,-0.03418138197220102
exact,pre_advance,A,standard_dfm,midas_umidas,2024:Q4,0.01997533243980871,0.01997533243980871
exact,pre_advance,A,standard_dfm,monthly_mixed_frequency_kalman_em,2024:Q4,-0.21767145727192766,-0.21767145727192766
exact,pre_advance,A,standard_dfm,no_revision,2024:Q4,-0.006982719313746541,-0.006982719313746541
exact,pre_advance,A,standard_dfm,release_dfm,2024:Q4,0.0,0.0
exact,pre_advance,A,standard_dfm,revision_dfm_kalman_em,2024:Q4,-0.09300106639082656,-0.09300106639082656
exact,pre_advance,A,standard_dfm,spf,2024:Q4,-0.09005504149914345,-0.09005504149914345
exact,pre_advance,A,release_dfm,ar,2024:Q4,-0.033129491051418665,-0.033129491051418665
exact,pre_advance,A,release_dfm,bridge,2024:Q4,-0.033572384814417176,-0.033572384814417176
exact,pre_advance,A,release_dfm,indicator_revision_only_dfm_kalman_em,2024:Q4,-0.08951237632245479,-0.08951237632245479
exact,pre_advance,A,release_dfm,joint_indicator_revision_dfm_full_kalman_em,2024:Q4,-0.03418138197220102,-0.03418138197220102
exact,pre_advance,A,release_dfm,midas_umidas,2024:Q4,0.01997533243980871,0.01997533243980871
exact,pre_advance,A,release_dfm,monthly_mixed_frequency_kalman_em,2024:Q4,-0.21767145727192766,-0.21767145727192766
exact,pre_advance,A,release_dfm,no_revision,2024:Q4,-0.006982719313746541,-0.006982719313746541
exact,pre_advance,A,release_dfm,revision_dfm_kalman_em,2024:Q4,-0.09300106639082656,-0.09300106639082656
exact,pre_advance,A,release_dfm,spf,2024:Q4,-0.09005504149914345,-0.09005504149914345
exact,pre_advance,A,release_dfm,standard_dfm,2024:Q4,0.0,0.0
exact,pre_second,S,ar,bridge,2024:Q4,0.055594885804859225,0.055594885804859225
exact,pre_second,S,ar,indicator_revision_only_dfm_kalman_em,2024:Q4,0.04665449900246117,0.04665449900246117
exact,pre_second,S,ar,joint_indicator_revision_dfm_full_kalman_em,2024:Q4,0.0325481033518253,0.0325481033518253
exact,pre_second,S,ar,midas_umidas,2024:Q4,-3.1537763472888245,-3.1537763472888245
exact,pre_second,S,ar,monthly_mixed_frequency_kalman_em,2024:Q4,0.06065999860207748,0.06065999860207748
exact,pre_second,S,ar,no_revision,2024:Q4,0.051938970479201964,0.051938970479201964
exact,pre_second,S,ar,release_dfm,2024:Q4,0.06051785573169182,0.06051785573169182
exact,pre_second,S,ar,revision_dfm_kalman_em,2024:Q4,0.03230244831386933,0.03230244831386933
exact,pre_second,S,ar,spf,2024:Q4,-0.13354845952079786,-0.13354845952079786
exact,pre_second,S,ar,standard_dfm,2024:Q4,0.05965908929948833,0.05965908929948833
exact,pre_second,S,no_revision,ar,2024:Q4,-0.051938970479201964,-0.051938970479201964
exact,pre_second,S,no_revision,bridge,2024:Q4,0.0036559153256572573,0.0036559153256572573
exact,pre_second,S,no_revision,indicator_revision_only_dfm_kalman_em,2024:Q4,-0.005284471476740792,-0.005284471476740792
exact,pre_second,S,no_revision,joint_indicator_revision_dfm_full_kalman_em,2024:Q4,-0.01939086712737667,-0.01939086712737667
exact,pre_second,S,no_revision,midas_umidas,2024:Q4,-3.205715317768026,-3.205715317768026
exact,pre_second,S,no_revision,monthly_mixed_frequency_kalman_em,2024:Q4,0.008721028122875512,0.008721028122875512
exact,pre_second,S,no_revision,release_dfm,2024:Q4,0.008578885252489853,0.008578885252489853
exact,pre_second,S,no_revision,revision_dfm_kalman_em,2024:Q4,-0.019636522165332633,-0.019636522165332633
exact,pre_second,S,no_revision,spf,2024:Q4,-0.18548742999999981,-0.18548742999999981
exact,pre_second,S,no_revision,standard_dfm,2024:Q4,0.007720118820286364,0.007720118820286364
exact,pre_second,S,bridge,ar,2024:Q4,-0.055594885804859225,-0.055594885804859225
exact,pre_second,S,bridge,indicator_revision_only_dfm_kalman_em,2024:Q4,-0.008940386802398049,-0.008940386802398049
exact,pre_second,S,bridge,joint_indicator_revision_dfm_full_kalman_em,2024:Q4,-0.023046782453033925,-0.023046782453033925
exact,pre_second,S,bridge,midas_umidas,2024:Q4,-3.2093712330936834,-3.2093712330936834
exact,pre_second,S,bridge,monthly_mixed_frequency_kalman_em,2024:Q4,0.005065112797218255,0.005065112797218255
exact,pre_second,S,bridge,no_revision,2024:Q4,-0.0036559153256572573,-0.0036559153256572573
exact,pre_second,S,bridge,release_dfm,2024:Q4,0.004922969926832596,0.004922969926832596
exact,pre_second,S,bridge,revision_dfm_kalman_em,2024:Q4,-0.023292437490989887,-0.023292437490989887
exact,pre_second,S,bridge,spf,2024:Q4,-0.18914334532565708,-0.18914334532565708
exact,pre_second,S,bridge,standard_dfm,2024:Q4,0.0040642034946291065,0.0040642034946291065
exact,pre_second,S,midas_umidas,ar,2024:Q4,3.1537763472888245,3.1537763472888245
exact,pre_second,S,midas_umidas,bridge,2024:Q4,3.2093712330936834,3.2093712330936834
exact,pre_second,S,midas_umidas,indicator_revision_only_dfm_kalman_em,2024:Q4,3.2004308462912854,3.2004308462912854
exact,pre_second,S,midas_umidas,joint_indicator_revision_dfm_full_kalman_em,2024:Q4,3.1863244506406496,3.1863244506406496
exact,pre_second,S,midas_umidas,monthly_mixed_frequency_kalman_em,2024:Q4,3.2144363458909018,3.2144363458909018
exact,pre_second,S,midas_umidas,no_revision,2024:Q4,3.205715317768026,3.205715317768026
exact,pre_second,S,midas_umidas,release_dfm,2024:Q4,3.214294203020516,3.214294203020516
exact,pre_second,S,midas_umidas,revision_dfm_kalman_em,2024:Q4,3.1860787956026937,3.1860787956026937
exact,pre_second,S,midas_umidas,spf,2024:Q4,3.0202278877680264,3.0202278877680264
exact,pre_second,S,midas_umidas,standard_dfm,2024:Q4,3.2134354365883127,3.2134354365883127
exact,pre_second,S,spf,ar,2024:Q4,0.13354845952079786,0.13354845952079786
exact,pre_second,S,spf,bridge,2024:Q4,0.18914334532565708,0.18914334532565708
exact,pre_second,S,spf,indicator_revision_only_dfm_kalman_em,2024:Q4,0.18020295852325902,0.18020295852325902
exact,pre_second,S,spf,joint_indicator_revision_dfm_full_kalman_em,2024:Q4,0.16609656287262314,0.16609656287262314
exact,pre_second,S,spf,midas_umidas,2024:Q4,-3.0202278877680264,-3.0202278877680264
exact,pre_second,S,spf,monthly_mixed_frequency_kalman_em,2024:Q4,0.19420845812287532,0.19420845812287532
exact,pre_second,S,spf,no_revision,2024:Q4,0.18548742999999981,0.18548742999999981
exact,pre_second,S,spf,release_dfm,2024:Q4,0.19406631525248966,0.19406631525248966
exact,pre_second,S,spf,revision_dfm_kalman_em,2024:Q4,0.1658509078346672,0.1658509078346672
exact,pre_second,S,spf,standard_dfm,2024:Q4,0.19320754882028618,0.19320754882028618
exact,pre_second,S,standard_dfm,ar,2024:Q4,-0.05965908929948833,-0.05965908929948833
exact,pre_second,S,standard_dfm,bridge,2024:Q4,-0.0040642034946291065,-0.0040642034946291065
exact,pre_second,S,standard_dfm,indicator_revision_only_dfm_kalman_em,2024:Q4,-0.013004590297027156,-0.013004590297027156
exact,pre_second,S,standard_dfm,joint_indicator_revision_dfm_full_kalman_em,2024:Q4,-0.027110985947663032,-0.027110985947663032
exact,pre_second,S,standard_dfm,midas_umidas,2024:Q4,-3.2134354365883127,-3.2134354365883127
exact,pre_second,S,standard_dfm,monthly_mixed_frequency_kalman_em,2024:Q4,0.001000909302589148,0.001000909302589148
exact,pre_second,S,standard_dfm,no_revision,2024:Q4,-0.007720118820286364,-0.007720118820286364
exact,pre_second,S,standard_dfm,release_dfm,2024:Q4,0.0008587664322034896,0.0008587664322034896
exact,pre_second,S,standard_dfm,revision_dfm_kalman_em,2024:Q4,-0.027356640985618994,-0.027356640985618994
exact,pre_second,S,standard_dfm,spf,2024:Q4,-0.19320754882028618,-0.19320754882028618
exact,pre_second,S,release_dfm,ar,2024:Q4,-0.06051785573169182,-0.06051785573169182
exact,pre_second,S,release_dfm,bridge,2024:Q4,-0.004922969926832596,-0.004922969926832596
exact,pre_second,S,release_dfm,indicator_revision_only_dfm_kalman_em,2024:Q4,-0.013863356729230645,-0.013863356729230645
exact,pre_second,S,release_dfm,joint_indicator_revision_dfm_full_kalman_em,2024:Q4,-0.027969752379866524,-0.027969752379866524
exact,pre_second,S,release_dfm,midas_umidas,2024:Q4,-3.214294203020516,-3.214294203020516
exact,pre_second,S,release_dfm,monthly_mixed_frequency_kalman_em,2024:Q4,0.0001421428703856585,0.0001421428703856585
exact,pre_second,S,release_dfm,no_revision,2024:Q4,-0.008578885252489853,-0.008578885252489853
exact,pre_second,S,release_dfm,revision_dfm_kalman_em,2024:Q4,-0.028215407417822486,-0.028215407417822486
exact,pre_second,S,release_dfm,spf,2024:Q4,-0.19406631525248966,-0.19406631525248966
exact,pre_second,S,release_dfm,standard_dfm,2024:Q4,-0.0008587664322034896,-0.0008587664322034896
exact,pre_third,T,ar,bridge,2024:Q4,0.04711271131803244,0.04711271131803244
exact,pre_third,T,ar,indicator_revision_only_dfm_kalman_em,2024:Q4,0.04905378659155905,0.04905378659155905
exact,pre_third,T,ar,joint_indicator_revision_dfm_full_kalman_em,2024:Q4,0.04862016603551855,0.04862016603551855
exact,pre_third,T,ar,midas_umidas,2024:Q4,-2.0664133645845233,-2.0664133645845233
exact,pre_third,T,ar,monthly_mixed_frequency_kalman_em,2024:Q4,0.03558105616255164,0.03558105616255164
exact,pre_third,T,ar,no_revision,2024:Q4,0.038262134918035304,0.038262134918035304
exact,pre_third,T,ar,release_dfm,2024:Q4,0.047894524837390325,0.047894524837390325
exact,pre_third,T,ar,revision_dfm_kalman_em,2024:Q4,0.04428110671926973,0.04428110671926973
exact,pre_third,T,ar,spf,2024:Q4,-0.2480815450819646,-0.2480815450819646
exact,pre_third,T,ar,standard_dfm,2024:Q4,0.04779092928529234,0.04779092928529234
exact,pre_third,T,no_revision,ar,2024:Q4,-0.038262134918035304,-0.038262134918035304
exact,pre_third,T,no_revision,bridge,2024:Q4,0.008850576399997137,0.008850576399997137
exact,pre_third,T,no_revision,indicator_revision_only_dfm_kalman_em,2024:Q4,0.010791651673523741,0.010791651673523741
exact,pre_third,T,no_revision,joint_indicator_revision_dfm_full_kalman_em,2024:Q4,0.010358031117483246,0.010358031117483246
exact,pre_third,T,no_revision,midas_umidas,2024:Q4,-2.1046754995025587,-2.1046754995025587
exact,pre_third,T,no_revision,monthly_mixed_frequency_kalman_em,2024:Q4,-0.0026810787554836703,-0.0026810787554836703
exact,pre_third,T,no_revision,release_dfm,2024:Q4,0.009632389919355016,0.009632389919355016
exact,pre_third,T,no_revision,revision_dfm_kalman_em,2024:Q4,0.00601897180123442,0.00601897180123442
exact,pre_third,T,no_revision,spf,2024:Q4,-0.2863436799999999,-0.2863436799999999
exact,pre_third,T,no_revision,standard_dfm,2024:Q4,0.00952879436725704,0.00952879436725704
exact,pre_third,T,bridge,ar,2024:Q4,-0.04711271131803244,-0.04711271131803244
exact,pre_third,T,bridge,indicator_revision_only_dfm_kalman_em,2024:Q4,0.0019410752735266052,0.0019410752735266052
exact,pre_third,T,bridge,joint_indicator_revision_dfm_full_kalman_em,2024:Q4,0.0015074547174861097,0.0015074547174861097
exact,pre_third,T,bridge,midas_umidas,2024:Q4,-2.1135260759025556,-2.1135260759025556
exact,pre_third,T,bridge,monthly_mixed_frequency_kalman_em,2024:Q4,-0.011531655155480807,-0.011531655155480807
exact,pre_third,T,bridge,no_revision,2024:Q4,-0.008850576399997137,-0.008850576399997137
exact,pre_third,T,bridge,release_dfm,2024:Q4,0.0007818135193578795,0.0007818135193578795
exact,pre_third,T,bridge,revision_dfm_kalman_em,2024:Q4,-0.0028316045987627166,-0.0028316045987627166
exact,pre_third,T,bridge,spf,2024:Q4,-0.295194256399997,-0.295194256399997
exact,pre_third,T,bridge,standard_dfm,2024:Q4,0.0006782179672599029,0.0006782179672599029
exact,pre_third,T,midas_umidas,ar,2024:Q4,2.0664133645845233,2.0664133645845233
exact,pre_third,T,midas_umidas,bridge,2024:Q4,2.1135260759025556,2.1135260759025556
exact,pre_third,T,midas_umidas,indicator_revision_only_dfm_kalman_em,2024:Q4,2.115467151176082,2.115467151176082
exact,pre_third,T,midas_umidas,joint_indicator_revision_dfm_full_kalman_em,2024:Q4,2.1150335306200416,2.1150335306200416
exact,pre_third,T,midas_umidas,monthly_mixed_frequency_kalman_em,2024:Q4,2.101994420747075,2.101994420747075
exact,pre_third,T,midas_umidas,no_revision,2024:Q4,2.1046754995025587,2.1046754995025587
exact,pre_third,T,midas_umidas,release_dfm,2024:Q4,2.1143078894219136,2.1143078894219136
exact,pre_third,T,midas_umidas,revision_dfm_kalman_em,2024:Q4,2.110694471303793,2.110694471303793
exact,pre_third,T,midas_umidas,spf,2024:Q4,1.8183318195025586,1.8183318195025586
exact,pre_third,T,midas_umidas,standard_dfm,2024:Q4,2.1142042938698156,2.1142042938698156
exact,pre_third,T,spf,ar,2024:Q4,0.2480815450819646,0.2480815450819646
exact,pre_third,T,spf,bridge,2024:Q4,0.295194256399997,0.295194256399997
exact,pre_third,T,spf,indicator_revision_only_dfm_kalman_em,2024:Q4,0.29713533167352363,0.29713533167352363
exact,pre_third,T,spf,joint_indicator_revision_dfm_full_kalman_em,2024:Q4,0.29670171111748317,0.29670171111748317
exact,pre_third,T,spf,midas_umidas,2024:Q4,-1.8183318195025586,-1.8183318195025586
exact,pre_third,T,spf,monthly_mixed_frequency_kalman_em,2024:Q4,0.28366260124451625,0.28366260124451625
exact,pre_third,T,spf,no_revision,2024:Q4,0.2863436799999999,0.2863436799999999
exact,pre_third,T,spf,release_dfm,2024:Q4,0.29597606991935493,0.29597606991935493
exact,pre_third,T,spf,revision_dfm_kalman_em,2024:Q4,0.29236265180123433,0.29236265180123433
exact,pre_third,T,spf,standard_dfm,2024:Q4,0.29587247436725694,0.29587247436725694
exact,pre_third,T,standard_dfm,ar,2024:Q4,-0.04779092928529234,-0.04779092928529234
exact,pre_third,T,standard_dfm,bridge,2024:Q4,-0.0006782179672599029,-0.0006782179672599029
exact,pre_third,T,standard_dfm,indicator_revision_only_dfm_kalman_em,2024:Q4,0.0012628573062667024,0.0012628573062667024
exact,pre_third,T,standard_dfm,joint_indicator_revision_dfm_full_kalman_em,2024:Q4,0.0008292367502262069,0.0008292367502262069
exact,pre_third,T,standard_dfm,midas_umidas,2024:Q4,-2.1142042938698156,-2.1142042938698156
exact,pre_third,T,standard_dfm,monthly_mixed_frequency_kalman_em,2024:Q4,-0.01220987312274071,-0.01220987312274071
exact,pre_third,T,standard_dfm,no_revision,2024:Q4,-0.00952879436725704,-0.00952879436725704
exact,pre_third,T,standard_dfm,release_dfm,2024:Q4,0.00010359555209797666,0.00010359555209797666
exact,pre_third,T,standard_dfm,revision_dfm_kalman_em,2024:Q4,-0.0035098225660226195,-0.0035098225660226195
exact,pre_third,T,standard_dfm,spf,2024:Q4,-0.29587247436725694,-0.29587247436725694
exact,pre_third,T,release_dfm,ar,2024:Q4,-0.047894524837390325,-0.047894524837390325
exact,pre_third,T,release_dfm,bridge,2024:Q4,-0.0007818135193578795,-0.0007818135193578795
exact,pre_third,T,release_dfm,indicator_revision_only_dfm_kalman_em,2024:Q4,0.0011592617541687257,0.0011592617541687257
exact,pre_third,T,release_dfm,joint_indicator_revision_dfm_full_kalman_em,2024:Q4,0.0007256411981282303,0.0007256411981282303
exact,pre_third,T,release_dfm,midas_umidas,2024:Q4,-2.1143078894219136,-2.1143078894219136
exact,pre_third,T,release_dfm,monthly_mixed_frequency_kalman_em,2024:Q4,-0.012313468674838686,-0.012313468674838686
exact,pre_third,T,release_dfm,no_revision,2024:Q4,-0.009632389919355016,-0.009632389919355016
exact,pre_third,T,release_dfm,revision_dfm_kalman_em,2024:Q4,-0.003613418118120596,-0.003613418118120596
exact,pre_third,T,release_dfm,spf,2024:Q4,-0.29597606991935493,-0.29597606991935493
exact,pre_third,T,release_dfm,standard_dfm,2024:Q4,-0.00010359555209797666,-0.00010359555209797666
pseudo,pre_advance,A,ar,bridge,2024:Q4,-0.04518876846282488,-0.04518876846282488
pseudo,pre_advance,A,ar,indicator_revision_only_dfm_kalman_em,2024:Q4,-0.05997472155976877,-0.05997472155976877
pseudo,pre_advance,A,ar,joint_indicator_revision_dfm_full_kalman_em,2024:Q4,-0.004421708577808062,-0.004421708577808062
pseudo,pre_advance,A,ar,midas_umidas,2024:Q4,0.04694255449680947,0.04694255449680947
pseudo,pre_advance,A,ar,monthly_mixed_frequency_kalman_em,2024:Q4,-0.17894484686197407,-0.17894484686197407
pseudo,pre_advance,A,ar,no_revision,2024:Q4,0.026146771737672124,0.026146771737672124
pseudo,pre_advance,A,ar,release_dfm,2024:Q4,0.04294151850460684,0.04294151850460684
pseudo,pre_advance,A,ar,revision_dfm_kalman_em,2024:Q4,-0.06542721441356758,-0.06542721441356758
pseudo,pre_advance,A,ar,spf,2024:Q4,-0.05692555044772479,-0.05692555044772479
pseudo,pre_advance,A,ar,standard_dfm,2024:Q4,0.04294151850460684,0.04294151850460684
pseudo,pre_advance,A,no_revision,ar,2024:Q4,-0.026146771737672124,-0.026146771737672124
pseudo,pre_advance,A,no_revision,bridge,2024:Q4,-0.07133554020049701,-0.07133554020049701
pseudo,pre_advance,A,no_revision,indicator_revision_only_dfm_kalman_em,2024:Q4,-0.0861214932974409,-0.0861214932974409
pseudo,pre_advance,A,no_revision,joint_indicator_revision_dfm_full_kalman_em,2024:Q4,-0.030568480315480186,-0.030568480315480186
pseudo,pre_advance,A,no_revision,midas_umidas,2024:Q4,0.02079578275913735,0.02079578275913735
pseudo,pre_advance,A,no_revision,monthly_mixed_frequency_kalman_em,2024:Q4,-0.2050916185996462,-0.2050916185996462
pseudo,pre_advance,A,no_revision,release_dfm,2024:Q4,0.016794746766934713,0.016794746766934713
pseudo,pre_advance,A,no_revision,revision_dfm_kalman_em,2024:Q4,-0.09157398615123971,-0.09157398615123971
pseudo,pre_advance,A,no_revision,spf,2024:Q4,-0.08307232218539692,-0.08307232218539692
pseudo,pre_advance,A,no_revision,standard_dfm,2024:Q4,0.016794746766934713,0.016794746766934713
pseudo,pre_advance,A,bridge,ar,2024:Q4,0.04518876846282488,0.04518876846282488
pseudo,pre_advance,A,bridge,indicator_revision_only_dfm_kalman_em,2024:Q4,-0.014785953096943888,-0.014785953096943888
pseudo,pre_advance,A,bridge,joint_indicator_revision_dfm_full_kalman_em,2024:Q4,0.04076705988501682,0.04076705988501682
pseudo,pre_advance,A,bridge,midas_umidas,2024:Q4,0.09213132295963436,0.09213132295963436
pseudo,pre_advance,A,bridge,monthly_mixed_frequency_kalman_em,2024:Q4,-0.1337560783991492,-0.1337560783991492
pseudo,pre_advance,A,bridge,no_revision,2024:Q4,0.07133554020049701,0.07133554020049701
pseudo,pre_advance,A,bridge,release_dfm,2024:Q4,0.08813028696743172,0.08813028696743172
pseudo,pre_advance,A,bridge,revision_dfm_kalman_em,2024:Q4,-0.0202384459507427,-0.0202384459507427
pseudo,pre_advance,A,bridge,spf,2024:Q4,-0.011736781984899913,-0.011736781984899913
pseudo,pre_advance,A,bridge,standard_dfm,2024:Q4,0.08813028696743172,0.08813028696743172
pseudo,pre_advance,A,midas_umidas,ar,2024:Q4,-0.04694255449680947,-0.04694255449680947
pseudo,pre_advance,A,midas_umidas,bridge,2024:Q4,-0.09213132295963436,-0.09213132295963436
pseudo,pre_advance,A,midas_umidas,indicator_revision_only_dfm_kalman_em,2024:Q4,-0.10691727605657825,-0.10691727605657825
pseudo,pre_advance,A,midas_umidas,joint_indicator_revision_dfm_full_kalman_em,2024:Q4,-0.051364263074617535,-0.051364263074617535
pseudo,pre_advance,A,midas_umidas,monthly_mixed_frequency_kalman_em,2024:Q4,-0.22588740135878355,-0.22588740135878355
pseudo,pre_advance,A,midas_umidas,no_revision,2024:Q4,-0.02079578275913735,-0.02079578275913735
pseudo,pre_advance,A,midas_umidas,release_dfm,2024:Q4,-0.004001035992202636,-0.004001035992202636
pseudo,pre_advance,A,midas_umidas,revision_dfm_kalman_em,2024:Q4,-0.11236976891037706,-0.11236976891037706
pseudo,pre_advance,A,midas_umidas,spf,2024:Q4,-0.10386810494453427,-0.10386810494453427
pseudo,pre_advance,A,midas_umidas,standard_dfm,2024:Q4,-0.004001035992202636,-0.004001035992202636
pseudo,pre_advance,A,spf,ar,2024:Q4,0.05692555044772479,0.05692555044772479
pseudo,pre_advance,A,spf,bridge,2024:Q4,0.011736781984899913,0.011736781984899913
pseudo,pre_advance,A,spf,indicator_revision_only_dfm_kalman_em,2024:Q4,-0.0030491711120439746,-0.0030491711120439746
pseudo,pre_advance,A,spf,joint_indicator_revision_dfm_full_kalman_em,2024:Q4,0.05250384186991673,0.05250384186991673
pseudo,pre_advance,A,spf,midas_umidas,2024:Q4,0.10386810494453427,0.10386810494453427
pseudo,pre_advance,A,spf,monthly_mixed_frequency_kalman_em,2024:Q4,-0.12201929641424927,-0.12201929641424927
pseudo,pre_advance,A,spf,no_revision,2024:Q4,0.08307232218539692,0.08307232218539692
pseudo,pre_advance,A,spf,release_dfm,2024:Q4,0.09986706895233163,0.09986706895233163
pseudo,pre_advance,A,spf,revision_dfm_kalman_em,2024:Q4,-0.008501663965842787,-0.008501663965842787
pseudo,pre_advance,A,spf,standard_dfm,2024:Q4,0.09986706895233163,0.09986706895233163
pseudo,pre_advance,A,standard_dfm,ar,2024:Q4,-0.04294151850460684,-0.04294151850460684
pseudo,pre_advance,A,standard_dfm,bridge,2024:Q4,-0.08813028696743172,-0.08813028696743172
pseudo,pre_advance,A,standard_dfm,indicator_revision_only_dfm_kalman_em,2024:Q4,-0.10291624006437561,-0.10291624006437561
pseudo,pre_advance,A,standard_dfm,joint_indicator_revision_dfm_full_kalman_em,2024:Q4,-0.0473632270824149,-0.0473632270824149
pseudo,pre_advance,A,standard_dfm,midas_umidas,2024:Q4,0.004001035992202636,0.004001035992202636
pseudo,pre_advance,A,standard_dfm,monthly_mixed_frequency_kalman_em,2024:Q4,-0.2218863653665809,-0.2218863653665809
pseudo,pre_advance,A,standard_dfm,no_revision,2024:Q4,-0.016794746766934713,-0.016794746766934713
pseudo,pre_advance,A,standard_dfm,release_dfm,2024:Q4,0.0,0.0
pseudo,pre_advance,A,standard_dfm,revision_dfm_kalman_em,2024:Q4,-0.10836873291817442,-0.10836873291817442
pseudo,pre_advance,A,standard_dfm,spf,2024:Q4,-0.09986706895233163,-0.09986706895233163
pseudo,pre_advance,A,release_dfm,ar,2024:Q4,-0.04294151850460684,-0.04294151850460684
pseudo,pre_advance,A,release_dfm,bridge,2024:Q4,-0.08813028696743172,-0.08813028696743172
pseudo,pre_advance,A,release_dfm,indicator_revision_only_dfm_kalman_em,2024:Q4,-0.10291624006437561,-0.10291624006437561
pseudo,pre_advance,A,release_dfm,joint_indicator_revision_dfm_full_kalman_em,2024:Q4,-0.0473632270824149,-0.0473632270824149
pseudo,pre_advance,A,release_dfm,midas_umidas,2024:Q4,0.004001035992202636,0.004001035992202636
pseudo,pre_advance,A,release_dfm,monthly_mixed_frequency_kalman_em,2024:Q4,-0.2218863653665809,-0.2218863653665809
pseudo,pre_advance,A,release_dfm,no_revision,2024:Q4,-0.016794746766934713,-0.016794746766934713
pseudo,pre_advance,A,release_dfm,revision_dfm_kalman_em,2024:Q4,-0.10836873291817442,-0.10836873291817442
pseudo,pre_advance,A,release_dfm,spf,2024:Q4,-0.09986706895233163,-0.09986706895233163
pseudo,pre_advance,A,release_dfm,standard_dfm,2024:Q4,0.0,0.0
pseudo,pre_second,S,ar,bridge,2024:Q4,0.04527772272040698,0.04527772272040698
pseudo,pre_second,S,ar,indicator_revision_only_dfm_kalman_em,2024:Q4,0.046523427420233264,0.046523427420233264
pseudo,pre_second,S,ar,joint_indicator_revision_dfm_full_kalman_em,2024:Q4,0.03239166783530578,0.03239166783530578
pseudo,pre_second,S,ar,midas_umidas,2024:Q4,-3.350877249923885,-3.350877249923885
pseudo,pre_second,S,ar,monthly_mixed_frequency_kalman_em,2024:Q4,0.06067471973244681,0.06067471973244681
pseudo,pre_second,S,ar,no_revision,2024:Q4,0.051938970479201964,0.051938970479201964
pseudo,pre_second,S,ar,release_dfm,2024:Q4,0.06051379001331902,0.06051379001331902
pseudo,pre_second,S,ar,revision_dfm_kalman_em,2024:Q4,0.03241037499825836,0.03241037499825836
pseudo,pre_second,S,ar,spf,2024:Q4,-0.13354845952079786,-0.13354845952079786
pseudo,pre_second,S,ar,standard_dfm,2024:Q4,0.060190832981197234,0.060190832981197234
pseudo,pre_second,S,no_revision,ar,2024:Q4,-0.051938970479201964,-0.051938970479201964
pseudo,pre_second,S,no_revision,bridge,2024:Q4,-0.006661247758794991,-0.006661247758794991
pseudo,pre_second,S,no_revision,indicator_revision_only_dfm_kalman_em,2024:Q4,-0.0054155430589687,-0.0054155430589687
pseudo,pre_second,S,no_revision,joint_indicator_revision_dfm_full_kalman_em,2024:Q4,-0.019547302643896182,-0.019547302643896182
pseudo,pre_second,S,no_revision,midas_umidas,2024:Q4,-3.4028162204030865,-3.4028162204030865
pseudo,pre_second,S,no_revision,monthly_mixed_frequency_kalman_em,2024:Q4,0.008735749253244843,0.008735749253244843
pseudo,pre_second,S,no_revision,release_dfm,2024:Q4,0.008574819534117052,0.008574819534117052
pseudo,pre_second,S,no_revision,revision_dfm_kalman_em,2024:Q4,-0.019528595480943607,-0.019528595480943607
pseudo,pre_second,S,no_revision,spf,2024:Q4,-0.18548742999999981,-0.18548742999999981
pseudo,pre_second,S,no_revision,standard_dfm,2024:Q4,0.00825186250199527,0.00825186250199527
pseudo,pre_second,S,bridge,ar,2024:Q4,-0.04527772272040698,-0.04527772272040698
pseudo,pre_second,S,bridge,indicator_revision_only_dfm_kalman_em,2024:Q4,0.001245704699826291,0.001245704699826291
pseudo,pre_second,S,bridge,joint_indicator_revision_dfm_full_kalman_em,2024:Q4,-0.012886054885101193,-0.012886054885101193
pseudo,pre_second,S,bridge,midas_umidas,2024:Q4,-3.3961549726442914,-3.3961549726442914
pseudo,pre_second,S,bridge,monthly_mixed_frequency_kalman_em,2024:Q4,0.015396997012039833,0.015396997012039833
pseudo,pre_second,S,bridge,no_revision,2024:Q4,0.006661247758794991,0.006661247758794991
pseudo,pre_second,S,bridge,release_dfm,2024:Q4,0.015236067292912043,0.015236067292912043
pseudo,pre_second,S,bridge,revision_dfm_kalman_em,2024:Q4,-0.012867347722148615,-0.012867347722148615
pseudo,pre_second,S,bridge,spf,2024:Q4,-0.17882618224120483,-0.17882618224120483
pseudo,pre_second,S,bridge,standard_dfm,2024:Q4,0.014913110260790261,0.014913110260790261
pseudo,pre_second,S,midas_umidas,ar,2024:Q4,3.350877249923885,3.350877249923885
pseudo,pre_second,S,midas_umidas,bridge,2024:Q4,3.3961549726442914,3.3961549726442914
pseudo,pre_second,S,midas_umidas,indicator_revision_only_dfm_kalman_em,2024:Q4,3.397400677344118,3.397400677344118
pseudo,pre_second,S,midas_umidas,joint_indicator_revision_dfm_full_kalman_em,2024:Q4,3.3832689177591906,3.3832689177591906
pseudo,pre_second,S,midas_umidas,monthly_mixed_frequency_kalman_em,2024:Q4,3.4115519696563315,3.4115519696563315
pseudo,pre_second,S,midas_umidas,no_revision,2024:Q4,3.4028162204030865,3.4028162204030865
pseudo,pre_second,S,midas_umidas,release_dfm,2024:Q4,3.411391039937204,3.411391039937204
pseudo,pre_second,S,midas_umidas,revision_dfm_kalman_em,2024:Q4,3.383287624922143,3.383287624922143
pseudo,pre_second,S,midas_umidas,spf,2024:Q4,3.2173287904030867,3.2173287904030867
pseudo,pre_second,S,midas_umidas,standard_dfm,2024:Q4,3.4110680829050817,3.4110680829050817
pseudo,pre_second,S,spf,ar,2024:Q4,0.13354845952079786,0.13354845952079786
pseudo,pre_second,S,spf,bridge,2024:Q4,0.17882618224120483,0.17882618224120483
pseudo,pre_second,S,spf,indicator_revision_only_dfm_kalman_em,2024:Q4,0.18007188694103113,0.18007188694103113
pseudo,pre_second,S,spf,joint_indicator_revision_dfm_full_kalman_em,2024:Q4,0.16594012735610364,0.16594012735610364
pseudo,pre_second,S,spf,midas_umidas,2024:Q4,-3.2173287904030867,-3.2173287904030867
pseudo,pre_second,S,spf,monthly_mixed_frequency_kalman_em,2024:Q4,0.19422317925324467,0.19422317925324467
pseudo,pre_second,S,spf,no_revision,2024:Q4,0.18548742999999981,0.18548742999999981
pseudo,pre_second,S,spf,release_dfm,2024:Q4,0.19406224953411685,0.19406224953411685
pseudo,pre_second,S,spf,revision_dfm_kalman_em,2024:Q4,0.16595883451905621,0.16595883451905621
pseudo,pre_second,S,spf,standard_dfm,2024:Q4,0.1937392925019951,0.1937392925019951
pseudo,pre_second,S,standard_dfm,ar,2024:Q4,-0.060190832981197234,-0.060190832981197234
pseudo,pre_second,S,standard_dfm,bridge,2024:Q4,-0.014913110260790261,-0.014913110260790261
pseudo,pre_second,S,standard_dfm,indicator_revision_only_dfm_kalman_em,2024:Q4,-0.01366740556096397,-0.01366740556096397
pseudo,pre_second,S,standard_dfm,joint_indicator_revision_dfm_full_kalman_em,2024:Q4,-0.027799165145891452,-0.027799165145891452
pseudo,pre_second,S,standard_dfm,midas_umidas,2024:Q4,-3.4110680829050817,-3.4110680829050817
pseudo,pre_second,S,standard_dfm,monthly_mixed_frequency_kalman_em,2024:Q4,0.00048388675124957264,0.00048388675124957264
pseudo,pre_second,S,standard_dfm,no_revision,2024:Q4,-0.00825186250199527,-0.00825186250199527
pseudo,pre_second,S,standard_dfm,release_dfm,2024:Q4,0.0003229570321217818,0.0003229570321217818
pseudo,pre_second,S,standard_dfm,revision_dfm_kalman_em,2024:Q4,-0.027780457982938874,-0.027780457982938874
pseudo,pre_second,S,standard_dfm,spf,2024:Q4,-0.1937392925019951,-0.1937392925019951
pseudo,pre_second,S,release_dfm,ar,2024:Q4,-0.06051379001331902,-0.06051379001331902
pseudo,pre_second,S,release_dfm,bridge,2024:Q4,-0.015236067292912043,-0.015236067292912043
pseudo,pre_second,S,release_dfm,indicator_revision_only_dfm_kalman_em,2024:Q4,-0.013990362593085752,-0.013990362593085752
pseudo,pre_second,S,release_dfm,joint_indicator_revision_dfm_full_kalman_em,2024:Q4,-0.028122122178013235,-0.028122122178013235
pseudo,pre_second,S,release_dfm,midas_umidas,2024:Q4,-3.411391039937204,-3.411391039937204
pseudo,pre_second,S,release_dfm,monthly_mixed_frequency_kalman_em,2024:Q4,0.00016092971912779077,0.00016092971912779077
pseudo,pre_second,S,release_dfm,no_revision,2024:Q4,-0.008574819534117052,-0.008574819534117052
pseudo,pre_second,S,release_dfm,revision_dfm_kalman_em,2024:Q4,-0.028103415015060657,-0.028103415015060657
pseudo,pre_second,S,release_dfm,spf,2024:Q4,-0.19406224953411685,-0.19406224953411685
pseudo,pre_second,S,release_dfm,standard_dfm,2024:Q4,-0.0003229570321217818,-0.0003229570321217818
pseudo,pre_third,T,ar,bridge,2024:Q4,0.04899916837991379,0.04899916837991379
pseudo,pre_third,T,ar,indicator_revision_only_dfm_kalman_em,2024:Q4,0.049032902639034315,0.049032902639034315
pseudo,pre_third,T,ar,joint_indicator_revision_dfm_full_kalman_em,2024:Q4,0.048662543298675566,0.048662543298675566
pseudo,pre_third,T,ar,midas_umidas,2024:Q4,-2.0787192442088314,-2.0787192442088314
pseudo,pre_third,T,ar,monthly_mixed_frequency_kalman_em,2024:Q4,0.03673372795852821,0.03673372795852821
pseudo,pre_third,T,ar,no_revision,2024:Q4,0.038262134918035304,0.038262134918035304
pseudo,pre_third,T,ar,release_dfm,2024:Q4,0.04790732697626902,0.04790732697626902
pseudo,pre_third,T,ar,revision_dfm_kalman_em,2024:Q4,0.0445153410596557,0.0445153410596557
pseudo,pre_third,T,ar,spf,2024:Q4,-0.2480815450819646,-0.2480815450819646
pseudo,pre_third,T,ar,standard_dfm,2024:Q4,0.04894539359709864,0.04894539359709864
pseudo,pre_third,T,no_revision,ar,2024:Q4,-0.038262134918035304,-0.038262134918035304
pseudo,pre_third,T,no_revision,bridge,2024:Q4,0.010737033461878485,0.010737033461878485
pseudo,pre_third,T,no_revision,indicator_revision_only_dfm_kalman_em,2024:Q4,0.010770767720999006,0.010770767720999006
pseudo,pre_third,T,no_revision,joint_indicator_revision_dfm_full_kalman_em,2024:Q4,0.010400408380640259,0.010400408380640259
pseudo,pre_third,T,no_revision,midas_umidas,2024:Q4,-2.116981379126867,-2.116981379126867
pseudo,pre_third,T,no_revision,monthly_mixed_frequency_kalman_em,2024:Q4,-0.001528406959507093,-0.001528406959507093
pseudo,pre_third,T,no_revision,release_dfm,2024:Q4,0.009645192058233712,0.009645192058233712
pseudo,pre_third,T,no_revision,revision_dfm_kalman_em,2024:Q4,0.006253206141620388,0.006253206141620388
pseudo,pre_third,T,no_revision,spf,2024:Q4,-0.2863436799999999,-0.2863436799999999
pseudo,pre_third,T,no_revision,standard_dfm,2024:Q4,0.010683258679063334,0.010683258679063334
pseudo,pre_third,T,bridge,ar,2024:Q4,-0.04899916837991379,-0.04899916837991379
pseudo,pre_third,T,bridge,indicator_revision_only_dfm_kalman_em,2024:Q4,3.373425912052075e-05,3.373425912052075e-05
pseudo,pre_third,T,bridge,joint_indicator_revision_dfm_full_kalman_em,2024:Q4,-0.0003366250812382269,-0.0003366250812382269
pseudo,pre_third,T,bridge,midas_umidas,2024:Q4,-2.127718412588745,-2.127718412588745
pseudo,pre_third,T,bridge,monthly_mixed_frequency_kalman_em,2024:Q4,-0.012265440421385578,-0.012265440421385578
pseudo,pre_third,T,bridge,no_revision,2024:Q4,-0.010737033461878485,-0.010737033461878485
pseudo,pre_third,T,bridge,release_dfm,2024:Q4,-0.0010918414036447728,-0.0010918414036447728
pseudo,pre_third,T,bridge,revision_dfm_kalman_em,2024:Q4,-0.004483827320258097,-0.004483827320258097
pseudo,pre_third,T,bridge,spf,2024:Q4,-0.29708071346187837,-0.29708071346187837
pseudo,pre_third,T,bridge,standard_dfm,2024:Q4,-5.3774782815150976e-05,-5.3774782815150976e-05
pseudo,pre_third,T,midas_umidas,ar,2024:Q4,2.0787192442088314,2.0787192442088314
pseudo,pre_third,T,midas_umidas,bridge,2024:Q4,2.127718412588745,2.127718412588745
pseudo,pre_third,T,midas_umidas,indicator_revision_only_dfm_kalman_em,2024:Q4,2.1277521468478655,2.1277521468478655
pseudo,pre_third,T,midas_umidas,joint_indicator_revision_dfm_full_kalman_em,2024:Q4,2.127381787507507,2.127381787507507
pseudo,pre_third,T,midas_umidas,monthly_mixed_frequency_kalman_em,2024:Q4,2.1154529721673594,2.1154529721673594
pseudo,pre_third,T,midas_umidas,no_revision,2024:Q4,2.116981379126867,2.116981379126867
pseudo,pre_third,T,midas_umidas,release_dfm,2024:Q4,2.1266265711851005,2.1266265711851005
pseudo,pre_third,T,midas_umidas,revision_dfm_kalman_em,2024:Q4,2.123234585268487,2.123234585268487
pseudo,pre_third,T,midas_umidas,spf,2024:Q4,1.8306376991268667,1.8306376991268667
pseudo,pre_third,T,midas_umidas,standard_dfm,2024:Q4,2.12766463780593,2.12766463780593
pseudo,pre_third,T,spf,ar,2024:Q4,0.2480815450819646,0.2480815450819646
pseudo,pre_third,T,spf,bridge,2024:Q4,0.29708071346187837,0.29708071346187837
pseudo,pre_third,T,spf,indicator_revision_only_dfm_kalman_em,2024:Q4,0.29711444772099893,0.29711444772099893
pseudo,pre_third,T,spf,joint_indicator_revision_dfm_full_kalman_em,2024:Q4,0.29674408838064015,0.29674408838064015
pseudo,pre_third,T,spf,midas_umidas,2024:Q4,-1.8306376991268667,-1.8306376991268667
pseudo,pre_third,T,spf,monthly_mixed_frequency_kalman_em,2024:Q4,0.2848152730404928,0.2848152730404928
pseudo,pre_third,T,spf,no_revision,2024:Q4,0.2863436799999999,0.2863436799999999
pseudo,pre_third,T,spf,release_dfm,2024:Q4,0.2959888720582336,0.2959888720582336
pseudo,pre_third,T,spf,revision_dfm_kalman_em,2024:Q4,0.29259688614162027,0.29259688614162027
pseudo,pre_third,T,spf,standard_dfm,2024:Q4,0.2970269386790632,0.2970269386790632
pseudo,pre_third,T,standard_dfm,ar,2024:Q4,-0.04894539359709864,-0.04894539359709864
pseudo,pre_third,T,standard_dfm,bridge,2024:Q4,5.3774782815150976e-05,5.3774782815150976e-05
pseudo,pre_third,T,standard_dfm,indicator_revision_only_dfm_kalman_em,2024:Q4,8.750904193567172e-05,8.750904193567172e-05
pseudo,pre_third,T,standard_dfm,joint_indicator_revision_dfm_full_kalman_em,2024:Q4,-0.0002828502984230759,-0.0002828502984230759
pseudo,pre_third,T,standard_dfm,midas_umidas,2024:Q4,-2.12766463780593,-2.12766463780593
pseudo,pre_third,T,standard_dfm,monthly_mixed_frequency_kalman_em,2024:Q4,-0.012211665638570427,-0.012211665638570427
pseudo,pre_third,T,standard_dfm,no_revision,2024:Q4,-0.010683258679063334,-0.010683258679063334
pseudo,pre_third,T,standard_dfm,release_dfm,2024:Q4,-0.001038066620829622,-0.001038066620829622
pseudo,pre_third,T,standard_dfm,revision_dfm_kalman_em,2024:Q4,-0.004430052537442946,-0.004430052537442946
pseudo,pre_third,T,standard_dfm,spf,2024:Q4,-0.2970269386790632,-0.2970269386790632
pseudo,pre_third,T,release_dfm,ar,2024:Q4,-0.04790732697626902,-0.04790732697626902
pseudo,pre_third,T,release_dfm,bridge,2024:Q4,0.0010918414036447728,0.0010918414036447728
pseudo,pre_third,T,release_dfm,indicator_revision_only_dfm_kalman_em,2024:Q4,0.0011255756627652936,0.0011255756627652936
pseudo,pre_third,T,release_dfm,joint_indicator_revision_dfm_full_kalman_em,2024:Q4,0.000755216322406546,0.000755216322406546
pseudo,pre_third,T,release_dfm,midas_umidas,2024:Q4,-2.1266265711851005,-2.1266265711851005
pseudo,pre_third,T,release_dfm,monthly_mixed_frequency_kalman_em,2024:Q4,-0.011173599017740805,-0.011173599017740805
pseudo,pre_third,T,release_dfm,no_revision,2024:Q4,-0.009645192058233712,-0.009645192058233712
pseudo,pre_third,T,release_dfm,revision_dfm_kalman_em,2024:Q4,-0.0033919859166133244,-0.0033919859166133244
pseudo,pre_third,T,release_dfm,spf,2024:Q4,-0.2959888720582336,-0.2959888720582336
pseudo,pre_third,T,release_dfm,standard_dfm,2024:Q4,0.001038066620829622,0.001038066620829622
