haminh109/Revision-Aware-DFM/outputs/full_state_space_release_revision_dfm/frozen/q1_manuscript_v1_sensitivity_k/sensitivity_runs/sensitivity_k2_max_iter100/evidence_dir/cumulative_loss_revision.csv
timing_mode,checkpoint_id,outcome_id,baseline_model,model_id,target_quarter,loss_diff_baseline_minus_model,cumulative_loss_diff
exact,pre_advance,DELTA_SA,ar,bridge,2005:Q1,-0.013846057404504227,-0.013846057404504227
exact,pre_advance,DELTA_SA,ar,bridge,2005:Q2,-0.001650279197283805,-0.015496336601788032
exact,pre_advance,DELTA_SA,ar,bridge,2005:Q3,-0.11888984019706639,-0.13438617679885442
exact,pre_advance,DELTA_SA,ar,bridge,2005:Q4,-0.0033836766731657753,-0.1377698534720202
exact,pre_advance,DELTA_SA,ar,bridge,2006:Q1,-0.04844188468453351,-0.1862117381565537
exact,pre_advance,DELTA_SA,ar,bridge,2006:Q2,-0.1371256323997568,-0.3233373705563105
exact,pre_advance,DELTA_SA,ar,bridge,2006:Q3,-0.0642914456374126,-0.38762881619372314
exact,pre_advance,DELTA_SA,ar,bridge,2006:Q4,0.3455791908551027,-0.042049625338620444
exact,pre_advance,DELTA_SA,ar,bridge,2007:Q1,-0.007824031136799381,-0.049873656475419824
exact,pre_advance,DELTA_SA,ar,bridge,2007:Q2,0.06896631884463494,0.01909266236921512
exact,pre_advance,DELTA_SA,ar,bridge,2007:Q3,0.059803740894769475,0.07889640326398459
exact,pre_advance,DELTA_SA,ar,bridge,2007:Q4,-0.012197856569414467,0.06669854669457012
exact,pre_advance,DELTA_SA,ar,bridge,2008:Q1,-0.004344598103960446,0.06235394859060968
exact,pre_advance,DELTA_SA,ar,bridge,2008:Q2,-0.5744071113634033,-0.5120531627727936
exact,pre_advance,DELTA_SA,ar,bridge,2008:Q3,0.6190200450590351,0.10696688228624152
exact,pre_advance,DELTA_SA,ar,bridge,2008:Q4,3.9506126973357536,4.057579579621995
exact,pre_advance,DELTA_SA,ar,bridge,2009:Q1,-6.0988802018433,-2.0413006222213044
exact,pre_advance,DELTA_SA,ar,bridge,2009:Q2,0.12681370682327298,-1.9144869153980313
exact,pre_advance,DELTA_SA,ar,bridge,2009:Q3,-0.06823089199504906,-1.9827178073930805
exact,pre_advance,DELTA_SA,ar,bridge,2009:Q4,-0.034868451184771665,-2.017586258577852
exact,pre_advance,DELTA_SA,ar,bridge,2010:Q1,-0.08867270219654097,-2.106258960774393
exact,pre_advance,DELTA_SA,ar,bridge,2010:Q2,-0.09358245387922448,-2.1998414146536174
exact,pre_advance,DELTA_SA,ar,bridge,2010:Q3,0.09492216977372347,-2.104919244879894
exact,pre_advance,DELTA_SA,ar,bridge,2010:Q4,-0.5663990366542817,-2.671318281534176
exact,pre_advance,DELTA_SA,ar,bridge,2011:Q1,0.006841226592887183,-2.6644770549412886
exact,pre_advance,DELTA_SA,ar,bridge,2011:Q2,-0.1050182175676507,-2.7694952725089395
exact,pre_advance,DELTA_SA,ar,bridge,2011:Q3,-0.12148482455549064,-2.89098009706443
exact,pre_advance,DELTA_SA,ar,bridge,2011:Q4,0.0628784200154297,-2.8281016770490006
exact,pre_advance,DELTA_SA,ar,bridge,2012:Q1,-0.03588771304329322,-2.8639893900922937
exact,pre_advance,DELTA_SA,ar,bridge,2012:Q2,-0.04882398210555089,-2.9128133721978444
exact,pre_advance,DELTA_SA,ar,bridge,2012:Q3,0.007775069522668765,-2.905038302675176
exact,pre_advance,DELTA_SA,ar,bridge,2012:Q4,0.004271385099178677,-2.9007669175759974
exact,pre_advance,DELTA_SA,ar,bridge,2013:Q1,0.08666220076802948,-2.814104716807968
exact,pre_advance,DELTA_SA,ar,bridge,2013:Q2,0.02549697621248881,-2.788607740595479
exact,pre_advance,DELTA_SA,ar,bridge,2013:Q3,-0.06520892381398459,-2.8538166644094636
exact,pre_advance,DELTA_SA,ar,bridge,2013:Q4,-0.4483601219941009,-3.3021767864035647
exact,pre_advance,DELTA_SA,ar,bridge,2014:Q1,0.08408982928439113,-3.2180869571191737
exact,pre_advance,DELTA_SA,ar,bridge,2014:Q2,0.16274947653538804,-3.055337480583786
exact,pre_advance,DELTA_SA,ar,bridge,2014:Q3,0.02095518071252679,-3.034382299871259
exact,pre_advance,DELTA_SA,ar,bridge,2014:Q4,0.04340036392903157,-2.9909819359422274
exact,pre_advance,DELTA_SA,ar,bridge,2015:Q1,0.09722612747043768,-2.8937558084717896
exact,pre_advance,DELTA_SA,ar,bridge,2015:Q2,0.5270016182401944,-2.366754190231595
exact,pre_advance,DELTA_SA,ar,bridge,2015:Q3,0.006413618385182668,-2.3603405718464123
exact,pre_advance,DELTA_SA,ar,bridge,2015:Q4,0.00046354735142317607,-2.359877024494989
exact,pre_advance,DELTA_SA,ar,bridge,2016:Q1,-0.028693367546870584,-2.38857039204186
exact,pre_advance,DELTA_SA,ar,bridge,2016:Q2,-0.006980417169187542,-2.3955508092110476
exact,pre_advance,DELTA_SA,ar,bridge,2016:Q3,0.008611368466014832,-2.386939440745033
exact,pre_advance,DELTA_SA,ar,bridge,2016:Q4,-0.0009847649917328026,-2.387924205736766
exact,pre_advance,DELTA_SA,ar,bridge,2017:Q1,0.006128595802208259,-2.3817956099345574
exact,pre_advance,DELTA_SA,ar,bridge,2017:Q2,-0.02510746702309855,-2.406903076957656
exact,pre_advance,DELTA_SA,ar,bridge,2017:Q3,0.001522476533105824,-2.40538060042455
exact,pre_advance,DELTA_SA,ar,bridge,2017:Q4,-0.012532396692822634,-2.417912997117373
exact,pre_advance,DELTA_SA,ar,bridge,2018:Q1,-0.0010255262763060394,-2.418938523393679
exact,pre_advance,DELTA_SA,ar,bridge,2018:Q2,0.02459572516719096,-2.394342798226488
exact,pre_advance,DELTA_SA,ar,bridge,2018:Q3,-0.0028625928778965534,-2.3972053911043845
exact,pre_advance,DELTA_SA,ar,bridge,2019:Q1,-0.3022766661113521,-2.6994820572157368
exact,pre_advance,DELTA_SA,ar,bridge,2019:Q2,-0.004735905859539672,-2.7042179630752763
exact,pre_advance,DELTA_SA,ar,bridge,2019:Q3,0.015341164816805735,-2.6888767982584705
exact,pre_advance,DELTA_SA,ar,bridge,2019:Q4,-0.044503658959923934,-2.7333804572183946
exact,pre_advance,DELTA_SA,ar,bridge,2020:Q1,0.04438608098788961,-2.688994376230505
exact,pre_advance,DELTA_SA,ar,bridge,2020:Q2,-3.0940398410540886,-5.783034217284594
exact,pre_advance,DELTA_SA,ar,bridge,2020:Q3,1.4176473053505774,-4.365386911934016
exact,pre_advance,DELTA_SA,ar,bridge,2020:Q4,0.34996403492923833,-4.015422877004778
exact,pre_advance,DELTA_SA,ar,bridge,2021:Q1,-0.013363060193281307,-4.02878593719806
exact,pre_advance,DELTA_SA,ar,bridge,2021:Q2,-0.035774116514449394,-4.064560053712509
exact,pre_advance,DELTA_SA,ar,bridge,2021:Q3,0.0032954658604867682,-4.061264587852023
exact,pre_advance,DELTA_SA,ar,bridge,2021:Q4,-0.0018903674062236324,-4.063154955258247
exact,pre_advance,DELTA_SA,ar,bridge,2022:Q1,-0.0341551593556946,-4.097310114613942
exact,pre_advance,DELTA_SA,ar,bridge,2022:Q2,-0.017409303051808128,-4.11471941766575
exact,pre_advance,DELTA_SA,ar,bridge,2022:Q3,0.00910814997588863,-4.105611267689861
exact,pre_advance,DELTA_SA,ar,bridge,2022:Q4,-0.07401877594323691,-4.179630043633098
exact,pre_advance,DELTA_SA,ar,bridge,2023:Q1,0.0027256207132850974,-4.176904422919813
exact,pre_advance,DELTA_SA,ar,bridge,2023:Q2,-0.21283992077671984,-4.389744343696533
exact,pre_advance,DELTA_SA,ar,bridge,2023:Q3,-0.029134879013246184,-4.418879222709779
exact,pre_advance,DELTA_SA,ar,bridge,2023:Q4,-0.054897300557348844,-4.473776523267128
exact,pre_advance,DELTA_SA,ar,bridge,2024:Q1,0.08308195917709753,-4.390694564090031
exact,pre_advance,DELTA_SA,ar,bridge,2024:Q2,-0.04089950912320479,-4.431594073213235
exact,pre_advance,DELTA_SA,ar,bridge,2024:Q3,0.0020789175935691188,-4.429515155619666
exact,pre_advance,DELTA_SA,ar,bridge,2024:Q4,-0.00014364795373978442,-4.429658803573406
exact,pre_advance,DELTA_SA,ar,indicator_revision_only_dfm_kalman_em,2005:Q1,-0.15257503321613658,-0.15257503321613658
exact,pre_advance,DELTA_SA,ar,indicator_revision_only_dfm_kalman_em,2005:Q2,0.10304262774761302,-0.049532405468523555
exact,pre_advance,DELTA_SA,ar,indicator_revision_only_dfm_kalman_em,2005:Q3,0.03151683579611303,-0.018015569672410525
exact,pre_advance,DELTA_SA,ar,indicator_revision_only_dfm_kalman_em,2005:Q4,-0.17958946757420496,-0.1976050372466155
exact,pre_advance,DELTA_SA,ar,indicator_revision_only_dfm_kalman_em,2006:Q1,-0.22225097588053042,-0.41985601312714593
exact,pre_advance,DELTA_SA,ar,indicator_revision_only_dfm_kalman_em,2006:Q2,-0.1338214718146227,-0.5536774849417686
exact,pre_advance,DELTA_SA,ar,indicator_revision_only_dfm_kalman_em,2006:Q3,-0.2655324769569707,-0.8192099618987393
exact,pre_advance,DELTA_SA,ar,indicator_revision_only_dfm_kalman_em,2006:Q4,1.1280810824986391,0.30887112059989985
exact,pre_advance,DELTA_SA,ar,indicator_revision_only_dfm_kalman_em,2007:Q1,-0.36488258133290913,-0.05601146073300928
exact,pre_advance,DELTA_SA,ar,indicator_revision_only_dfm_kalman_em,2007:Q2,0.2101220628635298,0.15411060213052052
exact,pre_advance,DELTA_SA,ar,indicator_revision_only_dfm_kalman_em,2007:Q3,-0.5038879623481906,-0.34977736021767003
exact,pre_advance,DELTA_SA,ar,indicator_revision_only_dfm_kalman_em,2007:Q4,0.23194641324995732,-0.11783094696771271
exact,pre_advance,DELTA_SA,ar,indicator_revision_only_dfm_kalman_em,2008:Q1,-0.06565748592115798,-0.18348843288887068
exact,pre_advance,DELTA_SA,ar,indicator_revision_only_dfm_kalman_em,2008:Q2,-0.7051418869943866,-0.8886303198832572
exact,pre_advance,DELTA_SA,ar,indicator_revision_only_dfm_kalman_em,2008:Q3,0.8839041046210189,-0.004726215262238376
exact,pre_advance,DELTA_SA,ar,indicator_revision_only_dfm_kalman_em,2008:Q4,0.39399862829546173,0.38927241303322335
exact,pre_advance,DELTA_SA,ar,indicator_revision_only_dfm_kalman_em,2009:Q1,1.3203689037955737,1.709641316828797
exact,pre_advance,DELTA_SA,ar,indicator_revision_only_dfm_kalman_em,2009:Q2,0.36877932291984866,2.0784206397486455
exact,pre_advance,DELTA_SA,ar,indicator_revision_only_dfm_kalman_em,2009:Q3,0.31974831955083616,2.3981689592994817
exact,pre_advance,DELTA_SA,ar,indicator_revision_only_dfm_kalman_em,2009:Q4,0.2461874095178597,2.6443563688173413
exact,pre_advance,DELTA_SA,ar,indicator_revision_only_dfm_kalman_em,2010:Q1,0.012274663642203441,2.656631032459545
exact,pre_advance,DELTA_SA,ar,indicator_revision_only_dfm_kalman_em,2010:Q2,-0.10097637669884518,2.5556546557606996
exact,pre_advance,DELTA_SA,ar,indicator_revision_only_dfm_kalman_em,2010:Q3,0.41001530272678194,2.9656699584874815
exact,pre_advance,DELTA_SA,ar,indicator_revision_only_dfm_kalman_em,2010:Q4,0.33708017745408314,3.3027501359415647
exact,pre_advance,DELTA_SA,ar,indicator_revision_only_dfm_kalman_em,2011:Q1,0.05273638935335863,3.3554865252949235
exact,pre_advance,DELTA_SA,ar,indicator_revision_only_dfm_kalman_em,2011:Q2,0.0864949621817803,3.4419814874767036
exact,pre_advance,DELTA_SA,ar,indicator_revision_only_dfm_kalman_em,2011:Q3,-0.03822954602021156,3.403751941456492
exact,pre_advance,DELTA_SA,ar,indicator_revision_only_dfm_kalman_em,2011:Q4,0.1042486389810256,3.5080005804375176
exact,pre_advance,DELTA_SA,ar,indicator_revision_only_dfm_kalman_em,2012:Q1,0.12270345028699549,3.6307040307245133
exact,pre_advance,DELTA_SA,ar,indicator_revision_only_dfm_kalman_em,2012:Q2,0.05124300972150874,3.681947040446022
exact,pre_advance,DELTA_SA,ar,indicator_revision_only_dfm_kalman_em,2012:Q3,-0.19803121584843814,3.483915824597584
exact,pre_advance,DELTA_SA,ar,indicator_revision_only_dfm_kalman_em,2012:Q4,-0.06160444841889918,3.4223113761786847
exact,pre_advance,DELTA_SA,ar,indicator_revision_only_dfm_kalman_em,2013:Q1,0.13839352919058448,3.560704905369269
exact,pre_advance,DELTA_SA,ar,indicator_revision_only_dfm_kalman_em,2013:Q2,0.010665904843470964,3.5713708102127404
exact,pre_advance,DELTA_SA,ar,indicator_revision_only_dfm_kalman_em,2013:Q3,-0.49085393179229264,3.0805168784204477
exact,pre_advance,DELTA_SA,ar,indicator_revision_only_dfm_kalman_em,2013:Q4,0.8147882022650561,3.895305080685504
exact,pre_advance,DELTA_SA,ar,indicator_revision_only_dfm_kalman_em,2014:Q1,-0.6728261778290336,3.22247890285647
exact,pre_advance,DELTA_SA,ar,indicator_revision_only_dfm_kalman_em,2014:Q2,0.3153905835886226,3.537869486445093
exact,pre_advance,DELTA_SA,ar,indicator_revision_only_dfm_kalman_em,2014:Q3,-0.05736992828325174,3.480499558161841
exact,pre_advance,DELTA_SA,ar,indicator_revision_only_dfm_kalman_em,2014:Q4,0.18045818425062124,3.6609577424124624
exact,pre_advance,DELTA_SA,ar,indicator_revision_only_dfm_kalman_em,2015:Q1,-0.30424364925329495,3.3567140931591677
exact,pre_advance,DELTA_SA,ar,indicator_revision_only_dfm_kalman_em,2015:Q2,1.0249249122593762,4.381639005418544
exact,pre_advance,DELTA_SA,ar,indicator_revision_only_dfm_kalman_em,2015:Q3,-0.3345827492334456,4.0470562561850985
exact,pre_advance,DELTA_SA,ar,indicator_revision_only_dfm_kalman_em,2015:Q4,-0.09676443992777004,3.9502918162573284
exact,pre_advance,DELTA_SA,ar,indicator_revision_only_dfm_kalman_em,2016:Q1,-0.09029065158363185,3.8600011646736965
exact,pre_advance,DELTA_SA,ar,indicator_revision_only_dfm_kalman_em,2016:Q2,0.1360297525459644,3.996030917219661
exact,pre_advance,DELTA_SA,ar,indicator_revision_only_dfm_kalman_em,2016:Q3,-0.021175007572158712,3.974855909647502
exact,pre_advance,DELTA_SA,ar,indicator_revision_only_dfm_kalman_em,2016:Q4,0.02734587565242416,4.002201785299926
exact,pre_advance,DELTA_SA,ar,indicator_revision_only_dfm_kalman_em,2017:Q1,-0.056295362083760514,3.945906423216165
exact,pre_advance,DELTA_SA,ar,indicator_revision_only_dfm_kalman_em,2017:Q2,-0.1998229027002102,3.746083520515955
exact,pre_advance,DELTA_SA,ar,indicator_revision_only_dfm_kalman_em,2017:Q3,-0.09239460605426397,3.653688914461691
exact,pre_advance,DELTA_SA,ar,indicator_revision_only_dfm_kalman_em,2017:Q4,0.035699658663772574,3.6893885731254636
exact,pre_advance,DELTA_SA,ar,indicator_revision_only_dfm_kalman_em,2018:Q1,0.012703611098869368,3.702092184224333
exact,pre_advance,DELTA_SA,ar,indicator_revision_only_dfm_kalman_em,2018:Q2,0.0030213569949030655,3.705113541219236
exact,pre_advance,DELTA_SA,ar,indicator_revision_only_dfm_kalman_em,2018:Q3,0.0032310710133240618,3.70834461223256
exact,pre_advance,DELTA_SA,ar,indicator_revision_only_dfm_kalman_em,2019:Q1,0.3134694480182471,4.021814060250807
exact,pre_advance,DELTA_SA,ar,indicator_revision_only_dfm_kalman_em,2019:Q2,-0.00020861065790184213,4.021605449592905
exact,pre_advance,DELTA_SA,ar,indicator_revision_only_dfm_kalman_em,2019:Q3,-0.020795440927072837,4.000810008665832
exact,pre_advance,DELTA_SA,ar,indicator_revision_only_dfm_kalman_em,2019:Q4,0.022807340587339162,4.023617349253171
exact,pre_advance,DELTA_SA,ar,indicator_revision_only_dfm_kalman_em,2020:Q1,0.04374626691208146,4.067363616165252
exact,pre_advance,DELTA_SA,ar,indicator_revision_only_dfm_kalman_em,2020:Q2,-0.4848885887598303,3.582475027405422
exact,pre_advance,DELTA_SA,ar,indicator_revision_only_dfm_kalman_em,2020:Q3,6.6030936783793335,10.185568705784755
exact,pre_advance,DELTA_SA,ar,indicator_revision_only_dfm_kalman_em,2020:Q4,0.3494364241901803,10.535005129974936
exact,pre_advance,DELTA_SA,ar,indicator_revision_only_dfm_kalman_em,2021:Q1,0.010481372036795358,10.54548650201173
exact,pre_advance,DELTA_SA,ar,indicator_revision_only_dfm_kalman_em,2021:Q2,0.005674643654305938,10.551161145666036
exact,pre_advance,DELTA_SA,ar,indicator_revision_only_dfm_kalman_em,2021:Q3,-0.00428446848418562,10.546876677181851
exact,pre_advance,DELTA_SA,ar,indicator_revision_only_dfm_kalman_em,2021:Q4,-0.009636975615624089,10.537239701566227
exact,pre_advance,DELTA_SA,ar,indicator_revision_only_dfm_kalman_em,2022:Q1,0.05376352283472801,10.591003224400955
exact,pre_advance,DELTA_SA,ar,indicator_revision_only_dfm_kalman_em,2022:Q2,-0.01747374549873487,10.57352947890222
exact,pre_advance,DELTA_SA,ar,indicator_revision_only_dfm_kalman_em,2022:Q3,-0.038912176234116996,10.534617302668103
exact,pre_advance,DELTA_SA,ar,indicator_revision_only_dfm_kalman_em,2022:Q4,0.058622083054108,10.59323938572221
exact,pre_advance,DELTA_SA,ar,indicator_revision_only_dfm_kalman_em,2023:Q1,-0.02740533844308022,10.56583404727913
exact,pre_advance,DELTA_SA,ar,indicator_revision_only_dfm_kalman_em,2023:Q2,0.06172819389498699,10.627562241174118
exact,pre_advance,DELTA_SA,ar,indicator_revision_only_dfm_kalman_em,2023:Q3,-0.03194758936873526,10.595614651805382
exact,pre_advance,DELTA_SA,ar,indicator_revision_only_dfm_kalman_em,2023:Q4,0.03690159867203891,10.63251625047742
exact,pre_advance,DELTA_SA,ar,indicator_revision_only_dfm_kalman_em,2024:Q1,0.07155817897030346,10.704074429447724
exact,pre_advance,DELTA_SA,ar,indicator_revision_only_dfm_kalman_em,2024:Q2,-0.009033581491366181,10.695040847956358
exact,pre_advance,DELTA_SA,ar,indicator_revision_only_dfm_kalman_em,2024:Q3,0.00727617350536104,10.702317021461718
exact,pre_advance,DELTA_SA,ar,indicator_revision_only_dfm_kalman_em,2024:Q4,-0.008788760628669104,10.69352826083305
exact,pre_advance,DELTA_SA,ar,joint_indicator_revision_dfm_full_kalman_em,2005:Q1,0.00348307648072783,0.00348307648072783
exact,pre_advance,DELTA_SA,ar,joint_indicator_revision_dfm_full_kalman_em,2005:Q2,-0.23272462830181453,-0.22924155182108671
exact,pre_advance,DELTA_SA,ar,joint_indicator_revision_dfm_full_kalman_em,2005:Q3,0.2612922563814478,0.032050704560361104
exact,pre_advance,DELTA_SA,ar,joint_indicator_revision_dfm_full_kalman_em,2005:Q4,-0.046999609748877194,-0.01494890518851609
exact,pre_advance,DELTA_SA,ar,joint_indicator_revision_dfm_full_kalman_em,2006:Q1,0.013305061884506236,-0.0016438433040098545
exact,pre_advance,DELTA_SA,ar,joint_indicator_revision_dfm_full_kalman_em,2006:Q2,-0.6657348885553599,-0.6673787318593698
exact,pre_advance,DELTA_SA,ar,joint_indicator_revision_dfm_full_kalman_em,2006:Q3,-0.5120697741434161,-1.179448506002786
exact,pre_advance,DELTA_SA,ar,joint_indicator_revision_dfm_full_kalman_em,2006:Q4,2.0416712206023018,0.8622227145995158
exact,pre_advance,DELTA_SA,ar,joint_indicator_revision_dfm_full_kalman_em,2007:Q1,-0.4259656127730928,0.436257101826423
exact,pre_advance,DELTA_SA,ar,joint_indicator_revision_dfm_full_kalman_em,2007:Q2,-0.07541974840009613,0.3608373534263269
exact,pre_advance,DELTA_SA,ar,joint_indicator_revision_dfm_full_kalman_em,2007:Q3,-1.3034412029143208,-0.9426038494879938
exact,pre_advance,DELTA_SA,ar,joint_indicator_revision_dfm_full_kalman_em,2007:Q4,0.11347436134008776,-0.8291294881479061
exact,pre_advance,DELTA_SA,ar,joint_indicator_revision_dfm_full_kalman_em,2008:Q1,-0.016212393911887685,-0.8453418820597938
exact,pre_advance,DELTA_SA,ar,joint_indicator_revision_dfm_full_kalman_em,2008:Q2,0.04356413439869811,-0.8017777476610957
exact,pre_advance,DELTA_SA,ar,joint_indicator_revision_dfm_full_kalman_em,2008:Q3,0.7064770091083621,-0.09530073855273358
exact,pre_advance,DELTA_SA,ar,joint_indicator_revision_dfm_full_kalman_em,2008:Q4,2.0848465185328715,1.989545779980138
exact,pre_advance,DELTA_SA,ar,joint_indicator_revision_dfm_full_kalman_em,2009:Q1,1.0169537462309952,3.006499526211133
exact,pre_advance,DELTA_SA,ar,joint_indicator_revision_dfm_full_kalman_em,2009:Q2,0.11039619203240258,3.1168957182435357
exact,pre_advance,DELTA_SA,ar,joint_indicator_revision_dfm_full_kalman_em,2009:Q3,-1.4892084814434305,1.6276872368001052
exact,pre_advance,DELTA_SA,ar,joint_indicator_revision_dfm_full_kalman_em,2009:Q4,0.2533881399982574,1.8810753767983626
exact,pre_advance,DELTA_SA,ar,joint_indicator_revision_dfm_full_kalman_em,2010:Q1,-1.3211434939223134,0.5599318828760491
exact,pre_advance,DELTA_SA,ar,joint_indicator_revision_dfm_full_kalman_em,2010:Q2,-0.4841463946405279,0.07578548823552123
exact,pre_advance,DELTA_SA,ar,joint_indicator_revision_dfm_full_kalman_em,2010:Q3,0.6500764194565227,0.725861907692044
exact,pre_advance,DELTA_SA,ar,joint_indicator_revision_dfm_full_kalman_em,2010:Q4,0.03451138405779325,0.7603732917498371
exact,pre_advance,DELTA_SA,ar,joint_indicator_revision_dfm_full_kalman_em,2011:Q1,-0.04736008690911871,0.7130132048407184
exact,pre_advance,DELTA_SA,ar,joint_indicator_revision_dfm_full_kalman_em,2011:Q2,-0.47698869708001956,0.23602450776069883
exact,pre_advance,DELTA_SA,ar,joint_indicator_revision_dfm_full_kalman_em,2011:Q3,-0.4653874359165795,-0.22936292815588066
exact,pre_advance,DELTA_SA,ar,joint_indicator_revision_dfm_full_kalman_em,2011:Q4,0.1310503460943475,-0.09831258206153318
exact,pre_advance,DELTA_SA,ar,joint_indicator_revision_dfm_full_kalman_em,2012:Q1,0.06829015348837453,-0.03002242857315865
exact,pre_advance,DELTA_SA,ar,joint_indicator_revision_dfm_full_kalman_em,2012:Q2,0.07709655387223188,0.04707412529907323
exact,pre_advance,DELTA_SA,ar,joint_indicator_revision_dfm_full_kalman_em,2012:Q3,-0.04490907818813317,0.002165047110940066
exact,pre_advance,DELTA_SA,ar,joint_indicator_revision_dfm_full_kalman_em,2012:Q4,-0.008464829144274866,-0.0062997820333348005
exact,pre_advance,DELTA_SA,ar,joint_indicator_revision_dfm_full_kalman_em,2013:Q1,0.15101472196623414,0.14471493993289933
exact,pre_advance,DELTA_SA,ar,joint_indicator_revision_dfm_full_kalman_em,2013:Q2,-0.22398281619605243,-0.0792678762631531
exact,pre_advance,DELTA_SA,ar,joint_indicator_revision_dfm_full_kalman_em,2013:Q3,-0.4990274142578487,-0.5782952905210018
exact,pre_advance,DELTA_SA,ar,joint_indicator_revision_dfm_full_kalman_em,2013:Q4,-0.22480384733244985,-0.8030991378534517
exact,pre_advance,DELTA_SA,ar,joint_indicator_revision_dfm_full_kalman_em,2014:Q1,-0.39872254544608177,-1.2018216832995334
exact,pre_advance,DELTA_SA,ar,joint_indicator_revision_dfm_full_kalman_em,2014:Q2,0.33903083107886833,-0.8627908522206651
exact,pre_advance,DELTA_SA,ar,joint_indicator_revision_dfm_full_kalman_em,2014:Q3,0.011901671768838558,-0.8508891804518265
exact,pre_advance,DELTA_SA,ar,joint_indicator_revision_dfm_full_kalman_em,2014:Q4,0.16868846475851246,-0.6822007156933141
exact,pre_advance,DELTA_SA,ar,joint_indicator_revision_dfm_full_kalman_em,2015:Q1,0.20337264843433756,-0.47882806725897653
exact,pre_advance,DELTA_SA,ar,joint_indicator_revision_dfm_full_kalman_em,2015:Q2,2.088248264163617,1.6094201969046402
exact,pre_advance,DELTA_SA,ar,joint_indicator_revision_dfm_full_kalman_em,2015:Q3,-0.9812597035645948,0.6281604933400454
exact,pre_advance,DELTA_SA,ar,joint_indicator_revision_dfm_full_kalman_em,2015:Q4,-0.17203889969831873,0.45612159364172666
exact,pre_advance,DELTA_SA,ar,joint_indicator_revision_dfm_full_kalman_em,2016:Q1,-0.21961558612203363,0.23650600751969303
exact,pre_advance,DELTA_SA,ar,joint_indicator_revision_dfm_full_kalman_em,2016:Q2,0.06023001113498751,0.2967360186546805
exact,pre_advance,DELTA_SA,ar,joint_indicator_revision_dfm_full_kalman_em,2016:Q3,-0.031707804996424095,0.2650282136582564
exact,pre_advance,DELTA_SA,ar,joint_indicator_revision_dfm_full_kalman_em,2016:Q4,-0.09524476484301775,0.16978344881523866
exact,pre_advance,DELTA_SA,ar,joint_indicator_revision_dfm_full_kalman_em,2017:Q1,0.08398425240354278,0.25376770121878145
exact,pre_advance,DELTA_SA,ar,joint_indicator_revision_dfm_full_kalman_em,2017:Q2,-0.20786355024142184,0.045904150977359615
exact,pre_advance,DELTA_SA,ar,joint_indicator_revision_dfm_full_kalman_em,2017:Q3,-0.0003520933701361339,0.04555205760722348
exact,pre_advance,DELTA_SA,ar,joint_indicator_revision_dfm_full_kalman_em,2017:Q4,-0.3001469426834301,-0.25459488507620665
exact,pre_advance,DELTA_SA,ar,joint_indicator_revision_dfm_full_kalman_em,2018:Q1,-0.200441461126195,-0.45503634620240163
exact,pre_advance,DELTA_SA,ar,joint_indicator_revision_dfm_full_kalman_em,2018:Q2,0.02936221845757165,-0.42567412774483
exact,pre_advance,DELTA_SA,ar,joint_indicator_revision_dfm_full_kalman_em,2018:Q3,-0.0019771092648929373,-0.4276512370097229
exact,pre_advance,DELTA_SA,ar,joint_indicator_revision_dfm_full_kalman_em,2019:Q1,0.3136254158606516,-0.11402582114907128
exact,pre_advance,DELTA_SA,ar,joint_indicator_revision_dfm_full_kalman_em,2019:Q2,-0.0063827978124901185,-0.1204086189615614
exact,pre_advance,DELTA_SA,ar,joint_indicator_revision_dfm_full_kalman_em,2019:Q3,0.01813123400652819,-0.1022773849550332
exact,pre_advance,DELTA_SA,ar,joint_indicator_revision_dfm_full_kalman_em,2019:Q4,-0.0022755302518795463,-0.10455291520691275
exact,pre_advance,DELTA_SA,ar,joint_indicator_revision_dfm_full_kalman_em,2020:Q1,0.03183351952407143,-0.07271939568284132
exact,pre_advance,DELTA_SA,ar,joint_indicator_revision_dfm_full_kalman_em,2020:Q2,-0.19128573749191846,-0.26400513317475977
exact,pre_advance,DELTA_SA,ar,joint_indicator_revision_dfm_full_kalman_em,2020:Q3,6.074117407991507,5.810112274816746
exact,pre_advance,DELTA_SA,ar,joint_indicator_revision_dfm_full_kalman_em,2020:Q4,0.22300735013518835,6.033119624951935
exact,pre_advance,DELTA_SA,ar,joint_indicator_revision_dfm_full_kalman_em,2021:Q1,-0.5231098344028875,5.510009790549047
exact,pre_advance,DELTA_SA,ar,joint_indicator_revision_dfm_full_kalman_em,2021:Q2,0.0032712894968153104,5.5132810800458625
exact,pre_advance,DELTA_SA,ar,joint_indicator_revision_dfm_full_kalman_em,2021:Q3,-0.05096607030227564,5.462315009743587
exact,pre_advance,DELTA_SA,ar,joint_indicator_revision_dfm_full_kalman_em,2021:Q4,-0.007019800279427701,5.455295209464159
exact,pre_advance,DELTA_SA,ar,joint_indicator_revision_dfm_full_kalman_em,2022:Q1,-0.22312777903991315,5.232167430424246
exact,pre_advance,DELTA_SA,ar,joint_indicator_revision_dfm_full_kalman_em,2022:Q2,0.04562447683871286,5.277791907262959
exact,pre_advance,DELTA_SA,ar,joint_indicator_revision_dfm_full_kalman_em,2022:Q3,0.057638496217355444,5.335430403480314
exact,pre_advance,DELTA_SA,ar,joint_indicator_revision_dfm_full_kalman_em,2022:Q4,0.0968269045557212,5.432257308036035
exact,pre_advance,DELTA_SA,ar,joint_indicator_revision_dfm_full_kalman_em,2023:Q1,-0.07149590323404165,5.360761404801993
exact,pre_advance,DELTA_SA,ar,joint_indicator_revision_dfm_full_kalman_em,2023:Q2,-0.30771021061387505,5.053051194188118
exact,pre_advance,DELTA_SA,ar,joint_indicator_revision_dfm_full_kalman_em,2023:Q3,0.01212500100622016,5.065176195194338
exact,pre_advance,DELTA_SA,ar,joint_indicator_revision_dfm_full_kalman_em,2023:Q4,0.037089538452472384,5.102265733646811
exact,pre_advance,DELTA_SA,ar,joint_indicator_revision_dfm_full_kalman_em,2024:Q1,0.09888150618035273,5.201147239827163
exact,pre_advance,DELTA_SA,ar,joint_indicator_revision_dfm_full_kalman_em,2024:Q2,-0.06585122633397783,5.1352960134931855
exact,pre_advance,DELTA_SA,ar,joint_indicator_revision_dfm_full_kalman_em,2024:Q3,0.000499769738305093,5.13579578323149
exact,pre_advance,DELTA_SA,ar,joint_indicator_revision_dfm_full_kalman_em,2024:Q4,-0.0021194078218883298,5.1336763754096015
exact,pre_advance,DELTA_SA,ar,midas_umidas,2005:Q1,-39.79782442511904,-39.79782442511904
exact,pre_advance,DELTA_SA,ar,midas_umidas,2005:Q2,-10.838923677867209,-50.636748102986246
exact,pre_advance,DELTA_SA,ar,midas_umidas,2005:Q3,-2.2266161401965463,-52.863364243182794
exact,pre_advance,DELTA_SA,ar,midas_umidas,2005:Q4,-76.51074939414345,-129.37411363732625
exact,pre_advance,DELTA_SA,ar,midas_umidas,2006:Q1,-624.8393306210296,-754.2134442583558
exact,pre_advance,DELTA_SA,ar,midas_umidas,2006:Q2,-51.604849767086456,-805.8182940254422
exact,pre_advance,DELTA_SA,ar,midas_umidas,2006:Q3,-2.8960525487067064,-808.714346574149
exact,pre_advance,DELTA_SA,ar,midas_umidas,2006:Q4,-20.201108426803746,-828.9154550009528
exact,pre_advance,DELTA_SA,ar,midas_umidas,2007:Q1,-339.2425280076646,-1168.1579830086173
exact,pre_advance,DELTA_SA,ar,midas_umidas,2007:Q2,-454.633511999568,-1622.7914950081854
exact,pre_advance,DELTA_SA,ar,midas_umidas,2007:Q3,-1445.2558135582553,-3068.0473085664407
exact,pre_advance,DELTA_SA,ar,midas_umidas,2007:Q4,-109.85550522513594,-3177.9028137915766
exact,pre_advance,DELTA_SA,ar,midas_umidas,2008:Q1,-0.35365323404709553,-3178.256467025624
exact,pre_advance,DELTA_SA,ar,midas_umidas,2008:Q2,-411.67335213949457,-3589.9298191651183
exact,pre_advance,DELTA_SA,ar,midas_umidas,2008:Q3,-16.45737417434109,-3606.3871933394594
exact,pre_advance,DELTA_SA,ar,midas_umidas,2008:Q4,-658.2226269869519,-4264.609820326411
exact,pre_advance,DELTA_SA,ar,midas_umidas,2009:Q1,-1734.2252989344995,-5998.835119260911
exact,pre_advance,DELTA_SA,ar,midas_umidas,2009:Q2,0.22143764520773843,-5998.613681615703
exact,pre_advance,DELTA_SA,ar,midas_umidas,2009:Q3,-124.17561613037812,-6122.7892977460815
exact,pre_advance,DELTA_SA,ar,midas_umidas,2009:Q4,-110.45342341383031,-6233.2427211599115
exact,pre_advance,DELTA_SA,ar,midas_umidas,2010:Q1,-275.02931495153865,-6508.27203611145
exact,pre_advance,DELTA_SA,ar,midas_umidas,2010:Q2,-53.8374493565124,-6562.109485467962
exact,pre_advance,DELTA_SA,ar,midas_umidas,2010:Q3,-504.14983455244965,-7066.259320020412
exact,pre_advance,DELTA_SA,ar,midas_umidas,2010:Q4,-149.3442294107893,-7215.603549431201
exact,pre_advance,DELTA_SA,ar,midas_umidas,2011:Q1,-76.18270495068337,-7291.786254381885
exact,pre_advance,DELTA_SA,ar,midas_umidas,2011:Q2,-451.8456247825397,-7743.631879164424
exact,pre_advance,DELTA_SA,ar,midas_umidas,2011:Q3,0.13060850678497912,-7743.501270657639
exact,pre_advance,DELTA_SA,ar,midas_umidas,2011:Q4,-178.48758528523038,-7921.988855942869
exact,pre_advance,DELTA_SA,ar,midas_umidas,2012:Q1,-165.68145473592898,-8087.670310678798
exact,pre_advance,DELTA_SA,ar,midas_umidas,2012:Q2,-47.673541919471,-8135.343852598269
exact,pre_advance,DELTA_SA,ar,midas_umidas,2012:Q3,-52.97128713099698,-8188.315139729266
exact,pre_advance,DELTA_SA,ar,midas_umidas,2012:Q4,-35.87250645483025,-8224.187646184097
exact,pre_advance,DELTA_SA,ar,midas_umidas,2013:Q1,-78.68787456065915,-8302.875520744756
exact,pre_advance,DELTA_SA,ar,midas_umidas,2013:Q2,-223.52534495242105,-8526.400865697176
exact,pre_advance,DELTA_SA,ar,midas_umidas,2013:Q3,-20.601764879937992,-8547.002630577115
exact,pre_advance,DELTA_SA,ar,midas_umidas,2013:Q4,-23.13177722937727,-8570.134407806492
exact,pre_advance,DELTA_SA,ar,midas_umidas,2014:Q1,-86.83478800644839,-8656.96919581294
exact,pre_advance,DELTA_SA,ar,midas_umidas,2014:Q2,-148.1537614965949,-8805.122957309535
exact,pre_advance,DELTA_SA,ar,midas_umidas,2014:Q3,-21.563616269845912,-8826.686573579382
exact,pre_advance,DELTA_SA,ar,midas_umidas,2014:Q4,-15.719381848727583,-8842.405955428108
exact,pre_advance,DELTA_SA,ar,midas_umidas,2015:Q1,-3.243395945480688,-8845.64935137359
exact,pre_advance,DELTA_SA,ar,midas_umidas,2015:Q2,2.8534791315047823,-8842.795872242084
exact,pre_advance,DELTA_SA,ar,midas_umidas,2015:Q3,-43.68811698390882,-8886.483989225993
exact,pre_advance,DELTA_SA,ar,midas_umidas,2015:Q4,-24.97376828407593,-8911.457757510068
exact,pre_advance,DELTA_SA,ar,midas_umidas,2016:Q1,-25.74251643989478,-8937.200273949964
exact,pre_advance,DELTA_SA,ar,midas_umidas,2016:Q2,-7.70255962492451,-8944.902833574888
exact,pre_advance,DELTA_SA,ar,midas_umidas,2016:Q3,-0.41864452076651637,-8945.321478095655
exact,pre_advance,DELTA_SA,ar,midas_umidas,2016:Q4,-1.6878248577374164,-8947.009302953393
exact,pre_advance,DELTA_SA,ar,midas_umidas,2017:Q1,-1.3964693699196922,-8948.405772323313
exact,pre_advance,DELTA_SA,ar,midas_umidas,2017:Q2,-0.2386418337186688,-8948.644414157032
exact,pre_advance,DELTA_SA,ar,midas_umidas,2017:Q3,-9.894772171959557,-8958.539186328991
exact,pre_advance,DELTA_SA,ar,midas_umidas,2017:Q4,-0.06785400372468789,-8958.607040332716
exact,pre_advance,DELTA_SA,ar,midas_umidas,2018:Q1,-0.8285480132734977,-8959.435588345988
exact,pre_advance,DELTA_SA,ar,midas_umidas,2018:Q2,-12.28694297591861,-8971.722531321908
exact,pre_advance,DELTA_SA,ar,midas_umidas,2018:Q3,-4.533494700401264,-8976.256026022309
exact,pre_advance,DELTA_SA,ar,midas_umidas,2019:Q1,0.29472275296400396,-8975.961303269345
exact,pre_advance,DELTA_SA,ar,midas_umidas,2019:Q2,-0.4369629347732412,-8976.398266204118
exact,pre_advance,DELTA_SA,ar,midas_umidas,2019:Q3,-1.0739336795414602,-8977.47219988366
exact,pre_advance,DELTA_SA,ar,midas_umidas,2019:Q4,-0.7868392335368706,-8978.259039117196
exact,pre_advance,DELTA_SA,ar,midas_umidas,2020:Q1,-1.0551657413495503,-8979.314204858545
exact,pre_advance,DELTA_SA,ar,midas_umidas,2020:Q2,-2064.4350325083146,-11043.74923736686
exact,pre_advance,DELTA_SA,ar,midas_umidas,2020:Q3,-4078.7524783177178,-15122.501715684577
exact,pre_advance,DELTA_SA,ar,midas_umidas,2020:Q4,-6.506950483246874,-15129.008666167823
exact,pre_advance,DELTA_SA,ar,midas_umidas,2021:Q1,-4.596760703579255,-15133.605426871403
exact,pre_advance,DELTA_SA,ar,midas_umidas,2021:Q2,-8.287139872261893,-15141.892566743665
exact,pre_advance,DELTA_SA,ar,midas_umidas,2021:Q3,-0.14777608474144385,-15142.040342828406
exact,pre_advance,DELTA_SA,ar,midas_umidas,2021:Q4,-0.6833823726336178,-15142.72372520104
exact,pre_advance,DELTA_SA,ar,midas_umidas,2022:Q1,-0.3538272900297053,-15143.07755249107
exact,pre_advance,DELTA_SA,ar,midas_umidas,2022:Q2,0.08787319677965562,-15142.989679294289
exact,pre_advance,DELTA_SA,ar,midas_umidas,2022:Q3,0.09018879892358536,-15142.899490495365
exact,pre_advance,DELTA_SA,ar,midas_umidas,2022:Q4,-4.967035646848841,-15147.866526142214
exact,pre_advance,DELTA_SA,ar,midas_umidas,2023:Q1,-0.7470003290390502,-15148.613526471252
exact,pre_advance,DELTA_SA,ar,midas_umidas,2023:Q2,-3.5272575221531364,-15152.140783993405
exact,pre_advance,DELTA_SA,ar,midas_umidas,2023:Q3,-0.22947939040660967,-15152.370263383813
exact,pre_advance,DELTA_SA,ar,midas_umidas,2023:Q4,-0.11970627412494547,-15152.489969657938
exact,pre_advance,DELTA_SA,ar,midas_umidas,2024:Q1,0.18674922130366314,-15152.303220436634
exact,pre_advance,DELTA_SA,ar,midas_umidas,2024:Q2,0.002997525708536584,-15152.300222910924
exact,pre_advance,DELTA_SA,ar,midas_umidas,2024:Q3,-0.20633145236124312,-15152.506554363286
exact,pre_advance,DELTA_SA,ar,midas_umidas,2024:Q4,-1.6360489328221843,-15154.142603296108
exact,pre_advance,DELTA_SA,ar,monthly_mixed_frequency_kalman_em,2005:Q1,-0.1192992346100564,-0.1192992346100564
exact,pre_advance,DELTA_SA,ar,monthly_mixed_frequency_kalman_em,2005:Q2,0.06170842222568031,-0.05759081238437609
exact,pre_advance,DELTA_SA,ar,monthly_mixed_frequency_kalman_em,2005:Q3,-0.06079755268858239,-0.11838836507295848
exact,pre_advance,DELTA_SA,ar,monthly_mixed_frequency_kalman_em,2005:Q4,-0.08693732546059522,-0.2053256905335537
exact,pre_advance,DELTA_SA,ar,monthly_mixed_frequency_kalman_em,2006:Q1,-0.13502653484250415,-0.34035222537605786
exact,pre_advance,DELTA_SA,ar,monthly_mixed_frequency_kalman_em,2006:Q2,0.029452772814040386,-0.31089945256201745
exact,pre_advance,DELTA_SA,ar,monthly_mixed_frequency_kalman_em,2006:Q3,-0.12807738347949327,-0.4389768360415107
exact,pre_advance,DELTA_SA,ar,monthly_mixed_frequency_kalman_em,2006:Q4,1.0266135669666667,0.587636730925156
exact,pre_advance,DELTA_SA,ar,monthly_mixed_frequency_kalman_em,2007:Q1,-0.3529561025798927,0.23468062834526332
exact,pre_advance,DELTA_SA,ar,monthly_mixed_frequency_kalman_em,2007:Q2,0.48194757810785427,0.7166282064531175
exact,pre_advance,DELTA_SA,ar,monthly_mixed_frequency_kalman_em,2007:Q3,-0.10616404354265518,0.6104641629104623
exact,pre_advance,DELTA_SA,ar,monthly_mixed_frequency_kalman_em,2007:Q4,0.2132647806450228,0.8237289435554851
exact,pre_advance,DELTA_SA,ar,monthly_mixed_frequency_kalman_em,2008:Q1,0.012375342756245512,0.8361042863117306
exact,pre_advance,DELTA_SA,ar,monthly_mixed_frequency_kalman_em,2008:Q2,-0.5891963402757432,0.24690794603598742
exact,pre_advance,DELTA_SA,ar,monthly_mixed_frequency_kalman_em,2008:Q3,0.938866017412736,1.1857739634487234
exact,pre_advance,DELTA_SA,ar,monthly_mixed_frequency_kalman_em,2008:Q4,1.2385420452432028,2.4243160086919264
exact,pre_advance,DELTA_SA,ar,monthly_mixed_frequency_kalman_em,2009:Q1,1.4033028894991793,3.8276188981911057
exact,pre_advance,DELTA_SA,ar,monthly_mixed_frequency_kalman_em,2009:Q2,0.1571620390643732,3.9847809372554788
exact,pre_advance,DELTA_SA,ar,monthly_mixed_frequency_kalman_em,2009:Q3,-0.6638682736848854,3.3209126635705934
exact,pre_advance,DELTA_SA,ar,monthly_mixed_frequency_kalman_em,2009:Q4,0.2845995968526751,3.6055122604232688
exact,pre_advance,DELTA_SA,ar,monthly_mixed_frequency_kalman_em,2010:Q1,-0.16610052941590422,3.4394117310073646
exact,pre_advance,DELTA_SA,ar,monthly_mixed_frequency_kalman_em,2010:Q2,-0.29475438314736113,3.1446573478600035
exact,pre_advance,DELTA_SA,ar,monthly_mixed_frequency_kalman_em,2010:Q3,0.4121393401442901,3.556796688004294
exact,pre_advance,DELTA_SA,ar,monthly_mixed_frequency_kalman_em,2010:Q4,0.1234944657125604,3.6802911537168543
exact,pre_advance,DELTA_SA,ar,monthly_mixed_frequency_kalman_em,2011:Q1,0.009795080157361462,3.690086233874216
exact,pre_advance,DELTA_SA,ar,monthly_mixed_frequency_kalman_em,2011:Q2,-0.025640517908841504,3.6644457159653743
exact,pre_advance,DELTA_SA,ar,monthly_mixed_frequency_kalman_em,2011:Q3,-0.24775575026703817,3.4166899656983363
exact,pre_advance,DELTA_SA,ar,monthly_mixed_frequency_kalman_em,2011:Q4,0.15664096224837573,3.573330927946712
exact,pre_advance,DELTA_SA,ar,monthly_mixed_frequency_kalman_em,2012:Q1,-0.0008172575232461288,3.572513670423466
exact,pre_advance,DELTA_SA,ar,monthly_mixed_frequency_kalman_em,2012:Q2,0.08314157232226031,3.655655242745726
exact,pre_advance,DELTA_SA,ar,monthly_mixed_frequency_kalman_em,2012:Q3,0.1043176952730499,3.759972938018776
exact,pre_advance,DELTA_SA,ar,monthly_mixed_frequency_kalman_em,2012:Q4,-0.011455382542765388,3.7485175554760106
exact,pre_advance,DELTA_SA,ar,monthly_mixed_frequency_kalman_em,2013:Q1,0.1084551543165933,3.856972709792604
exact,pre_advance,DELTA_SA,ar,monthly_mixed_frequency_kalman_em,2013:Q2,0.15979333488274028,4.016766044675345
exact,pre_advance,DELTA_SA,ar,monthly_mixed_frequency_kalman_em,2013:Q3,-0.32625194549000286,3.690514099185342
exact,pre_advance,DELTA_SA,ar,monthly_mixed_frequency_kalman_em,2013:Q4,0.7360412806739312,4.426555379859273
exact,pre_advance,DELTA_SA,ar,monthly_mixed_frequency_kalman_em,2014:Q1,-0.8240893182756512,3.6024660615836224
exact,pre_advance,DELTA_SA,ar,monthly_mixed_frequency_kalman_em,2014:Q2,0.3609095135677241,3.9633755751513466
exact,pre_advance,DELTA_SA,ar,monthly_mixed_frequency_kalman_em,2014:Q3,0.04691855907191911,4.010294134223265
exact,pre_advance,DELTA_SA,ar,monthly_mixed_frequency_kalman_em,2014:Q4,0.1879516834371476,4.198245817660413
exact,pre_advance,DELTA_SA,ar,monthly_mixed_frequency_kalman_em,2015:Q1,-0.2169890842315022,3.981256733428911
exact,pre_advance,DELTA_SA,ar,monthly_mixed_frequency_kalman_em,2015:Q2,1.6254422348417368,5.606698968270647
exact,pre_advance,DELTA_SA,ar,monthly_mixed_frequency_kalman_em,2015:Q3,-0.2698116795306874,5.33688728873996
exact,pre_advance,DELTA_SA,ar,monthly_mixed_frequency_kalman_em,2015:Q4,-0.07537836537116434,5.261508923368796
exact,pre_advance,DELTA_SA,ar,monthly_mixed_frequency_kalman_em,2016:Q1,-0.03315352433392281,5.228355399034873
exact,pre_advance,DELTA_SA,ar,monthly_mixed_frequency_kalman_em,2016:Q2,0.054314474476123434,5.282669873510996
exact,pre_advance,DELTA_SA,ar,monthly_mixed_frequency_kalman_em,2016:Q3,0.043852166824806624,5.326522040335803
exact,pre_advance,DELTA_SA,ar,monthly_mixed_frequency_kalman_em,2016:Q4,-0.05795506021033961,5.268566980125463
exact,pre_advance,DELTA_SA,ar,monthly_mixed_frequency_kalman_em,2017:Q1,0.0872924999210833,5.355859480046546
exact,pre_advance,DELTA_SA,ar,monthly_mixed_frequency_kalman_em,2017:Q2,-0.04336769292043595,5.312491787126111
exact,pre_advance,DELTA_SA,ar,monthly_mixed_frequency_kalman_em,2017:Q3,-0.02662408586556626,5.285867701260544
exact,pre_advance,DELTA_SA,ar,monthly_mixed_frequency_kalman_em,2017:Q4,-0.09248857731039495,5.19337912395015
exact,pre_advance,DELTA_SA,ar,monthly_mixed_frequency_kalman_em,2018:Q1,0.008149669950540759,5.201528793900691
exact,pre_advance,DELTA_SA,ar,monthly_mixed_frequency_kalman_em,2018:Q2,0.014919972999482056,5.2164487669001725
exact,pre_advance,DELTA_SA,ar,monthly_mixed_frequency_kalman_em,2018:Q3,-0.001440565356550821,5.215008201543622
exact,pre_advance,DELTA_SA,ar,monthly_mixed_frequency_kalman_em,2019:Q1,0.2951151874144292,5.510123388958051
exact,pre_advance,DELTA_SA,ar,monthly_mixed_frequency_kalman_em,2019:Q2,-0.0005395835167892012,5.509583805441261
exact,pre_advance,DELTA_SA,ar,monthly_mixed_frequency_kalman_em,2019:Q3,-0.04441705655952492,5.465166748881736
exact,pre_advance,DELTA_SA,ar,monthly_mixed_frequency_kalman_em,2019:Q4,0.0036634572569701415,5.468830206138707
exact,pre_advance,DELTA_SA,ar,monthly_mixed_frequency_kalman_em,2020:Q1,0.03106433396908445,5.499894540107791
exact,pre_advance,DELTA_SA,ar,monthly_mixed_frequency_kalman_em,2020:Q2,-7.1860148010855225,-1.6861202609777317
exact,pre_advance,DELTA_SA,ar,monthly_mixed_frequency_kalman_em,2020:Q3,5.023991446367329,3.3378711853895977
exact,pre_advance,DELTA_SA,ar,monthly_mixed_frequency_kalman_em,2020:Q4,0.3414754859307677,3.6793466713203653
exact,pre_advance,DELTA_SA,ar,monthly_mixed_frequency_kalman_em,2021:Q1,-0.2093903907390268,3.4699562805813384
exact,pre_advance,DELTA_SA,ar,monthly_mixed_frequency_kalman_em,2021:Q2,0.007917231446172589,3.477873512027511
exact,pre_advance,DELTA_SA,ar,monthly_mixed_frequency_kalman_em,2021:Q3,-0.0013881999441724066,3.4764853120833386
exact,pre_advance,DELTA_SA,ar,monthly_mixed_frequency_kalman_em,2021:Q4,-0.00043925261111018167,3.4760460594722282
exact,pre_advance,DELTA_SA,ar,monthly_mixed_frequency_kalman_em,2022:Q1,0.003465167736758791,3.479511227208987
exact,pre_advance,DELTA_SA,ar,monthly_mixed_frequency_kalman_em,2022:Q2,0.08862232961152312,3.56813355682051
exact,pre_advance,DELTA_SA,ar,monthly_mixed_frequency_kalman_em,2022:Q3,0.07257409325739626,3.6407076500779065
exact,pre_advance,DELTA_SA,ar,monthly_mixed_frequency_kalman_em,2022:Q4,0.03837218419201549,3.6790798342699222
exact,pre_advance,DELTA_SA,ar,monthly_mixed_frequency_kalman_em,2023:Q1,0.0014738887120556762,3.680553722981978
exact,pre_advance,DELTA_SA,ar,monthly_mixed_frequency_kalman_em,2023:Q2,-0.057052508857054235,3.6235012141249237
exact,pre_advance,DELTA_SA,ar,monthly_mixed_frequency_kalman_em,2023:Q3,0.030480984413456834,3.6539821985383805
exact,pre_advance,DELTA_SA,ar,monthly_mixed_frequency_kalman_em,2023:Q4,0.03642247662115147,3.690404675159532
exact,pre_advance,DELTA_SA,ar,monthly_mixed_frequency_kalman_em,2024:Q1,0.0038216693833138526,3.694226344542846
exact,pre_advance,DELTA_SA,ar,monthly_mixed_frequency_kalman_em,2024:Q2,0.0031220553074036424,3.6973483998502497
exact,pre_advance,DELTA_SA,ar,monthly_mixed_frequency_kalman_em,2024:Q3,0.005103644465263563,3.702452044315513
exact,pre_advance,DELTA_SA,ar,monthly_mixed_frequency_kalman_em,2024:Q4,-0.0011265161029144243,3.7013255282125987
exact,pre_advance,DELTA_SA,ar,no_revision,2005:Q1,-0.15257503321613658,-0.15257503321613658
exact,pre_advance,DELTA_SA,ar,no_revision,2005:Q2,0.10304262774761302,-0.049532405468523555
exact,pre_advance,DELTA_SA,ar,no_revision,2005:Q3,0.03151683579611303,-0.018015569672410525
exact,pre_advance,DELTA_SA,ar,no_revision,2005:Q4,-0.17958946757420496,-0.1976050372466155
exact,pre_advance,DELTA_SA,ar,no_revision,2006:Q1,-0.22225097588053042,-0.41985601312714593
exact,pre_advance,DELTA_SA,ar,no_revision,2006:Q2,-0.1338214718146227,-0.5536774849417686
exact,pre_advance,DELTA_SA,ar,no_revision,2006:Q3,-0.2655324769569707,-0.8192099618987393
exact,pre_advance,DELTA_SA,ar,no_revision,2006:Q4,1.1280810824986391,0.30887112059989985
exact,pre_advance,DELTA_SA,ar,no_revision,2007:Q1,-0.36488258133290913,-0.05601146073300928
exact,pre_advance,DELTA_SA,ar,no_revision,2007:Q2,0.2101220628635298,0.15411060213052052
exact,pre_advance,DELTA_SA,ar,no_revision,2007:Q3,-0.5038879623481906,-0.34977736021767003
exact,pre_advance,DELTA_SA,ar,no_revision,2007:Q4,0.23194641324995732,-0.11783094696771271
exact,pre_advance,DELTA_SA,ar,no_revision,2008:Q1,-0.06565748592115798,-0.18348843288887068
exact,pre_advance,DELTA_SA,ar,no_revision,2008:Q2,-0.7051418869943866,-0.8886303198832572
exact,pre_advance,DELTA_SA,ar,no_revision,2008:Q3,0.8839041046210189,-0.004726215262238376
exact,pre_advance,DELTA_SA,ar,no_revision,2008:Q4,0.39399862829546173,0.38927241303322335
exact,pre_advance,DELTA_SA,ar,no_revision,2009:Q1,1.3203689037955737,1.709641316828797
exact,pre_advance,DELTA_SA,ar,no_revision,2009:Q2,0.36877932291984866,2.0784206397486455
exact,pre_advance,DELTA_SA,ar,no_revision,2009:Q3,0.31974831955083616,2.3981689592994817
exact,pre_advance,DELTA_SA,ar,no_revision,2009:Q4,0.2461874095178597,2.6443563688173413
exact,pre_advance,DELTA_SA,ar,no_revision,2010:Q1,0.012274663642203441,2.656631032459545
exact,pre_advance,DELTA_SA,ar,no_revision,2010:Q2,-0.10097637669884518,2.5556546557606996
exact,pre_advance,DELTA_SA,ar,no_revision,2010:Q3,0.41001530272678194,2.9656699584874815
exact,pre_advance,DELTA_SA,ar,no_revision,2010:Q4,0.33708017745408314,3.3027501359415647
exact,pre_advance,DELTA_SA,ar,no_revision,2011:Q1,0.05273638935335863,3.3554865252949235
exact,pre_advance,DELTA_SA,ar,no_revision,2011:Q2,0.0864949621817803,3.4419814874767036
exact,pre_advance,DELTA_SA,ar,no_revision,2011:Q3,-0.03822954602021156,3.403751941456492
exact,pre_advance,DELTA_SA,ar,no_revision,2011:Q4,0.1042486389810256,3.5080005804375176
exact,pre_advance,DELTA_SA,ar,no_revision,2012:Q1,0.12270345028699549,3.6307040307245133
exact,pre_advance,DELTA_SA,ar,no_revision,2012:Q2,0.05124300972150874,3.681947040446022
exact,pre_advance,DELTA_SA,ar,no_revision,2012:Q3,-0.19803121584843814,3.483915824597584
exact,pre_advance,DELTA_SA,ar,no_revision,2012:Q4,-0.06160444841889918,3.4223113761786847
exact,pre_advance,DELTA_SA,ar,no_revision,2013:Q1,0.13839352919058448,3.560704905369269
exact,pre_advance,DELTA_SA,ar,no_revision,2013:Q2,0.010665904843470964,3.5713708102127404
exact,pre_advance,DELTA_SA,ar,no_revision,2013:Q3,-0.49085393179229264,3.0805168784204477
exact,pre_advance,DELTA_SA,ar,no_revision,2013:Q4,0.8147882022650561,3.895305080685504
exact,pre_advance,DELTA_SA,ar,no_revision,2014:Q1,-0.6728261778290336,3.22247890285647
exact,pre_advance,DELTA_SA,ar,no_revision,2014:Q2,0.3153905835886226,3.537869486445093
exact,pre_advance,DELTA_SA,ar,no_revision,2014:Q3,-0.05736992828325174,3.480499558161841
exact,pre_advance,DELTA_SA,ar,no_revision,2014:Q4,0.18045818425062124,3.6609577424124624
exact,pre_advance,DELTA_SA,ar,no_revision,2015:Q1,-0.30424364925329495,3.3567140931591677
exact,pre_advance,DELTA_SA,ar,no_revision,2015:Q2,1.0249249122593762,4.381639005418544
exact,pre_advance,DELTA_SA,ar,no_revision,2015:Q3,-0.3345827492334456,4.0470562561850985
exact,pre_advance,DELTA_SA,ar,no_revision,2015:Q4,-0.09676443992777004,3.9502918162573284
exact,pre_advance,DELTA_SA,ar,no_revision,2016:Q1,-0.09029065158363185,3.8600011646736965
exact,pre_advance,DELTA_SA,ar,no_revision,2016:Q2,0.1360297525459644,3.996030917219661
exact,pre_advance,DELTA_SA,ar,no_revision,2016:Q3,-0.021175007572158712,3.974855909647502
exact,pre_advance,DELTA_SA,ar,no_revision,2016:Q4,0.02734587565242416,4.002201785299926
exact,pre_advance,DELTA_SA,ar,no_revision,2017:Q1,-0.056295362083760514,3.945906423216165
exact,pre_advance,DELTA_SA,ar,no_revision,2017:Q2,-0.1998229027002102,3.746083520515955
exact,pre_advance,DELTA_SA,ar,no_revision,2017:Q3,-0.09239460605426397,3.653688914461691
exact,pre_advance,DELTA_SA,ar,no_revision,2017:Q4,0.035699658663772574,3.6893885731254636
exact,pre_advance,DELTA_SA,ar,no_revision,2018:Q1,0.012703611098869368,3.702092184224333
exact,pre_advance,DELTA_SA,ar,no_revision,2018:Q2,0.0030213569949030655,3.705113541219236
exact,pre_advance,DELTA_SA,ar,no_revision,2018:Q3,0.0032310710133240618,3.70834461223256
exact,pre_advance,DELTA_SA,ar,no_revision,2019:Q1,0.3134694480182471,4.021814060250807
exact,pre_advance,DELTA_SA,ar,no_revision,2019:Q2,-0.00020861065790184213,4.021605449592905
exact,pre_advance,DELTA_SA,ar,no_revision,2019:Q3,-0.020795440927072837,4.000810008665832
exact,pre_advance,DELTA_SA,ar,no_revision,2019:Q4,0.022807340587339162,4.023617349253171
exact,pre_advance,DELTA_SA,ar,no_revision,2020:Q1,0.04374626691208146,4.067363616165252
exact,pre_advance,DELTA_SA,ar,no_revision,2020:Q2,-0.4848885887598303,3.582475027405422
exact,pre_advance,DELTA_SA,ar,no_revision,2020:Q3,6.6030936783793335,10.185568705784755
exact,pre_advance,DELTA_SA,ar,no_revision,2020:Q4,0.3494364241901803,10.535005129974936
exact,pre_advance,DELTA_SA,ar,no_revision,2021:Q1,0.010481372036795358,10.54548650201173
exact,pre_advance,DELTA_SA,ar,no_revision,2021:Q2,0.005674643654305938,10.551161145666036
exact,pre_advance,DELTA_SA,ar,no_revision,2021:Q3,-0.00428446848418562,10.546876677181851
exact,pre_advance,DELTA_SA,ar,no_revision,2021:Q4,-0.009636975615624089,10.537239701566227
exact,pre_advance,DELTA_SA,ar,no_revision,2022:Q1,0.05376352283472801,10.591003224400955
exact,pre_advance,DELTA_SA,ar,no_revision,2022:Q2,-0.01747374549873487,10.57352947890222
exact,pre_advance,DELTA_SA,ar,no_revision,2022:Q3,-0.038912176234116996,10.534617302668103
exact,pre_advance,DELTA_SA,ar,no_revision,2022:Q4,0.058622083054108,10.59323938572221
exact,pre_advance,DELTA_SA,ar,no_revision,2023:Q1,-0.02740533844308022,10.56583404727913
exact,pre_advance,DELTA_SA,ar,no_revision,2023:Q2,0.06172819389498699,10.627562241174118
exact,pre_advance,DELTA_SA,ar,no_revision,2023:Q3,-0.03194758936873526,10.595614651805382
exact,pre_advance,DELTA_SA,ar,no_revision,2023:Q4,0.03690159867203891,10.63251625047742
exact,pre_advance,DELTA_SA,ar,no_revision,2024:Q1,0.07155817897030346,10.704074429447724
exact,pre_advance,DELTA_SA,ar,no_revision,2024:Q2,-0.009033581491366181,10.695040847956358
exact,pre_advance,DELTA_SA,ar,no_revision,2024:Q3,0.00727617350536104,10.702317021461718
exact,pre_advance,DELTA_SA,ar,no_revision,2024:Q4,-0.008788760628669104,10.69352826083305
exact,pre_advance,DELTA_SA,ar,release_dfm,2005:Q1,-0.05986375602113623,-0.05986375602113623
exact,pre_advance,DELTA_SA,ar,release_dfm,2005:Q2,0.0489236410409325,-0.010940114980203731
exact,pre_advance,DELTA_SA,ar,release_dfm,2005:Q3,0.13866235995985843,0.1277222449796547
exact,pre_advance,DELTA_SA,ar,release_dfm,2005:Q4,-0.04677500700294253,0.08094723797671217
exact,pre_advance,DELTA_SA,ar,release_dfm,2006:Q1,-0.07876250989131742,0.0021847280853947576
exact,pre_advance,DELTA_SA,ar,release_dfm,2006:Q2,-0.03585618107726753,-0.03367145299187277
exact,pre_advance,DELTA_SA,ar,release_dfm,2006:Q3,-0.17662844986512616,-0.21029990285699893
exact,pre_advance,DELTA_SA,ar,release_dfm,2006:Q4,1.0043380777396183,0.7940381748826193
exact,pre_advance,DELTA_SA,ar,release_dfm,2007:Q1,-0.37563983704702153,0.41839833783559777
exact,pre_advance,DELTA_SA,ar,release_dfm,2007:Q2,0.31453234715795886,0.7329306849935566
exact,pre_advance,DELTA_SA,ar,release_dfm,2007:Q3,-0.5884379915384176,0.14449269345513904
exact,pre_advance,DELTA_SA,ar,release_dfm,2007:Q4,0.22517787378085072,0.3696705672359898
exact,pre_advance,DELTA_SA,ar,release_dfm,2008:Q1,-0.11567370974782756,0.25399685748816225
exact,pre_advance,DELTA_SA,ar,release_dfm,2008:Q2,-0.7928680967757116,-0.5388712392875493
exact,pre_advance,DELTA_SA,ar,release_dfm,2008:Q3,0.8837615679099272,0.3448903286223779
exact,pre_advance,DELTA_SA,ar,release_dfm,2008:Q4,1.8512166185502492,2.196106947172627
exact,pre_advance,DELTA_SA,ar,release_dfm,2009:Q1,-1.272945791225932,0.9231611559466948
exact,pre_advance,DELTA_SA,ar,release_dfm,2009:Q2,0.3433988033436028,1.2665599592902976
exact,pre_advance,DELTA_SA,ar,release_dfm,2009:Q3,-0.2814545997263641,0.9851053595639335
exact,pre_advance,DELTA_SA,ar,release_dfm,2009:Q4,0.28192892339059644,1.26703428295453
exact,pre_advance,DELTA_SA,ar,release_dfm,2010:Q1,-0.22159961719422944,1.0454346657603006
exact,pre_advance,DELTA_SA,ar,release_dfm,2010:Q2,-0.45423428866577487,0.5912003770945258
exact,pre_advance,DELTA_SA,ar,release_dfm,2010:Q3,0.5120285589561298,1.1032289360506555
exact,pre_advance,DELTA_SA,ar,release_dfm,2010:Q4,0.25086689564558345,1.354095831696239
exact,pre_advance,DELTA_SA,ar,release_dfm,2011:Q1,0.015365030287720557,1.3694608619839597
exact,pre_advance,DELTA_SA,ar,release_dfm,2011:Q2,0.013828768430357297,1.383289630414317
exact,pre_advance,DELTA_SA,ar,release_dfm,2011:Q3,-0.16015288312412385,1.223136747290193
exact,pre_advance,DELTA_SA,ar,release_dfm,2011:Q4,0.1549614951608927,1.3780982424510857
exact,pre_advance,DELTA_SA,ar,release_dfm,2012:Q1,-0.06443410636859595,1.3136641360824897
exact,pre_advance,DELTA_SA,ar,release_dfm,2012:Q2,0.07668087315512612,1.3903450092376157
exact,pre_advance,DELTA_SA,ar,release_dfm,2012:Q3,-0.09802125835656544,1.2923237508810503
exact,pre_advance,DELTA_SA,ar,release_dfm,2012:Q4,0.0010619517998346935,1.293385702680885
exact,pre_advance,DELTA_SA,ar,release_dfm,2013:Q1,0.09375261670744145,1.3871383193883264
exact,pre_advance,DELTA_SA,ar,release_dfm,2013:Q2,0.19744083899653941,1.5845791583848658
exact,pre_advance,DELTA_SA,ar,release_dfm,2013:Q3,-0.3424510583468031,1.2421281000380628
exact,pre_advance,DELTA_SA,ar,release_dfm,2013:Q4,0.4299613711862882,1.672089471224351
exact,pre_advance,DELTA_SA,ar,release_dfm,2014:Q1,-0.8515117262126555,0.8205777450116956
exact,pre_advance,DELTA_SA,ar,release_dfm,2014:Q2,0.36544685772539937,1.1860246027370949
exact,pre_advance,DELTA_SA,ar,release_dfm,2014:Q3,0.015968437845415275,1.20199304058251
exact,pre_advance,DELTA_SA,ar,release_dfm,2014:Q4,0.08690498318263362,1.2888980237651437
exact,pre_advance,DELTA_SA,ar,release_dfm,2015:Q1,-0.26502154325968796,1.0238764805054559
exact,pre_advance,DELTA_SA,ar,release_dfm,2015:Q2,1.4097908718447312,2.433667352350187
exact,pre_advance,DELTA_SA,ar,release_dfm,2015:Q3,-0.25626463299771324,2.177402719352474
exact,pre_advance,DELTA_SA,ar,release_dfm,2015:Q4,-0.0684032574400901,2.1089994619123837
exact,pre_advance,DELTA_SA,ar,release_dfm,2016:Q1,-0.0689089096412497,2.040090552271134
exact,pre_advance,DELTA_SA,ar,release_dfm,2016:Q2,0.11387605621686268,2.1539666084879965
exact,pre_advance,DELTA_SA,ar,release_dfm,2016:Q3,0.013830726475489302,2.1677973349634856
exact,pre_advance,DELTA_SA,ar,release_dfm,2016:Q4,-0.015984084721747175,2.151813250241738
exact,pre_advance,DELTA_SA,ar,release_dfm,2017:Q1,0.04748608430154014,2.1992993345432783
exact,pre_advance,DELTA_SA,ar,release_dfm,2017:Q2,-0.11373171675458803,2.08556761778869
exact,pre_advance,DELTA_SA,ar,release_dfm,2017:Q3,-0.05734869537640689,2.0282189224122833
exact,pre_advance,DELTA_SA,ar,release_dfm,2017:Q4,-0.03546444918402645,1.992754473228257
exact,pre_advance,DELTA_SA,ar,release_dfm,2018:Q1,-0.08653664695569,1.9062178262725669
exact,pre_advance,DELTA_SA,ar,release_dfm,2018:Q2,0.026431090213568022,1.932648916486135
exact,pre_advance,DELTA_SA,ar,release_dfm,2018:Q3,-0.011743361579623501,1.9209055549065115
exact,pre_advance,DELTA_SA,ar,release_dfm,2019:Q1,0.31248209939545973,2.2333876543019713
exact,pre_advance,DELTA_SA,ar,release_dfm,2019:Q2,-0.00517949830462442,2.228208155997347
exact,pre_advance,DELTA_SA,ar,release_dfm,2019:Q3,0.008956664009568252,2.237164820006915
exact,pre_advance,DELTA_SA,ar,release_dfm,2019:Q4,0.01866882216969747,2.2558336421766128
exact,pre_advance,DELTA_SA,ar,release_dfm,2020:Q1,0.0759219291262642,2.331755571302877
exact,pre_advance,DELTA_SA,ar,release_dfm,2020:Q2,-4.917315183441348,-2.585559612138471
exact,pre_advance,DELTA_SA,ar,release_dfm,2020:Q3,6.4886529956870005,3.9030933835485295
exact,pre_advance,DELTA_SA,ar,release_dfm,2020:Q4,0.35575974166325325,4.2588531252117825
exact,pre_advance,DELTA_SA,ar,release_dfm,2021:Q1,0.005528334928234296,4.264381460140017
exact,pre_advance,DELTA_SA,ar,release_dfm,2021:Q2,0.008197605983682134,4.272579066123699
exact,pre_advance,DELTA_SA,ar,release_dfm,2021:Q3,-1.8839223613639853e-05,4.272560226900085
exact,pre_advance,DELTA_SA,ar,release_dfm,2021:Q4,0.00021029716447546542,4.27277052406456
exact,pre_advance,DELTA_SA,ar,release_dfm,2022:Q1,0.029398067183279586,4.30216859124784
exact,pre_advance,DELTA_SA,ar,release_dfm,2022:Q2,0.09920722567257549,4.401375816920416
exact,pre_advance,DELTA_SA,ar,release_dfm,2022:Q3,0.016009159739086662,4.417384976659502
exact,pre_advance,DELTA_SA,ar,release_dfm,2022:Q4,0.059614805866034994,4.476999782525537
exact,pre_advance,DELTA_SA,ar,release_dfm,2023:Q1,0.0018650957815648569,4.4788648783071014
exact,pre_advance,DELTA_SA,ar,release_dfm,2023:Q2,-0.0224552826821742,4.456409595624927
exact,pre_advance,DELTA_SA,ar,release_dfm,2023:Q3,-0.0023582122005134515,4.454051383424414
exact,pre_advance,DELTA_SA,ar,release_dfm,2023:Q4,0.01123203838492863,4.4652834218093425
exact,pre_advance,DELTA_SA,ar,release_dfm,2024:Q1,-0.010060578657949154,4.455222843151393
exact,pre_advance,DELTA_SA,ar,release_dfm,2024:Q2,0.002550195432297617,4.4577730385836905
exact,pre_advance,DELTA_SA,ar,release_dfm,2024:Q3,-0.004477198937994425,4.453295839645696
exact,pre_advance,DELTA_SA,ar,release_dfm,2024:Q4,-0.0006192968784900705,4.452676542767206
exact,pre_advance,DELTA_SA,ar,revision_dfm_kalman_em,2005:Q1,-0.04078186170236272,-0.04078186170236272
exact,pre_advance,DELTA_SA,ar,revision_dfm_kalman_em,2005:Q2,-0.0500372472286697,-0.09081910893103243
exact,pre_advance,DELTA_SA,ar,revision_dfm_kalman_em,2005:Q3,0.20659972431197338,0.11578061538094095
exact,pre_advance,DELTA_SA,ar,revision_dfm_kalman_em,2005:Q4,0.04102801147174415,0.1568086268526851
exact,pre_advance,DELTA_SA,ar,revision_dfm_kalman_em,2006:Q1,0.004464540348470715,0.1612731672011558
exact,pre_advance,DELTA_SA,ar,revision_dfm_kalman_em,2006:Q2,0.02182384033712114,0.18309700753827696
exact,pre_advance,DELTA_SA,ar,revision_dfm_kalman_em,2006:Q3,0.043119925438250606,0.22621693297652756
exact,pre_advance,DELTA_SA,ar,revision_dfm_kalman_em,2006:Q4,1.1118636135536808,1.3380805465302084
exact,pre_advance,DELTA_SA,ar,revision_dfm_kalman_em,2007:Q1,-0.5644714585347685,0.7736090879954398
exact,pre_advance,DELTA_SA,ar,revision_dfm_kalman_em,2007:Q2,0.4871548015357281,1.260763889531168
exact,pre_advance,DELTA_SA,ar,revision_dfm_kalman_em,2007:Q3,-0.06936664936082426,1.1913972401703437
exact,pre_advance,DELTA_SA,ar,revision_dfm_kalman_em,2007:Q4,0.218575124506436,1.4099723646767797
exact,pre_advance,DELTA_SA,ar,revision_dfm_kalman_em,2008:Q1,-0.0854772655889183,1.3244950990878614
exact,pre_advance,DELTA_SA,ar,revision_dfm_kalman_em,2008:Q2,-0.43105003946332654,0.8934450596245349
exact,pre_advance,DELTA_SA,ar,revision_dfm_kalman_em,2008:Q3,0.9358643480304778,1.8293094076550127
exact,pre_advance,DELTA_SA,ar,revision_dfm_kalman_em,2008:Q4,2.93040940136881,4.7597188090238225
exact,pre_advance,DELTA_SA,ar,revision_dfm_kalman_em,2009:Q1,1.3513867812946156,6.111105590318438
exact,pre_advance,DELTA_SA,ar,revision_dfm_kalman_em,2009:Q2,-0.19813368220286698,5.912971908115571
exact,pre_advance,DELTA_SA,ar,revision_dfm_kalman_em,2009:Q3,-1.0868428103712247,4.826129097744346
exact,pre_advance,DELTA_SA,ar,revision_dfm_kalman_em,2009:Q4,0.049227719448511786,4.875356817192857
exact,pre_advance,DELTA_SA,ar,revision_dfm_kalman_em,2010:Q1,-0.32331033611091403,4.552046481081943
exact,pre_advance,DELTA_SA,ar,revision_dfm_kalman_em,2010:Q2,-1.0842391062590124,3.4678073748229306
exact,pre_advance,DELTA_SA,ar,revision_dfm_kalman_em,2010:Q3,0.6737395399496725,4.141546914772603
exact,pre_advance,DELTA_SA,ar,revision_dfm_kalman_em,2010:Q4,0.0564369079299577,4.197983822702561
exact,pre_advance,DELTA_SA,ar,revision_dfm_kalman_em,2011:Q1,0.029429253281549564,4.227413075984111
exact,pre_advance,DELTA_SA,ar,revision_dfm_kalman_em,2011:Q2,-0.18838657009158047,4.03902650589253
exact,pre_advance,DELTA_SA,ar,revision_dfm_kalman_em,2011:Q3,-0.5680057868401078,3.4710207190524223
exact,pre_advance,DELTA_SA,ar,revision_dfm_kalman_em,2011:Q4,0.15293332482499836,3.6239540438774207
exact,pre_advance,DELTA_SA,ar,revision_dfm_kalman_em,2012:Q1,-0.11867449133992372,3.505279552537497
exact,pre_advance,DELTA_SA,ar,revision_dfm_kalman_em,2012:Q2,0.07581622328078877,3.5810957758182855
exact,pre_advance,DELTA_SA,ar,revision_dfm_kalman_em,2012:Q3,-0.05526198255374254,3.525833793264543
exact,pre_advance,DELTA_SA,ar,revision_dfm_kalman_em,2012:Q4,-0.014957846566803917,3.510875946697739
exact,pre_advance,DELTA_SA,ar,revision_dfm_kalman_em,2013:Q1,-0.07088359925406632,3.4399923474436727
exact,pre_advance,DELTA_SA,ar,revision_dfm_kalman_em,2013:Q2,0.22235324349175745,3.66234559093543
exact,pre_advance,DELTA_SA,ar,revision_dfm_kalman_em,2013:Q3,-0.30939145558118236,3.352954135354248
exact,pre_advance,DELTA_SA,ar,revision_dfm_kalman_em,2013:Q4,0.364763991971109,3.717718127325357
exact,pre_advance,DELTA_SA,ar,revision_dfm_kalman_em,2014:Q1,-1.26937415292528,2.448343974400077
exact,pre_advance,DELTA_SA,ar,revision_dfm_kalman_em,2014:Q2,0.35140563968326977,2.7997496140833467
exact,pre_advance,DELTA_SA,ar,revision_dfm_kalman_em,2014:Q3,0.01571148728400118,2.815461101367348
exact,pre_advance,DELTA_SA,ar,revision_dfm_kalman_em,2014:Q4,0.1427542109421476,2.9582153123094956
exact,pre_advance,DELTA_SA,ar,revision_dfm_kalman_em,2015:Q1,-0.18408653538734188,2.774128776922154
exact,pre_advance,DELTA_SA,ar,revision_dfm_kalman_em,2015:Q2,1.3160982802994745,4.090227057221629
exact,pre_advance,DELTA_SA,ar,revision_dfm_kalman_em,2015:Q3,-0.32852543515765914,3.7617016220639696
exact,pre_advance,DELTA_SA,ar,revision_dfm_kalman_em,2015:Q4,-0.14275784655224036,3.6189437755117293
exact,pre_advance,DELTA_SA,ar,revision_dfm_kalman_em,2016:Q1,-0.055747890577024596,3.5631958849347045
exact,pre_advance,DELTA_SA,ar,revision_dfm_kalman_em,2016:Q2,0.06570463958084292,3.6289005245155472
exact,pre_advance,DELTA_SA,ar,revision_dfm_kalman_em,2016:Q3,0.03910566320259486,3.668006187718142
exact,pre_advance,DELTA_SA,ar,revision_dfm_kalman_em,2016:Q4,0.013683529855101568,3.6816897175732435
exact,pre_advance,DELTA_SA,ar,revision_dfm_kalman_em,2017:Q1,0.08228463122408164,3.763974348797325
exact,pre_advance,DELTA_SA,ar,revision_dfm_kalman_em,2017:Q2,-0.012202722470695877,3.751771626326629
exact,pre_advance,DELTA_SA,ar,revision_dfm_kalman_em,2017:Q3,-0.042629227405599254,3.70914239892103
exact,pre_advance,DELTA_SA,ar,revision_dfm_kalman_em,2017:Q4,-0.04462131901228993,3.66452107990874
exact,pre_advance,DELTA_SA,ar,revision_dfm_kalman_em,2018:Q1,-0.16143209426464208,3.5030889856440983
exact,pre_advance,DELTA_SA,ar,revision_dfm_kalman_em,2018:Q2,0.024892582531435548,3.5279815681755338
exact,pre_advance,DELTA_SA,ar,revision_dfm_kalman_em,2018:Q3,-0.012204178464224903,3.515777389711309
exact,pre_advance,DELTA_SA,ar,revision_dfm_kalman_em,2019:Q1,0.29116872448520814,3.806946114196517
exact,pre_advance,DELTA_SA,ar,revision_dfm_kalman_em,2019:Q2,7.012070662652853e-05,3.8070162349031436
exact,pre_advance,DELTA_SA,ar,revision_dfm_kalman_em,2019:Q3,0.010751911552076714,3.8177681464552204
exact,pre_advance,DELTA_SA,ar,revision_dfm_kalman_em,2019:Q4,0.02089192453819322,3.8386600709934138
exact,pre_advance,DELTA_SA,ar,revision_dfm_kalman_em,2020:Q1,0.06813692859949408,3.906796999592908
exact,pre_advance,DELTA_SA,ar,revision_dfm_kalman_em,2020:Q2,-2.4390127964842856,1.4677842031086223
exact,pre_advance,DELTA_SA,ar,revision_dfm_kalman_em,2020:Q3,6.593963489112579,8.061747692221202
exact,pre_advance,DELTA_SA,ar,revision_dfm_kalman_em,2020:Q4,0.0915499232203531,8.153297615441554
exact,pre_advance,DELTA_SA,ar,revision_dfm_kalman_em,2021:Q1,-0.11297928922136408,8.04031832622019
exact,pre_advance,DELTA_SA,ar,revision_dfm_kalman_em,2021:Q2,-0.012710501992026975,8.027607824228163
exact,pre_advance,DELTA_SA,ar,revision_dfm_kalman_em,2021:Q3,-0.005980853134727343,8.021626971093436
exact,pre_advance,DELTA_SA,ar,revision_dfm_kalman_em,2021:Q4,-0.023112617264861628,7.998514353828575
exact,pre_advance,DELTA_SA,ar,revision_dfm_kalman_em,2022:Q1,-0.025628457657012757,7.972885896171562
exact,pre_advance,DELTA_SA,ar,revision_dfm_kalman_em,2022:Q2,0.11128009190954848,8.08416598808111
exact,pre_advance,DELTA_SA,ar,revision_dfm_kalman_em,2022:Q3,-0.020460771778382666,8.063705216302727
exact,pre_advance,DELTA_SA,ar,revision_dfm_kalman_em,2022:Q4,0.1050379380557903,8.168743154358518
exact,pre_advance,DELTA_SA,ar,revision_dfm_kalman_em,2023:Q1,-0.18890055629660424,7.979842598061913
exact,pre_advance,DELTA_SA,ar,revision_dfm_kalman_em,2023:Q2,-0.02919623561373194,7.950646362448182
exact,pre_advance,DELTA_SA,ar,revision_dfm_kalman_em,2023:Q3,0.0399557855422754,7.990602147990457
exact,pre_advance,DELTA_SA,ar,revision_dfm_kalman_em,2023:Q4,0.03668352122779291,8.02728566921825
exact,pre_advance,DELTA_SA,ar,revision_dfm_kalman_em,2024:Q1,0.04856015778855699,8.075845827006807
exact,pre_advance,DELTA_SA,ar,revision_dfm_kalman_em,2024:Q2,0.002783003085193447,8.078628830092
exact,pre_advance,DELTA_SA,ar,revision_dfm_kalman_em,2024:Q3,-0.025457818584843264,8.053171011507157
exact,pre_advance,DELTA_SA,ar,revision_dfm_kalman_em,2024:Q4,-0.006892321079710228,8.046278690427446
exact,pre_advance,DELTA_SA,ar,spf,2005:Q1,-0.15257503321613658,-0.15257503321613658
exact,pre_advance,DELTA_SA,ar,spf,2005:Q2,0.10304262774761302,-0.049532405468523555
exact,pre_advance,DELTA_SA,ar,spf,2005:Q3,0.03151683579611303,-0.018015569672410525
exact,pre_advance,DELTA_SA,ar,spf,2005:Q4,-0.17958946757420496,-0.1976050372466155
exact,pre_advance,DELTA_SA,ar,spf,2006:Q1,-0.22225097588053042,-0.41985601312714593
exact,pre_advance,DELTA_SA,ar,spf,2006:Q2,-0.1338214718146227,-0.5536774849417686
exact,pre_advance,DELTA_SA,ar,spf,2006:Q3,-0.2655324769569707,-0.8192099618987393
exact,pre_advance,DELTA_SA,ar,spf,2006:Q4,1.1280810824986391,0.30887112059989985
exact,pre_advance,DELTA_SA,ar,spf,2007:Q1,-0.36488258133290913,-0.05601146073300928
exact,pre_advance,DELTA_SA,ar,spf,2007:Q2,0.2101220628635298,0.15411060213052052
exact,pre_advance,DELTA_SA,ar,spf,2007:Q3,-0.5038879623481906,-0.34977736021767003
exact,pre_advance,DELTA_SA,ar,spf,2007:Q4,0.23194641324995732,-0.11783094696771271
exact,pre_advance,DELTA_SA,ar,spf,2008:Q1,-0.06565748592115798,-0.18348843288887068
exact,pre_advance,DELTA_SA,ar,spf,2008:Q2,-0.7051418869943866,-0.8886303198832572
exact,pre_advance,DELTA_SA,ar,spf,2008:Q3,0.8839041046210189,-0.004726215262238376
exact,pre_advance,DELTA_SA,ar,spf,2008:Q4,0.39399862829546173,0.38927241303322335
exact,pre_advance,DELTA_SA,ar,spf,2009:Q1,1.3203689037955737,1.709641316828797
exact,pre_advance,DELTA_SA,ar,spf,2009:Q2,0.36877932291984866,2.0784206397486455
exact,pre_advance,DELTA_SA,ar,spf,2009:Q3,0.31974831955083616,2.3981689592994817
exact,pre_advance,DELTA_SA,ar,spf,2009:Q4,0.2461874095178597,2.6443563688173413
exact,pre_advance,DELTA_SA,ar,spf,2010:Q1,0.012274663642203441,2.656631032459545
exact,pre_advance,DELTA_SA,ar,spf,2010:Q2,-0.10097637669884518,2.5556546557606996
exact,pre_advance,DELTA_SA,ar,spf,2010:Q3,0.41001530272678194,2.9656699584874815
exact,pre_advance,DELTA_SA,ar,spf,2010:Q4,0.33708017745408314,3.3027501359415647
exact,pre_advance,DELTA_SA,ar,spf,2011:Q1,0.05273638935335863,3.3554865252949235
exact,pre_advance,DELTA_SA,ar,spf,2011:Q2,0.0864949621817803,3.4419814874767036
exact,pre_advance,DELTA_SA,ar,spf,2011:Q3,-0.03822954602021156,3.403751941456492
exact,pre_advance,DELTA_SA,ar,spf,2011:Q4,0.1042486389810256,3.5080005804375176
exact,pre_advance,DELTA_SA,ar,spf,2012:Q1,0.12270345028699549,3.6307040307245133
exact,pre_advance,DELTA_SA,ar,spf,2012:Q2,0.05124300972150874,3.681947040446022
exact,pre_advance,DELTA_SA,ar,spf,2012:Q3,-0.19803121584843814,3.483915824597584
exact,pre_advance,DELTA_SA,ar,spf,2012:Q4,-0.06160444841889918,3.4223113761786847
exact,pre_advance,DELTA_SA,ar,spf,2013:Q1,0.13839352919058448,3.560704905369269
exact,pre_advance,DELTA_SA,ar,spf,2013:Q2,0.010665904843470964,3.5713708102127404
exact,pre_advance,DELTA_SA,ar,spf,2013:Q3,-0.49085393179229264,3.0805168784204477
exact,pre_advance,DELTA_SA,ar,spf,2013:Q4,0.8147882022650561,3.895305080685504
exact,pre_advance,DELTA_SA,ar,spf,2014:Q1,-0.6728261778290336,3.22247890285647
exact,pre_advance,DELTA_SA,ar,spf,2014:Q2,0.3153905835886226,3.537869486445093
exact,pre_advance,DELTA_SA,ar,spf,2014:Q3,-0.05736992828325174,3.480499558161841
exact,pre_advance,DELTA_SA,ar,spf,2014:Q4,0.18045818425062124,3.6609577424124624
exact,pre_advance,DELTA_SA,ar,spf,2015:Q1,-0.30424364925329495,3.3567140931591677
exact,pre_advance,DELTA_SA,ar,spf,2015:Q2,1.0249249122593762,4.381639005418544
exact,pre_advance,DELTA_SA,ar,spf,2015:Q3,-0.3345827492334456,4.0470562561850985
exact,pre_advance,DELTA_SA,ar,spf,2015:Q4,-0.09676443992777004,3.9502918162573284
exact,pre_advance,DELTA_SA,ar,spf,2016:Q1,-0.09029065158363185,3.8600011646736965
exact,pre_advance,DELTA_SA,ar,spf,2016:Q2,0.1360297525459644,3.996030917219661
exact,pre_advance,DELTA_SA,ar,spf,2016:Q3,-0.021175007572158712,3.974855909647502
exact,pre_advance,DELTA_SA,ar,spf,2016:Q4,0.02734587565242416,4.002201785299926
exact,pre_advance,DELTA_SA,ar,spf,2017:Q1,-0.056295362083760514,3.945906423216165
exact,pre_advance,DELTA_SA,ar,spf,2017:Q2,-0.1998229027002102,3.746083520515955
exact,pre_advance,DELTA_SA,ar,spf,2017:Q3,-0.09239460605426397,3.653688914461691
exact,pre_advance,DELTA_SA,ar,spf,2017:Q4,0.035699658663772574,3.6893885731254636
exact,pre_advance,DELTA_SA,ar,spf,2018:Q1,0.012703611098869368,3.702092184224333
exact,pre_advance,DELTA_SA,ar,spf,2018:Q2,0.0030213569949030655,3.705113541219236
exact,pre_advance,DELTA_SA,ar,spf,2018:Q3,0.0032310710133240618,3.70834461223256
exact,pre_advance,DELTA_SA,ar,spf,2019:Q1,0.3134694480182471,4.021814060250807
exact,pre_advance,DELTA_SA,ar,spf,2019:Q2,-0.00020861065790184213,4.021605449592905
exact,pre_advance,DELTA_SA,ar,spf,2019:Q3,-0.020795440927072837,4.000810008665832
exact,pre_advance,DELTA_SA,ar,spf,2019:Q4,0.022807340587339162,4.023617349253171
exact,pre_advance,DELTA_SA,ar,spf,2020:Q1,0.04374626691208146,4.067363616165252
exact,pre_advance,DELTA_SA,ar,spf,2020:Q2,-0.4848885887598303,3.582475027405422
exact,pre_advance,DELTA_SA,ar,spf,2020:Q3,6.6030936783793335,10.185568705784755
exact,pre_advance,DELTA_SA,ar,spf,2020:Q4,0.3494364241901803,10.535005129974936
exact,pre_advance,DELTA_SA,ar,spf,2021:Q1,0.010481372036795358,10.54548650201173
exact,pre_advance,DELTA_SA,ar,spf,2021:Q2,0.005674643654305938,10.551161145666036
exact,pre_advance,DELTA_SA,ar,spf,2021:Q3,-0.00428446848418562,10.546876677181851
exact,pre_advance,DELTA_SA,ar,spf,2021:Q4,-0.009636975615624089,10.537239701566227
exact,pre_advance,DELTA_SA,ar,spf,2022:Q1,0.05376352283472801,10.591003224400955
exact,pre_advance,DELTA_SA,ar,spf,2022:Q2,-0.01747374549873487,10.57352947890222
exact,pre_advance,DELTA_SA,ar,spf,2022:Q3,-0.038912176234116996,10.534617302668103
exact,pre_advance,DELTA_SA,ar,spf,2022:Q4,0.058622083054108,10.59323938572221
exact,pre_advance,DELTA_SA,ar,spf,2023:Q1,-0.02740533844308022,10.56583404727913
exact,pre_advance,DELTA_SA,ar,spf,2023:Q2,0.06172819389498699,10.627562241174118
exact,pre_advance,DELTA_SA,ar,spf,2023:Q3,-0.03194758936873526,10.595614651805382
exact,pre_advance,DELTA_SA,ar,spf,2023:Q4,0.03690159867203891,10.63251625047742
exact,pre_advance,DELTA_SA,ar,spf,2024:Q1,0.07155817897030346,10.704074429447724
exact,pre_advance,DELTA_SA,ar,spf,2024:Q2,-0.009033581491366181,10.695040847956358
exact,pre_advance,DELTA_SA,ar,spf,2024:Q3,0.00727617350536104,10.702317021461718
exact,pre_advance,DELTA_SA,ar,spf,2024:Q4,-0.008788760628669104,10.69352826083305
exact,pre_advance,DELTA_SA,ar,standard_dfm,2005:Q1,-0.05986375602113623,-0.05986375602113623
exact,pre_advance,DELTA_SA,ar,standard_dfm,2005:Q2,0.0489236410409325,-0.010940114980203731
exact,pre_advance,DELTA_SA,ar,standard_dfm,2005:Q3,0.13866235995985843,0.1277222449796547
exact,pre_advance,DELTA_SA,ar,standard_dfm,2005:Q4,-0.04677500700294253,0.08094723797671217
exact,pre_advance,DELTA_SA,ar,standard_dfm,2006:Q1,-0.07876250989131742,0.0021847280853947576
exact,pre_advance,DELTA_SA,ar,standard_dfm,2006:Q2,-0.03585618107726753,-0.03367145299187277
exact,pre_advance,DELTA_SA,ar,standard_dfm,2006:Q3,-0.17662844986512616,-0.21029990285699893
exact,pre_advance,DELTA_SA,ar,standard_dfm,2006:Q4,1.0043380777396183,0.7940381748826193
exact,pre_advance,DELTA_SA,ar,standard_dfm,2007:Q1,-0.37563983704702153,0.41839833783559777
exact,pre_advance,DELTA_SA,ar,standard_dfm,2007:Q2,0.31453234715795886,0.7329306849935566
exact,pre_advance,DELTA_SA,ar,standard_dfm,2007:Q3,-0.5884379915384176,0.14449269345513904
exact,pre_advance,DELTA_SA,ar,standard_dfm,2007:Q4,0.22517787378085072,0.3696705672359898
exact,pre_advance,DELTA_SA,ar,standard_dfm,2008:Q1,-0.11567370974782756,0.25399685748816225
exact,pre_advance,DELTA_SA,ar,standard_dfm,2008:Q2,-0.7928680967757116,-0.5388712392875493
exact,pre_advance,DELTA_SA,ar,standard_dfm,2008:Q3,0.8837615679099272,0.3448903286223779
exact,pre_advance,DELTA_SA,ar,standard_dfm,2008:Q4,1.8512166185502492,2.196106947172627
exact,pre_advance,DELTA_SA,ar,standard_dfm,2009:Q1,-1.272945791225932,0.9231611559466948
exact,pre_advance,DELTA_SA,ar,standard_dfm,2009:Q2,0.3433988033436028,1.2665599592902976
exact,pre_advance,DELTA_SA,ar,standard_dfm,2009:Q3,-0.2814545997263641,0.9851053595639335
exact,pre_advance,DELTA_SA,ar,standard_dfm,2009:Q4,0.28192892339059644,1.26703428295453
exact,pre_advance,DELTA_SA,ar,standard_dfm,2010:Q1,-0.22159961719422944,1.0454346657603006
exact,pre_advance,DELTA_SA,ar,standard_dfm,2010:Q2,-0.45423428866577487,0.5912003770945258
exact,pre_advance,DELTA_SA,ar,standard_dfm,2010:Q3,0.5120285589561298,1.1032289360506555
exact,pre_advance,DELTA_SA,ar,standard_dfm,2010:Q4,0.25086689564558345,1.354095831696239
exact,pre_advance,DELTA_SA,ar,standard_dfm,2011:Q1,0.015365030287720557,1.3694608619839597
exact,pre_advance,DELTA_SA,ar,standard_dfm,2011:Q2,0.013828768430357297,1.383289630414317
exact,pre_advance,DELTA_SA,ar,standard_dfm,2011:Q3,-0.16015288312412385,1.223136747290193
exact,pre_advance,DELTA_SA,ar,standard_dfm,2011:Q4,0.1549614951608927,1.3780982424510857
exact,pre_advance,DELTA_SA,ar,standard_dfm,2012:Q1,-0.06443410636859595,1.3136641360824897
exact,pre_advance,DELTA_SA,ar,standard_dfm,2012:Q2,0.07668087315512612,1.3903450092376157
exact,pre_advance,DELTA_SA,ar,standard_dfm,2012:Q3,-0.09802125835656544,1.2923237508810503
exact,pre_advance,DELTA_SA,ar,standard_dfm,2012:Q4,0.0010619517998346935,1.293385702680885
exact,pre_advance,DELTA_SA,ar,standard_dfm,2013:Q1,0.09375261670744145,1.3871383193883264
exact,pre_advance,DELTA_SA,ar,standard_dfm,2013:Q2,0.19744083899653941,1.5845791583848658
exact,pre_advance,DELTA_SA,ar,standard_dfm,2013:Q3,-0.3424510583468031,1.2421281000380628
exact,pre_advance,DELTA_SA,ar,standard_dfm,2013:Q4,0.4299613711862882,1.672089471224351
exact,pre_advance,DELTA_SA,ar,standard_dfm,2014:Q1,-0.8515117262126555,0.8205777450116956
exact,pre_advance,DELTA_SA,ar,standard_dfm,2014:Q2,0.36544685772539937,1.1860246027370949
exact,pre_advance,DELTA_SA,ar,standard_dfm,2014:Q3,0.015968437845415275,1.20199304058251
exact,pre_advance,DELTA_SA,ar,standard_dfm,2014:Q4,0.08690498318263362,1.2888980237651437
exact,pre_advance,DELTA_SA,ar,standard_dfm,2015:Q1,-0.26502154325968796,1.0238764805054559
exact,pre_advance,DELTA_SA,ar,standard_dfm,2015:Q2,1.4097908718447312,2.433667352350187
exact,pre_advance,DELTA_SA,ar,standard_dfm,2015:Q3,-0.25626463299771324,2.177402719352474
exact,pre_advance,DELTA_SA,ar,standard_dfm,2015:Q4,-0.0684032574400901,2.1089994619123837
exact,pre_advance,DELTA_SA,ar,standard_dfm,2016:Q1,-0.0689089096412497,2.040090552271134
exact,pre_advance,DELTA_SA,ar,standard_dfm,2016:Q2,0.11387605621686268,2.1539666084879965
exact,pre_advance,DELTA_SA,ar,standard_dfm,2016:Q3,0.013830726475489302,2.1677973349634856
exact,pre_advance,DELTA_SA,ar,standard_dfm,2016:Q4,-0.015984084721747175,2.151813250241738
exact,pre_advance,DELTA_SA,ar,standard_dfm,2017:Q1,0.04748608430154014,2.1992993345432783
exact,pre_advance,DELTA_SA,ar,standard_dfm,2017:Q2,-0.11373171675458803,2.08556761778869
exact,pre_advance,DELTA_SA,ar,standard_dfm,2017:Q3,-0.05734869537640689,2.0282189224122833
exact,pre_advance,DELTA_SA,ar,standard_dfm,2017:Q4,-0.03546444918402645,1.992754473228257
exact,pre_advance,DELTA_SA,ar,standard_dfm,2018:Q1,-0.08653664695569,1.9062178262725669
exact,pre_advance,DELTA_SA,ar,standard_dfm,2018:Q2,0.026431090213568022,1.932648916486135
exact,pre_advance,DELTA_SA,ar,standard_dfm,2018:Q3,-0.011743361579623501,1.9209055549065115
exact,pre_advance,DELTA_SA,ar,standard_dfm,2019:Q1,0.31248209939545973,2.2333876543019713
exact,pre_advance,DELTA_SA,ar,standard_dfm,2019:Q2,-0.00517949830462442,2.228208155997347
exact,pre_advance,DELTA_SA,ar,standard_dfm,2019:Q3,0.008956664009568252,2.237164820006915
exact,pre_advance,DELTA_SA,ar,standard_dfm,2019:Q4,0.01866882216969747,2.2558336421766128
exact,pre_advance,DELTA_SA,ar,standard_dfm,2020:Q1,0.0759219291262642,2.331755571302877
exact,pre_advance,DELTA_SA,ar,standard_dfm,2020:Q2,-4.917315183441348,-2.585559612138471
exact,pre_advance,DELTA_SA,ar,standard_dfm,2020:Q3,6.4886529956870005,3.9030933835485295
exact,pre_advance,DELTA_SA,ar,standard_dfm,2020:Q4,0.35575974166325325,4.2588531252117825
exact,pre_advance,DELTA_SA,ar,standard_dfm,2021:Q1,0.005528334928234296,4.264381460140017
exact,pre_advance,DELTA_SA,ar,standard_dfm,2021:Q2,0.008197605983682134,4.272579066123699
exact,pre_advance,DELTA_SA,ar,standard_dfm,2021:Q3,-1.8839223613639853e-05,4.272560226900085
exact,pre_advance,DELTA_SA,ar,standard_dfm,2021:Q4,0.00021029716447546542,4.27277052406456
exact,pre_advance,DELTA_SA,ar,standard_dfm,2022:Q1,0.029398067183279586,4.30216859124784
exact,pre_advance,DELTA_SA,ar,standard_dfm,2022:Q2,0.09920722567257549,4.401375816920416
exact,pre_advance,DELTA_SA,ar,standard_dfm,2022:Q3,0.016009159739086662,4.417384976659502
exact,pre_advance,DELTA_SA,ar,standard_dfm,2022:Q4,0.059614805866034994,4.476999782525537
exact,pre_advance,DELTA_SA,ar,standard_dfm,2023:Q1,0.0018650957815648569,4.4788648783071014
exact,pre_advance,DELTA_SA,ar,standard_dfm,2023:Q2,-0.0224552826821742,4.456409595624927
exact,pre_advance,DELTA_SA,ar,standard_dfm,2023:Q3,-0.0023582122005134515,4.454051383424414
exact,pre_advance,DELTA_SA,ar,standard_dfm,2023:Q4,0.01123203838492863,4.4652834218093425
exact,pre_advance,DELTA_SA,ar,standard_dfm,2024:Q1,-0.010060578657949154,4.455222843151393
exact,pre_advance,DELTA_SA,ar,standard_dfm,2024:Q2,0.002550195432297617,4.4577730385836905
exact,pre_advance,DELTA_SA,ar,standard_dfm,2024:Q3,-0.004477198937994425,4.453295839645696
exact,pre_advance,DELTA_SA,ar,standard_dfm,2024:Q4,-0.0006192968784900705,4.452676542767206
exact,pre_advance,DELTA_SA,no_revision,ar,2005:Q1,0.15257503321613658,0.15257503321613658
exact,pre_advance,DELTA_SA,no_revision,ar,2005:Q2,-0.10304262774761302,0.049532405468523555
exact,pre_advance,DELTA_SA,no_revision,ar,2005:Q3,-0.03151683579611303,0.018015569672410525
exact,pre_advance,DELTA_SA,no_revision,ar,2005:Q4,0.17958946757420496,0.1976050372466155
exact,pre_advance,DELTA_SA,no_revision,ar,2006:Q1,0.22225097588053042,0.41985601312714593
exact,pre_advance,DELTA_SA,no_revision,ar,2006:Q2,0.1338214718146227,0.5536774849417686
exact,pre_advance,DELTA_SA,no_revision,ar,2006:Q3,0.2655324769569707,0.8192099618987393
exact,pre_advance,DELTA_SA,no_revision,ar,2006:Q4,-1.1280810824986391,-0.30887112059989985
exact,pre_advance,DELTA_SA,no_revision,ar,2007:Q1,0.36488258133290913,0.05601146073300928
exact,pre_advance,DELTA_SA,no_revision,ar,2007:Q2,-0.2101220628635298,-0.15411060213052052
exact,pre_advance,DELTA_SA,no_revision,ar,2007:Q3,0.5038879623481906,0.34977736021767003
exact,pre_advance,DELTA_SA,no_revision,ar,2007:Q4,-0.23194641324995732,0.11783094696771271
exact,pre_advance,DELTA_SA,no_revision,ar,2008:Q1,0.06565748592115798,0.18348843288887068
exact,pre_advance,DELTA_SA,no_revision,ar,2008:Q2,0.7051418869943866,0.8886303198832572
exact,pre_advance,DELTA_SA,no_revision,ar,2008:Q3,-0.8839041046210189,0.004726215262238376
exact,pre_advance,DELTA_SA,no_revision,ar,2008:Q4,-0.39399862829546173,-0.38927241303322335
exact,pre_advance,DELTA_SA,no_revision,ar,2009:Q1,-1.3203689037955737,-1.709641316828797
exact,pre_advance,DELTA_SA,no_revision,ar,2009:Q2,-0.36877932291984866,-2.0784206397486455
exact,pre_advance,DELTA_SA,no_revision,ar,2009:Q3,-0.31974831955083616,-2.3981689592994817
exact,pre_advance,DELTA_SA,no_revision,ar,2009:Q4,-0.2461874095178597,-2.6443563688173413
exact,pre_advance,DELTA_SA,no_revision,ar,2010:Q1,-0.012274663642203441,-2.656631032459545
exact,pre_advance,DELTA_SA,no_revision,ar,2010:Q2,0.10097637669884518,-2.5556546557606996
exact,pre_advance,DELTA_SA,no_revision,ar,2010:Q3,-0.41001530272678194,-2.9656699584874815
exact,pre_advance,DELTA_SA,no_revision,ar,2010:Q4,-0.33708017745408314,-3.3027501359415647
exact,pre_advance,DELTA_SA,no_revision,ar,2011:Q1,-0.05273638935335863,-3.3554865252949235
exact,pre_advance,DELTA_SA,no_revision,ar,2011:Q2,-0.0864949621817803,-3.4419814874767036
exact,pre_advance,DELTA_SA,no_revision,ar,2011:Q3,0.03822954602021156,-3.403751941456492
exact,pre_advance,DELTA_SA,no_revision,ar,2011:Q4,-0.1042486389810256,-3.5080005804375176
exact,pre_advance,DELTA_SA,no_revision,ar,2012:Q1,-0.12270345028699549,-3.6307040307245133
exact,pre_advance,DELTA_SA,no_revision,ar,2012:Q2,-0.05124300972150874,-3.681947040446022
exact,pre_advance,DELTA_SA,no_revision,ar,2012:Q3,0.19803121584843814,-3.483915824597584
exact,pre_advance,DELTA_SA,no_revision,ar,2012:Q4,0.06160444841889918,-3.4223113761786847
exact,pre_advance,DELTA_SA,no_revision,ar,2013:Q1,-0.13839352919058448,-3.560704905369269
exact,pre_advance,DELTA_SA,no_revision,ar,2013:Q2,-0.010665904843470964,-3.5713708102127404
exact,pre_advance,DELTA_SA,no_revision,ar,2013:Q3,0.49085393179229264,-3.0805168784204477
exact,pre_advance,DELTA_SA,no_revision,ar,2013:Q4,-0.8147882022650561,-3.895305080685504
exact,pre_advance,DELTA_SA,no_revision,ar,2014:Q1,0.6728261778290336,-3.22247890285647
exact,pre_advance,DELTA_SA,no_revision,ar,2014:Q2,-0.3153905835886226,-3.537869486445093
exact,pre_advance,DELTA_SA,no_revision,ar,2014:Q3,0.05736992828325174,-3.480499558161841
exact,pre_advance,DELTA_SA,no_revision,ar,2014:Q4,-0.18045818425062124,-3.6609577424124624
exact,pre_advance,DELTA_SA,no_revision,ar,2015:Q1,0.30424364925329495,-3.3567140931591677
exact,pre_advance,DELTA_SA,no_revision,ar,2015:Q2,-1.0249249122593762,-4.381639005418544
exact,pre_advance,DELTA_SA,no_revision,ar,2015:Q3,0.3345827492334456,-4.0470562561850985
exact,pre_advance,DELTA_SA,no_revision,ar,2015:Q4,0.09676443992777004,-3.9502918162573284
exact,pre_advance,DELTA_SA,no_revision,ar,2016:Q1,0.09029065158363185,-3.8600011646736965
exact,pre_advance,DELTA_SA,no_revision,ar,2016:Q2,-0.1360297525459644,-3.996030917219661
exact,pre_advance,DELTA_SA,no_revision,ar,2016:Q3,0.021175007572158712,-3.974855909647502
exact,pre_advance,DELTA_SA,no_revision,ar,2016:Q4,-0.02734587565242416,-4.002201785299926
exact,pre_advance,DELTA_SA,no_revision,ar,2017:Q1,0.056295362083760514,-3.945906423216165
exact,pre_advance,DELTA_SA,no_revision,ar,2017:Q2,0.1998229027002102,-3.746083520515955
exact,pre_advance,DELTA_SA,no_revision,ar,2017:Q3,0.09239460605426397,-3.653688914461691
exact,pre_advance,DELTA_SA,no_revision,ar,2017:Q4,-0.035699658663772574,-3.6893885731254636
exact,pre_advance,DELTA_SA,no_revision,ar,2018:Q1,-0.012703611098869368,-3.702092184224333
exact,pre_advance,DELTA_SA,no_revision,ar,2018:Q2,-0.0030213569949030655,-3.705113541219236
exact,pre_advance,DELTA_SA,no_revision,ar,2018:Q3,-0.0032310710133240618,-3.70834461223256
exact,pre_advance,DELTA_SA,no_revision,ar,2019:Q1,-0.3134694480182471,-4.021814060250807
exact,pre_advance,DELTA_SA,no_revision,ar,2019:Q2,0.00020861065790184213,-4.021605449592905
exact,pre_advance,DELTA_SA,no_revision,ar,2019:Q3,0.020795440927072837,-4.000810008665832
exact,pre_advance,DELTA_SA,no_revision,ar,2019:Q4,-0.022807340587339162,-4.023617349253171
exact,pre_advance,DELTA_SA,no_revision,ar,2020:Q1,-0.04374626691208146,-4.067363616165252
exact,pre_advance,DELTA_SA,no_revision,ar,2020:Q2,0.4848885887598303,-3.582475027405422
exact,pre_advance,DELTA_SA,no_revision,ar,2020:Q3,-6.6030936783793335,-10.185568705784755
exact,pre_advance,DELTA_SA,no_revision,ar,2020:Q4,-0.3494364241901803,-10.535005129974936
exact,pre_advance,DELTA_SA,no_revision,ar,2021:Q1,-0.010481372036795358,-10.54548650201173
exact,pre_advance,DELTA_SA,no_revision,ar,2021:Q2,-0.005674643654305938,-10.551161145666036
exact,pre_advance,DELTA_SA,no_revision,ar,2021:Q3,0.00428446848418562,-10.546876677181851
exact,pre_advance,DELTA_SA,no_revision,ar,2021:Q4,0.009636975615624089,-10.537239701566227
exact,pre_advance,DELTA_SA,no_revision,ar,2022:Q1,-0.05376352283472801,-10.591003224400955
exact,pre_advance,DELTA_SA,no_revision,ar,2022:Q2,0.01747374549873487,-10.57352947890222
exact,pre_advance,DELTA_SA,no_revision,ar,2022:Q3,0.038912176234116996,-10.534617302668103
exact,pre_advance,DELTA_SA,no_revision,ar,2022:Q4,-0.058622083054108,-10.59323938572221
exact,pre_advance,DELTA_SA,no_revision,ar,2023:Q1,0.02740533844308022,-10.56583404727913
exact,pre_advance,DELTA_SA,no_revision,ar,2023:Q2,-0.06172819389498699,-10.627562241174118
exact,pre_advance,DELTA_SA,no_revision,ar,2023:Q3,0.03194758936873526,-10.595614651805382
exact,pre_advance,DELTA_SA,no_revision,ar,2023:Q4,-0.03690159867203891,-10.63251625047742
exact,pre_advance,DELTA_SA,no_revision,ar,2024:Q1,-0.07155817897030346,-10.704074429447724
exact,pre_advance,DELTA_SA,no_revision,ar,2024:Q2,0.009033581491366181,-10.695040847956358
exact,pre_advance,DELTA_SA,no_revision,ar,2024:Q3,-0.00727617350536104,-10.702317021461718
exact,pre_advance,DELTA_SA,no_revision,ar,2024:Q4,0.008788760628669104,-10.69352826083305
exact,pre_advance,DELTA_SA,no_revision,bridge,2005:Q1,0.13872897581163235,0.13872897581163235
exact,pre_advance,DELTA_SA,no_revision,bridge,2005:Q2,-0.10469290694489683,0.03403606886673552
exact,pre_advance,DELTA_SA,no_revision,bridge,2005:Q3,-0.15040667599317942,-0.1163706071264439
exact,pre_advance,DELTA_SA,no_revision,bridge,2005:Q4,0.17620579090103922,0.05983518377459532
exact,pre_advance,DELTA_SA,no_revision,bridge,2006:Q1,0.1738090911959969,0.23364427497059223
exact,pre_advance,DELTA_SA,no_revision,bridge,2006:Q2,-0.0033041605851341083,0.23034011438545812
exact,pre_advance,DELTA_SA,no_revision,bridge,2006:Q3,0.2012410313195581,0.4315811457050162
exact,pre_advance,DELTA_SA,no_revision,bridge,2006:Q4,-0.7825018916435365,-0.35092074593852024
exact,pre_advance,DELTA_SA,no_revision,bridge,2007:Q1,0.35705855019610977,0.00613780425758953
exact,pre_advance,DELTA_SA,no_revision,bridge,2007:Q2,-0.14115574401889486,-0.13501793976130533
exact,pre_advance,DELTA_SA,no_revision,bridge,2007:Q3,0.56369170324296,0.4286737634816547
exact,pre_advance,DELTA_SA,no_revision,bridge,2007:Q4,-0.2441442698193718,0.1845294936622829
exact,pre_advance,DELTA_SA,no_revision,bridge,2008:Q1,0.061312887817197535,0.24584238147948045
exact,pre_advance,DELTA_SA,no_revision,bridge,2008:Q2,0.13073477563098335,0.3765771571104638
exact,pre_advance,DELTA_SA,no_revision,bridge,2008:Q3,-0.2648840595619838,0.11169309754848
exact,pre_advance,DELTA_SA,no_revision,bridge,2008:Q4,3.556614069040292,3.6683071665887717
exact,pre_advance,DELTA_SA,no_revision,bridge,2009:Q1,-7.419249105638873,-3.7509419390501018
exact,pre_advance,DELTA_SA,no_revision,bridge,2009:Q2,-0.24196561609657566,-3.9929075551466773
exact,pre_advance,DELTA_SA,no_revision,bridge,2009:Q3,-0.3879792115458852,-4.380886766692562
exact,pre_advance,DELTA_SA,no_revision,bridge,2009:Q4,-0.2810558607026314,-4.661942627395193
exact,pre_advance,DELTA_SA,no_revision,bridge,2010:Q1,-0.10094736583874442,-4.762889993233938
exact,pre_advance,DELTA_SA,no_revision,bridge,2010:Q2,0.007393922819620702,-4.755496070414317
exact,pre_advance,DELTA_SA,no_revision,bridge,2010:Q3,-0.31509313295305846,-5.070589203367375
exact,pre_advance,DELTA_SA,no_revision,bridge,2010:Q4,-0.9034792141083648,-5.97406841747574
exact,pre_advance,DELTA_SA,no_revision,bridge,2011:Q1,-0.045895162760471446,-6.019963580236212
exact,pre_advance,DELTA_SA,no_revision,bridge,2011:Q2,-0.191513179749431,-6.211476759985643
exact,pre_advance,DELTA_SA,no_revision,bridge,2011:Q3,-0.08325527853527909,-6.294732038520921
exact,pre_advance,DELTA_SA,no_revision,bridge,2011:Q4,-0.0413702189655959,-6.336102257486517
exact,pre_advance,DELTA_SA,no_revision,bridge,2012:Q1,-0.15859116333028872,-6.494693420816805
exact,pre_advance,DELTA_SA,no_revision,bridge,2012:Q2,-0.10006699182705964,-6.594760412643865
exact,pre_advance,DELTA_SA,no_revision,bridge,2012:Q3,0.2058062853711069,-6.388954127272758
exact,pre_advance,DELTA_SA,no_revision,bridge,2012:Q4,0.06587583351807785,-6.32307829375468
exact,pre_advance,DELTA_SA,no_revision,bridge,2013:Q1,-0.051731328422555005,-6.374809622177235
exact,pre_advance,DELTA_SA,no_revision,bridge,2013:Q2,0.014831071369017845,-6.359978550808217
exact,pre_advance,DELTA_SA,no_revision,bridge,2013:Q3,0.42564500797830807,-5.934333542829909
exact,pre_advance,DELTA_SA,no_revision,bridge,2013:Q4,-1.263148324259157,-7.197481867089065
exact,pre_advance,DELTA_SA,no_revision,bridge,2014:Q1,0.7569160071134248,-6.44056585997564
exact,pre_advance,DELTA_SA,no_revision,bridge,2014:Q2,-0.15264110705323453,-6.593206967028875
exact,pre_advance,DELTA_SA,no_revision,bridge,2014:Q3,0.07832510899577853,-6.514881858033097
exact,pre_advance,DELTA_SA,no_revision,bridge,2014:Q4,-0.13705782032158967,-6.651939678354687
exact,pre_advance,DELTA_SA,no_revision,bridge,2015:Q1,0.40146977672373263,-6.250469901630954
exact,pre_advance,DELTA_SA,no_revision,bridge,2015:Q2,-0.4979232940191818,-6.748393195650135
exact,pre_advance,DELTA_SA,no_revision,bridge,2015:Q3,0.3409963676186283,-6.407396828031507
exact,pre_advance,DELTA_SA,no_revision,bridge,2015:Q4,0.09722798727919321,-6.310168840752314
exact,pre_advance,DELTA_SA,no_revision,bridge,2016:Q1,0.06159728403676126,-6.248571556715553
exact,pre_advance,DELTA_SA,no_revision,bridge,2016:Q2,-0.14301016971515193,-6.391581726430704
exact,pre_advance,DELTA_SA,no_revision,bridge,2016:Q3,0.029786376038173544,-6.361795350392531
exact,pre_advance,DELTA_SA,no_revision,bridge,2016:Q4,-0.02833064064415696,-6.390125991036688
exact,pre_advance,DELTA_SA,no_revision,bridge,2017:Q1,0.06242395788596877,-6.327702033150719
exact,pre_advance,DELTA_SA,no_revision,bridge,2017:Q2,0.17471543567711162,-6.152986597473608
exact,pre_advance,DELTA_SA,no_revision,bridge,2017:Q3,0.0939170825873698,-6.059069514886238
exact,pre_advance,DELTA_SA,no_revision,bridge,2017:Q4,-0.04823205535659521,-6.107301570242833
exact,pre_advance,DELTA_SA,no_revision,bridge,2018:Q1,-0.013729137375175407,-6.121030707618009
exact,pre_advance,DELTA_SA,no_revision,bridge,2018:Q2,0.021574368172287896,-6.099456339445721
exact,pre_advance,DELTA_SA,no_revision,bridge,2018:Q3,-0.006093663891220615,-6.105550003336942
exact,pre_advance,DELTA_SA,no_revision,bridge,2019:Q1,-0.6157461141295992,-6.721296117466542
exact,pre_advance,DELTA_SA,no_revision,bridge,2019:Q2,-0.00452729520163783,-6.72582341266818
exact,pre_advance,DELTA_SA,no_revision,bridge,2019:Q3,0.03613660574387857,-6.689686806924301
exact,pre_advance,DELTA_SA,no_revision,bridge,2019:Q4,-0.06731099954726309,-6.7569978064715635
exact,pre_advance,DELTA_SA,no_revision,bridge,2020:Q1,0.0006398140758081539,-6.756357992395755
exact,pre_advance,DELTA_SA,no_revision,bridge,2020:Q2,-2.609151252294258,-9.365509244690013
exact,pre_advance,DELTA_SA,no_revision,bridge,2020:Q3,-5.185446373028756,-14.55095561771877
exact,pre_advance,DELTA_SA,no_revision,bridge,2020:Q4,0.0005276107390580565,-14.550428006979713
exact,pre_advance,DELTA_SA,no_revision,bridge,2021:Q1,-0.023844432230076665,-14.574272439209789
exact,pre_advance,DELTA_SA,no_revision,bridge,2021:Q2,-0.04144876016875534,-14.615721199378545
exact,pre_advance,DELTA_SA,no_revision,bridge,2021:Q3,0.007579934344672388,-14.608141265033872
exact,pre_advance,DELTA_SA,no_revision,bridge,2021:Q4,0.0077466082094004565,-14.600394656824472
exact,pre_advance,DELTA_SA,no_revision,bridge,2022:Q1,-0.08791868219042262,-14.688313339014895
exact,pre_advance,DELTA_SA,no_revision,bridge,2022:Q2,6.44424469267435e-05,-14.688248896567968
exact,pre_advance,DELTA_SA,no_revision,bridge,2022:Q3,0.048020326210005626,-14.640228570357962
exact,pre_advance,DELTA_SA,no_revision,bridge,2022:Q4,-0.1326408589973449,-14.772869429355307
exact,pre_advance,DELTA_SA,no_revision,bridge,2023:Q1,0.030130959156365315,-14.742738470198942
exact,pre_advance,DELTA_SA,no_revision,bridge,2023:Q2,-0.27456811467170683,-15.01730658487065
exact,pre_advance,DELTA_SA,no_revision,bridge,2023:Q3,0.0028127103554890787,-15.01449387451516
exact,pre_advance,DELTA_SA,no_revision,bridge,2023:Q4,-0.09179889922938775,-15.10629277374455
exact,pre_advance,DELTA_SA,no_revision,bridge,2024:Q1,0.011523780206794065,-15.094768993537755
exact,pre_advance,DELTA_SA,no_revision,bridge,2024:Q2,-0.031865927631838604,-15.126634921169593
exact,pre_advance,DELTA_SA,no_revision,bridge,2024:Q3,-0.005197255911791921,-15.131832177081385
exact,pre_advance,DELTA_SA,no_revision,bridge,2024:Q4,0.00864511267492932,-15.123187064406457
exact,pre_advance,DELTA_SA,no_revision,indicator_revision_only_dfm_kalman_em,2005:Q1,0.0,0.0
exact,pre_advance,DELTA_SA,no_revision,indicator_revision_only_dfm_kalman_em,2005:Q2,0.0,0.0
exact,pre_advance,DELTA_SA,no_revision,indicator_revision_only_dfm_kalman_em,2005:Q3,0.0,0.0
exact,pre_advance,DELTA_SA,no_revision,indicator_revision_only_dfm_kalman_em,2005:Q4,0.0,0.0
exact,pre_advance,DELTA_SA,no_revision,indicator_revision_only_dfm_kalman_em,2006:Q1,0.0,0.0
exact,pre_advance,DELTA_SA,no_revision,indicator_revision_only_dfm_kalman_em,2006:Q2,0.0,0.0
exact,pre_advance,DELTA_SA,no_revision,indicator_revision_only_dfm_kalman_em,2006:Q3,0.0,0.0
exact,pre_advance,DELTA_SA,no_revision,indicator_revision_only_dfm_kalman_em,2006:Q4,0.0,0.0
exact,pre_advance,DELTA_SA,no_revision,indicator_revision_only_dfm_kalman_em,2007:Q1,0.0,0.0
exact,pre_advance,DELTA_SA,no_revision,indicator_revision_only_dfm_kalman_em,2007:Q2,0.0,0.0
exact,pre_advance,DELTA_SA,no_revision,indicator_revision_only_dfm_kalman_em,2007:Q3,0.0,0.0
exact,pre_advance,DELTA_SA,no_revision,indicator_revision_only_dfm_kalman_em,2007:Q4,0.0,0.0
exact,pre_advance,DELTA_SA,no_revision,indicator_revision_only_dfm_kalman_em,2008:Q1,0.0,0.0
exact,pre_advance,DELTA_SA,no_revision,indicator_revision_only_dfm_kalman_em,2008:Q2,0.0,0.0
exact,pre_advance,DELTA_SA,no_revision,indicator_revision_only_dfm_kalman_em,2008:Q3,0.0,0.0
exact,pre_advance,DELTA_SA,no_revision,indicator_revision_only_dfm_kalman_em,2008:Q4,0.0,0.0
exact,pre_advance,DELTA_SA,no_revision,indicator_revision_only_dfm_kalman_em,2009:Q1,0.0,0.0
exact,pre_advance,DELTA_SA,no_revision,indicator_revision_only_dfm_kalman_em,2009:Q2,0.0,0.0
exact,pre_advance,DELTA_SA,no_revision,indicator_revision_only_dfm_kalman_em,2009:Q3,0.0,0.0
exact,pre_advance,DELTA_SA,no_revision,indicator_revision_only_dfm_kalman_em,2009:Q4,0.0,0.0
exact,pre_advance,DELTA_SA,no_revision,indicator_revision_only_dfm_kalman_em,2010:Q1,0.0,0.0
exact,pre_advance,DELTA_SA,no_revision,indicator_revision_only_dfm_kalman_em,2010:Q2,0.0,0.0
exact,pre_advance,DELTA_SA,no_revision,indicator_revision_only_dfm_kalman_em,2010:Q3,0.0,0.0
exact,pre_advance,DELTA_SA,no_revision,indicator_revision_only_dfm_kalman_em,2010:Q4,0.0,0.0
exact,pre_advance,DELTA_SA,no_revision,indicator_revision_only_dfm_kalman_em,2011:Q1,0.0,0.0
exact,pre_advance,DELTA_SA,no_revision,indicator_revision_only_dfm_kalman_em,2011:Q2,0.0,0.0
exact,pre_advance,DELTA_SA,no_revision,indicator_revision_only_dfm_kalman_em,2011:Q3,0.0,0.0
exact,pre_advance,DELTA_SA,no_revision,indicator_revision_only_dfm_kalman_em,2011:Q4,0.0,0.0
exact,pre_advance,DELTA_SA,no_revision,indicator_revision_only_dfm_kalman_em,2012:Q1,0.0,0.0
exact,pre_advance,DELTA_SA,no_revision,indicator_revision_only_dfm_kalman_em,2012:Q2,0.0,0.0
exact,pre_advance,DELTA_SA,no_revision,indicator_revision_only_dfm_kalman_em,2012:Q3,0.0,0.0
exact,pre_advance,DELTA_SA,no_revision,indicator_revision_only_dfm_kalman_em,2012:Q4,0.0,0.0
exact,pre_advance,DELTA_SA,no_revision,indicator_revision_only_dfm_kalman_em,2013:Q1,0.0,0.0
exact,pre_advance,DELTA_SA,no_revision,indicator_revision_only_dfm_kalman_em,2013:Q2,0.0,0.0
exact,pre_advance,DELTA_SA,no_revision,indicator_revision_only_dfm_kalman_em,2013:Q3,0.0,0.0
exact,pre_advance,DELTA_SA,no_revision,indicator_revision_only_dfm_kalman_em,2013:Q4,0.0,0.0
exact,pre_advance,DELTA_SA,no_revision,indicator_revision_only_dfm_kalman_em,2014:Q1,0.0,0.0
exact,pre_advance,DELTA_SA,no_revision,indicator_revision_only_dfm_kalman_em,2014:Q2,0.0,0.0
exact,pre_advance,DELTA_SA,no_revision,indicator_revision_only_dfm_kalman_em,2014:Q3,0.0,0.0
exact,pre_advance,DELTA_SA,no_revision,indicator_revision_only_dfm_kalman_em,2014:Q4,0.0,0.0
exact,pre_advance,DELTA_SA,no_revision,indicator_revision_only_dfm_kalman_em,2015:Q1,0.0,0.0
exact,pre_advance,DELTA_SA,no_revision,indicator_revision_only_dfm_kalman_em,2015:Q2,0.0,0.0
exact,pre_advance,DELTA_SA,no_revision,indicator_revision_only_dfm_kalman_em,2015:Q3,0.0,0.0
exact,pre_advance,DELTA_SA,no_revision,indicator_revision_only_dfm_kalman_em,2015:Q4,0.0,0.0
exact,pre_advance,DELTA_SA,no_revision,indicator_revision_only_dfm_kalman_em,2016:Q1,0.0,0.0
exact,pre_advance,DELTA_SA,no_revision,indicator_revision_only_dfm_kalman_em,2016:Q2,0.0,0.0
exact,pre_advance,DELTA_SA,no_revision,indicator_revision_only_dfm_kalman_em,2016:Q3,0.0,0.0
exact,pre_advance,DELTA_SA,no_revision,indicator_revision_only_dfm_kalman_em,2016:Q4,0.0,0.0
exact,pre_advance,DELTA_SA,no_revision,indicator_revision_only_dfm_kalman_em,2017:Q1,0.0,0.0
exact,pre_advance,DELTA_SA,no_revision,indicator_revision_only_dfm_kalman_em,2017:Q2,0.0,0.0
exact,pre_advance,DELTA_SA,no_revision,indicator_revision_only_dfm_kalman_em,2017:Q3,0.0,0.0
exact,pre_advance,DELTA_SA,no_revision,indicator_revision_only_dfm_kalman_em,2017:Q4,0.0,0.0
exact,pre_advance,DELTA_SA,no_revision,indicator_revision_only_dfm_kalman_em,2018:Q1,0.0,0.0
exact,pre_advance,DELTA_SA,no_revision,indicator_revision_only_dfm_kalman_em,2018:Q2,0.0,0.0
exact,pre_advance,DELTA_SA,no_revision,indicator_revision_only_dfm_kalman_em,2018:Q3,0.0,0.0
exact,pre_advance,DELTA_SA,no_revision,indicator_revision_only_dfm_kalman_em,2019:Q1,0.0,0.0
exact,pre_advance,DELTA_SA,no_revision,indicator_revision_only_dfm_kalman_em,2019:Q2,0.0,0.0
exact,pre_advance,DELTA_SA,no_revision,indicator_revision_only_dfm_kalman_em,2019:Q3,0.0,0.0
exact,pre_advance,DELTA_SA,no_revision,indicator_revision_only_dfm_kalman_em,2019:Q4,0.0,0.0
exact,pre_advance,DELTA_SA,no_revision,indicator_revision_only_dfm_kalman_em,2020:Q1,0.0,0.0
exact,pre_advance,DELTA_SA,no_revision,indicator_revision_only_dfm_kalman_em,2020:Q2,0.0,0.0
exact,pre_advance,DELTA_SA,no_revision,indicator_revision_only_dfm_kalman_em,2020:Q3,0.0,0.0
exact,pre_advance,DELTA_SA,no_revision,indicator_revision_only_dfm_kalman_em,2020:Q4,0.0,0.0
exact,pre_advance,DELTA_SA,no_revision,indicator_revision_only_dfm_kalman_em,2021:Q1,0.0,0.0
exact,pre_advance,DELTA_SA,no_revision,indicator_revision_only_dfm_kalman_em,2021:Q2,0.0,0.0
exact,pre_advance,DELTA_SA,no_revision,indicator_revision_only_dfm_kalman_em,2021:Q3,0.0,0.0
exact,pre_advance,DELTA_SA,no_revision,indicator_revision_only_dfm_kalman_em,2021:Q4,0.0,0.0
exact,pre_advance,DELTA_SA,no_revision,indicator_revision_only_dfm_kalman_em,2022:Q1,0.0,0.0
exact,pre_advance,DELTA_SA,no_revision,indicator_revision_only_dfm_kalman_em,2022:Q2,0.0,0.0
exact,pre_advance,DELTA_SA,no_revision,indicator_revision_only_dfm_kalman_em,2022:Q3,0.0,0.0
exact,pre_advance,DELTA_SA,no_revision,indicator_revision_only_dfm_kalman_em,2022:Q4,0.0,0.0
exact,pre_advance,DELTA_SA,no_revision,indicator_revision_only_dfm_kalman_em,2023:Q1,0.0,0.0
exact,pre_advance,DELTA_SA,no_revision,indicator_revision_only_dfm_kalman_em,2023:Q2,0.0,0.0
exact,pre_advance,DELTA_SA,no_revision,indicator_revision_only_dfm_kalman_em,2023:Q3,0.0,0.0
exact,pre_advance,DELTA_SA,no_revision,indicator_revision_only_dfm_kalman_em,2023:Q4,0.0,0.0
exact,pre_advance,DELTA_SA,no_revision,indicator_revision_only_dfm_kalman_em,2024:Q1,0.0,0.0
exact,pre_advance,DELTA_SA,no_revision,indicator_revision_only_dfm_kalman_em,2024:Q2,0.0,0.0
exact,pre_advance,DELTA_SA,no_revision,indicator_revision_only_dfm_kalman_em,2024:Q3,0.0,0.0
exact,pre_advance,DELTA_SA,no_revision,indicator_revision_only_dfm_kalman_em,2024:Q4,0.0,0.0
exact,pre_advance,DELTA_SA,no_revision,joint_indicator_revision_dfm_full_kalman_em,2005:Q1,0.15605810969686443,0.15605810969686443
exact,pre_advance,DELTA_SA,no_revision,joint_indicator_revision_dfm_full_kalman_em,2005:Q2,-0.3357672560494276,-0.17970914635256316
exact,pre_advance,DELTA_SA,no_revision,joint_indicator_revision_dfm_full_kalman_em,2005:Q3,0.22977542058533482,0.05006627423277166
exact,pre_advance,DELTA_SA,no_revision,joint_indicator_revision_dfm_full_kalman_em,2005:Q4,0.13258985782532778,0.18265613205809944
exact,pre_advance,DELTA_SA,no_revision,joint_indicator_revision_dfm_full_kalman_em,2006:Q1,0.23555603776503664,0.4182121698231361
exact,pre_advance,DELTA_SA,no_revision,joint_indicator_revision_dfm_full_kalman_em,2006:Q2,-0.5319134167407372,-0.11370124691760114
exact,pre_advance,DELTA_SA,no_revision,joint_indicator_revision_dfm_full_kalman_em,2006:Q3,-0.2465372971864454,-0.36023854410404654
exact,pre_advance,DELTA_SA,no_revision,joint_indicator_revision_dfm_full_kalman_em,2006:Q4,0.9135901381036625,0.553351593999616
