haminh109/Revision-Aware-DFM/outputs/full_state_space_release_revision_dfm/exact_pseudo_backtest_mature_latest_max_iter100_journal_evidence/common_sample_spf_revision.csv
timing_mode,checkpoint_id,outcome_id,anchor_model,model_id,n_common_forecasts,RMSE,MAE,bias,first_target_quarter,last_target_quarter
exact,pre_advance,DELTA_SA,spf,ar,79,0.6781421206748106,0.46824945973191356,0.08303638739458122,2005:Q1,2024:Q4
exact,pre_advance,DELTA_SA,spf,bridge,79,0.7182954588874345,0.4981139843812445,-8.351340754923535e-05,2005:Q1,2024:Q4
exact,pre_advance,DELTA_SA,spf,indicator_revision_only_dfm_kalman_em,79,0.5696627235545563,0.3997025316455695,-0.0657987341772152,2005:Q1,2024:Q4
exact,pre_advance,DELTA_SA,spf,joint_indicator_revision_dfm_full_kalman_em,79,0.6055992510196457,0.44511432032360776,0.07290453674749159,2005:Q1,2024:Q4
exact,pre_advance,DELTA_SA,spf,midas_umidas,79,13.866667467379607,7.93109405552623,0.9838526443098989,2005:Q1,2024:Q4
exact,pre_advance,DELTA_SA,spf,monthly_mixed_frequency_kalman_em,79,0.5658529365643953,0.39763184070439894,0.04931868149656364,2005:Q1,2024:Q4
exact,pre_advance,DELTA_SA,spf,no_revision,79,0.5696627235545563,0.3997025316455695,-0.0657987341772152,2005:Q1,2024:Q4
exact,pre_advance,DELTA_SA,spf,release_dfm,79,0.6416466896223114,0.4275288832410043,-0.008320378652386377,2005:Q1,2024:Q4
exact,pre_advance,DELTA_SA,spf,revision_dfm_kalman_em,79,0.6255717358610776,0.43812406880401095,0.08765284507478527,2005:Q1,2024:Q4
exact,pre_advance,DELTA_SA,spf,spf,79,0.5696627235545563,0.3997025316455695,-0.0657987341772152,2005:Q1,2024:Q4
exact,pre_advance,DELTA_SA,spf,standard_dfm,79,0.6416466896223114,0.4275288832410043,-0.008320378652386377,2005:Q1,2024:Q4
exact,pre_second,DELTA_TS,spf,ar,79,0.40791620019200964,0.25997098556715326,0.01637946087350748,2005:Q1,2024:Q4
exact,pre_second,DELTA_TS,spf,bridge,79,0.4916791866250371,0.359095735161813,0.019267297869615323,2005:Q1,2024:Q4
exact,pre_second,DELTA_TS,spf,indicator_revision_only_dfm_kalman_em,79,0.3613823734957444,0.23798607594936708,-0.05443417721518987,2005:Q1,2024:Q4
exact,pre_second,DELTA_TS,spf,joint_indicator_revision_dfm_full_kalman_em,79,0.36192937949511533,0.23890952982629401,-0.05082778373184877,2005:Q1,2024:Q4
exact,pre_second,DELTA_TS,spf,midas_umidas,79,3.1241130194946414,1.247401789736979,0.001797142332922886,2005:Q1,2024:Q4
exact,pre_second,DELTA_TS,spf,monthly_mixed_frequency_kalman_em,79,0.3859243435312629,0.266927661038242,0.0032976963729884957,2005:Q1,2024:Q4
exact,pre_second,DELTA_TS,spf,no_revision,79,0.3613823734957444,0.23798607594936708,-0.05443417721518987,2005:Q1,2024:Q4
exact,pre_second,DELTA_TS,spf,release_dfm,79,0.3637919631069554,0.24234425732737855,-0.02082413871757817,2005:Q1,2024:Q4
exact,pre_second,DELTA_TS,spf,revision_dfm_kalman_em,79,0.36145326842675923,0.23816228345036633,-0.05050502499518197,2005:Q1,2024:Q4
exact,pre_second,DELTA_TS,spf,spf,79,0.3613823734957444,0.23798607594936708,-0.05443417721518987,2005:Q1,2024:Q4
exact,pre_second,DELTA_TS,spf,standard_dfm,79,0.3671373475049814,0.24650353001034273,0.0022413024488946746,2005:Q1,2024:Q4
exact,pre_third,DELTA_MT,spf,ar,80,3.661305113769584,2.0325966019767137,0.6233329912021504,2005:Q1,2024:Q4
exact,pre_third,DELTA_MT,spf,bridge,80,2.127339925592734,1.5287380986736352,0.021317313449704244,2005:Q1,2024:Q4
exact,pre_third,DELTA_MT,spf,indicator_revision_only_dfm_kalman_em,80,1.3391311900184781,1.0525517602521295,0.14236737423782084,2005:Q1,2024:Q4
exact,pre_third,DELTA_MT,spf,joint_indicator_revision_dfm_full_kalman_em,80,1.341592010485113,1.0549991021487597,0.14412004964588135,2005:Q1,2024:Q4
exact,pre_third,DELTA_MT,spf,midas_umidas,80,9.241680606582305,6.114797576695234,2.1297528583961105,2005:Q1,2024:Q4
exact,pre_third,DELTA_MT,spf,monthly_mixed_frequency_kalman_em,80,1.3903198927214806,1.091552901336437,0.18222316908603747,2005:Q1,2024:Q4
exact,pre_third,DELTA_MT,spf,no_revision,80,1.3391311900184781,1.0525517602521295,0.14236737423782084,2005:Q1,2024:Q4
exact,pre_third,DELTA_MT,spf,release_dfm,80,1.4528750809198332,1.1232182901898855,0.7470015565337214,2005:Q1,2024:Q4
exact,pre_third,DELTA_MT,spf,revision_dfm_kalman_em,80,1.341439450818619,1.0547846844379092,0.14416578265230276,2005:Q1,2024:Q4
exact,pre_third,DELTA_MT,spf,spf,80,1.3391311900184781,1.0525517602521295,0.14236737423782084,2005:Q1,2024:Q4
exact,pre_third,DELTA_MT,spf,standard_dfm,80,1.4352896528722896,1.1571508892456694,0.4751888167237931,2005:Q1,2024:Q4
pseudo,pre_advance,DELTA_SA,spf,ar,79,0.6781421206748106,0.46824945973191356,0.08303638739458122,2005:Q1,2024:Q4
pseudo,pre_advance,DELTA_SA,spf,bridge,79,0.7221269467369036,0.4993623149432482,0.0016771364521283153,2005:Q1,2024:Q4
pseudo,pre_advance,DELTA_SA,spf,indicator_revision_only_dfm_kalman_em,79,0.5696627235545563,0.3997025316455695,-0.0657987341772152,2005:Q1,2024:Q4
pseudo,pre_advance,DELTA_SA,spf,joint_indicator_revision_dfm_full_kalman_em,79,0.6068535795626441,0.44617029329568275,0.0740069872658664,2005:Q1,2024:Q4
pseudo,pre_advance,DELTA_SA,spf,midas_umidas,79,13.497152970832797,7.690336465637355,1.185262584138088,2005:Q1,2024:Q4
pseudo,pre_advance,DELTA_SA,spf,monthly_mixed_frequency_kalman_em,79,0.5655146048301157,0.3968656365603484,0.04947935133333539,2005:Q1,2024:Q4
pseudo,pre_advance,DELTA_SA,spf,no_revision,79,0.5696627235545563,0.3997025316455695,-0.0657987341772152,2005:Q1,2024:Q4
pseudo,pre_advance,DELTA_SA,spf,release_dfm,79,0.6405783165541686,0.42694074858486164,-0.007591496798546737,2005:Q1,2024:Q4
pseudo,pre_advance,DELTA_SA,spf,revision_dfm_kalman_em,79,0.6250692321453728,0.4377001621370663,0.08780376128696525,2005:Q1,2024:Q4
pseudo,pre_advance,DELTA_SA,spf,spf,79,0.5696627235545563,0.3997025316455695,-0.0657987341772152,2005:Q1,2024:Q4
pseudo,pre_advance,DELTA_SA,spf,standard_dfm,79,0.6405783165541686,0.42694074858486164,-0.007591496798546737,2005:Q1,2024:Q4
pseudo,pre_second,DELTA_TS,spf,ar,79,0.40791620019200964,0.25997098556715326,0.01637946087350748,2005:Q1,2024:Q4
pseudo,pre_second,DELTA_TS,spf,bridge,79,0.49234421429461056,0.35853674599857777,0.01917357290552322,2005:Q1,2024:Q4
pseudo,pre_second,DELTA_TS,spf,indicator_revision_only_dfm_kalman_em,79,0.3613823734957444,0.23798607594936708,-0.05443417721518987,2005:Q1,2024:Q4
pseudo,pre_second,DELTA_TS,spf,joint_indicator_revision_dfm_full_kalman_em,79,0.3618615680688049,0.23887276384724707,-0.050849873577242063,2005:Q1,2024:Q4
pseudo,pre_second,DELTA_TS,spf,midas_umidas,79,3.1241983182834105,1.2521986485220304,-0.007509226910357088,2005:Q1,2024:Q4
pseudo,pre_second,DELTA_TS,spf,monthly_mixed_frequency_kalman_em,79,0.38521273436566944,0.26613266097676347,0.0026434572019250883,2005:Q1,2024:Q4
pseudo,pre_second,DELTA_TS,spf,no_revision,79,0.3613823734957444,0.23798607594936708,-0.05443417721518987,2005:Q1,2024:Q4
pseudo,pre_second,DELTA_TS,spf,release_dfm,79,0.3638289418724508,0.24238972923091182,-0.020815017902629223,2005:Q1,2024:Q4
pseudo,pre_second,DELTA_TS,spf,revision_dfm_kalman_em,79,0.3614519828860139,0.23813471775446848,-0.05053211881729368,2005:Q1,2024:Q4
pseudo,pre_second,DELTA_TS,spf,spf,79,0.3613823734957444,0.23798607594936708,-0.05443417721518987,2005:Q1,2024:Q4
pseudo,pre_second,DELTA_TS,spf,standard_dfm,79,0.3671091037446861,0.246532087289017,0.0022361354685869537,2005:Q1,2024:Q4
pseudo,pre_third,DELTA_MT,spf,ar,80,3.661305113769584,2.0325966019767137,0.6233329912021504,2005:Q1,2024:Q4
pseudo,pre_third,DELTA_MT,spf,bridge,80,2.1252822405256153,1.5250299852355425,0.023689904611889245,2005:Q1,2024:Q4
pseudo,pre_third,DELTA_MT,spf,indicator_revision_only_dfm_kalman_em,80,1.3391311900184781,1.0525517602521295,0.14236737423782084,2005:Q1,2024:Q4
pseudo,pre_third,DELTA_MT,spf,joint_indicator_revision_dfm_full_kalman_em,80,1.3415997329867766,1.0550092566446723,0.14411474293837778,2005:Q1,2024:Q4
pseudo,pre_third,DELTA_MT,spf,midas_umidas,80,9.225519265026644,6.150907113167992,2.1577652361294155,2005:Q1,2024:Q4
pseudo,pre_third,DELTA_MT,spf,monthly_mixed_frequency_kalman_em,80,1.3903974782845097,1.0914283803448726,0.1817002493884202,2005:Q1,2024:Q4
pseudo,pre_third,DELTA_MT,spf,no_revision,80,1.3391311900184781,1.0525517602521295,0.14236737423782084,2005:Q1,2024:Q4
pseudo,pre_third,DELTA_MT,spf,release_dfm,80,1.4521554436958477,1.1218414948104356,0.7478582853407777,2005:Q1,2024:Q4
pseudo,pre_third,DELTA_MT,spf,revision_dfm_kalman_em,80,1.341439035950415,1.0547850030966406,0.14416172258703447,2005:Q1,2024:Q4
pseudo,pre_third,DELTA_MT,spf,spf,80,1.3391311900184781,1.0525517602521295,0.14236737423782084,2005:Q1,2024:Q4
pseudo,pre_third,DELTA_MT,spf,standard_dfm,80,1.4323522189377038,1.1553968249378426,0.47497369603065,2005:Q1,2024:Q4
