haminh109/Revision-Aware-DFM/outputs/full_state_space_release_revision_dfm/exact_pseudo_backtest_mature_latest_max_iter100_journal_evidence/cumulative_loss_point.csv
timing_mode,checkpoint_id,outcome_id,baseline_model,model_id,target_quarter,loss_diff_baseline_minus_model,cumulative_loss_diff
exact,pre_advance,A,ar,bridge,2005:Q1,0.026508366163050925,0.026508366163050925
exact,pre_advance,A,ar,bridge,2005:Q2,0.25605091488063453,0.28255928104368544
exact,pre_advance,A,ar,bridge,2005:Q3,-0.1145844705953406,0.16797481044834484
exact,pre_advance,A,ar,bridge,2005:Q4,-1.067053416924928,-0.8990786064765831
exact,pre_advance,A,ar,bridge,2006:Q1,1.6356501256199305,0.7365715191433474
exact,pre_advance,A,ar,bridge,2006:Q2,0.7676987547042062,1.5042702738475535
exact,pre_advance,A,ar,bridge,2006:Q3,-0.11413741897172125,1.3901328548758323
exact,pre_advance,A,ar,bridge,2006:Q4,-11.42373598428023,-10.033603129404398
exact,pre_advance,A,ar,bridge,2007:Q1,2.9288243316873825,-7.104778797717016
exact,pre_advance,A,ar,bridge,2007:Q2,-0.571880895833992,-7.676659693551008
exact,pre_advance,A,ar,bridge,2007:Q3,-4.421703232049937,-12.098362925600945
exact,pre_advance,A,ar,bridge,2007:Q4,6.981606042021606,-5.116756883579339
exact,pre_advance,A,ar,bridge,2008:Q1,-0.8428265241404642,-5.959583407719803
exact,pre_advance,A,ar,bridge,2008:Q2,-0.5775901807402076,-6.537173588460011
exact,pre_advance,A,ar,bridge,2008:Q3,6.239153415743342,-0.2980201727166687
exact,pre_advance,A,ar,bridge,2008:Q4,18.935021625538596,18.637001452821927
exact,pre_advance,A,ar,bridge,2009:Q1,28.976487905078283,47.61348935790021
exact,pre_advance,A,ar,bridge,2009:Q2,-1.0972978517896448,46.51619150611056
exact,pre_advance,A,ar,bridge,2009:Q3,4.302859584500106,50.819051090610664
exact,pre_advance,A,ar,bridge,2009:Q4,0.8405391500749486,51.65959024068561
exact,pre_advance,A,ar,bridge,2010:Q1,-7.902887294564825,43.75670294612078
exact,pre_advance,A,ar,bridge,2010:Q2,0.011858308232202852,43.76856125435299
exact,pre_advance,A,ar,bridge,2010:Q3,0.18832454713788116,43.95688580149087
exact,pre_advance,A,ar,bridge,2010:Q4,0.2765286183734815,44.23341441986435
exact,pre_advance,A,ar,bridge,2011:Q1,-2.6235720668932383,41.609842352971114
exact,pre_advance,A,ar,bridge,2011:Q2,-1.4729019751695853,40.13694037780153
exact,pre_advance,A,ar,bridge,2011:Q3,-0.0022523077665603797,40.13468807003497
exact,pre_advance,A,ar,bridge,2011:Q4,-1.082757162786356,39.05193090724861
exact,pre_advance,A,ar,bridge,2012:Q1,-1.0541537717065796,37.99777713554203
exact,pre_advance,A,ar,bridge,2012:Q2,-0.4841720924257811,37.51360504311625
exact,pre_advance,A,ar,bridge,2012:Q3,-0.5745739215873314,36.93903112152892
exact,pre_advance,A,ar,bridge,2012:Q4,-8.166100960885938,28.772930160642982
exact,pre_advance,A,ar,bridge,2013:Q1,0.7861555844576769,29.55908574510066
exact,pre_advance,A,ar,bridge,2013:Q2,-0.3824613142293476,29.176624430871314
exact,pre_advance,A,ar,bridge,2013:Q3,-0.46677534104159424,28.70984908982972
exact,pre_advance,A,ar,bridge,2013:Q4,-0.039765412715874415,28.670083677113848
exact,pre_advance,A,ar,bridge,2014:Q1,3.920388840588136,32.59047251770198
exact,pre_advance,A,ar,bridge,2014:Q2,4.106194340754633,36.69666685845662
exact,pre_advance,A,ar,bridge,2014:Q3,-0.056094443733069724,36.64057241472354
exact,pre_advance,A,ar,bridge,2014:Q4,0.1575985164891277,36.798170931212674
exact,pre_advance,A,ar,bridge,2015:Q1,3.3836744740684486,40.18184540528112
exact,pre_advance,A,ar,bridge,2015:Q2,0.8610543008872912,41.04289970616841
exact,pre_advance,A,ar,bridge,2015:Q3,0.6136721270869122,41.65657183325533
exact,pre_advance,A,ar,bridge,2015:Q4,0.6515995292412713,42.3081713624966
exact,pre_advance,A,ar,bridge,2016:Q1,0.7787481652209838,43.08691952771758
exact,pre_advance,A,ar,bridge,2016:Q2,0.059797019294426566,43.14671654701201
exact,pre_advance,A,ar,bridge,2016:Q3,0.36377552260716206,43.510492069619175
exact,pre_advance,A,ar,bridge,2016:Q4,-0.7375381686773962,42.77295390094178
exact,pre_advance,A,ar,bridge,2017:Q1,-0.6640699525926914,42.10888394834909
exact,pre_advance,A,ar,bridge,2017:Q2,-0.12694577975501653,41.98193816859407
exact,pre_advance,A,ar,bridge,2017:Q3,-0.3142545493377593,41.66768361925631
exact,pre_advance,A,ar,bridge,2017:Q4,-1.1500300216843717,40.517653597571936
exact,pre_advance,A,ar,bridge,2018:Q1,-0.8594179119067495,39.65823568566519
exact,pre_advance,A,ar,bridge,2018:Q2,0.39498998888680337,40.053225674551996
exact,pre_advance,A,ar,bridge,2018:Q3,-0.1438588875744695,39.90936678697753
exact,pre_advance,A,ar,bridge,2018:Q4,0.09068553162124533,40.000052318598776
exact,pre_advance,A,ar,bridge,2019:Q1,-0.10760998024848467,39.89244233835029
exact,pre_advance,A,ar,bridge,2019:Q2,0.6089661755654483,40.50140851391574
exact,pre_advance,A,ar,bridge,2019:Q3,-0.33271829282384024,40.1686902210919
exact,pre_advance,A,ar,bridge,2019:Q4,-0.16781559230481113,40.00087462878709
exact,pre_advance,A,ar,bridge,2020:Q1,9.102458446038156,49.103333074825244
exact,pre_advance,A,ar,bridge,2020:Q2,532.6153717534219,581.7187048282472
exact,pre_advance,A,ar,bridge,2020:Q3,1642.8717471955658,2224.5904520238128
exact,pre_advance,A,ar,bridge,2020:Q4,-25.236584640080753,2199.353867383732
exact,pre_advance,A,ar,bridge,2021:Q1,12.991205256378652,2212.3450726401106
exact,pre_advance,A,ar,bridge,2021:Q2,15.009953845689985,2227.3550264858004
exact,pre_advance,A,ar,bridge,2021:Q3,-0.3051338757414128,2227.049892610059
exact,pre_advance,A,ar,bridge,2021:Q4,-0.5416554582639961,2226.508237151795
exact,pre_advance,A,ar,bridge,2022:Q1,-27.24056001814712,2199.267677133648
exact,pre_advance,A,ar,bridge,2022:Q2,2.3168008337014,2201.5844779673494
exact,pre_advance,A,ar,bridge,2022:Q3,-3.0659772522159,2198.5185007151335
exact,pre_advance,A,ar,bridge,2022:Q4,-18.358927656569044,2180.1595730585645
exact,pre_advance,A,ar,bridge,2023:Q1,1.746828477152817,2181.9064015357176
exact,pre_advance,A,ar,bridge,2023:Q2,-1.4069302895362061,2180.499471246181
exact,pre_advance,A,ar,bridge,2023:Q3,0.3615726347753414,2180.8610438809565
exact,pre_advance,A,ar,bridge,2023:Q4,-6.352938995644131,2174.508104885312
exact,pre_advance,A,ar,bridge,2024:Q1,0.7855773239734215,2175.2936822092856
exact,pre_advance,A,ar,bridge,2024:Q2,-0.6561092188970661,2174.6375729903884
exact,pre_advance,A,ar,bridge,2024:Q3,-0.07053545014004475,2174.5670375402483
exact,pre_advance,A,ar,bridge,2024:Q4,-0.00044289376299851135,2174.566594646485
exact,pre_advance,A,ar,indicator_revision_only_dfm_kalman_em,2005:Q1,-2.0810719577518477,-2.0810719577518477
exact,pre_advance,A,ar,indicator_revision_only_dfm_kalman_em,2005:Q2,-0.3127365904458022,-2.39380854819765
exact,pre_advance,A,ar,indicator_revision_only_dfm_kalman_em,2005:Q3,0.5597290388013886,-1.8340795093962612
exact,pre_advance,A,ar,indicator_revision_only_dfm_kalman_em,2005:Q4,-22.900646968227445,-24.734726477623706
exact,pre_advance,A,ar,indicator_revision_only_dfm_kalman_em,2006:Q1,8.138906243218429,-16.595820234405277
exact,pre_advance,A,ar,indicator_revision_only_dfm_kalman_em,2006:Q2,-3.166447781718275,-19.762268016123553
exact,pre_advance,A,ar,indicator_revision_only_dfm_kalman_em,2006:Q3,-2.6262327854940404,-22.388500801617592
exact,pre_advance,A,ar,indicator_revision_only_dfm_kalman_em,2006:Q4,-16.983381300066277,-39.371882101683866
exact,pre_advance,A,ar,indicator_revision_only_dfm_kalman_em,2007:Q1,2.1600592999189168,-37.21182280176495
exact,pre_advance,A,ar,indicator_revision_only_dfm_kalman_em,2007:Q2,1.9172658896645738,-35.294556912100376
exact,pre_advance,A,ar,indicator_revision_only_dfm_kalman_em,2007:Q3,-32.93059035548928,-68.22514726758965
exact,pre_advance,A,ar,indicator_revision_only_dfm_kalman_em,2007:Q4,1.8491568035442398,-66.3759904640454
exact,pre_advance,A,ar,indicator_revision_only_dfm_kalman_em,2008:Q1,-8.57876884889348,-74.95475931293888
exact,pre_advance,A,ar,indicator_revision_only_dfm_kalman_em,2008:Q2,-0.8509051188375784,-75.80566443177645
exact,pre_advance,A,ar,indicator_revision_only_dfm_kalman_em,2008:Q3,-1.070172253019459,-76.87583668479591
exact,pre_advance,A,ar,indicator_revision_only_dfm_kalman_em,2008:Q4,-18.519253392132374,-95.39509007692828
exact,pre_advance,A,ar,indicator_revision_only_dfm_kalman_em,2009:Q1,1.5528459642857655,-93.84224411264252
exact,pre_advance,A,ar,indicator_revision_only_dfm_kalman_em,2009:Q2,-3.1378130601602776,-96.9800571728028
exact,pre_advance,A,ar,indicator_revision_only_dfm_kalman_em,2009:Q3,1.211596580297952,-95.76846059250485
exact,pre_advance,A,ar,indicator_revision_only_dfm_kalman_em,2009:Q4,-2.0569240881228357,-97.82538468062769
exact,pre_advance,A,ar,indicator_revision_only_dfm_kalman_em,2010:Q1,-10.285154784635305,-108.110539465263
exact,pre_advance,A,ar,indicator_revision_only_dfm_kalman_em,2010:Q2,-2.9468601726395134,-111.05739963790252
exact,pre_advance,A,ar,indicator_revision_only_dfm_kalman_em,2010:Q3,0.1713607027158991,-110.88603893518662
exact,pre_advance,A,ar,indicator_revision_only_dfm_kalman_em,2010:Q4,0.6391347077221252,-110.2469042274645
exact,pre_advance,A,ar,indicator_revision_only_dfm_kalman_em,2011:Q1,-19.381463368906978,-129.62836759637148
exact,pre_advance,A,ar,indicator_revision_only_dfm_kalman_em,2011:Q2,0.5071242167702913,-129.1212433796012
exact,pre_advance,A,ar,indicator_revision_only_dfm_kalman_em,2011:Q3,-1.0543700109259209,-130.1756133905271
exact,pre_advance,A,ar,indicator_revision_only_dfm_kalman_em,2011:Q4,-3.2826530632398807,-133.45826645376698
exact,pre_advance,A,ar,indicator_revision_only_dfm_kalman_em,2012:Q1,-5.6279117769606675,-139.08617823072765
exact,pre_advance,A,ar,indicator_revision_only_dfm_kalman_em,2012:Q2,-0.7537483112429726,-139.8399265419706
exact,pre_advance,A,ar,indicator_revision_only_dfm_kalman_em,2012:Q3,-0.16987376810168786,-140.0098003100723
exact,pre_advance,A,ar,indicator_revision_only_dfm_kalman_em,2012:Q4,-12.916815781859649,-152.92661609193195
exact,pre_advance,A,ar,indicator_revision_only_dfm_kalman_em,2013:Q1,1.6875177022163919,-151.23909838971556
exact,pre_advance,A,ar,indicator_revision_only_dfm_kalman_em,2013:Q2,-0.2359570963116394,-151.4750554860272
exact,pre_advance,A,ar,indicator_revision_only_dfm_kalman_em,2013:Q3,0.3748759232523458,-151.10017956277485
exact,pre_advance,A,ar,indicator_revision_only_dfm_kalman_em,2013:Q4,-2.227780687793613,-153.32796025056848
exact,pre_advance,A,ar,indicator_revision_only_dfm_kalman_em,2014:Q1,3.386138393355819,-149.94182185721266
exact,pre_advance,A,ar,indicator_revision_only_dfm_kalman_em,2014:Q2,6.204347503159045,-143.7374743540536
exact,pre_advance,A,ar,indicator_revision_only_dfm_kalman_em,2014:Q3,-0.060647404054488416,-143.7981217581081
exact,pre_advance,A,ar,indicator_revision_only_dfm_kalman_em,2014:Q4,-0.07596715893761799,-143.87408891704573
exact,pre_advance,A,ar,indicator_revision_only_dfm_kalman_em,2015:Q1,5.070189473012968,-138.80389944403277
exact,pre_advance,A,ar,indicator_revision_only_dfm_kalman_em,2015:Q2,0.5536743313395225,-138.25022511269324
exact,pre_advance,A,ar,indicator_revision_only_dfm_kalman_em,2015:Q3,-2.040229114235765,-140.290454226929
exact,pre_advance,A,ar,indicator_revision_only_dfm_kalman_em,2015:Q4,0.7189075523208497,-139.57154667460816
exact,pre_advance,A,ar,indicator_revision_only_dfm_kalman_em,2016:Q1,-0.969861571807386,-140.54140824641556
exact,pre_advance,A,ar,indicator_revision_only_dfm_kalman_em,2016:Q2,-0.5426013248415249,-141.08400957125707
exact,pre_advance,A,ar,indicator_revision_only_dfm_kalman_em,2016:Q3,1.075208202630551,-140.0088013686265
exact,pre_advance,A,ar,indicator_revision_only_dfm_kalman_em,2016:Q4,-3.314479622333065,-143.32328099095957
exact,pre_advance,A,ar,indicator_revision_only_dfm_kalman_em,2017:Q1,-2.946070957764984,-146.26935194872456
exact,pre_advance,A,ar,indicator_revision_only_dfm_kalman_em,2017:Q2,0.35165353300868907,-145.91769841571588
exact,pre_advance,A,ar,indicator_revision_only_dfm_kalman_em,2017:Q3,-1.3057127115152753,-147.22341112723115
exact,pre_advance,A,ar,indicator_revision_only_dfm_kalman_em,2017:Q4,-10.278221679096939,-157.50163280632808
exact,pre_advance,A,ar,indicator_revision_only_dfm_kalman_em,2018:Q1,-0.8942764822983004,-158.39590928862637
exact,pre_advance,A,ar,indicator_revision_only_dfm_kalman_em,2018:Q2,1.0576022483003096,-157.33830704032607
exact,pre_advance,A,ar,indicator_revision_only_dfm_kalman_em,2018:Q3,0.05060221144596873,-157.2877048288801
exact,pre_advance,A,ar,indicator_revision_only_dfm_kalman_em,2018:Q4,0.16722593261916316,-157.12047889626092
exact,pre_advance,A,ar,indicator_revision_only_dfm_kalman_em,2019:Q1,-2.6426988030149863,-159.7631776992759
exact,pre_advance,A,ar,indicator_revision_only_dfm_kalman_em,2019:Q2,0.13348488722246765,-159.62969281205343
exact,pre_advance,A,ar,indicator_revision_only_dfm_kalman_em,2019:Q3,-0.3580314262112434,-159.9877242382647
exact,pre_advance,A,ar,indicator_revision_only_dfm_kalman_em,2019:Q4,-0.17060522483175738,-160.15832946309644
exact,pre_advance,A,ar,indicator_revision_only_dfm_kalman_em,2020:Q1,34.92949780192029,-125.22883166117614
exact,pre_advance,A,ar,indicator_revision_only_dfm_kalman_em,2020:Q2,954.4846815686415,829.2558499074653
exact,pre_advance,A,ar,indicator_revision_only_dfm_kalman_em,2020:Q3,2101.2893965312987,2930.545246438764
exact,pre_advance,A,ar,indicator_revision_only_dfm_kalman_em,2020:Q4,-18.401197663425577,2912.1440487753384
exact,pre_advance,A,ar,indicator_revision_only_dfm_kalman_em,2021:Q1,9.216328642297505,2921.360377417636
exact,pre_advance,A,ar,indicator_revision_only_dfm_kalman_em,2021:Q2,6.7915170629910175,2928.1518944806267
exact,pre_advance,A,ar,indicator_revision_only_dfm_kalman_em,2021:Q3,-5.794967197056539,2922.3569272835703
exact,pre_advance,A,ar,indicator_revision_only_dfm_kalman_em,2021:Q4,13.7658271667507,2936.122754450321
exact,pre_advance,A,ar,indicator_revision_only_dfm_kalman_em,2022:Q1,-35.59609443777476,2900.526660012546
exact,pre_advance,A,ar,indicator_revision_only_dfm_kalman_em,2022:Q2,-8.788179143484607,2891.7384808690613
exact,pre_advance,A,ar,indicator_revision_only_dfm_kalman_em,2022:Q3,-0.0878922538088321,2891.650588615252
exact,pre_advance,A,ar,indicator_revision_only_dfm_kalman_em,2022:Q4,-1.7872763878055853,2889.863312227447
exact,pre_advance,A,ar,indicator_revision_only_dfm_kalman_em,2023:Q1,-1.2680605831137841,2888.595251644333
exact,pre_advance,A,ar,indicator_revision_only_dfm_kalman_em,2023:Q2,-0.3098363635413295,2888.2854152807918
exact,pre_advance,A,ar,indicator_revision_only_dfm_kalman_em,2023:Q3,-2.187275585991065,2886.098139694801
exact,pre_advance,A,ar,indicator_revision_only_dfm_kalman_em,2023:Q4,0.09415065370191272,2886.192290348503
exact,pre_advance,A,ar,indicator_revision_only_dfm_kalman_em,2024:Q1,0.8692536109569254,2887.06154395946
exact,pre_advance,A,ar,indicator_revision_only_dfm_kalman_em,2024:Q2,-1.0527219836297628,2886.00882197583
exact,pre_advance,A,ar,indicator_revision_only_dfm_kalman_em,2024:Q3,-0.7887823627553738,2885.2200396130747
exact,pre_advance,A,ar,indicator_revision_only_dfm_kalman_em,2024:Q4,-0.1730031587112996,2885.0470364543635
exact,pre_advance,A,ar,joint_indicator_revision_dfm_full_kalman_em,2005:Q1,-0.36059434147072655,-0.36059434147072655
exact,pre_advance,A,ar,joint_indicator_revision_dfm_full_kalman_em,2005:Q2,0.25637535591190125,-0.1042189855588253
exact,pre_advance,A,ar,joint_indicator_revision_dfm_full_kalman_em,2005:Q3,0.4784690336347777,0.3742500480759524
exact,pre_advance,A,ar,joint_indicator_revision_dfm_full_kalman_em,2005:Q4,-17.517115647518757,-17.142865599442803
exact,pre_advance,A,ar,joint_indicator_revision_dfm_full_kalman_em,2006:Q1,6.96528086304688,-10.177584736395923
exact,pre_advance,A,ar,joint_indicator_revision_dfm_full_kalman_em,2006:Q2,-0.6470727851111175,-10.82465752150704
exact,pre_advance,A,ar,joint_indicator_revision_dfm_full_kalman_em,2006:Q3,-3.2840422597374115,-14.108699781244452
exact,pre_advance,A,ar,joint_indicator_revision_dfm_full_kalman_em,2006:Q4,-17.27564841047593,-31.384348191720385
exact,pre_advance,A,ar,joint_indicator_revision_dfm_full_kalman_em,2007:Q1,-0.06059693296880342,-31.444945124689188
exact,pre_advance,A,ar,joint_indicator_revision_dfm_full_kalman_em,2007:Q2,1.899958973427302,-29.544986151261885
exact,pre_advance,A,ar,joint_indicator_revision_dfm_full_kalman_em,2007:Q3,-30.18827866882628,-59.733264820088166
exact,pre_advance,A,ar,joint_indicator_revision_dfm_full_kalman_em,2007:Q4,1.6655945358403628,-58.067670284247804
exact,pre_advance,A,ar,joint_indicator_revision_dfm_full_kalman_em,2008:Q1,-6.526574657380312,-64.59424494162812
exact,pre_advance,A,ar,joint_indicator_revision_dfm_full_kalman_em,2008:Q2,-0.039779842646424125,-64.63402478427454
exact,pre_advance,A,ar,joint_indicator_revision_dfm_full_kalman_em,2008:Q3,-1.0878601287387264,-65.72188491301327
exact,pre_advance,A,ar,joint_indicator_revision_dfm_full_kalman_em,2008:Q4,-6.095551413499141,-71.81743632651241
exact,pre_advance,A,ar,joint_indicator_revision_dfm_full_kalman_em,2009:Q1,-3.9624697681635865,-75.779906094676
exact,pre_advance,A,ar,joint_indicator_revision_dfm_full_kalman_em,2009:Q2,0.01335128295225907,-75.76655481172374
exact,pre_advance,A,ar,joint_indicator_revision_dfm_full_kalman_em,2009:Q3,4.627696020710955,-71.13885879101278
exact,pre_advance,A,ar,joint_indicator_revision_dfm_full_kalman_em,2009:Q4,-2.327343088159756,-73.46620187917253
exact,pre_advance,A,ar,joint_indicator_revision_dfm_full_kalman_em,2010:Q1,-8.162292636396554,-81.62849451556909
exact,pre_advance,A,ar,joint_indicator_revision_dfm_full_kalman_em,2010:Q2,-3.6281503720937636,-85.25664488766284
exact,pre_advance,A,ar,joint_indicator_revision_dfm_full_kalman_em,2010:Q3,0.150683069858579,-85.10596181780427
exact,pre_advance,A,ar,joint_indicator_revision_dfm_full_kalman_em,2010:Q4,0.3330137537247984,-84.77294806407947
exact,pre_advance,A,ar,joint_indicator_revision_dfm_full_kalman_em,2011:Q1,-17.5679026264496,-102.34085069052907
exact,pre_advance,A,ar,joint_indicator_revision_dfm_full_kalman_em,2011:Q2,0.7098096855872457,-101.63104100494182
exact,pre_advance,A,ar,joint_indicator_revision_dfm_full_kalman_em,2011:Q3,-0.41750380008676297,-102.04854480502858
exact,pre_advance,A,ar,joint_indicator_revision_dfm_full_kalman_em,2011:Q4,-2.6304620001030705,-104.67900680513165
exact,pre_advance,A,ar,joint_indicator_revision_dfm_full_kalman_em,2012:Q1,-4.732173775808102,-109.41118058093976
exact,pre_advance,A,ar,joint_indicator_revision_dfm_full_kalman_em,2012:Q2,-0.6225418775711222,-110.03372245851088
exact,pre_advance,A,ar,joint_indicator_revision_dfm_full_kalman_em,2012:Q3,-0.03664503489714901,-110.07036749340803
exact,pre_advance,A,ar,joint_indicator_revision_dfm_full_kalman_em,2012:Q4,-8.830933545429792,-118.90130103883781
exact,pre_advance,A,ar,joint_indicator_revision_dfm_full_kalman_em,2013:Q1,1.7436134929438505,-117.15768754589396
exact,pre_advance,A,ar,joint_indicator_revision_dfm_full_kalman_em,2013:Q2,-0.13169552359736014,-117.28938306949132
exact,pre_advance,A,ar,joint_indicator_revision_dfm_full_kalman_em,2013:Q3,0.556864665745995,-116.73251840374533
exact,pre_advance,A,ar,joint_indicator_revision_dfm_full_kalman_em,2013:Q4,-0.7616627811567531,-117.49418118490209
exact,pre_advance,A,ar,joint_indicator_revision_dfm_full_kalman_em,2014:Q1,1.9704333082282224,-115.52374787667387
exact,pre_advance,A,ar,joint_indicator_revision_dfm_full_kalman_em,2014:Q2,6.265443298342544,-109.25830457833132
exact,pre_advance,A,ar,joint_indicator_revision_dfm_full_kalman_em,2014:Q3,-0.23287143376450464,-109.49117601209582
exact,pre_advance,A,ar,joint_indicator_revision_dfm_full_kalman_em,2014:Q4,0.0895081898396087,-109.40166782225621
exact,pre_advance,A,ar,joint_indicator_revision_dfm_full_kalman_em,2015:Q1,4.656452451431221,-104.745215370825
exact,pre_advance,A,ar,joint_indicator_revision_dfm_full_kalman_em,2015:Q2,0.5949964210053986,-104.15021894981959
exact,pre_advance,A,ar,joint_indicator_revision_dfm_full_kalman_em,2015:Q3,-0.6179450030499574,-104.76816395286954
exact,pre_advance,A,ar,joint_indicator_revision_dfm_full_kalman_em,2015:Q4,1.135258459320569,-103.63290549354898
exact,pre_advance,A,ar,joint_indicator_revision_dfm_full_kalman_em,2016:Q1,-0.22201532244581945,-103.85492081599479
exact,pre_advance,A,ar,joint_indicator_revision_dfm_full_kalman_em,2016:Q2,-0.16668641681379132,-104.02160723280858
exact,pre_advance,A,ar,joint_indicator_revision_dfm_full_kalman_em,2016:Q3,0.984007992126529,-103.03759924068204
exact,pre_advance,A,ar,joint_indicator_revision_dfm_full_kalman_em,2016:Q4,-2.222931349026166,-105.26053058970821
exact,pre_advance,A,ar,joint_indicator_revision_dfm_full_kalman_em,2017:Q1,-2.010562211358448,-107.27109280106666
exact,pre_advance,A,ar,joint_indicator_revision_dfm_full_kalman_em,2017:Q2,0.8476172637397563,-106.42347553732691
exact,pre_advance,A,ar,joint_indicator_revision_dfm_full_kalman_em,2017:Q3,-1.8559034433777795,-108.27937898070469
exact,pre_advance,A,ar,joint_indicator_revision_dfm_full_kalman_em,2017:Q4,-7.256832843777354,-115.53621182448205
exact,pre_advance,A,ar,joint_indicator_revision_dfm_full_kalman_em,2018:Q1,-0.4986322941423556,-116.0348441186244
exact,pre_advance,A,ar,joint_indicator_revision_dfm_full_kalman_em,2018:Q2,0.8104784247303769,-115.22436569389403
exact,pre_advance,A,ar,joint_indicator_revision_dfm_full_kalman_em,2018:Q3,0.044069943645525834,-115.1802957502485
exact,pre_advance,A,ar,joint_indicator_revision_dfm_full_kalman_em,2018:Q4,0.16426570410650188,-115.016030046142
exact,pre_advance,A,ar,joint_indicator_revision_dfm_full_kalman_em,2019:Q1,-2.151250192238981,-117.16728023838098
exact,pre_advance,A,ar,joint_indicator_revision_dfm_full_kalman_em,2019:Q2,0.08012060415105127,-117.08715963422993
exact,pre_advance,A,ar,joint_indicator_revision_dfm_full_kalman_em,2019:Q3,-0.24422809154187078,-117.3313877257718
exact,pre_advance,A,ar,joint_indicator_revision_dfm_full_kalman_em,2019:Q4,-0.24331238886025952,-117.57470011463207
exact,pre_advance,A,ar,joint_indicator_revision_dfm_full_kalman_em,2020:Q1,33.79142038227563,-83.78327973235643
exact,pre_advance,A,ar,joint_indicator_revision_dfm_full_kalman_em,2020:Q2,952.4732430362918,868.6899633039354
exact,pre_advance,A,ar,joint_indicator_revision_dfm_full_kalman_em,2020:Q3,2076.819541134818,2945.5095044387535
exact,pre_advance,A,ar,joint_indicator_revision_dfm_full_kalman_em,2020:Q4,-4.610409077028109,2940.8990953617254
exact,pre_advance,A,ar,joint_indicator_revision_dfm_full_kalman_em,2021:Q1,7.0013136765864665,2947.900409038312
exact,pre_advance,A,ar,joint_indicator_revision_dfm_full_kalman_em,2021:Q2,6.095818258108512,2953.9962272964203
exact,pre_advance,A,ar,joint_indicator_revision_dfm_full_kalman_em,2021:Q3,-6.061451719289374,2947.934775577131
exact,pre_advance,A,ar,joint_indicator_revision_dfm_full_kalman_em,2021:Q4,13.805555508547577,2961.7403310856785
exact,pre_advance,A,ar,joint_indicator_revision_dfm_full_kalman_em,2022:Q1,-27.33146484038729,2934.4088662452914
exact,pre_advance,A,ar,joint_indicator_revision_dfm_full_kalman_em,2022:Q2,-10.14467453168289,2924.2641917136084
exact,pre_advance,A,ar,joint_indicator_revision_dfm_full_kalman_em,2022:Q3,0.01762675813518998,2924.2818184717435
exact,pre_advance,A,ar,joint_indicator_revision_dfm_full_kalman_em,2022:Q4,-1.3839756199765503,2922.897842851767
exact,pre_advance,A,ar,joint_indicator_revision_dfm_full_kalman_em,2023:Q1,-1.3903761451625551,2921.5074667066046
exact,pre_advance,A,ar,joint_indicator_revision_dfm_full_kalman_em,2023:Q2,-0.080961940657815,2921.426504765947
exact,pre_advance,A,ar,joint_indicator_revision_dfm_full_kalman_em,2023:Q3,-2.539522658600899,2918.886982107346
exact,pre_advance,A,ar,joint_indicator_revision_dfm_full_kalman_em,2023:Q4,-0.6614121905003763,2918.2255699168454
exact,pre_advance,A,ar,joint_indicator_revision_dfm_full_kalman_em,2024:Q1,0.8692592444679114,2919.094829161313
exact,pre_advance,A,ar,joint_indicator_revision_dfm_full_kalman_em,2024:Q2,-1.2906973254352938,2917.804131835878
exact,pre_advance,A,ar,joint_indicator_revision_dfm_full_kalman_em,2024:Q3,-1.080052516081348,2916.7240793197966
exact,pre_advance,A,ar,joint_indicator_revision_dfm_full_kalman_em,2024:Q4,-0.060471869865709627,2916.663607449931
exact,pre_advance,A,ar,midas_umidas,2005:Q1,-187.6199151665184,-187.6199151665184
exact,pre_advance,A,ar,midas_umidas,2005:Q2,-221.40714001951997,-409.0270551860384
exact,pre_advance,A,ar,midas_umidas,2005:Q3,-286.1498872043989,-695.1769423904373
exact,pre_advance,A,ar,midas_umidas,2005:Q4,-121.10249273451387,-816.2794351249511
exact,pre_advance,A,ar,midas_umidas,2006:Q1,-416.6870798629993,-1232.9665149879504
exact,pre_advance,A,ar,midas_umidas,2006:Q2,-219.90095661332757,-1452.8674716012779
exact,pre_advance,A,ar,midas_umidas,2006:Q3,-16.762423352507025,-1469.629894953785
exact,pre_advance,A,ar,midas_umidas,2006:Q4,-19.797858160134435,-1489.4277531139194
exact,pre_advance,A,ar,midas_umidas,2007:Q1,-18.208297323335493,-1507.6360504372549
exact,pre_advance,A,ar,midas_umidas,2007:Q2,-90.46093777998257,-1598.0969882172374
exact,pre_advance,A,ar,midas_umidas,2007:Q3,-331.1259104236887,-1929.2228986409261
exact,pre_advance,A,ar,midas_umidas,2007:Q4,-28.7438112194976,-1957.9667098604236
exact,pre_advance,A,ar,midas_umidas,2008:Q1,-109.21614314991803,-2067.1828530103417
exact,pre_advance,A,ar,midas_umidas,2008:Q2,-565.4112016092611,-2632.5940546196025
exact,pre_advance,A,ar,midas_umidas,2008:Q3,-58.186597073757085,-2690.7806516933597
exact,pre_advance,A,ar,midas_umidas,2008:Q4,-32.728163358606764,-2723.5088150519664
exact,pre_advance,A,ar,midas_umidas,2009:Q1,8.583597191716123,-2714.92521786025
exact,pre_advance,A,ar,midas_umidas,2009:Q2,-53.39885734537558,-2768.324075205626
exact,pre_advance,A,ar,midas_umidas,2009:Q3,-303.9722662121401,-3072.2963414177657
exact,pre_advance,A,ar,midas_umidas,2009:Q4,-64.51058242069575,-3136.8069238384614
exact,pre_advance,A,ar,midas_umidas,2010:Q1,0.5983576798340858,-3136.2085661586275
exact,pre_advance,A,ar,midas_umidas,2010:Q2,-15.990555884620134,-3152.199122043248
exact,pre_advance,A,ar,midas_umidas,2010:Q3,-307.6546954204589,-3459.853817463707
exact,pre_advance,A,ar,midas_umidas,2010:Q4,-38.15978341146515,-3498.013600875172
exact,pre_advance,A,ar,midas_umidas,2011:Q1,-92.03290211782502,-3590.046502992997
exact,pre_advance,A,ar,midas_umidas,2011:Q2,-306.02198228956087,-3896.068485282558
exact,pre_advance,A,ar,midas_umidas,2011:Q3,-32.87401376606293,-3928.942499048621
exact,pre_advance,A,ar,midas_umidas,2011:Q4,-371.54817852718503,-4300.490677575806
exact,pre_advance,A,ar,midas_umidas,2012:Q1,-122.74567380920654,-4423.236351385013
exact,pre_advance,A,ar,midas_umidas,2012:Q2,-29.88797422631989,-4453.124325611333
exact,pre_advance,A,ar,midas_umidas,2012:Q3,-25.05258481143651,-4478.17691042277
exact,pre_advance,A,ar,midas_umidas,2012:Q4,-236.931833593097,-4715.108744015866
exact,pre_advance,A,ar,midas_umidas,2013:Q1,-289.46108812641023,-5004.569832142277
exact,pre_advance,A,ar,midas_umidas,2013:Q2,-166.00409066325903,-5170.573922805536
exact,pre_advance,A,ar,midas_umidas,2013:Q3,-133.94421055689523,-5304.518133362431
exact,pre_advance,A,ar,midas_umidas,2013:Q4,0.1844370828420358,-5304.333696279589
exact,pre_advance,A,ar,midas_umidas,2014:Q1,-24.41104941800282,-5328.744745697592
exact,pre_advance,A,ar,midas_umidas,2014:Q2,-6.904915448098296,-5335.6496611456905
exact,pre_advance,A,ar,midas_umidas,2014:Q3,-128.28898106590654,-5463.938642211597
exact,pre_advance,A,ar,midas_umidas,2014:Q4,0.023543689470378798,-5463.915098522127
exact,pre_advance,A,ar,midas_umidas,2015:Q1,-16.38452558657465,-5480.299624108701
exact,pre_advance,A,ar,midas_umidas,2015:Q2,-85.02922229388085,-5565.328846402582
exact,pre_advance,A,ar,midas_umidas,2015:Q3,-1.344957788895401,-5566.673804191477
exact,pre_advance,A,ar,midas_umidas,2015:Q4,-43.10958890173534,-5609.783393093212
exact,pre_advance,A,ar,midas_umidas,2016:Q1,1.120103032854391,-5608.663290060357
exact,pre_advance,A,ar,midas_umidas,2016:Q2,-0.666491131098135,-5609.329781191455
exact,pre_advance,A,ar,midas_umidas,2016:Q3,-25.335260654313558,-5634.665041845769
exact,pre_advance,A,ar,midas_umidas,2016:Q4,-11.497059059703457,-5646.1621009054725
exact,pre_advance,A,ar,midas_umidas,2017:Q1,-6.0698612183336405,-5652.231962123806
exact,pre_advance,A,ar,midas_umidas,2017:Q2,0.9452815682099636,-5651.286680555596
exact,pre_advance,A,ar,midas_umidas,2017:Q3,-0.41404128561245446,-5651.700721841208
exact,pre_advance,A,ar,midas_umidas,2017:Q4,-0.13420448164651677,-5651.834926322855
exact,pre_advance,A,ar,midas_umidas,2018:Q1,-3.997257024537364,-5655.832183347392
exact,pre_advance,A,ar,midas_umidas,2018:Q2,-18.26889602605065,-5674.101079373442
exact,pre_advance,A,ar,midas_umidas,2018:Q3,-2.021495069425829,-5676.122574442868
exact,pre_advance,A,ar,midas_umidas,2018:Q4,-0.8432647553047836,-5676.965839198173
exact,pre_advance,A,ar,midas_umidas,2019:Q1,-2.440618721248274,-5679.406457919421
exact,pre_advance,A,ar,midas_umidas,2019:Q2,-0.31022506279469664,-5679.716682982215
exact,pre_advance,A,ar,midas_umidas,2019:Q3,-0.5704491640055204,-5680.287132146221
exact,pre_advance,A,ar,midas_umidas,2019:Q4,-3.737028164518225,-5684.024160310739
exact,pre_advance,A,ar,midas_umidas,2020:Q1,-88.42740718615849,-5772.451567496897
exact,pre_advance,A,ar,midas_umidas,2020:Q2,-3056.4598925313708,-8828.911460028268
exact,pre_advance,A,ar,midas_umidas,2020:Q3,-1182.785561973823,-10011.697022002092
exact,pre_advance,A,ar,midas_umidas,2020:Q4,-9.845816644277923,-10021.54283864637
exact,pre_advance,A,ar,midas_umidas,2021:Q1,-8.101390902857082,-10029.644229549227
exact,pre_advance,A,ar,midas_umidas,2021:Q2,12.942854477099132,-10016.701375072127
exact,pre_advance,A,ar,midas_umidas,2021:Q3,-36.10650263151161,-10052.807877703639
exact,pre_advance,A,ar,midas_umidas,2021:Q4,-50.137724068774205,-10102.945601772413
exact,pre_advance,A,ar,midas_umidas,2022:Q1,11.516273142384971,-10091.429328630029
exact,pre_advance,A,ar,midas_umidas,2022:Q2,-81.47208354712295,-10172.901412177152
exact,pre_advance,A,ar,midas_umidas,2022:Q3,-10.828589581410352,-10183.730001758562
exact,pre_advance,A,ar,midas_umidas,2022:Q4,-26.164088543113238,-10209.894090301676
exact,pre_advance,A,ar,midas_umidas,2023:Q1,0.983950925470207,-10208.910139376205
exact,pre_advance,A,ar,midas_umidas,2023:Q2,-4.190128232118229,-10213.100267608323
exact,pre_advance,A,ar,midas_umidas,2023:Q3,5.646110506615621,-10207.454157101707
exact,pre_advance,A,ar,midas_umidas,2023:Q4,-0.5226186986627077,-10207.976775800369
exact,pre_advance,A,ar,midas_umidas,2024:Q1,-6.858121252587646,-10214.834897052957
exact,pre_advance,A,ar,midas_umidas,2024:Q2,-0.00908849640029552,-10214.843985549358
exact,pre_advance,A,ar,midas_umidas,2024:Q3,-3.39415843192423,-10218.238143981282
exact,pre_advance,A,ar,midas_umidas,2024:Q4,0.053104823491226846,-10218.18503915779
exact,pre_advance,A,ar,monthly_mixed_frequency_kalman_em,2005:Q1,-2.176504135196518,-2.176504135196518
exact,pre_advance,A,ar,monthly_mixed_frequency_kalman_em,2005:Q2,0.1480686580857434,-2.0284354771107744
exact,pre_advance,A,ar,monthly_mixed_frequency_kalman_em,2005:Q3,-13.823003230953429,-15.851438708064203
exact,pre_advance,A,ar,monthly_mixed_frequency_kalman_em,2005:Q4,-18.313465923383674,-34.164904631447875
exact,pre_advance,A,ar,monthly_mixed_frequency_kalman_em,2006:Q1,6.752723928326992,-27.41218070312088
exact,pre_advance,A,ar,monthly_mixed_frequency_kalman_em,2006:Q2,-3.8616917799075425,-31.273872483028423
exact,pre_advance,A,ar,monthly_mixed_frequency_kalman_em,2006:Q3,0.983409111403716,-30.290463371624707
exact,pre_advance,A,ar,monthly_mixed_frequency_kalman_em,2006:Q4,-2.1272785634666675,-32.41774193509137
exact,pre_advance,A,ar,monthly_mixed_frequency_kalman_em,2007:Q1,-2.055750610314097,-34.47349254540547
exact,pre_advance,A,ar,monthly_mixed_frequency_kalman_em,2007:Q2,1.1214789005605899,-33.35201364484488
exact,pre_advance,A,ar,monthly_mixed_frequency_kalman_em,2007:Q3,0.09641006255436424,-33.25560358229052
exact,pre_advance,A,ar,monthly_mixed_frequency_kalman_em,2007:Q4,6.900748534746937,-26.35485504754358
exact,pre_advance,A,ar,monthly_mixed_frequency_kalman_em,2008:Q1,1.1919601146664078,-25.162894932877172
exact,pre_advance,A,ar,monthly_mixed_frequency_kalman_em,2008:Q2,-1.4521626045341938,-26.615057537411367
exact,pre_advance,A,ar,monthly_mixed_frequency_kalman_em,2008:Q3,-7.103735009138023,-33.71879254654939
exact,pre_advance,A,ar,monthly_mixed_frequency_kalman_em,2008:Q4,18.12324338934807,-15.595549157201319
exact,pre_advance,A,ar,monthly_mixed_frequency_kalman_em,2009:Q1,6.655180490940719,-8.9403686662606
exact,pre_advance,A,ar,monthly_mixed_frequency_kalman_em,2009:Q2,0.8150518277501975,-8.125316838510402
exact,pre_advance,A,ar,monthly_mixed_frequency_kalman_em,2009:Q3,-0.023643618355777996,-8.148960456866181
exact,pre_advance,A,ar,monthly_mixed_frequency_kalman_em,2009:Q4,1.4785725460635568,-6.670387910802624
exact,pre_advance,A,ar,monthly_mixed_frequency_kalman_em,2010:Q1,0.21492919140453737,-6.455458719398087
exact,pre_advance,A,ar,monthly_mixed_frequency_kalman_em,2010:Q2,-1.1696906832144898,-7.625149402612577
exact,pre_advance,A,ar,monthly_mixed_frequency_kalman_em,2010:Q3,0.19995731939854328,-7.425192083214033
exact,pre_advance,A,ar,monthly_mixed_frequency_kalman_em,2010:Q4,0.6638560533052026,-6.76133602990883
exact,pre_advance,A,ar,monthly_mixed_frequency_kalman_em,2011:Q1,-6.516475118149955,-13.277811148058785
exact,pre_advance,A,ar,monthly_mixed_frequency_kalman_em,2011:Q2,-1.277922801609305,-14.55573394966809
exact,pre_advance,A,ar,monthly_mixed_frequency_kalman_em,2011:Q3,0.23214756668233907,-14.32358638298575
exact,pre_advance,A,ar,monthly_mixed_frequency_kalman_em,2011:Q4,-0.9723640693318566,-15.295950452317607
exact,pre_advance,A,ar,monthly_mixed_frequency_kalman_em,2012:Q1,-2.0402833879458724,-17.33623384026348
exact,pre_advance,A,ar,monthly_mixed_frequency_kalman_em,2012:Q2,-0.23677285083057786,-17.573006691094058
exact,pre_advance,A,ar,monthly_mixed_frequency_kalman_em,2012:Q3,-0.8424499206218127,-18.41545661171587
exact,pre_advance,A,ar,monthly_mixed_frequency_kalman_em,2012:Q4,-7.825020960262544,-26.240477571978417
exact,pre_advance,A,ar,monthly_mixed_frequency_kalman_em,2013:Q1,1.4923555891429203,-24.748121982835496
exact,pre_advance,A,ar,monthly_mixed_frequency_kalman_em,2013:Q2,-0.29393954651987664,-25.042061529355372
exact,pre_advance,A,ar,monthly_mixed_frequency_kalman_em,2013:Q3,0.3882437313683271,-24.653817797987045
exact,pre_advance,A,ar,monthly_mixed_frequency_kalman_em,2013:Q4,-0.31862518619276187,-24.972442984179807
exact,pre_advance,A,ar,monthly_mixed_frequency_kalman_em,2014:Q1,-5.238129653911605,-30.210572638091413
exact,pre_advance,A,ar,monthly_mixed_frequency_kalman_em,2014:Q2,6.17500368069964,-24.035568957391774
exact,pre_advance,A,ar,monthly_mixed_frequency_kalman_em,2014:Q3,-0.31648826012422615,-24.352057217516002
exact,pre_advance,A,ar,monthly_mixed_frequency_kalman_em,2014:Q4,-0.5492123527305948,-24.901269570246598
exact,pre_advance,A,ar,monthly_mixed_frequency_kalman_em,2015:Q1,3.531747525028939,-21.369522045217657
exact,pre_advance,A,ar,monthly_mixed_frequency_kalman_em,2015:Q2,0.800630785642762,-20.568891259574894
exact,pre_advance,A,ar,monthly_mixed_frequency_kalman_em,2015:Q3,-0.20865279476480114,-20.777544054339696
exact,pre_advance,A,ar,monthly_mixed_frequency_kalman_em,2015:Q4,1.0290731473875212,-19.748470906952175
exact,pre_advance,A,ar,monthly_mixed_frequency_kalman_em,2016:Q1,0.16659218474788984,-19.581878722204284
exact,pre_advance,A,ar,monthly_mixed_frequency_kalman_em,2016:Q2,-1.2128499651821476,-20.79472868738643
exact,pre_advance,A,ar,monthly_mixed_frequency_kalman_em,2016:Q3,0.7299527696875826,-20.06477591769885
exact,pre_advance,A,ar,monthly_mixed_frequency_kalman_em,2016:Q4,0.34228716843763957,-19.72248874926121
exact,pre_advance,A,ar,monthly_mixed_frequency_kalman_em,2017:Q1,-2.514652546034973,-22.237141295296183
exact,pre_advance,A,ar,monthly_mixed_frequency_kalman_em,2017:Q2,0.7633847205837383,-21.473756574712446
exact,pre_advance,A,ar,monthly_mixed_frequency_kalman_em,2017:Q3,-0.4545098860005531,-21.928266460713
exact,pre_advance,A,ar,monthly_mixed_frequency_kalman_em,2017:Q4,-1.7002816596619528,-23.628548120374955
exact,pre_advance,A,ar,monthly_mixed_frequency_kalman_em,2018:Q1,-2.4073230753302757,-26.03587119570523
exact,pre_advance,A,ar,monthly_mixed_frequency_kalman_em,2018:Q2,1.4454706023436399,-24.59040059336159
exact,pre_advance,A,ar,monthly_mixed_frequency_kalman_em,2018:Q3,0.04187870281083717,-24.548521890550752
exact,pre_advance,A,ar,monthly_mixed_frequency_kalman_em,2018:Q4,0.05257301645240764,-24.495948874098346
exact,pre_advance,A,ar,monthly_mixed_frequency_kalman_em,2019:Q1,-1.3944398488862029,-25.89038872298455
exact,pre_advance,A,ar,monthly_mixed_frequency_kalman_em,2019:Q2,0.5974027081971488,-25.292986014787402
exact,pre_advance,A,ar,monthly_mixed_frequency_kalman_em,2019:Q3,-0.1643806804042027,-25.457366695191606
exact,pre_advance,A,ar,monthly_mixed_frequency_kalman_em,2019:Q4,0.007290567020017147,-25.450076128171588
exact,pre_advance,A,ar,monthly_mixed_frequency_kalman_em,2020:Q1,33.08865592119754,7.638579793025954
exact,pre_advance,A,ar,monthly_mixed_frequency_kalman_em,2020:Q2,115.685721061658,123.32430085468395
exact,pre_advance,A,ar,monthly_mixed_frequency_kalman_em,2020:Q3,2290.5355288904016,2413.8598297450853
exact,pre_advance,A,ar,monthly_mixed_frequency_kalman_em,2020:Q4,-3.0832817104492087,2410.776548034636
exact,pre_advance,A,ar,monthly_mixed_frequency_kalman_em,2021:Q1,-65.71632870069085,2345.060219333945
exact,pre_advance,A,ar,monthly_mixed_frequency_kalman_em,2021:Q2,13.908351552321495,2358.9685708862667
exact,pre_advance,A,ar,monthly_mixed_frequency_kalman_em,2021:Q3,-1.5618065450768817,2357.40676434119
exact,pre_advance,A,ar,monthly_mixed_frequency_kalman_em,2021:Q4,7.4489893753227605,2364.855753716513
exact,pre_advance,A,ar,monthly_mixed_frequency_kalman_em,2022:Q1,-37.608964399285576,2327.2467893172275
exact,pre_advance,A,ar,monthly_mixed_frequency_kalman_em,2022:Q2,-15.825109622796527,2311.421679694431
exact,pre_advance,A,ar,monthly_mixed_frequency_kalman_em,2022:Q3,-0.5441360108946611,2310.8775436835363
exact,pre_advance,A,ar,monthly_mixed_frequency_kalman_em,2022:Q4,-1.8159937568855935,2309.0615499266505
exact,pre_advance,A,ar,monthly_mixed_frequency_kalman_em,2023:Q1,2.0646379999159,2311.126187926566
exact,pre_advance,A,ar,monthly_mixed_frequency_kalman_em,2023:Q2,-0.19900191611777826,2310.9271860104486
exact,pre_advance,A,ar,monthly_mixed_frequency_kalman_em,2023:Q3,0.6341123023525173,2311.5612983128012
exact,pre_advance,A,ar,monthly_mixed_frequency_kalman_em,2023:Q4,-7.332374210564348,2304.2289241022368
exact,pre_advance,A,ar,monthly_mixed_frequency_kalman_em,2024:Q1,-0.021129059559475194,2304.2077950426774
exact,pre_advance,A,ar,monthly_mixed_frequency_kalman_em,2024:Q2,-1.47740395891675,2302.7303910837604
exact,pre_advance,A,ar,monthly_mixed_frequency_kalman_em,2024:Q3,-1.378239679498843,2301.352151404262
exact,pre_advance,A,ar,monthly_mixed_frequency_kalman_em,2024:Q4,-0.9702727674190699,2300.381878636843
exact,pre_advance,A,ar,no_revision,2005:Q1,0.01829276874886654,0.01829276874886654
exact,pre_advance,A,ar,no_revision,2005:Q2,-0.010434082728868699,0.00785868601999784
exact,pre_advance,A,ar,no_revision,2005:Q3,0.04475723724217473,0.05261592326217257
exact,pre_advance,A,ar,no_revision,2005:Q4,-0.005897102113586961,0.04671882114858561
exact,pre_advance,A,ar,no_revision,2006:Q1,0.14435758559098844,0.19107640673957405
exact,pre_advance,A,ar,no_revision,2006:Q2,0.10645890996238783,0.29753531670196187
exact,pre_advance,A,ar,no_revision,2006:Q3,-0.24152679339726402,0.056008523304697855
exact,pre_advance,A,ar,no_revision,2006:Q4,-0.30824079892148304,-0.2522322756167852
exact,pre_advance,A,ar,no_revision,2007:Q1,-0.23848279984936216,-0.49071507546614734
exact,pre_advance,A,ar,no_revision,2007:Q2,0.05512019812272051,-0.43559487734342683
exact,pre_advance,A,ar,no_revision,2007:Q3,-0.19969014430791188,-0.6352850216513387
exact,pre_advance,A,ar,no_revision,2007:Q4,-0.15567398880635874,-0.7909590104576975
exact,pre_advance,A,ar,no_revision,2008:Q1,0.05559234221203191,-0.7353666682456655
exact,pre_advance,A,ar,no_revision,2008:Q2,0.004622952477093177,-0.7307437157685723
exact,pre_advance,A,ar,no_revision,2008:Q3,-0.15221627551749783,-0.8829599912860702
exact,pre_advance,A,ar,no_revision,2008:Q4,0.5818162017862143,-0.3011437894998559
exact,pre_advance,A,ar,no_revision,2009:Q1,0.45423321116048854,0.15308942166063266
exact,pre_advance,A,ar,no_revision,2009:Q2,0.013307526119774815,0.16639694778040748
exact,pre_advance,A,ar,no_revision,2009:Q3,-1.023992772227114,-0.8575958244467066
exact,pre_advance,A,ar,no_revision,2009:Q4,-1.4621885824992091,-2.3197844069459155
exact,pre_advance,A,ar,no_revision,2010:Q1,0.5154181563893694,-1.804366250556546
exact,pre_advance,A,ar,no_revision,2010:Q2,0.1815894544157976,-1.6227767961407484
exact,pre_advance,A,ar,no_revision,2010:Q3,0.02901155984276077,-1.5937652362979877
exact,pre_advance,A,ar,no_revision,2010:Q4,0.21335030884274386,-1.3804149274552437
exact,pre_advance,A,ar,no_revision,2011:Q1,-0.06757887593352563,-1.4479938033887694
exact,pre_advance,A,ar,no_revision,2011:Q2,0.0202217337142232,-1.4277720696745462
exact,pre_advance,A,ar,no_revision,2011:Q3,-0.052984459561723096,-1.4807565292362692
exact,pre_advance,A,ar,no_revision,2011:Q4,0.01895665554257433,-1.4617998736936948
exact,pre_advance,A,ar,no_revision,2012:Q1,0.02232353618393504,-1.4394763375097597
exact,pre_advance,A,ar,no_revision,2012:Q2,0.11942453052189395,-1.3200518069878657
exact,pre_advance,A,ar,no_revision,2012:Q3,0.0006349170808925357,-1.3194168899069731
exact,pre_advance,A,ar,no_revision,2012:Q4,-0.06262090931865316,-1.3820377992256263
exact,pre_advance,A,ar,no_revision,2013:Q1,-0.008932871015000954,-1.3909706702406273
exact,pre_advance,A,ar,no_revision,2013:Q2,0.06324061631598044,-1.3277300539246468
exact,pre_advance,A,ar,no_revision,2013:Q3,0.0315667756852992,-1.2961632782393475
exact,pre_advance,A,ar,no_revision,2013:Q4,-0.17688786721241778,-1.4730511454517652
exact,pre_advance,A,ar,no_revision,2014:Q1,-0.02480433967617479,-1.49785548512794
exact,pre_advance,A,ar,no_revision,2014:Q2,-0.3039643587409291,-1.801819843868869
exact,pre_advance,A,ar,no_revision,2014:Q3,-0.01009808842494786,-1.811917932293817
exact,pre_advance,A,ar,no_revision,2014:Q4,-0.053005079780955394,-1.8649230120747724
exact,pre_advance,A,ar,no_revision,2015:Q1,0.67193818782102,-1.1929848242537524
exact,pre_advance,A,ar,no_revision,2015:Q2,0.08197493566980374,-1.1110098885839488
exact,pre_advance,A,ar,no_revision,2015:Q3,-0.08264742175217066,-1.1936573103361194
exact,pre_advance,A,ar,no_revision,2015:Q4,-0.12441534043486313,-1.3180726507709826
exact,pre_advance,A,ar,no_revision,2016:Q1,0.2275952927293533,-1.0904773580416292
exact,pre_advance,A,ar,no_revision,2016:Q2,-0.0046545719231812915,-1.0951319299648103
exact,pre_advance,A,ar,no_revision,2016:Q3,-0.04584231925914617,-1.1409742492239565
exact,pre_advance,A,ar,no_revision,2016:Q4,0.10114230910276367,-1.0398319401211928
exact,pre_advance,A,ar,no_revision,2017:Q1,0.246574617300388,-0.7932573228208049
exact,pre_advance,A,ar,no_revision,2017:Q2,-0.15926574147033767,-0.9525230642911425
exact,pre_advance,A,ar,no_revision,2017:Q3,0.022454236955837703,-0.9300688273353048
exact,pre_advance,A,ar,no_revision,2017:Q4,0.004727701091471227,-0.9253411262438336
exact,pre_advance,A,ar,no_revision,2018:Q1,0.03223932073775865,-0.8931018055060749
exact,pre_advance,A,ar,no_revision,2018:Q2,-0.05012498584200742,-0.9432267913480823
exact,pre_advance,A,ar,no_revision,2018:Q3,0.0040716179457951085,-0.9391551734022872
exact,pre_advance,A,ar,no_revision,2018:Q4,0.0107967518642271,-0.92835842153806
exact,pre_advance,A,ar,no_revision,2019:Q1,-0.06475700376940074,-0.9931154253074608
exact,pre_advance,A,ar,no_revision,2019:Q2,-0.08251128198875868,-1.0756267072962196
exact,pre_advance,A,ar,no_revision,2019:Q3,-0.02873654465966108,-1.1043632519558806
exact,pre_advance,A,ar,no_revision,2019:Q4,0.0032282376299231016,-1.1011350143259575
exact,pre_advance,A,ar,no_revision,2020:Q1,-0.47755925650978526,-1.5786942708357428
exact,pre_advance,A,ar,no_revision,2020:Q2,-0.5667662532794111,-2.145460524115154
exact,pre_advance,A,ar,no_revision,2020:Q3,-57.60016029331837,-59.74562081743352
exact,pre_advance,A,ar,no_revision,2020:Q4,-40.65854856282156,-100.40416938025507
exact,pre_advance,A,ar,no_revision,2021:Q1,-27.79553131153419,-128.19970069178925
exact,pre_advance,A,ar,no_revision,2021:Q2,-24.119251842538425,-152.31895253432768
exact,pre_advance,A,ar,no_revision,2021:Q3,-0.30877510409469244,-152.62772763842236
exact,pre_advance,A,ar,no_revision,2021:Q4,3.7679008571371924,-148.85982678128516
exact,pre_advance,A,ar,no_revision,2022:Q1,-0.5234667865097897,-149.38329356779496
exact,pre_advance,A,ar,no_revision,2022:Q2,-1.9855199282110494,-151.36881349600603
exact,pre_advance,A,ar,no_revision,2022:Q3,-0.033925124700511525,-151.40273862070654
exact,pre_advance,A,ar,no_revision,2022:Q4,-0.7384306425890252,-152.14116926329558
exact,pre_advance,A,ar,no_revision,2023:Q1,0.371137610273619,-151.77003165302196
exact,pre_advance,A,ar,no_revision,2023:Q2,-0.00528125482766627,-151.77531290784964
exact,pre_advance,A,ar,no_revision,2023:Q3,-0.5551736828791194,-152.33048659072875
exact,pre_advance,A,ar,no_revision,2023:Q4,-0.20210030709286464,-152.53258689782163
exact,pre_advance,A,ar,no_revision,2024:Q1,-0.31218151521482485,-152.84476841303646
exact,pre_advance,A,ar,no_revision,2024:Q2,0.0978852185130688,-152.7468831945234
exact,pre_advance,A,ar,no_revision,2024:Q3,-0.06291573213851451,-152.80979892666193
exact,pre_advance,A,ar,no_revision,2024:Q4,0.026146771737672124,-152.78365215492425
exact,pre_advance,A,ar,release_dfm,2005:Q1,0.005557468690040701,0.005557468690040701
exact,pre_advance,A,ar,release_dfm,2005:Q2,0.17688600917079522,0.18244347786083592
exact,pre_advance,A,ar,release_dfm,2005:Q3,-0.5496284026543578,-0.3671849247935218
exact,pre_advance,A,ar,release_dfm,2005:Q4,-1.598510703674827,-1.9656956284683487
exact,pre_advance,A,ar,release_dfm,2006:Q1,5.895364834230374,3.9296692057620257
exact,pre_advance,A,ar,release_dfm,2006:Q2,0.6326591475203756,4.5623283532824015
exact,pre_advance,A,ar,release_dfm,2006:Q3,-1.1815536331980458,3.3807747200843554
exact,pre_advance,A,ar,release_dfm,2006:Q4,-0.08961491202374061,3.291159808060615
exact,pre_advance,A,ar,release_dfm,2007:Q1,2.277615211128804,5.5687750191894185
exact,pre_advance,A,ar,release_dfm,2007:Q2,1.5721987404672848,7.140973759656704
exact,pre_advance,A,ar,release_dfm,2007:Q3,-0.9325969815824826,6.208376778074221
exact,pre_advance,A,ar,release_dfm,2007:Q4,5.619451697130961,11.827828475205182
exact,pre_advance,A,ar,release_dfm,2008:Q1,0.4071777558322208,12.235006231037403
exact,pre_advance,A,ar,release_dfm,2008:Q2,-0.1485463181038612,12.086459912933542
exact,pre_advance,A,ar,release_dfm,2008:Q3,5.4603986995371985,17.54685861247074
exact,pre_advance,A,ar,release_dfm,2008:Q4,25.320902423246768,42.86776103571751
exact,pre_advance,A,ar,release_dfm,2009:Q1,26.898920136255693,69.7666811719732
exact,pre_advance,A,ar,release_dfm,2009:Q2,0.6708675600601806,70.43754873203338
exact,pre_advance,A,ar,release_dfm,2009:Q3,7.624685900987867,78.06223463302125
exact,pre_advance,A,ar,release_dfm,2009:Q4,-0.05460311648701044,78.00763151653423
exact,pre_advance,A,ar,release_dfm,2010:Q1,-1.383510722457672,76.62412079407656
exact,pre_advance,A,ar,release_dfm,2010:Q2,-0.9692400609140532,75.65488073316251
exact,pre_advance,A,ar,release_dfm,2010:Q3,-0.16499710555444946,75.48988362760807
exact,pre_advance,A,ar,release_dfm,2010:Q4,0.42205119712596945,75.91193482473403
exact,pre_advance,A,ar,release_dfm,2011:Q1,-7.478070769233071,68.43386405550096
exact,pre_advance,A,ar,release_dfm,2011:Q2,-1.2601790103089012,67.17368504519206
exact,pre_advance,A,ar,release_dfm,2011:Q3,0.169691482379295,67.34337652757135
exact,pre_advance,A,ar,release_dfm,2011:Q4,-0.5786066882143093,66.76476983935704
exact,pre_advance,A,ar,release_dfm,2012:Q1,-2.2457574597114895,64.51901237964556
exact,pre_advance,A,ar,release_dfm,2012:Q2,-0.29124857939303794,64.22776380025252
exact,pre_advance,A,ar,release_dfm,2012:Q3,-0.2875970641695967,63.94016673608292
exact,pre_advance,A,ar,release_dfm,2012:Q4,-7.029358035026668,56.910808701056254
exact,pre_advance,A,ar,release_dfm,2013:Q1,1.5366394988358547,58.44744819989211
exact,pre_advance,A,ar,release_dfm,2013:Q2,-0.6193290521110049,57.8281191477811
exact,pre_advance,A,ar,release_dfm,2013:Q3,0.5116495142349746,58.33976866201608
exact,pre_advance,A,ar,release_dfm,2013:Q4,0.1881211670679197,58.527889829083996
exact,pre_advance,A,ar,release_dfm,2014:Q1,2.2611836602781894,60.78907348936219
exact,pre_advance,A,ar,release_dfm,2014:Q2,6.950285300050513,67.7393587894127
exact,pre_advance,A,ar,release_dfm,2014:Q3,-0.23970610456213043,67.49965268485057
exact,pre_advance,A,ar,release_dfm,2014:Q4,0.15993158149245626,67.65958426634303
exact,pre_advance,A,ar,release_dfm,2015:Q1,3.458441162000213,71.11802542834324
exact,pre_advance,A,ar,release_dfm,2015:Q2,0.608188766440848,71.72621419478409
exact,pre_advance,A,ar,release_dfm,2015:Q3,-0.49388308416577154,71.23233111061832
exact,pre_advance,A,ar,release_dfm,2015:Q4,-0.199694963921353,71.03263614669696
exact,pre_advance,A,ar,release_dfm,2016:Q1,-1.3432215168252546,69.6894146298717
exact,pre_advance,A,ar,release_dfm,2016:Q2,-0.9852587561590919,68.70415587371261
exact,pre_advance,A,ar,release_dfm,2016:Q3,0.8086089264622582,69.51276480017486
exact,pre_advance,A,ar,release_dfm,2016:Q4,-0.9426756961184087,68.57008910405645
exact,pre_advance,A,ar,release_dfm,2017:Q1,-2.1563377782168547,66.4137513258396
exact,pre_advance,A,ar,release_dfm,2017:Q2,0.8839097043219548,67.29766103016155
exact,pre_advance,A,ar,release_dfm,2017:Q3,-0.4498136888489407,66.84784734131262
exact,pre_advance,A,ar,release_dfm,2017:Q4,-1.472453224608988,65.37539411670363
exact,pre_advance,A,ar,release_dfm,2018:Q1,-1.1961916583162755,64.17920245838735
exact,pre_advance,A,ar,release_dfm,2018:Q2,0.7936938430062765,64.97289630139363
exact,pre_advance,A,ar,release_dfm,2018:Q3,-0.1781213138623781,64.79477498753126
exact,pre_advance,A,ar,release_dfm,2018:Q4,0.16398670734271426,64.95876169487397
exact,pre_advance,A,ar,release_dfm,2019:Q1,-1.3737634057761716,63.5849982890978
exact,pre_advance,A,ar,release_dfm,2019:Q2,0.5864738210399745,64.17147211013777
exact,pre_advance,A,ar,release_dfm,2019:Q3,-0.04636784297867397,64.1251042671591
exact,pre_advance,A,ar,release_dfm,2019:Q4,-0.009652078071393923,64.1154521890877
exact,pre_advance,A,ar,release_dfm,2020:Q1,20.78770088725128,84.90315307633898
exact,pre_advance,A,ar,release_dfm,2020:Q2,712.4929959502997,797.3961490266387
exact,pre_advance,A,ar,release_dfm,2020:Q3,2567.0847497712384,3364.480898797877
exact,pre_advance,A,ar,release_dfm,2020:Q4,-9.760194583218505,3354.720704214659
exact,pre_advance,A,ar,release_dfm,2021:Q1,14.717586220885224,3369.438290435544
exact,pre_advance,A,ar,release_dfm,2021:Q2,11.250739364102031,3380.689029799646
exact,pre_advance,A,ar,release_dfm,2021:Q3,-1.552906580913287,3379.136123218733
exact,pre_advance,A,ar,release_dfm,2021:Q4,14.115040173354647,3393.2511633920876
exact,pre_advance,A,ar,release_dfm,2022:Q1,-52.79943459352654,3340.451728798561
exact,pre_advance,A,ar,release_dfm,2022:Q2,-12.669399125677783,3327.782329672883
exact,pre_advance,A,ar,release_dfm,2022:Q3,0.01330019348445774,3327.7956298663676
exact,pre_advance,A,ar,release_dfm,2022:Q4,-1.3244838241014658,3326.471146042266
exact,pre_advance,A,ar,release_dfm,2023:Q1,0.6909286887191397,3327.162074730985
exact,pre_advance,A,ar,release_dfm,2023:Q2,-0.12096587289956348,3327.0411088580854
exact,pre_advance,A,ar,release_dfm,2023:Q3,-2.313832963877977,3324.7272758942077
exact,pre_advance,A,ar,release_dfm,2023:Q4,-1.707528374686477,3323.0197475195214
exact,pre_advance,A,ar,release_dfm,2024:Q1,0.4624004308907374,3323.482147950412
exact,pre_advance,A,ar,release_dfm,2024:Q2,0.12983346758590594,3323.611981417998
exact,pre_advance,A,ar,release_dfm,2024:Q3,-0.8060037928736986,3322.8059776251243
exact,pre_advance,A,ar,release_dfm,2024:Q4,0.033129491051418346,3322.839107116176
exact,pre_advance,A,ar,revision_dfm_kalman_em,2005:Q1,0.026306354403559922,0.026306354403559922
exact,pre_advance,A,ar,revision_dfm_kalman_em,2005:Q2,-0.24681401908521988,-0.22050766468165997
exact,pre_advance,A,ar,revision_dfm_kalman_em,2005:Q3,-0.8503207262399196,-1.0708283909215797
exact,pre_advance,A,ar,revision_dfm_kalman_em,2005:Q4,-5.021734339292618,-6.092562730214198
exact,pre_advance,A,ar,revision_dfm_kalman_em,2006:Q1,3.2587192457156346,-2.833843484498563
exact,pre_advance,A,ar,revision_dfm_kalman_em,2006:Q2,0.09216568382764545,-2.7416778006709173
exact,pre_advance,A,ar,revision_dfm_kalman_em,2006:Q3,0.9662287188491783,-1.775449081821739
exact,pre_advance,A,ar,revision_dfm_kalman_em,2006:Q4,-5.770934774557786,-7.546383856379525
exact,pre_advance,A,ar,revision_dfm_kalman_em,2007:Q1,-0.9641000755638816,-8.510483931943407
exact,pre_advance,A,ar,revision_dfm_kalman_em,2007:Q2,1.913057385666361,-6.597426546277045
exact,pre_advance,A,ar,revision_dfm_kalman_em,2007:Q3,-1.4790788939239239,-8.07650544020097
exact,pre_advance,A,ar,revision_dfm_kalman_em,2007:Q4,6.970161118902984,-1.1063443212979855
exact,pre_advance,A,ar,revision_dfm_kalman_em,2008:Q1,1.2073975577558318,0.10105323645784625
exact,pre_advance,A,ar,revision_dfm_kalman_em,2008:Q2,-1.7295694630815825,-1.6285162266237363
exact,pre_advance,A,ar,revision_dfm_kalman_em,2008:Q3,6.357123128847094,4.728606902223358
exact,pre_advance,A,ar,revision_dfm_kalman_em,2008:Q4,17.683278868883995,22.411885771107354
exact,pre_advance,A,ar,revision_dfm_kalman_em,2009:Q1,6.171104863935149,28.582990635042503
exact,pre_advance,A,ar,revision_dfm_kalman_em,2009:Q2,-15.420231946647256,13.162758688395247
exact,pre_advance,A,ar,revision_dfm_kalman_em,2009:Q3,3.377068012819877,16.539826701215123
exact,pre_advance,A,ar,revision_dfm_kalman_em,2009:Q4,4.065433792955564,20.605260494170686
exact,pre_advance,A,ar,revision_dfm_kalman_em,2010:Q1,-7.415517053110498,13.189743441060187
exact,pre_advance,A,ar,revision_dfm_kalman_em,2010:Q2,-3.3301951916749495,9.859548249385238
exact,pre_advance,A,ar,revision_dfm_kalman_em,2010:Q3,-0.6620330679330733,9.197515181452165
exact,pre_advance,A,ar,revision_dfm_kalman_em,2010:Q4,-0.9095491836651465,8.287965997787017
exact,pre_advance,A,ar,revision_dfm_kalman_em,2011:Q1,-13.897205679986802,-5.609239682199785
exact,pre_advance,A,ar,revision_dfm_kalman_em,2011:Q2,0.7297007072125219,-4.8795389749872635
exact,pre_advance,A,ar,revision_dfm_kalman_em,2011:Q3,-0.11027135387338288,-4.989810328860647
exact,pre_advance,A,ar,revision_dfm_kalman_em,2011:Q4,-0.42395712996898477,-5.413767458829631
exact,pre_advance,A,ar,revision_dfm_kalman_em,2012:Q1,-2.2023932991478197,-7.61616075797745
exact,pre_advance,A,ar,revision_dfm_kalman_em,2012:Q2,0.6607390536986666,-6.955421704278784
exact,pre_advance,A,ar,revision_dfm_kalman_em,2012:Q3,-0.1154566987261085,-7.070878403004892
exact,pre_advance,A,ar,revision_dfm_kalman_em,2012:Q4,-4.117621215110809,-11.188499618115701
exact,pre_advance,A,ar,revision_dfm_kalman_em,2013:Q1,1.7356935624892251,-9.452806055626477
exact,pre_advance,A,ar,revision_dfm_kalman_em,2013:Q2,0.19037150360470212,-9.262434552021775
exact,pre_advance,A,ar,revision_dfm_kalman_em,2013:Q3,0.33765584736654275,-8.924778704655232
exact,pre_advance,A,ar,revision_dfm_kalman_em,2013:Q4,-0.9776190554119844,-9.902397760067217
exact,pre_advance,A,ar,revision_dfm_kalman_em,2014:Q1,-0.5797197854232969,-10.482117545490514
exact,pre_advance,A,ar,revision_dfm_kalman_em,2014:Q2,6.882740076467289,-3.599377469023225
exact,pre_advance,A,ar,revision_dfm_kalman_em,2014:Q3,-0.7448109606784057,-4.344188429701631
exact,pre_advance,A,ar,revision_dfm_kalman_em,2014:Q4,-0.3360137403172759,-4.680202170018907
exact,pre_advance,A,ar,revision_dfm_kalman_em,2015:Q1,5.211935267211521,0.531733097192614
exact,pre_advance,A,ar,revision_dfm_kalman_em,2015:Q2,0.38677586662656316,0.9185089638191771
exact,pre_advance,A,ar,revision_dfm_kalman_em,2015:Q3,-1.0949384700690472,-0.17642950624987008
exact,pre_advance,A,ar,revision_dfm_kalman_em,2015:Q4,1.6664965341938982,1.4900670279440282
exact,pre_advance,A,ar,revision_dfm_kalman_em,2016:Q1,0.6306872548075126,2.120754282751541
exact,pre_advance,A,ar,revision_dfm_kalman_em,2016:Q2,-0.3160635020317715,1.8046907807197696
exact,pre_advance,A,ar,revision_dfm_kalman_em,2016:Q3,0.6958594428999496,2.5005502236197192
exact,pre_advance,A,ar,revision_dfm_kalman_em,2016:Q4,-0.13809323918140848,2.3624569844383108
exact,pre_advance,A,ar,revision_dfm_kalman_em,2017:Q1,-0.7013687082586713,1.6610882761796395
exact,pre_advance,A,ar,revision_dfm_kalman_em,2017:Q2,0.7909507757251407,2.45203905190478
exact,pre_advance,A,ar,revision_dfm_kalman_em,2017:Q3,-4.755709956523967,-2.303670904619187
exact,pre_advance,A,ar,revision_dfm_kalman_em,2017:Q4,-9.867879279064038,-12.171550183683225
exact,pre_advance,A,ar,revision_dfm_kalman_em,2018:Q1,-0.5689770314682628,-12.740527215151488
exact,pre_advance,A,ar,revision_dfm_kalman_em,2018:Q2,2.1997164832237437,-10.540810731927744
exact,pre_advance,A,ar,revision_dfm_kalman_em,2018:Q3,0.04198905373762529,-10.498821678190119
exact,pre_advance,A,ar,revision_dfm_kalman_em,2018:Q4,0.04389356140256237,-10.454928116787556
exact,pre_advance,A,ar,revision_dfm_kalman_em,2019:Q1,-3.4201299305658712,-13.875058047353427
exact,pre_advance,A,ar,revision_dfm_kalman_em,2019:Q2,0.5692380581684169,-13.30581998918501
exact,pre_advance,A,ar,revision_dfm_kalman_em,2019:Q3,-0.329527261621942,-13.635347250806953
exact,pre_advance,A,ar,revision_dfm_kalman_em,2019:Q4,-0.5057734834482301,-14.141120734255184
exact,pre_advance,A,ar,revision_dfm_kalman_em,2020:Q1,37.71599133460361,23.574870600348426
exact,pre_advance,A,ar,revision_dfm_kalman_em,2020:Q2,879.2883627523929,902.8632333527413
exact,pre_advance,A,ar,revision_dfm_kalman_em,2020:Q3,2180.3422435856983,3083.2054769384395
exact,pre_advance,A,ar,revision_dfm_kalman_em,2020:Q4,0.2900778537017755,3083.4955547921413
exact,pre_advance,A,ar,revision_dfm_kalman_em,2021:Q1,0.3931956585820977,3083.8887504507234
exact,pre_advance,A,ar,revision_dfm_kalman_em,2021:Q2,10.217062784860065,3094.1058132355834
exact,pre_advance,A,ar,revision_dfm_kalman_em,2021:Q3,-2.4194506201929555,3091.6863626153904
exact,pre_advance,A,ar,revision_dfm_kalman_em,2021:Q4,9.419325195807872,3101.105687811198
exact,pre_advance,A,ar,revision_dfm_kalman_em,2022:Q1,-35.266533967857505,3065.8391538433407
exact,pre_advance,A,ar,revision_dfm_kalman_em,2022:Q2,-7.97599037522828,3057.8631634681124
exact,pre_advance,A,ar,revision_dfm_kalman_em,2022:Q3,-0.21281038502628935,3057.650353083086
exact,pre_advance,A,ar,revision_dfm_kalman_em,2022:Q4,-3.8653182320979744,3053.785034850988
exact,pre_advance,A,ar,revision_dfm_kalman_em,2023:Q1,0.12330373769050018,3053.9083385886784
exact,pre_advance,A,ar,revision_dfm_kalman_em,2023:Q2,-0.0012356251187580836,3053.9071029635597
exact,pre_advance,A,ar,revision_dfm_kalman_em,2023:Q3,0.7498087391913284,3054.656911702751
exact,pre_advance,A,ar,revision_dfm_kalman_em,2023:Q4,-5.425851468369133,3049.231060234382
exact,pre_advance,A,ar,revision_dfm_kalman_em,2024:Q1,0.8370793635089154,3050.068139597891
exact,pre_advance,A,ar,revision_dfm_kalman_em,2024:Q2,-1.555183353787611,3048.5129562441034
exact,pre_advance,A,ar,revision_dfm_kalman_em,2024:Q3,-1.3317942603965771,3047.1811619837067
exact,pre_advance,A,ar,revision_dfm_kalman_em,2024:Q4,-0.03522117726268657,3047.145940806444
exact,pre_advance,A,ar,spf,2005:Q1,-0.42517854575438496,-0.42517854575438496
exact,pre_advance,A,ar,spf,2005:Q2,0.08831751947213484,-0.3368610262822501
exact,pre_advance,A,ar,spf,2005:Q3,0.4507088181174133,0.11384779183516319
exact,pre_advance,A,ar,spf,2005:Q4,0.2025752765366695,0.3164230683718327
exact,pre_advance,A,ar,spf,2006:Q1,7.924225342930829,8.240648411302661
exact,pre_advance,A,ar,spf,2006:Q2,0.9735201416432564,9.214168552945917
exact,pre_advance,A,ar,spf,2006:Q3,-0.5016709430059996,8.712497609939918
exact,pre_advance,A,ar,spf,2006:Q4,0.8016502039321348,9.514147813872054
exact,pre_advance,A,ar,spf,2007:Q1,1.6502665112336372,11.16441432510569
exact,pre_advance,A,ar,spf,2007:Q2,0.9864284552164425,12.150842780322133
exact,pre_advance,A,ar,spf,2007:Q3,-0.9193476113978154,11.231495168924317
exact,pre_advance,A,ar,spf,2007:Q4,5.6967814013468345,16.92827657027115
exact,pre_advance,A,ar,spf,2008:Q1,1.204990077036036,18.133266647307188
exact,pre_advance,A,ar,spf,2008:Q2,-3.2238512984891305,14.909415348818058
exact,pre_advance,A,ar,spf,2008:Q3,3.9356302256616567,18.845045574479716
exact,pre_advance,A,ar,spf,2008:Q4,24.09859860416627,42.94364417864598
exact,pre_advance,A,ar,spf,2009:Q1,29.64231503174285,72.58595921038884
exact,pre_advance,A,ar,spf,2009:Q2,0.7444354842419123,73.33039469463075
exact,pre_advance,A,ar,spf,2009:Q3,6.413336075458125,79.74373077008887
exact,pre_advance,A,ar,spf,2009:Q4,-2.6823601235725896,77.06137064651628
exact,pre_advance,A,ar,spf,2010:Q1,0.5057329121489584,77.56710355866524
exact,pre_advance,A,ar,spf,2010:Q2,-0.6110653931217516,76.95603816554349
exact,pre_advance,A,ar,spf,2010:Q3,0.057757461558770956,77.01379562710225
exact,pre_advance,A,ar,spf,2010:Q4,-0.11279743336282044,76.90099819373944
exact,pre_advance,A,ar,spf,2011:Q1,-1.9313760280653232,74.96962216567411
exact,pre_advance,A,ar,spf,2011:Q2,-3.063146223748209,71.9064759419259
exact,pre_advance,A,ar,spf,2011:Q3,0.2947819256509671,72.20125786757687
exact,pre_advance,A,ar,spf,2011:Q4,-0.005129844824395442,72.19612802275248
exact,pre_advance,A,ar,spf,2012:Q1,0.20458547617010198,72.40071349892257
exact,pre_advance,A,ar,spf,2012:Q2,-0.018409770611496512,72.38230372831107
exact,pre_advance,A,ar,spf,2012:Q3,-0.07217463608159123,72.31012909222949
exact,pre_advance,A,ar,spf,2012:Q4,1.942029542373171,74.25215863460267
exact,pre_advance,A,ar,spf,2013:Q1,1.6946220230777251,75.94678065768039
exact,pre_advance,A,ar,spf,2013:Q2,0.6973315171270864,76.64411217480747
exact,pre_advance,A,ar,spf,2013:Q3,0.30591725775643197,76.95002943256391
exact,pre_advance,A,ar,spf,2013:Q4,-1.6325980275425858,75.31743140502132
exact,pre_advance,A,ar,spf,2014:Q1,3.9699001821393285,79.28733158716065
exact,pre_advance,A,ar,spf,2014:Q2,6.438074299007829,85.72540588616847
exact,pre_advance,A,ar,spf,2014:Q3,-0.251635163548447,85.47377072262003
exact,pre_advance,A,ar,spf,2014:Q4,0.15145887412351158,85.62522959674354
exact,pre_advance,A,ar,spf,2015:Q1,-0.5212496814951058,85.10397991524843
exact,pre_advance,A,ar,spf,2015:Q2,0.8318632025934702,85.9358431178419
exact,pre_advance,A,ar,spf,2015:Q3,-0.9288030556021227,85.00704006223978
exact,pre_advance,A,ar,spf,2015:Q4,-2.3284026900794466,82.67863737216034
exact,pre_advance,A,ar,spf,2016:Q1,-1.0743226983875476,81.60431467377279
exact,pre_advance,A,ar,spf,2016:Q2,-0.8018984522303787,80.80241622154242
exact,pre_advance,A,ar,spf,2016:Q3,1.081090054002291,81.8835062755447
exact,pre_advance,A,ar,spf,2016:Q4,0.5801221432004156,82.46362841874512
exact,pre_advance,A,ar,spf,2017:Q1,-0.40971985483717344,82.05390856390794
exact,pre_advance,A,ar,spf,2017:Q2,0.642430113382157,82.6963386772901
exact,pre_advance,A,ar,spf,2017:Q3,0.13811758081006068,82.83445625810016
exact,pre_advance,A,ar,spf,2017:Q4,0.02064702779276604,82.85510328589292
exact,pre_advance,A,ar,spf,2018:Q1,-0.5112817400069796,82.34382154588594
exact,pre_advance,A,ar,spf,2018:Q2,1.9556914179554414,84.29951296384138
exact,pre_advance,A,ar,spf,2018:Q3,-0.16830279942107848,84.1312101644203
exact,pre_advance,A,ar,spf,2018:Q4,0.16799650605565186,84.29920667047595
exact,pre_advance,A,ar,spf,2019:Q1,-2.1668629688608125,82.13234370161514
exact,pre_advance,A,ar,spf,2019:Q2,0.5770120504342601,82.7093557520494
exact,pre_advance,A,ar,spf,2019:Q3,0.12206090810372335,82.83141666015312
exact,pre_advance,A,ar,spf,2019:Q4,-0.11990346709440587,82.71151319305872
exact,pre_advance,A,ar,spf,2020:Q1,8.308627598562644,91.02014079162137
exact,pre_advance,A,ar,spf,2020:Q2,1006.5196753159297,1097.5398161075511
exact,pre_advance,A,ar,spf,2020:Q3,2578.5391004156163,3676.078916523167
exact,pre_advance,A,ar,spf,2020:Q4,0.02681258593660213,3676.105729109104
exact,pre_advance,A,ar,spf,2021:Q1,3.252762678213962,3679.3584917873177
exact,pre_advance,A,ar,spf,2021:Q2,12.68371881776786,3692.0422106050855
exact,pre_advance,A,ar,spf,2021:Q3,-22.331344034562516,3669.710866570523
exact,pre_advance,A,ar,spf,2021:Q4,15.240271989586443,3684.9511385601095
exact,pre_advance,A,ar,spf,2022:Q1,7.091401681972036,3692.0425402420815
exact,pre_advance,A,ar,spf,2022:Q2,1.1551812488577688,3693.1977214909393
exact,pre_advance,A,ar,spf,2022:Q3,-1.638800736536628,3691.5589207544026
exact,pre_advance,A,ar,spf,2022:Q4,-3.345468483020446,3688.2134522713823
exact,pre_advance,A,ar,spf,2023:Q1,1.8011756926901332,3690.0146279640726
exact,pre_advance,A,ar,spf,2023:Q2,-2.467037637592867,3687.5475903264796
exact,pre_advance,A,ar,spf,2023:Q3,-3.7624631138196234,3683.78512721266
exact,pre_advance,A,ar,spf,2023:Q4,-4.231139798306024,3679.5539874143537
exact,pre_advance,A,ar,spf,2024:Q1,0.6176035835239486,3680.1715909978775
exact,pre_advance,A,ar,spf,2024:Q2,-0.5427808169482209,3679.628810180929
exact,pre_advance,A,ar,spf,2024:Q3,-0.8072172383919204,3678.8215929425373
exact,pre_advance,A,ar,spf,2024:Q4,-0.05692555044772479,3678.7646673920895
exact,pre_advance,A,ar,standard_dfm,2005:Q1,0.005557468690040701,0.005557468690040701
exact,pre_advance,A,ar,standard_dfm,2005:Q2,0.17688600917079522,0.18244347786083592
exact,pre_advance,A,ar,standard_dfm,2005:Q3,-0.5496284026543578,-0.3671849247935218
exact,pre_advance,A,ar,standard_dfm,2005:Q4,-1.598510703674827,-1.9656956284683487
exact,pre_advance,A,ar,standard_dfm,2006:Q1,5.895364834230374,3.9296692057620257
exact,pre_advance,A,ar,standard_dfm,2006:Q2,0.6326591475203756,4.5623283532824015
exact,pre_advance,A,ar,standard_dfm,2006:Q3,-1.1815536331980458,3.3807747200843554
exact,pre_advance,A,ar,standard_dfm,2006:Q4,-0.08961491202374061,3.291159808060615
exact,pre_advance,A,ar,standard_dfm,2007:Q1,2.277615211128804,5.5687750191894185
exact,pre_advance,A,ar,standard_dfm,2007:Q2,1.5721987404672848,7.140973759656704
exact,pre_advance,A,ar,standard_dfm,2007:Q3,-0.9325969815824826,6.208376778074221
exact,pre_advance,A,ar,standard_dfm,2007:Q4,5.619451697130961,11.827828475205182
exact,pre_advance,A,ar,standard_dfm,2008:Q1,0.4071777558322208,12.235006231037403
exact,pre_advance,A,ar,standard_dfm,2008:Q2,-0.1485463181038612,12.086459912933542
exact,pre_advance,A,ar,standard_dfm,2008:Q3,5.4603986995371985,17.54685861247074
exact,pre_advance,A,ar,standard_dfm,2008:Q4,25.320902423246768,42.86776103571751
exact,pre_advance,A,ar,standard_dfm,2009:Q1,26.898920136255693,69.7666811719732
exact,pre_advance,A,ar,standard_dfm,2009:Q2,0.6708675600601806,70.43754873203338
exact,pre_advance,A,ar,standard_dfm,2009:Q3,7.624685900987867,78.06223463302125
exact,pre_advance,A,ar,standard_dfm,2009:Q4,-0.05460311648701044,78.00763151653423
exact,pre_advance,A,ar,standard_dfm,2010:Q1,-1.383510722457672,76.62412079407656
exact,pre_advance,A,ar,standard_dfm,2010:Q2,-0.9692400609140532,75.65488073316251
exact,pre_advance,A,ar,standard_dfm,2010:Q3,-0.16499710555444946,75.48988362760807
exact,pre_advance,A,ar,standard_dfm,2010:Q4,0.42205119712596945,75.91193482473403
exact,pre_advance,A,ar,standard_dfm,2011:Q1,-7.478070769233071,68.43386405550096
exact,pre_advance,A,ar,standard_dfm,2011:Q2,-1.2601790103089012,67.17368504519206
exact,pre_advance,A,ar,standard_dfm,2011:Q3,0.169691482379295,67.34337652757135
exact,pre_advance,A,ar,standard_dfm,2011:Q4,-0.5786066882143093,66.76476983935704
exact,pre_advance,A,ar,standard_dfm,2012:Q1,-2.2457574597114895,64.51901237964556
exact,pre_advance,A,ar,standard_dfm,2012:Q2,-0.29124857939303794,64.22776380025252
exact,pre_advance,A,ar,standard_dfm,2012:Q3,-0.2875970641695967,63.94016673608292
exact,pre_advance,A,ar,standard_dfm,2012:Q4,-7.029358035026668,56.910808701056254
exact,pre_advance,A,ar,standard_dfm,2013:Q1,1.5366394988358547,58.44744819989211
exact,pre_advance,A,ar,standard_dfm,2013:Q2,-0.6193290521110049,57.8281191477811
exact,pre_advance,A,ar,standard_dfm,2013:Q3,0.5116495142349746,58.33976866201608
exact,pre_advance,A,ar,standard_dfm,2013:Q4,0.1881211670679197,58.527889829083996
exact,pre_advance,A,ar,standard_dfm,2014:Q1,2.2611836602781894,60.78907348936219
exact,pre_advance,A,ar,standard_dfm,2014:Q2,6.950285300050513,67.7393587894127
exact,pre_advance,A,ar,standard_dfm,2014:Q3,-0.23970610456213043,67.49965268485057
exact,pre_advance,A,ar,standard_dfm,2014:Q4,0.15993158149245626,67.65958426634303
exact,pre_advance,A,ar,standard_dfm,2015:Q1,3.458441162000213,71.11802542834324
exact,pre_advance,A,ar,standard_dfm,2015:Q2,0.608188766440848,71.72621419478409
exact,pre_advance,A,ar,standard_dfm,2015:Q3,-0.49388308416577154,71.23233111061832
exact,pre_advance,A,ar,standard_dfm,2015:Q4,-0.199694963921353,71.03263614669696
exact,pre_advance,A,ar,standard_dfm,2016:Q1,-1.3432215168252546,69.6894146298717
exact,pre_advance,A,ar,standard_dfm,2016:Q2,-0.9852587561590919,68.70415587371261
exact,pre_advance,A,ar,standard_dfm,2016:Q3,0.8086089264622582,69.51276480017486
exact,pre_advance,A,ar,standard_dfm,2016:Q4,-0.9426756961184087,68.57008910405645
exact,pre_advance,A,ar,standard_dfm,2017:Q1,-2.1563377782168547,66.4137513258396
exact,pre_advance,A,ar,standard_dfm,2017:Q2,0.8839097043219548,67.29766103016155
exact,pre_advance,A,ar,standard_dfm,2017:Q3,-0.4498136888489407,66.84784734131262
exact,pre_advance,A,ar,standard_dfm,2017:Q4,-1.472453224608988,65.37539411670363
exact,pre_advance,A,ar,standard_dfm,2018:Q1,-1.1961916583162755,64.17920245838735
exact,pre_advance,A,ar,standard_dfm,2018:Q2,0.7936938430062765,64.97289630139363
exact,pre_advance,A,ar,standard_dfm,2018:Q3,-0.1781213138623781,64.79477498753126
exact,pre_advance,A,ar,standard_dfm,2018:Q4,0.16398670734271426,64.95876169487397
exact,pre_advance,A,ar,standard_dfm,2019:Q1,-1.3737634057761716,63.5849982890978
exact,pre_advance,A,ar,standard_dfm,2019:Q2,0.5864738210399745,64.17147211013777
exact,pre_advance,A,ar,standard_dfm,2019:Q3,-0.04636784297867397,64.1251042671591
exact,pre_advance,A,ar,standard_dfm,2019:Q4,-0.009652078071393923,64.1154521890877
exact,pre_advance,A,ar,standard_dfm,2020:Q1,20.78770088725128,84.90315307633898
exact,pre_advance,A,ar,standard_dfm,2020:Q2,712.4929959502997,797.3961490266387
exact,pre_advance,A,ar,standard_dfm,2020:Q3,2567.0847497712384,3364.480898797877
exact,pre_advance,A,ar,standard_dfm,2020:Q4,-9.760194583218505,3354.720704214659
exact,pre_advance,A,ar,standard_dfm,2021:Q1,14.717586220885224,3369.438290435544
exact,pre_advance,A,ar,standard_dfm,2021:Q2,11.250739364102031,3380.689029799646
exact,pre_advance,A,ar,standard_dfm,2021:Q3,-1.552906580913287,3379.136123218733
exact,pre_advance,A,ar,standard_dfm,2021:Q4,14.115040173354647,3393.2511633920876
exact,pre_advance,A,ar,standard_dfm,2022:Q1,-52.79943459352654,3340.451728798561
exact,pre_advance,A,ar,standard_dfm,2022:Q2,-12.669399125677783,3327.782329672883
exact,pre_advance,A,ar,standard_dfm,2022:Q3,0.01330019348445774,3327.7956298663676
exact,pre_advance,A,ar,standard_dfm,2022:Q4,-1.3244838241014658,3326.471146042266
exact,pre_advance,A,ar,standard_dfm,2023:Q1,0.6909286887191397,3327.162074730985
exact,pre_advance,A,ar,standard_dfm,2023:Q2,-0.12096587289956348,3327.0411088580854
exact,pre_advance,A,ar,standard_dfm,2023:Q3,-2.313832963877977,3324.7272758942077
exact,pre_advance,A,ar,standard_dfm,2023:Q4,-1.707528374686477,3323.0197475195214
exact,pre_advance,A,ar,standard_dfm,2024:Q1,0.4624004308907374,3323.482147950412
exact,pre_advance,A,ar,standard_dfm,2024:Q2,0.12983346758590594,3323.611981417998
exact,pre_advance,A,ar,standard_dfm,2024:Q3,-0.8060037928736986,3322.8059776251243
exact,pre_advance,A,ar,standard_dfm,2024:Q4,0.033129491051418346,3322.839107116176
exact,pre_advance,A,no_revision,ar,2005:Q1,-0.01829276874886654,-0.01829276874886654
exact,pre_advance,A,no_revision,ar,2005:Q2,0.010434082728868699,-0.00785868601999784
exact,pre_advance,A,no_revision,ar,2005:Q3,-0.04475723724217473,-0.05261592326217257
exact,pre_advance,A,no_revision,ar,2005:Q4,0.005897102113586961,-0.04671882114858561
exact,pre_advance,A,no_revision,ar,2006:Q1,-0.14435758559098844,-0.19107640673957405
exact,pre_advance,A,no_revision,ar,2006:Q2,-0.10645890996238783,-0.29753531670196187
exact,pre_advance,A,no_revision,ar,2006:Q3,0.24152679339726402,-0.056008523304697855
exact,pre_advance,A,no_revision,ar,2006:Q4,0.30824079892148304,0.2522322756167852
exact,pre_advance,A,no_revision,ar,2007:Q1,0.23848279984936216,0.49071507546614734
exact,pre_advance,A,no_revision,ar,2007:Q2,-0.05512019812272051,0.43559487734342683
exact,pre_advance,A,no_revision,ar,2007:Q3,0.19969014430791188,0.6352850216513387
exact,pre_advance,A,no_revision,ar,2007:Q4,0.15567398880635874,0.7909590104576975
exact,pre_advance,A,no_revision,ar,2008:Q1,-0.05559234221203191,0.7353666682456655
exact,pre_advance,A,no_revision,ar,2008:Q2,-0.004622952477093177,0.7307437157685723
exact,pre_advance,A,no_revision,ar,2008:Q3,0.15221627551749783,0.8829599912860702
exact,pre_advance,A,no_revision,ar,2008:Q4,-0.5818162017862143,0.3011437894998559
exact,pre_advance,A,no_revision,ar,2009:Q1,-0.45423321116048854,-0.15308942166063266
exact,pre_advance,A,no_revision,ar,2009:Q2,-0.013307526119774815,-0.16639694778040748
exact,pre_advance,A,no_revision,ar,2009:Q3,1.023992772227114,0.8575958244467066
exact,pre_advance,A,no_revision,ar,2009:Q4,1.4621885824992091,2.3197844069459155
exact,pre_advance,A,no_revision,ar,2010:Q1,-0.5154181563893694,1.804366250556546
exact,pre_advance,A,no_revision,ar,2010:Q2,-0.1815894544157976,1.6227767961407484
exact,pre_advance,A,no_revision,ar,2010:Q3,-0.02901155984276077,1.5937652362979877
exact,pre_advance,A,no_revision,ar,2010:Q4,-0.21335030884274386,1.3804149274552437
exact,pre_advance,A,no_revision,ar,2011:Q1,0.06757887593352563,1.4479938033887694
exact,pre_advance,A,no_revision,ar,2011:Q2,-0.0202217337142232,1.4277720696745462
exact,pre_advance,A,no_revision,ar,2011:Q3,0.052984459561723096,1.4807565292362692
exact,pre_advance,A,no_revision,ar,2011:Q4,-0.01895665554257433,1.4617998736936948
exact,pre_advance,A,no_revision,ar,2012:Q1,-0.02232353618393504,1.4394763375097597
exact,pre_advance,A,no_revision,ar,2012:Q2,-0.11942453052189395,1.3200518069878657
exact,pre_advance,A,no_revision,ar,2012:Q3,-0.0006349170808925357,1.3194168899069731
exact,pre_advance,A,no_revision,ar,2012:Q4,0.06262090931865316,1.3820377992256263
exact,pre_advance,A,no_revision,ar,2013:Q1,0.008932871015000954,1.3909706702406273
exact,pre_advance,A,no_revision,ar,2013:Q2,-0.06324061631598044,1.3277300539246468
exact,pre_advance,A,no_revision,ar,2013:Q3,-0.0315667756852992,1.2961632782393475
exact,pre_advance,A,no_revision,ar,2013:Q4,0.17688786721241778,1.4730511454517652
exact,pre_advance,A,no_revision,ar,2014:Q1,0.02480433967617479,1.49785548512794
exact,pre_advance,A,no_revision,ar,2014:Q2,0.3039643587409291,1.801819843868869
exact,pre_advance,A,no_revision,ar,2014:Q3,0.01009808842494786,1.811917932293817
exact,pre_advance,A,no_revision,ar,2014:Q4,0.053005079780955394,1.8649230120747724
exact,pre_advance,A,no_revision,ar,2015:Q1,-0.67193818782102,1.1929848242537524
exact,pre_advance,A,no_revision,ar,2015:Q2,-0.08197493566980374,1.1110098885839488
exact,pre_advance,A,no_revision,ar,2015:Q3,0.08264742175217066,1.1936573103361194
exact,pre_advance,A,no_revision,ar,2015:Q4,0.12441534043486313,1.3180726507709826
exact,pre_advance,A,no_revision,ar,2016:Q1,-0.2275952927293533,1.0904773580416292
exact,pre_advance,A,no_revision,ar,2016:Q2,0.0046545719231812915,1.0951319299648103
exact,pre_advance,A,no_revision,ar,2016:Q3,0.04584231925914617,1.1409742492239565
exact,pre_advance,A,no_revision,ar,2016:Q4,-0.10114230910276367,1.0398319401211928
exact,pre_advance,A,no_revision,ar,2017:Q1,-0.246574617300388,0.7932573228208049
exact,pre_advance,A,no_revision,ar,2017:Q2,0.15926574147033767,0.9525230642911425
exact,pre_advance,A,no_revision,ar,2017:Q3,-0.022454236955837703,0.9300688273353048
exact,pre_advance,A,no_revision,ar,2017:Q4,-0.004727701091471227,0.9253411262438336
exact,pre_advance,A,no_revision,ar,2018:Q1,-0.03223932073775865,0.8931018055060749
exact,pre_advance,A,no_revision,ar,2018:Q2,0.05012498584200742,0.9432267913480823
exact,pre_advance,A,no_revision,ar,2018:Q3,-0.0040716179457951085,0.9391551734022872
exact,pre_advance,A,no_revision,ar,2018:Q4,-0.0107967518642271,0.92835842153806
exact,pre_advance,A,no_revision,ar,2019:Q1,0.06475700376940074,0.9931154253074608
exact,pre_advance,A,no_revision,ar,2019:Q2,0.08251128198875868,1.0756267072962196
exact,pre_advance,A,no_revision,ar,2019:Q3,0.02873654465966108,1.1043632519558806
exact,pre_advance,A,no_revision,ar,2019:Q4,-0.0032282376299231016,1.1011350143259575
exact,pre_advance,A,no_revision,ar,2020:Q1,0.47755925650978526,1.5786942708357428
exact,pre_advance,A,no_revision,ar,2020:Q2,0.5667662532794111,2.145460524115154
exact,pre_advance,A,no_revision,ar,2020:Q3,57.60016029331837,59.74562081743352
exact,pre_advance,A,no_revision,ar,2020:Q4,40.65854856282156,100.40416938025507
exact,pre_advance,A,no_revision,ar,2021:Q1,27.79553131153419,128.19970069178925
exact,pre_advance,A,no_revision,ar,2021:Q2,24.119251842538425,152.31895253432768
exact,pre_advance,A,no_revision,ar,2021:Q3,0.30877510409469244,152.62772763842236
exact,pre_advance,A,no_revision,ar,2021:Q4,-3.7679008571371924,148.85982678128516
exact,pre_advance,A,no_revision,ar,2022:Q1,0.5234667865097897,149.38329356779496
exact,pre_advance,A,no_revision,ar,2022:Q2,1.9855199282110494,151.36881349600603
exact,pre_advance,A,no_revision,ar,2022:Q3,0.033925124700511525,151.40273862070654
exact,pre_advance,A,no_revision,ar,2022:Q4,0.7384306425890252,152.14116926329558
exact,pre_advance,A,no_revision,ar,2023:Q1,-0.371137610273619,151.77003165302196
exact,pre_advance,A,no_revision,ar,2023:Q2,0.00528125482766627,151.77531290784964
exact,pre_advance,A,no_revision,ar,2023:Q3,0.5551736828791194,152.33048659072875
exact,pre_advance,A,no_revision,ar,2023:Q4,0.20210030709286464,152.53258689782163
exact,pre_advance,A,no_revision,ar,2024:Q1,0.31218151521482485,152.84476841303646
exact,pre_advance,A,no_revision,ar,2024:Q2,-0.0978852185130688,152.7468831945234
exact,pre_advance,A,no_revision,ar,2024:Q3,0.06291573213851451,152.80979892666193
exact,pre_advance,A,no_revision,ar,2024:Q4,-0.026146771737672124,152.78365215492425
exact,pre_advance,A,no_revision,bridge,2005:Q1,0.008215597414184386,0.008215597414184386
exact,pre_advance,A,no_revision,bridge,2005:Q2,0.2664849976095032,0.2747005950236876
exact,pre_advance,A,no_revision,bridge,2005:Q3,-0.15934170783751533,0.11535888718617227
exact,pre_advance,A,no_revision,bridge,2005:Q4,-1.061156314811341,-0.9457974276251687
exact,pre_advance,A,no_revision,bridge,2006:Q1,1.491292540028942,0.5454951124037734
exact,pre_advance,A,no_revision,bridge,2006:Q2,0.6612398447418184,1.2067349571455916
exact,pre_advance,A,no_revision,bridge,2006:Q3,0.12738937442554277,1.3341243315711344
exact,pre_advance,A,no_revision,bridge,2006:Q4,-11.115495185358746,-9.781370853787612
exact,pre_advance,A,no_revision,bridge,2007:Q1,3.1673071315367447,-6.614063722250867
exact,pre_advance,A,no_revision,bridge,2007:Q2,-0.6270010939567126,-7.2410648162075795
exact,pre_advance,A,no_revision,bridge,2007:Q3,-4.222013087742026,-11.463077903949605
exact,pre_advance,A,no_revision,bridge,2007:Q4,7.137280030827965,-4.32579787312164
exact,pre_advance,A,no_revision,bridge,2008:Q1,-0.8984188663524961,-5.224216739474136
exact,pre_advance,A,no_revision,bridge,2008:Q2,-0.5822131332173008,-5.806429872691437
exact,pre_advance,A,no_revision,bridge,2008:Q3,6.39136969126084,0.5849398185694028
exact,pre_advance,A,no_revision,bridge,2008:Q4,18.35320542375238,18.938145242321784
exact,pre_advance,A,no_revision,bridge,2009:Q1,28.522254693917795,47.46039993623958
exact,pre_advance,A,no_revision,bridge,2009:Q2,-1.1106053779094194,46.34979455833016
exact,pre_advance,A,no_revision,bridge,2009:Q3,5.32685235672722,51.67664691505738
exact,pre_advance,A,no_revision,bridge,2009:Q4,2.3027277325741577,53.97937464763154
exact,pre_advance,A,no_revision,bridge,2010:Q1,-8.418305450954193,45.561069196677344
exact,pre_advance,A,no_revision,bridge,2010:Q2,-0.16973114618359475,45.39133805049375
exact,pre_advance,A,no_revision,bridge,2010:Q3,0.1593129872951204,45.550651037788874
exact,pre_advance,A,no_revision,bridge,2010:Q4,0.06317830953073766,45.61382934731961
exact,pre_advance,A,no_revision,bridge,2011:Q1,-2.555993190959713,43.0578361563599
exact,pre_advance,A,no_revision,bridge,2011:Q2,-1.4931237088838087,41.56471244747609
exact,pre_advance,A,no_revision,bridge,2011:Q3,0.05073215179516272,41.61544459927125
exact,pre_advance,A,no_revision,bridge,2011:Q4,-1.1017138183289303,40.51373078094232
exact,pre_advance,A,no_revision,bridge,2012:Q1,-1.0764773078905148,39.437253473051804
exact,pre_advance,A,no_revision,bridge,2012:Q2,-0.603596622947675,38.83365685010413
exact,pre_advance,A,no_revision,bridge,2012:Q3,-0.575208838668224,38.2584480114359
exact,pre_advance,A,no_revision,bridge,2012:Q4,-8.103480051567285,30.154967959868618
exact,pre_advance,A,no_revision,bridge,2013:Q1,0.7950884554726778,30.950056415341294
exact,pre_advance,A,no_revision,bridge,2013:Q2,-0.44570193054532803,30.504354484795964
exact,pre_advance,A,no_revision,bridge,2013:Q3,-0.49834211672689344,30.006012368069072
exact,pre_advance,A,no_revision,bridge,2013:Q4,0.13712245449654337,30.143134822565617
exact,pre_advance,A,no_revision,bridge,2014:Q1,3.9451931802643108,34.088328002829925
exact,pre_advance,A,no_revision,bridge,2014:Q2,4.410158699495562,38.498486702325486
exact,pre_advance,A,no_revision,bridge,2014:Q3,-0.045996355308121864,38.45249034701737
exact,pre_advance,A,no_revision,bridge,2014:Q4,0.2106035962700831,38.66309394328745
exact,pre_advance,A,no_revision,bridge,2015:Q1,2.7117362862474286,41.37483022953488
exact,pre_advance,A,no_revision,bridge,2015:Q2,0.7790793652174874,42.15390959475236
exact,pre_advance,A,no_revision,bridge,2015:Q3,0.6963195488390829,42.85022914359145
exact,pre_advance,A,no_revision,bridge,2015:Q4,0.7760148696761344,43.62624401326758
exact,pre_advance,A,no_revision,bridge,2016:Q1,0.5511528724916305,44.17739688575921
exact,pre_advance,A,no_revision,bridge,2016:Q2,0.06445159121760785,44.24184847697681
exact,pre_advance,A,no_revision,bridge,2016:Q3,0.40961784186630823,44.65146631884312
exact,pre_advance,A,no_revision,bridge,2016:Q4,-0.8386804777801599,43.81278584106296
exact,pre_advance,A,no_revision,bridge,2017:Q1,-0.9106445698930794,42.90214127116988
exact,pre_advance,A,no_revision,bridge,2017:Q2,0.032319961715321144,42.934461232885205
exact,pre_advance,A,no_revision,bridge,2017:Q3,-0.336708786293597,42.597752446591606
exact,pre_advance,A,no_revision,bridge,2017:Q4,-1.154757722775843,41.442994723815765
exact,pre_advance,A,no_revision,bridge,2018:Q1,-0.8916572326445082,40.55133749117126
exact,pre_advance,A,no_revision,bridge,2018:Q2,0.4451149747288108,40.99645246590007
exact,pre_advance,A,no_revision,bridge,2018:Q3,-0.1479305055202646,40.848521960379806
exact,pre_advance,A,no_revision,bridge,2018:Q4,0.07988877975701823,40.928410740136826
exact,pre_advance,A,no_revision,bridge,2019:Q1,-0.042852976479083926,40.885557763657744
exact,pre_advance,A,no_revision,bridge,2019:Q2,0.691477457554207,41.57703522121195
exact,pre_advance,A,no_revision,bridge,2019:Q3,-0.3039817481641791,41.273053473047774
exact,pre_advance,A,no_revision,bridge,2019:Q4,-0.17104382993473424,41.10200964311304
exact,pre_advance,A,no_revision,bridge,2020:Q1,9.580017702547941,50.682027345660984
exact,pre_advance,A,no_revision,bridge,2020:Q2,533.1821380067013,583.8641653523623
exact,pre_advance,A,no_revision,bridge,2020:Q3,1700.4719074888842,2284.3360728412463
exact,pre_advance,A,no_revision,bridge,2020:Q4,15.421963922740805,2299.758036763987
exact,pre_advance,A,no_revision,bridge,2021:Q1,40.78673656791285,2340.5447733319
exact,pre_advance,A,no_revision,bridge,2021:Q2,39.12920568822841,2379.6739790201286
exact,pre_advance,A,no_revision,bridge,2021:Q3,0.003641228353279624,2379.677620248482
exact,pre_advance,A,no_revision,bridge,2021:Q4,-4.309556315401188,2375.368063933081
exact,pre_advance,A,no_revision,bridge,2022:Q1,-26.71709323163733,2348.650970701444
exact,pre_advance,A,no_revision,bridge,2022:Q2,4.3023207619124495,2352.9532914633564
exact,pre_advance,A,no_revision,bridge,2022:Q3,-3.032052127515388,2349.921239335841
exact,pre_advance,A,no_revision,bridge,2022:Q4,-17.62049701398002,2332.300742321861
exact,pre_advance,A,no_revision,bridge,2023:Q1,1.375690866879198,2333.6764331887402
exact,pre_advance,A,no_revision,bridge,2023:Q2,-1.4016490347085397,2332.2747841540317
exact,pre_advance,A,no_revision,bridge,2023:Q3,0.9167463176544608,2333.1915304716863
exact,pre_advance,A,no_revision,bridge,2023:Q4,-6.150838688551266,2327.040691783135
exact,pre_advance,A,no_revision,bridge,2024:Q1,1.0977588391882465,2328.1384506223235
exact,pre_advance,A,no_revision,bridge,2024:Q2,-0.7539944374101349,2327.3844561849132
exact,pre_advance,A,no_revision,bridge,2024:Q3,-0.007619718001530246,2327.3768364669118
exact,pre_advance,A,no_revision,bridge,2024:Q4,-0.026589665500670635,2327.3502468014112
exact,pre_advance,A,no_revision,indicator_revision_only_dfm_kalman_em,2005:Q1,-2.0993647265007143,-2.0993647265007143
exact,pre_advance,A,no_revision,indicator_revision_only_dfm_kalman_em,2005:Q2,-0.3023025077169335,-2.4016672342176477
exact,pre_advance,A,no_revision,indicator_revision_only_dfm_kalman_em,2005:Q3,0.5149718015592138,-1.886695432658434
exact,pre_advance,A,no_revision,indicator_revision_only_dfm_kalman_em,2005:Q4,-22.89474986611386,-24.781445298772294
exact,pre_advance,A,no_revision,indicator_revision_only_dfm_kalman_em,2006:Q1,7.994548657627441,-16.786896641144853
exact,pre_advance,A,no_revision,indicator_revision_only_dfm_kalman_em,2006:Q2,-3.272906691680663,-20.059803332825517
exact,pre_advance,A,no_revision,indicator_revision_only_dfm_kalman_em,2006:Q3,-2.384705992096776,-22.444509324922294
exact,pre_advance,A,no_revision,indicator_revision_only_dfm_kalman_em,2006:Q4,-16.675140501144792,-39.11964982606709
exact,pre_advance,A,no_revision,indicator_revision_only_dfm_kalman_em,2007:Q1,2.398542099768279,-36.72110772629881
exact,pre_advance,A,no_revision,indicator_revision_only_dfm_kalman_em,2007:Q2,1.8621456915418533,-34.858962034756956
exact,pre_advance,A,no_revision,indicator_revision_only_dfm_kalman_em,2007:Q3,-32.73090021118137,-67.58986224593832
exact,pre_advance,A,no_revision,indicator_revision_only_dfm_kalman_em,2007:Q4,2.0048307923505986,-65.58503145358772
exact,pre_advance,A,no_revision,indicator_revision_only_dfm_kalman_em,2008:Q1,-8.634361191105512,-74.21939264469323
exact,pre_advance,A,no_revision,indicator_revision_only_dfm_kalman_em,2008:Q2,-0.8555280713146716,-75.0749207160079
exact,pre_advance,A,no_revision,indicator_revision_only_dfm_kalman_em,2008:Q3,-0.9179559775019612,-75.99287669350986
exact,pre_advance,A,no_revision,indicator_revision_only_dfm_kalman_em,2008:Q4,-19.101069593918588,-95.09394628742845
exact,pre_advance,A,no_revision,indicator_revision_only_dfm_kalman_em,2009:Q1,1.098612753125277,-93.99533353430317
exact,pre_advance,A,no_revision,indicator_revision_only_dfm_kalman_em,2009:Q2,-3.151120586280052,-97.14645412058323
exact,pre_advance,A,no_revision,indicator_revision_only_dfm_kalman_em,2009:Q3,2.235589352525066,-94.91086476805816
exact,pre_advance,A,no_revision,indicator_revision_only_dfm_kalman_em,2009:Q4,-0.5947355056236265,-95.5056002736818
exact,pre_advance,A,no_revision,indicator_revision_only_dfm_kalman_em,2010:Q1,-10.800572941024674,-106.30617321470646
exact,pre_advance,A,no_revision,indicator_revision_only_dfm_kalman_em,2010:Q2,-3.128449627055311,-109.43462284176178
exact,pre_advance,A,no_revision,indicator_revision_only_dfm_kalman_em,2010:Q3,0.14234914287313832,-109.29227369888864
exact,pre_advance,A,no_revision,indicator_revision_only_dfm_kalman_em,2010:Q4,0.42578439887938135,-108.86648930000925
exact,pre_advance,A,no_revision,indicator_revision_only_dfm_kalman_em,2011:Q1,-19.313884492973454,-128.1803737929827
exact,pre_advance,A,no_revision,indicator_revision_only_dfm_kalman_em,2011:Q2,0.4869024830560681,-127.69347130992662
exact,pre_advance,A,no_revision,indicator_revision_only_dfm_kalman_em,2011:Q3,-1.0013855513641978,-128.69485686129082
exact,pre_advance,A,no_revision,indicator_revision_only_dfm_kalman_em,2011:Q4,-3.301609718782455,-131.99646658007327
exact,pre_advance,A,no_revision,indicator_revision_only_dfm_kalman_em,2012:Q1,-5.650235313144603,-137.64670189321788
exact,pre_advance,A,no_revision,indicator_revision_only_dfm_kalman_em,2012:Q2,-0.8731728417648665,-138.51987473498275
exact,pre_advance,A,no_revision,indicator_revision_only_dfm_kalman_em,2012:Q3,-0.1705086851825804,-138.69038342016532
exact,pre_advance,A,no_revision,indicator_revision_only_dfm_kalman_em,2012:Q4,-12.854194872540996,-151.54457829270632
exact,pre_advance,A,no_revision,indicator_revision_only_dfm_kalman_em,2013:Q1,1.6964505732313928,-149.84812771947492
exact,pre_advance,A,no_revision,indicator_revision_only_dfm_kalman_em,2013:Q2,-0.29919771262761985,-150.14732543210255
exact,pre_advance,A,no_revision,indicator_revision_only_dfm_kalman_em,2013:Q3,0.3433091475670466,-149.8040162845355
exact,pre_advance,A,no_revision,indicator_revision_only_dfm_kalman_em,2013:Q4,-2.0508928205811947,-151.8549091051167
exact,pre_advance,A,no_revision,indicator_revision_only_dfm_kalman_em,2014:Q1,3.4109427330319937,-148.4439663720847
exact,pre_advance,A,no_revision,indicator_revision_only_dfm_kalman_em,2014:Q2,6.5083118618999745,-141.93565451018472
exact,pre_advance,A,no_revision,indicator_revision_only_dfm_kalman_em,2014:Q3,-0.050549315629540556,-141.98620382581427
exact,pre_advance,A,no_revision,indicator_revision_only_dfm_kalman_em,2014:Q4,-0.022962079156662596,-142.00916590497093
exact,pre_advance,A,no_revision,indicator_revision_only_dfm_kalman_em,2015:Q1,4.398251285191948,-137.61091461977898
exact,pre_advance,A,no_revision,indicator_revision_only_dfm_kalman_em,2015:Q2,0.4716993956697187,-137.13921522410925
exact,pre_advance,A,no_revision,indicator_revision_only_dfm_kalman_em,2015:Q3,-1.9575816924835943,-139.09679691659284
exact,pre_advance,A,no_revision,indicator_revision_only_dfm_kalman_em,2015:Q4,0.8433228927557128,-138.25347402383713
exact,pre_advance,A,no_revision,indicator_revision_only_dfm_kalman_em,2016:Q1,-1.1974568645367394,-139.45093088837388
exact,pre_advance,A,no_revision,indicator_revision_only_dfm_kalman_em,2016:Q2,-0.5379467529183436,-139.98887764129222
exact,pre_advance,A,no_revision,indicator_revision_only_dfm_kalman_em,2016:Q3,1.1210505218896971,-138.86782711940253
exact,pre_advance,A,no_revision,indicator_revision_only_dfm_kalman_em,2016:Q4,-3.4156219314358287,-142.28344905083836
exact,pre_advance,A,no_revision,indicator_revision_only_dfm_kalman_em,2017:Q1,-3.192645575065372,-145.47609462590373
exact,pre_advance,A,no_revision,indicator_revision_only_dfm_kalman_em,2017:Q2,0.5109192744790267,-144.9651753514247
exact,pre_advance,A,no_revision,indicator_revision_only_dfm_kalman_em,2017:Q3,-1.3281669484711132,-146.2933422998958
exact,pre_advance,A,no_revision,indicator_revision_only_dfm_kalman_em,2017:Q4,-10.28294938018841,-156.5762916800842
exact,pre_advance,A,no_revision,indicator_revision_only_dfm_kalman_em,2018:Q1,-0.9265158030360591,-157.50280748312028
exact,pre_advance,A,no_revision,indicator_revision_only_dfm_kalman_em,2018:Q2,1.107727234142317,-156.39508024897796
exact,pre_advance,A,no_revision,indicator_revision_only_dfm_kalman_em,2018:Q3,0.04653059350017362,-156.3485496554778
exact,pre_advance,A,no_revision,indicator_revision_only_dfm_kalman_em,2018:Q4,0.15642918075493606,-156.19212047472286
exact,pre_advance,A,no_revision,indicator_revision_only_dfm_kalman_em,2019:Q1,-2.5779417992455858,-158.77006227396845
exact,pre_advance,A,no_revision,indicator_revision_only_dfm_kalman_em,2019:Q2,0.21599616921122633,-158.55406610475723
exact,pre_advance,A,no_revision,indicator_revision_only_dfm_kalman_em,2019:Q3,-0.3292948815515824,-158.88336098630882
exact,pre_advance,A,no_revision,indicator_revision_only_dfm_kalman_em,2019:Q4,-0.17383346246168047,-159.0571944487705
exact,pre_advance,A,no_revision,indicator_revision_only_dfm_kalman_em,2020:Q1,35.407057058430084,-123.65013739034042
exact,pre_advance,A,no_revision,indicator_revision_only_dfm_kalman_em,2020:Q2,955.0514478219209,831.4013104315804
exact,pre_advance,A,no_revision,indicator_revision_only_dfm_kalman_em,2020:Q3,2158.889556824617,2990.2908672561975
exact,pre_advance,A,no_revision,indicator_revision_only_dfm_kalman_em,2020:Q4,22.25735089939598,3012.5482181555935
exact,pre_advance,A,no_revision,indicator_revision_only_dfm_kalman_em,2021:Q1,37.011859953831696,3049.5600781094254
exact,pre_advance,A,no_revision,indicator_revision_only_dfm_kalman_em,2021:Q2,30.91076890552944,3080.470847014955
exact,pre_advance,A,no_revision,indicator_revision_only_dfm_kalman_em,2021:Q3,-5.486192092961846,3074.984654921993
exact,pre_advance,A,no_revision,indicator_revision_only_dfm_kalman_em,2021:Q4,9.997926309613508,3084.982581231606
exact,pre_advance,A,no_revision,indicator_revision_only_dfm_kalman_em,2022:Q1,-35.072627651264966,3049.909953580341
exact,pre_advance,A,no_revision,indicator_revision_only_dfm_kalman_em,2022:Q2,-6.802659215273557,3043.1072943650674
exact,pre_advance,A,no_revision,indicator_revision_only_dfm_kalman_em,2022:Q3,-0.05396712910832058,3043.053327235959
exact,pre_advance,A,no_revision,indicator_revision_only_dfm_kalman_em,2022:Q4,-1.04884574521656,3042.0044814907424
exact,pre_advance,A,no_revision,indicator_revision_only_dfm_kalman_em,2023:Q1,-1.6391981933874031,3040.365283297355
exact,pre_advance,A,no_revision,indicator_revision_only_dfm_kalman_em,2023:Q2,-0.3045551087136632,3040.060728188641
exact,pre_advance,A,no_revision,indicator_revision_only_dfm_kalman_em,2023:Q3,-1.6321019031119457,3038.428626285529
exact,pre_advance,A,no_revision,indicator_revision_only_dfm_kalman_em,2023:Q4,0.29625096079477736,3038.7248772463236
exact,pre_advance,A,no_revision,indicator_revision_only_dfm_kalman_em,2024:Q1,1.1814351261717502,3039.9063123724954
exact,pre_advance,A,no_revision,indicator_revision_only_dfm_kalman_em,2024:Q2,-1.1506072021428315,3038.7557051703525
exact,pre_advance,A,no_revision,indicator_revision_only_dfm_kalman_em,2024:Q3,-0.7258666306168593,3038.0298385397355
exact,pre_advance,A,no_revision,indicator_revision_only_dfm_kalman_em,2024:Q4,-0.19914993044897172,3037.8306886092864
exact,pre_advance,A,no_revision,joint_indicator_revision_dfm_full_kalman_em,2005:Q1,-0.37888711021959304,-0.37888711021959304
exact,pre_advance,A,no_revision,joint_indicator_revision_dfm_full_kalman_em,2005:Q2,0.26680943864076995,-0.11207767157882309
exact,pre_advance,A,no_revision,joint_indicator_revision_dfm_full_kalman_em,2005:Q3,0.433711796392603,0.3216341248137799
exact,pre_advance,A,no_revision,joint_indicator_revision_dfm_full_kalman_em,2005:Q4,-17.51121854540517,-17.18958442059139
exact,pre_advance,A,no_revision,joint_indicator_revision_dfm_full_kalman_em,2006:Q1,6.820923277455892,-10.3686611431355
exact,pre_advance,A,no_revision,joint_indicator_revision_dfm_full_kalman_em,2006:Q2,-0.7535316950735054,-11.122192838209005
exact,pre_advance,A,no_revision,joint_indicator_revision_dfm_full_kalman_em,2006:Q3,-3.0425154663401472,-14.164708304549151
exact,pre_advance,A,no_revision,joint_indicator_revision_dfm_full_kalman_em,2006:Q4,-16.967407611554446,-31.132115916103597
exact,pre_advance,A,no_revision,joint_indicator_revision_dfm_full_kalman_em,2007:Q1,0.17788586688055874,-30.95423004922304
exact,pre_advance,A,no_revision,joint_indicator_revision_dfm_full_kalman_em,2007:Q2,1.8448387753045814,-29.109391273918458
exact,pre_advance,A,no_revision,joint_indicator_revision_dfm_full_kalman_em,2007:Q3,-29.988588524518367,-59.097979798436825
exact,pre_advance,A,no_revision,joint_indicator_revision_dfm_full_kalman_em,2007:Q4,1.8212685246467215,-57.276711273790106
exact,pre_advance,A,no_revision,joint_indicator_revision_dfm_full_kalman_em,2008:Q1,-6.582166999592344,-63.85887827338245
exact,pre_advance,A,no_revision,joint_indicator_revision_dfm_full_kalman_em,2008:Q2,-0.0444027951235173,-63.90328106850597
exact,pre_advance,A,no_revision,joint_indicator_revision_dfm_full_kalman_em,2008:Q3,-0.9356438532212286,-64.8389249217272
exact,pre_advance,A,no_revision,joint_indicator_revision_dfm_full_kalman_em,2008:Q4,-6.677367615285355,-71.51629253701256
exact,pre_advance,A,no_revision,joint_indicator_revision_dfm_full_kalman_em,2009:Q1,-4.416702979324075,-75.93299551633663
exact,pre_advance,A,no_revision,joint_indicator_revision_dfm_full_kalman_em,2009:Q2,4.3756832484254105e-05,-75.93295175950415
exact,pre_advance,A,no_revision,joint_indicator_revision_dfm_full_kalman_em,2009:Q3,5.651688792938069,-70.28126296656608
exact,pre_advance,A,no_revision,joint_indicator_revision_dfm_full_kalman_em,2009:Q4,-0.8651545056605467,-71.14641747222662
exact,pre_advance,A,no_revision,joint_indicator_revision_dfm_full_kalman_em,2010:Q1,-8.677710792785923,-79.82412826501255
exact,pre_advance,A,no_revision,joint_indicator_revision_dfm_full_kalman_em,2010:Q2,-3.8097398265095612,-83.6338680915221
exact,pre_advance,A,no_revision,joint_indicator_revision_dfm_full_kalman_em,2010:Q3,0.1216715100158182,-83.51219658150629
exact,pre_advance,A,no_revision,joint_indicator_revision_dfm_full_kalman_em,2010:Q4,0.11966344488205455,-83.39253313662424
exact,pre_advance,A,no_revision,joint_indicator_revision_dfm_full_kalman_em,2011:Q1,-17.500323750516078,-100.89285688714031
exact,pre_advance,A,no_revision,joint_indicator_revision_dfm_full_kalman_em,2011:Q2,0.6895879518730225,-100.20326893526729
exact,pre_advance,A,no_revision,joint_indicator_revision_dfm_full_kalman_em,2011:Q3,-0.36451934052503987,-100.56778827579232
exact,pre_advance,A,no_revision,joint_indicator_revision_dfm_full_kalman_em,2011:Q4,-2.6494186556456447,-103.21720693143797
exact,pre_advance,A,no_revision,joint_indicator_revision_dfm_full_kalman_em,2012:Q1,-4.754497311992036,-107.97170424343001
exact,pre_advance,A,no_revision,joint_indicator_revision_dfm_full_kalman_em,2012:Q2,-0.7419664080930162,-108.71367065152303
exact,pre_advance,A,no_revision,joint_indicator_revision_dfm_full_kalman_em,2012:Q3,-0.03727995197804155,-108.75095060350107
exact,pre_advance,A,no_revision,joint_indicator_revision_dfm_full_kalman_em,2012:Q4,-8.768312636111139,-117.5192632396122
exact,pre_advance,A,no_revision,joint_indicator_revision_dfm_full_kalman_em,2013:Q1,1.7525463639588514,-115.76671687565334
exact,pre_advance,A,no_revision,joint_indicator_revision_dfm_full_kalman_em,2013:Q2,-0.19493613991334058,-115.96165301556668
exact,pre_advance,A,no_revision,joint_indicator_revision_dfm_full_kalman_em,2013:Q3,0.5252978900606958,-115.43635512550598
exact,pre_advance,A,no_revision,joint_indicator_revision_dfm_full_kalman_em,2013:Q4,-0.5847749139443355,-116.02113003945031
exact,pre_advance,A,no_revision,joint_indicator_revision_dfm_full_kalman_em,2014:Q1,1.9952376479043972,-114.02589239154591
exact,pre_advance,A,no_revision,joint_indicator_revision_dfm_full_kalman_em,2014:Q2,6.569407657083473,-107.45648473446244
exact,pre_advance,A,no_revision,joint_indicator_revision_dfm_full_kalman_em,2014:Q3,-0.22277334533955678,-107.679258079802
exact,pre_advance,A,no_revision,joint_indicator_revision_dfm_full_kalman_em,2014:Q4,0.1425132696205641,-107.53674481018143
exact,pre_advance,A,no_revision,joint_indicator_revision_dfm_full_kalman_em,2015:Q1,3.984514263610201,-103.55223054657122
exact,pre_advance,A,no_revision,joint_indicator_revision_dfm_full_kalman_em,2015:Q2,0.513021485335595,-103.03920906123562
exact,pre_advance,A,no_revision,joint_indicator_revision_dfm_full_kalman_em,2015:Q3,-0.5352975812977867,-103.57450664253341
exact,pre_advance,A,no_revision,joint_indicator_revision_dfm_full_kalman_em,2015:Q4,1.2596737997554324,-102.31483284277797
