haminh109/Revision-Aware-DFM/outputs/full_state_space_release_revision_dfm/exact_pseudo_backtest_mature_latest_max_iter100_journal_evidence/cumulative_loss_revision.csv
timing_mode,checkpoint_id,outcome_id,baseline_model,model_id,target_quarter,loss_diff_baseline_minus_model,cumulative_loss_diff
exact,pre_advance,DELTA_SA,ar,bridge,2005:Q1,-0.013846057404504467,-0.013846057404504467
exact,pre_advance,DELTA_SA,ar,bridge,2005:Q2,-0.0016502791972834857,-0.015496336601787952
exact,pre_advance,DELTA_SA,ar,bridge,2005:Q3,-0.11888984019706639,-0.13438617679885434
exact,pre_advance,DELTA_SA,ar,bridge,2005:Q4,-0.0033836766731660667,-0.13776985347202042
exact,pre_advance,DELTA_SA,ar,bridge,2006:Q1,-0.04844188468453305,-0.18621173815655348
exact,pre_advance,DELTA_SA,ar,bridge,2006:Q2,-0.1371256323997568,-0.3233373705563103
exact,pre_advance,DELTA_SA,ar,bridge,2006:Q3,-0.06429144563741201,-0.3876288161937223
exact,pre_advance,DELTA_SA,ar,bridge,2006:Q4,0.34557919085510314,-0.04204962533861917
exact,pre_advance,DELTA_SA,ar,bridge,2007:Q1,-0.007824031136799381,-0.04987365647541855
exact,pre_advance,DELTA_SA,ar,bridge,2007:Q2,0.06896631884463494,0.019092662369216397
exact,pre_advance,DELTA_SA,ar,bridge,2007:Q3,0.059803740894770696,0.07889640326398709
exact,pre_advance,DELTA_SA,ar,bridge,2007:Q4,-0.012197856569414689,0.0666985466945724
exact,pre_advance,DELTA_SA,ar,bridge,2008:Q1,-0.004344598103960942,0.062353948590611455
exact,pre_advance,DELTA_SA,ar,bridge,2008:Q2,-0.574407111363402,-0.5120531627727904
exact,pre_advance,DELTA_SA,ar,bridge,2008:Q3,0.6190200450590351,0.10696688228624462
exact,pre_advance,DELTA_SA,ar,bridge,2008:Q4,3.9506126973357483,4.057579579621993
exact,pre_advance,DELTA_SA,ar,bridge,2009:Q1,-6.0988802018433,-2.041300622221307
exact,pre_advance,DELTA_SA,ar,bridge,2009:Q2,0.1268137068232697,-1.9144869153980373
exact,pre_advance,DELTA_SA,ar,bridge,2009:Q3,-0.06823089199505694,-1.9827178073930942
exact,pre_advance,DELTA_SA,ar,bridge,2009:Q4,-0.034868451184789206,-2.017586258577883
exact,pre_advance,DELTA_SA,ar,bridge,2010:Q1,-0.0886727021965403,-2.1062589607744235
exact,pre_advance,DELTA_SA,ar,bridge,2010:Q2,-0.09358245387922659,-2.1998414146536502
exact,pre_advance,DELTA_SA,ar,bridge,2010:Q3,0.0949221697737268,-2.104919244879923
exact,pre_advance,DELTA_SA,ar,bridge,2010:Q4,-0.5663990366542817,-2.671318281534205
exact,pre_advance,DELTA_SA,ar,bridge,2011:Q1,0.006841226592887183,-2.664477054941318
exact,pre_advance,DELTA_SA,ar,bridge,2011:Q2,-0.10501821756764976,-2.769495272508968
exact,pre_advance,DELTA_SA,ar,bridge,2011:Q3,-0.12148482455549353,-2.8909800970644612
exact,pre_advance,DELTA_SA,ar,bridge,2011:Q4,0.0628784200154297,-2.8281016770490317
exact,pre_advance,DELTA_SA,ar,bridge,2012:Q1,-0.035887713043292774,-2.8639893900923243
exact,pre_advance,DELTA_SA,ar,bridge,2012:Q2,-0.048823982105551195,-2.9128133721978755
exact,pre_advance,DELTA_SA,ar,bridge,2012:Q3,0.007775069522669126,-2.9050383026752065
exact,pre_advance,DELTA_SA,ar,bridge,2012:Q4,0.004271385099178611,-2.900766917576028
exact,pre_advance,DELTA_SA,ar,bridge,2013:Q1,0.08666220076802922,-2.8141047168079987
exact,pre_advance,DELTA_SA,ar,bridge,2013:Q2,0.025496976212487366,-2.7886077405955114
exact,pre_advance,DELTA_SA,ar,bridge,2013:Q3,-0.06520892381398495,-2.8538166644094964
exact,pre_advance,DELTA_SA,ar,bridge,2013:Q4,-0.4483601219941036,-3.3021767864036002
exact,pre_advance,DELTA_SA,ar,bridge,2014:Q1,0.08408982928438968,-3.2180869571192106
exact,pre_advance,DELTA_SA,ar,bridge,2014:Q2,0.1627494765353877,-3.0553374805838227
exact,pre_advance,DELTA_SA,ar,bridge,2014:Q3,0.02095518071252716,-3.0343822998712957
exact,pre_advance,DELTA_SA,ar,bridge,2014:Q4,0.04340036392903157,-2.9909819359422642
exact,pre_advance,DELTA_SA,ar,bridge,2015:Q1,0.09722612747043735,-2.893755808471827
exact,pre_advance,DELTA_SA,ar,bridge,2015:Q2,0.5270016182401931,-2.366754190231634
exact,pre_advance,DELTA_SA,ar,bridge,2015:Q3,0.00641361838518265,-2.360340571846451
exact,pre_advance,DELTA_SA,ar,bridge,2015:Q4,0.0004635473514232574,-2.359877024495028
exact,pre_advance,DELTA_SA,ar,bridge,2016:Q1,-0.02869336754687048,-2.388570392041898
exact,pre_advance,DELTA_SA,ar,bridge,2016:Q2,-0.006980417169187014,-2.3955508092110853
exact,pre_advance,DELTA_SA,ar,bridge,2016:Q3,0.008611368466015026,-2.38693944074507
exact,pre_advance,DELTA_SA,ar,bridge,2016:Q4,-0.0009847649917325008,-2.3879242057368026
exact,pre_advance,DELTA_SA,ar,bridge,2017:Q1,0.006128595802208259,-2.3817956099345943
exact,pre_advance,DELTA_SA,ar,bridge,2017:Q2,-0.02510746702309855,-2.406903076957693
exact,pre_advance,DELTA_SA,ar,bridge,2017:Q3,0.0015224765331057744,-2.405380600424587
exact,pre_advance,DELTA_SA,ar,bridge,2017:Q4,-0.012532396692822412,-2.4179129971174094
exact,pre_advance,DELTA_SA,ar,bridge,2018:Q1,-0.001025526276306192,-2.4189385233937157
exact,pre_advance,DELTA_SA,ar,bridge,2018:Q2,0.02459572516719082,-2.394342798226525
exact,pre_advance,DELTA_SA,ar,bridge,2018:Q3,-0.0028625928778965534,-2.3972053911044213
exact,pre_advance,DELTA_SA,ar,bridge,2019:Q1,-0.3022766661113528,-2.699482057215774
exact,pre_advance,DELTA_SA,ar,bridge,2019:Q2,-0.004735905859539644,-2.7042179630753136
exact,pre_advance,DELTA_SA,ar,bridge,2019:Q3,0.015341164816805796,-2.688876798258508
exact,pre_advance,DELTA_SA,ar,bridge,2019:Q4,-0.044503658959924405,-2.7333804572184324
exact,pre_advance,DELTA_SA,ar,bridge,2020:Q1,0.044386080987889376,-2.688994376230543
exact,pre_advance,DELTA_SA,ar,bridge,2020:Q2,-3.0940398410540673,-5.7830342172846105
exact,pre_advance,DELTA_SA,ar,bridge,2020:Q3,1.4176473053505392,-4.365386911934071
exact,pre_advance,DELTA_SA,ar,bridge,2020:Q4,0.3499640349292389,-4.015422877004832
exact,pre_advance,DELTA_SA,ar,bridge,2021:Q1,-0.013363060193281033,-4.028785937198113
exact,pre_advance,DELTA_SA,ar,bridge,2021:Q2,-0.03577411651444864,-4.064560053712562
exact,pre_advance,DELTA_SA,ar,bridge,2021:Q3,0.0032954658604867817,-4.061264587852075
exact,pre_advance,DELTA_SA,ar,bridge,2021:Q4,-0.001890367406223347,-4.063154955258298
exact,pre_advance,DELTA_SA,ar,bridge,2022:Q1,-0.034155159355693535,-4.097310114613991
exact,pre_advance,DELTA_SA,ar,bridge,2022:Q2,-0.017409303051805713,-4.114719417665797
exact,pre_advance,DELTA_SA,ar,bridge,2022:Q3,0.009108149975887866,-4.105611267689909
exact,pre_advance,DELTA_SA,ar,bridge,2022:Q4,-0.07401877594323583,-4.179630043633145
exact,pre_advance,DELTA_SA,ar,bridge,2023:Q1,0.002725620713285002,-4.1769044229198595
exact,pre_advance,DELTA_SA,ar,bridge,2023:Q2,-0.21283992077671957,-4.389744343696579
exact,pre_advance,DELTA_SA,ar,bridge,2023:Q3,-0.02913487901324642,-4.418879222709825
exact,pre_advance,DELTA_SA,ar,bridge,2023:Q4,-0.05489730055734936,-4.4737765232671745
exact,pre_advance,DELTA_SA,ar,bridge,2024:Q1,0.08308195917709739,-4.390694564090077
exact,pre_advance,DELTA_SA,ar,bridge,2024:Q2,-0.04089950912320364,-4.43159407321328
exact,pre_advance,DELTA_SA,ar,bridge,2024:Q3,0.002078917593568988,-4.429515155619711
exact,pre_advance,DELTA_SA,ar,bridge,2024:Q4,-0.00014364795373976344,-4.429658803573451
exact,pre_advance,DELTA_SA,ar,indicator_revision_only_dfm_kalman_em,2005:Q1,-0.15257503321613658,-0.15257503321613658
exact,pre_advance,DELTA_SA,ar,indicator_revision_only_dfm_kalman_em,2005:Q2,0.10304262774761302,-0.049532405468523555
exact,pre_advance,DELTA_SA,ar,indicator_revision_only_dfm_kalman_em,2005:Q3,0.03151683579611303,-0.018015569672410525
exact,pre_advance,DELTA_SA,ar,indicator_revision_only_dfm_kalman_em,2005:Q4,-0.17958946757420496,-0.1976050372466155
exact,pre_advance,DELTA_SA,ar,indicator_revision_only_dfm_kalman_em,2006:Q1,-0.22225097588053042,-0.41985601312714593
exact,pre_advance,DELTA_SA,ar,indicator_revision_only_dfm_kalman_em,2006:Q2,-0.1338214718146227,-0.5536774849417686
exact,pre_advance,DELTA_SA,ar,indicator_revision_only_dfm_kalman_em,2006:Q3,-0.2655324769569707,-0.8192099618987393
exact,pre_advance,DELTA_SA,ar,indicator_revision_only_dfm_kalman_em,2006:Q4,1.1280810824986391,0.30887112059989985
exact,pre_advance,DELTA_SA,ar,indicator_revision_only_dfm_kalman_em,2007:Q1,-0.36488258133290913,-0.05601146073300928
exact,pre_advance,DELTA_SA,ar,indicator_revision_only_dfm_kalman_em,2007:Q2,0.2101220628635298,0.15411060213052052
exact,pre_advance,DELTA_SA,ar,indicator_revision_only_dfm_kalman_em,2007:Q3,-0.5038879623481906,-0.34977736021767003
exact,pre_advance,DELTA_SA,ar,indicator_revision_only_dfm_kalman_em,2007:Q4,0.23194641324995732,-0.11783094696771271
exact,pre_advance,DELTA_SA,ar,indicator_revision_only_dfm_kalman_em,2008:Q1,-0.06565748592115798,-0.18348843288887068
exact,pre_advance,DELTA_SA,ar,indicator_revision_only_dfm_kalman_em,2008:Q2,-0.7051418869943866,-0.8886303198832572
exact,pre_advance,DELTA_SA,ar,indicator_revision_only_dfm_kalman_em,2008:Q3,0.8839041046210189,-0.004726215262238376
exact,pre_advance,DELTA_SA,ar,indicator_revision_only_dfm_kalman_em,2008:Q4,0.39399862829546173,0.38927241303322335
exact,pre_advance,DELTA_SA,ar,indicator_revision_only_dfm_kalman_em,2009:Q1,1.3203689037955737,1.709641316828797
exact,pre_advance,DELTA_SA,ar,indicator_revision_only_dfm_kalman_em,2009:Q2,0.36877932291984866,2.0784206397486455
exact,pre_advance,DELTA_SA,ar,indicator_revision_only_dfm_kalman_em,2009:Q3,0.31974831955083616,2.3981689592994817
exact,pre_advance,DELTA_SA,ar,indicator_revision_only_dfm_kalman_em,2009:Q4,0.2461874095178597,2.6443563688173413
exact,pre_advance,DELTA_SA,ar,indicator_revision_only_dfm_kalman_em,2010:Q1,0.012274663642203441,2.656631032459545
exact,pre_advance,DELTA_SA,ar,indicator_revision_only_dfm_kalman_em,2010:Q2,-0.10097637669884518,2.5556546557606996
exact,pre_advance,DELTA_SA,ar,indicator_revision_only_dfm_kalman_em,2010:Q3,0.41001530272678194,2.9656699584874815
exact,pre_advance,DELTA_SA,ar,indicator_revision_only_dfm_kalman_em,2010:Q4,0.33708017745408314,3.3027501359415647
exact,pre_advance,DELTA_SA,ar,indicator_revision_only_dfm_kalman_em,2011:Q1,0.05273638935335863,3.3554865252949235
exact,pre_advance,DELTA_SA,ar,indicator_revision_only_dfm_kalman_em,2011:Q2,0.0864949621817803,3.4419814874767036
exact,pre_advance,DELTA_SA,ar,indicator_revision_only_dfm_kalman_em,2011:Q3,-0.03822954602021156,3.403751941456492
exact,pre_advance,DELTA_SA,ar,indicator_revision_only_dfm_kalman_em,2011:Q4,0.1042486389810256,3.5080005804375176
exact,pre_advance,DELTA_SA,ar,indicator_revision_only_dfm_kalman_em,2012:Q1,0.12270345028699549,3.6307040307245133
exact,pre_advance,DELTA_SA,ar,indicator_revision_only_dfm_kalman_em,2012:Q2,0.05124300972150874,3.681947040446022
exact,pre_advance,DELTA_SA,ar,indicator_revision_only_dfm_kalman_em,2012:Q3,-0.19803121584843814,3.483915824597584
exact,pre_advance,DELTA_SA,ar,indicator_revision_only_dfm_kalman_em,2012:Q4,-0.06160444841889918,3.4223113761786847
exact,pre_advance,DELTA_SA,ar,indicator_revision_only_dfm_kalman_em,2013:Q1,0.13839352919058448,3.560704905369269
exact,pre_advance,DELTA_SA,ar,indicator_revision_only_dfm_kalman_em,2013:Q2,0.010665904843470964,3.5713708102127404
exact,pre_advance,DELTA_SA,ar,indicator_revision_only_dfm_kalman_em,2013:Q3,-0.49085393179229264,3.0805168784204477
exact,pre_advance,DELTA_SA,ar,indicator_revision_only_dfm_kalman_em,2013:Q4,0.8147882022650561,3.895305080685504
exact,pre_advance,DELTA_SA,ar,indicator_revision_only_dfm_kalman_em,2014:Q1,-0.6728261778290336,3.22247890285647
exact,pre_advance,DELTA_SA,ar,indicator_revision_only_dfm_kalman_em,2014:Q2,0.3153905835886226,3.537869486445093
exact,pre_advance,DELTA_SA,ar,indicator_revision_only_dfm_kalman_em,2014:Q3,-0.05736992828325174,3.480499558161841
exact,pre_advance,DELTA_SA,ar,indicator_revision_only_dfm_kalman_em,2014:Q4,0.18045818425062124,3.6609577424124624
exact,pre_advance,DELTA_SA,ar,indicator_revision_only_dfm_kalman_em,2015:Q1,-0.30424364925329495,3.3567140931591677
exact,pre_advance,DELTA_SA,ar,indicator_revision_only_dfm_kalman_em,2015:Q2,1.0249249122593762,4.381639005418544
exact,pre_advance,DELTA_SA,ar,indicator_revision_only_dfm_kalman_em,2015:Q3,-0.3345827492334456,4.0470562561850985
exact,pre_advance,DELTA_SA,ar,indicator_revision_only_dfm_kalman_em,2015:Q4,-0.09676443992777004,3.9502918162573284
exact,pre_advance,DELTA_SA,ar,indicator_revision_only_dfm_kalman_em,2016:Q1,-0.09029065158363185,3.8600011646736965
exact,pre_advance,DELTA_SA,ar,indicator_revision_only_dfm_kalman_em,2016:Q2,0.1360297525459644,3.996030917219661
exact,pre_advance,DELTA_SA,ar,indicator_revision_only_dfm_kalman_em,2016:Q3,-0.021175007572158712,3.974855909647502
exact,pre_advance,DELTA_SA,ar,indicator_revision_only_dfm_kalman_em,2016:Q4,0.02734587565242416,4.002201785299926
exact,pre_advance,DELTA_SA,ar,indicator_revision_only_dfm_kalman_em,2017:Q1,-0.056295362083760514,3.945906423216165
exact,pre_advance,DELTA_SA,ar,indicator_revision_only_dfm_kalman_em,2017:Q2,-0.1998229027002102,3.746083520515955
exact,pre_advance,DELTA_SA,ar,indicator_revision_only_dfm_kalman_em,2017:Q3,-0.09239460605426397,3.653688914461691
exact,pre_advance,DELTA_SA,ar,indicator_revision_only_dfm_kalman_em,2017:Q4,0.035699658663772574,3.6893885731254636
exact,pre_advance,DELTA_SA,ar,indicator_revision_only_dfm_kalman_em,2018:Q1,0.012703611098869368,3.702092184224333
exact,pre_advance,DELTA_SA,ar,indicator_revision_only_dfm_kalman_em,2018:Q2,0.0030213569949030655,3.705113541219236
exact,pre_advance,DELTA_SA,ar,indicator_revision_only_dfm_kalman_em,2018:Q3,0.0032310710133240618,3.70834461223256
exact,pre_advance,DELTA_SA,ar,indicator_revision_only_dfm_kalman_em,2019:Q1,0.3134694480182471,4.021814060250807
exact,pre_advance,DELTA_SA,ar,indicator_revision_only_dfm_kalman_em,2019:Q2,-0.00020861065790184213,4.021605449592905
exact,pre_advance,DELTA_SA,ar,indicator_revision_only_dfm_kalman_em,2019:Q3,-0.020795440927072837,4.000810008665832
exact,pre_advance,DELTA_SA,ar,indicator_revision_only_dfm_kalman_em,2019:Q4,0.022807340587339162,4.023617349253171
exact,pre_advance,DELTA_SA,ar,indicator_revision_only_dfm_kalman_em,2020:Q1,0.04374626691208146,4.067363616165252
exact,pre_advance,DELTA_SA,ar,indicator_revision_only_dfm_kalman_em,2020:Q2,-0.4848885887598303,3.582475027405422
exact,pre_advance,DELTA_SA,ar,indicator_revision_only_dfm_kalman_em,2020:Q3,6.6030936783793335,10.185568705784755
exact,pre_advance,DELTA_SA,ar,indicator_revision_only_dfm_kalman_em,2020:Q4,0.3494364241901803,10.535005129974936
exact,pre_advance,DELTA_SA,ar,indicator_revision_only_dfm_kalman_em,2021:Q1,0.010481372036795358,10.54548650201173
exact,pre_advance,DELTA_SA,ar,indicator_revision_only_dfm_kalman_em,2021:Q2,0.005674643654305938,10.551161145666036
exact,pre_advance,DELTA_SA,ar,indicator_revision_only_dfm_kalman_em,2021:Q3,-0.00428446848418562,10.546876677181851
exact,pre_advance,DELTA_SA,ar,indicator_revision_only_dfm_kalman_em,2021:Q4,-0.009636975615624089,10.537239701566227
exact,pre_advance,DELTA_SA,ar,indicator_revision_only_dfm_kalman_em,2022:Q1,0.05376352283472801,10.591003224400955
exact,pre_advance,DELTA_SA,ar,indicator_revision_only_dfm_kalman_em,2022:Q2,-0.01747374549873487,10.57352947890222
exact,pre_advance,DELTA_SA,ar,indicator_revision_only_dfm_kalman_em,2022:Q3,-0.038912176234116996,10.534617302668103
exact,pre_advance,DELTA_SA,ar,indicator_revision_only_dfm_kalman_em,2022:Q4,0.058622083054108,10.59323938572221
exact,pre_advance,DELTA_SA,ar,indicator_revision_only_dfm_kalman_em,2023:Q1,-0.02740533844308022,10.56583404727913
exact,pre_advance,DELTA_SA,ar,indicator_revision_only_dfm_kalman_em,2023:Q2,0.06172819389498699,10.627562241174118
exact,pre_advance,DELTA_SA,ar,indicator_revision_only_dfm_kalman_em,2023:Q3,-0.03194758936873526,10.595614651805382
exact,pre_advance,DELTA_SA,ar,indicator_revision_only_dfm_kalman_em,2023:Q4,0.03690159867203891,10.63251625047742
exact,pre_advance,DELTA_SA,ar,indicator_revision_only_dfm_kalman_em,2024:Q1,0.07155817897030346,10.704074429447724
exact,pre_advance,DELTA_SA,ar,indicator_revision_only_dfm_kalman_em,2024:Q2,-0.009033581491366181,10.695040847956358
exact,pre_advance,DELTA_SA,ar,indicator_revision_only_dfm_kalman_em,2024:Q3,0.00727617350536104,10.702317021461718
exact,pre_advance,DELTA_SA,ar,indicator_revision_only_dfm_kalman_em,2024:Q4,-0.008788760628669104,10.69352826083305
exact,pre_advance,DELTA_SA,ar,joint_indicator_revision_dfm_full_kalman_em,2005:Q1,-0.01475474080283154,-0.01475474080283154
exact,pre_advance,DELTA_SA,ar,joint_indicator_revision_dfm_full_kalman_em,2005:Q2,-0.08022686014958469,-0.09498160095241623
exact,pre_advance,DELTA_SA,ar,joint_indicator_revision_dfm_full_kalman_em,2005:Q3,0.21873803327085384,0.12375643231843761
exact,pre_advance,DELTA_SA,ar,joint_indicator_revision_dfm_full_kalman_em,2005:Q4,0.0410491716687754,0.164805603987213
exact,pre_advance,DELTA_SA,ar,joint_indicator_revision_dfm_full_kalman_em,2006:Q1,0.011389024308672082,0.1761946282958851
exact,pre_advance,DELTA_SA,ar,joint_indicator_revision_dfm_full_kalman_em,2006:Q2,0.04704443559960019,0.22323906389548528
exact,pre_advance,DELTA_SA,ar,joint_indicator_revision_dfm_full_kalman_em,2006:Q3,-0.7094029209403696,-0.4861638570448843
exact,pre_advance,DELTA_SA,ar,joint_indicator_revision_dfm_full_kalman_em,2006:Q4,1.6390638387410266,1.1528999816961423
exact,pre_advance,DELTA_SA,ar,joint_indicator_revision_dfm_full_kalman_em,2007:Q1,-0.3463983745336177,0.8065016071625246
exact,pre_advance,DELTA_SA,ar,joint_indicator_revision_dfm_full_kalman_em,2007:Q2,0.4055937280416614,1.2120953352041859
exact,pre_advance,DELTA_SA,ar,joint_indicator_revision_dfm_full_kalman_em,2007:Q3,-1.4670609111867399,-0.254965575982554
exact,pre_advance,DELTA_SA,ar,joint_indicator_revision_dfm_full_kalman_em,2007:Q4,0.0006724256600531275,-0.2542931503225009
exact,pre_advance,DELTA_SA,ar,joint_indicator_revision_dfm_full_kalman_em,2008:Q1,-0.22947722918444172,-0.48377037950694257
exact,pre_advance,DELTA_SA,ar,joint_indicator_revision_dfm_full_kalman_em,2008:Q2,-0.43933879664116793,-0.9231091761481105
exact,pre_advance,DELTA_SA,ar,joint_indicator_revision_dfm_full_kalman_em,2008:Q3,0.9473749968856126,0.024265820737502053
exact,pre_advance,DELTA_SA,ar,joint_indicator_revision_dfm_full_kalman_em,2008:Q4,3.383743622365339,3.4080094431028414
exact,pre_advance,DELTA_SA,ar,joint_indicator_revision_dfm_full_kalman_em,2009:Q1,1.4161736576153707,4.824183100718212
exact,pre_advance,DELTA_SA,ar,joint_indicator_revision_dfm_full_kalman_em,2009:Q2,-0.1183573116130836,4.705825789105129
exact,pre_advance,DELTA_SA,ar,joint_indicator_revision_dfm_full_kalman_em,2009:Q3,-1.877819411714952,2.8280063773901767
exact,pre_advance,DELTA_SA,ar,joint_indicator_revision_dfm_full_kalman_em,2009:Q4,0.22882099176127352,3.05682736915145
exact,pre_advance,DELTA_SA,ar,joint_indicator_revision_dfm_full_kalman_em,2010:Q1,-0.3983729067659203,2.6584544623855297
exact,pre_advance,DELTA_SA,ar,joint_indicator_revision_dfm_full_kalman_em,2010:Q2,-0.30445761560543494,2.353996846780095
exact,pre_advance,DELTA_SA,ar,joint_indicator_revision_dfm_full_kalman_em,2010:Q3,0.5629234225172347,2.9169202692973295
exact,pre_advance,DELTA_SA,ar,joint_indicator_revision_dfm_full_kalman_em,2010:Q4,0.23142828834018347,3.148348557637513
exact,pre_advance,DELTA_SA,ar,joint_indicator_revision_dfm_full_kalman_em,2011:Q1,0.0013089026989335437,3.1496574603364467
exact,pre_advance,DELTA_SA,ar,joint_indicator_revision_dfm_full_kalman_em,2011:Q2,-0.0727622435550071,3.0768952167814394
exact,pre_advance,DELTA_SA,ar,joint_indicator_revision_dfm_full_kalman_em,2011:Q3,-0.4003022546584797,2.67659296212296
exact,pre_advance,DELTA_SA,ar,joint_indicator_revision_dfm_full_kalman_em,2011:Q4,0.14227709450779108,2.8188700566307507
exact,pre_advance,DELTA_SA,ar,joint_indicator_revision_dfm_full_kalman_em,2012:Q1,-0.05051644798121499,2.768353608649536
exact,pre_advance,DELTA_SA,ar,joint_indicator_revision_dfm_full_kalman_em,2012:Q2,0.08870733215155295,2.8570609408010887
exact,pre_advance,DELTA_SA,ar,joint_indicator_revision_dfm_full_kalman_em,2012:Q3,-0.013402443884706822,2.843658496916382
exact,pre_advance,DELTA_SA,ar,joint_indicator_revision_dfm_full_kalman_em,2012:Q4,0.009322151171271564,2.8529806480876534
exact,pre_advance,DELTA_SA,ar,joint_indicator_revision_dfm_full_kalman_em,2013:Q1,0.08750030131360982,2.9404809494012634
exact,pre_advance,DELTA_SA,ar,joint_indicator_revision_dfm_full_kalman_em,2013:Q2,0.19493805954954313,3.1354190089508065
exact,pre_advance,DELTA_SA,ar,joint_indicator_revision_dfm_full_kalman_em,2013:Q3,-0.2949675324869772,2.840451476463829
exact,pre_advance,DELTA_SA,ar,joint_indicator_revision_dfm_full_kalman_em,2013:Q4,0.33706536032855783,3.177516836792387
exact,pre_advance,DELTA_SA,ar,joint_indicator_revision_dfm_full_kalman_em,2014:Q1,-0.9289459898673433,2.248570846925044
exact,pre_advance,DELTA_SA,ar,joint_indicator_revision_dfm_full_kalman_em,2014:Q2,0.30529747269896196,2.553868319624006
exact,pre_advance,DELTA_SA,ar,joint_indicator_revision_dfm_full_kalman_em,2014:Q3,0.014812904645583387,2.5686812242695893
exact,pre_advance,DELTA_SA,ar,joint_indicator_revision_dfm_full_kalman_em,2014:Q4,0.0799574644534401,2.6486386887230293
exact,pre_advance,DELTA_SA,ar,joint_indicator_revision_dfm_full_kalman_em,2015:Q1,-0.1753472711802634,2.473291417542766
exact,pre_advance,DELTA_SA,ar,joint_indicator_revision_dfm_full_kalman_em,2015:Q2,1.6934373618739096,4.166728779416675
exact,pre_advance,DELTA_SA,ar,joint_indicator_revision_dfm_full_kalman_em,2015:Q3,-0.27363120587510964,3.8930975735415654
exact,pre_advance,DELTA_SA,ar,joint_indicator_revision_dfm_full_kalman_em,2015:Q4,-0.06037304550732261,3.832724528034243
exact,pre_advance,DELTA_SA,ar,joint_indicator_revision_dfm_full_kalman_em,2016:Q1,-0.0348669174284987,3.7978576106057442
exact,pre_advance,DELTA_SA,ar,joint_indicator_revision_dfm_full_kalman_em,2016:Q2,0.09054524197319483,3.888402852578939
exact,pre_advance,DELTA_SA,ar,joint_indicator_revision_dfm_full_kalman_em,2016:Q3,0.04179417275869465,3.930197025337634
exact,pre_advance,DELTA_SA,ar,joint_indicator_revision_dfm_full_kalman_em,2016:Q4,-0.03548672531730994,3.894710300020324
exact,pre_advance,DELTA_SA,ar,joint_indicator_revision_dfm_full_kalman_em,2017:Q1,0.10145287847377985,3.996163178494104
exact,pre_advance,DELTA_SA,ar,joint_indicator_revision_dfm_full_kalman_em,2017:Q2,-0.041282666593577655,3.9548805119005266
exact,pre_advance,DELTA_SA,ar,joint_indicator_revision_dfm_full_kalman_em,2017:Q3,-0.05358951460844635,3.9012909972920804
exact,pre_advance,DELTA_SA,ar,joint_indicator_revision_dfm_full_kalman_em,2017:Q4,-0.1394389636071906,3.7618520336848897
exact,pre_advance,DELTA_SA,ar,joint_indicator_revision_dfm_full_kalman_em,2018:Q1,-0.11527653445634381,3.646575499228546
exact,pre_advance,DELTA_SA,ar,joint_indicator_revision_dfm_full_kalman_em,2018:Q2,0.030715138008663864,3.67729063723721
exact,pre_advance,DELTA_SA,ar,joint_indicator_revision_dfm_full_kalman_em,2018:Q3,-0.008919988018217908,3.668370649218992
exact,pre_advance,DELTA_SA,ar,joint_indicator_revision_dfm_full_kalman_em,2019:Q1,0.30597846048877797,3.9743491097077697
exact,pre_advance,DELTA_SA,ar,joint_indicator_revision_dfm_full_kalman_em,2019:Q2,-0.011287456211644146,3.9630616534961254
exact,pre_advance,DELTA_SA,ar,joint_indicator_revision_dfm_full_kalman_em,2019:Q3,0.019354034897241704,3.9824156883933672
exact,pre_advance,DELTA_SA,ar,joint_indicator_revision_dfm_full_kalman_em,2019:Q4,0.020666842812041133,4.003082531205409
exact,pre_advance,DELTA_SA,ar,joint_indicator_revision_dfm_full_kalman_em,2020:Q1,0.0746213416219196,4.077703872827328
exact,pre_advance,DELTA_SA,ar,joint_indicator_revision_dfm_full_kalman_em,2020:Q2,-1.9706696015152727,2.1070342713120556
exact,pre_advance,DELTA_SA,ar,joint_indicator_revision_dfm_full_kalman_em,2020:Q3,6.228982471501763,8.336016742813818
exact,pre_advance,DELTA_SA,ar,joint_indicator_revision_dfm_full_kalman_em,2020:Q4,0.2909351802455796,8.626951923059398
exact,pre_advance,DELTA_SA,ar,joint_indicator_revision_dfm_full_kalman_em,2021:Q1,-0.39002250569611957,8.236929417363278
exact,pre_advance,DELTA_SA,ar,joint_indicator_revision_dfm_full_kalman_em,2021:Q2,0.005495034512939243,8.242424451876218
exact,pre_advance,DELTA_SA,ar,joint_indicator_revision_dfm_full_kalman_em,2021:Q3,-0.0688576506317014,8.173566801244517
exact,pre_advance,DELTA_SA,ar,joint_indicator_revision_dfm_full_kalman_em,2021:Q4,-0.014826341805953297,8.158740459438564
exact,pre_advance,DELTA_SA,ar,joint_indicator_revision_dfm_full_kalman_em,2022:Q1,-0.46380033943922905,7.694940119999335
exact,pre_advance,DELTA_SA,ar,joint_indicator_revision_dfm_full_kalman_em,2022:Q2,-0.002984377083487727,7.691955742915847
exact,pre_advance,DELTA_SA,ar,joint_indicator_revision_dfm_full_kalman_em,2022:Q3,0.004134928097100629,7.696090671012948
exact,pre_advance,DELTA_SA,ar,joint_indicator_revision_dfm_full_kalman_em,2022:Q4,0.10468410711140944,7.8007747781243575
exact,pre_advance,DELTA_SA,ar,joint_indicator_revision_dfm_full_kalman_em,2023:Q1,-0.12107234439932463,7.679702433725033
exact,pre_advance,DELTA_SA,ar,joint_indicator_revision_dfm_full_kalman_em,2023:Q2,-0.42628796776135347,7.2534144659636794
exact,pre_advance,DELTA_SA,ar,joint_indicator_revision_dfm_full_kalman_em,2023:Q3,0.003995697679266823,7.257410163642946
exact,pre_advance,DELTA_SA,ar,joint_indicator_revision_dfm_full_kalman_em,2023:Q4,0.04182781796122512,7.299237981604172
exact,pre_advance,DELTA_SA,ar,joint_indicator_revision_dfm_full_kalman_em,2024:Q1,0.06074957486119878,7.359987556465371
exact,pre_advance,DELTA_SA,ar,joint_indicator_revision_dfm_full_kalman_em,2024:Q2,-0.0032396765322700006,7.356747879933101
exact,pre_advance,DELTA_SA,ar,joint_indicator_revision_dfm_full_kalman_em,2024:Q3,0.006101065932787723,7.362848945865888
exact,pre_advance,DELTA_SA,ar,joint_indicator_revision_dfm_full_kalman_em,2024:Q4,-0.005872589041757034,7.3569763568241315
exact,pre_advance,DELTA_SA,ar,midas_umidas,2005:Q1,-39.797824425064846,-39.797824425064846
exact,pre_advance,DELTA_SA,ar,midas_umidas,2005:Q2,-10.838923677608678,-50.63674810267352
exact,pre_advance,DELTA_SA,ar,midas_umidas,2005:Q3,-2.2266161401798246,-52.86336424285334
exact,pre_advance,DELTA_SA,ar,midas_umidas,2005:Q4,-76.51074939331531,-129.37411363616866
exact,pre_advance,DELTA_SA,ar,midas_umidas,2006:Q1,-624.8393306229966,-754.2134442591653
exact,pre_advance,DELTA_SA,ar,midas_umidas,2006:Q2,-51.60484976710727,-805.8182940262725
exact,pre_advance,DELTA_SA,ar,midas_umidas,2006:Q3,-2.896052548813862,-808.7143465750863
exact,pre_advance,DELTA_SA,ar,midas_umidas,2006:Q4,-20.201108426843934,-828.9154550019302
exact,pre_advance,DELTA_SA,ar,midas_umidas,2007:Q1,-339.242528006535,-1168.1579830084652
exact,pre_advance,DELTA_SA,ar,midas_umidas,2007:Q2,-454.63351199969196,-1622.7914950081572
exact,pre_advance,DELTA_SA,ar,midas_umidas,2007:Q3,-1445.2558135562338,-3068.0473085643907
exact,pre_advance,DELTA_SA,ar,midas_umidas,2007:Q4,-109.85550522469542,-3177.902813789086
exact,pre_advance,DELTA_SA,ar,midas_umidas,2008:Q1,-0.353653234035842,-3178.256467023122
exact,pre_advance,DELTA_SA,ar,midas_umidas,2008:Q2,-411.6733521385076,-3589.9298191616294
exact,pre_advance,DELTA_SA,ar,midas_umidas,2008:Q3,-16.457374174265517,-3606.387193335895
exact,pre_advance,DELTA_SA,ar,midas_umidas,2008:Q4,-658.2226269871077,-4264.609820323003
exact,pre_advance,DELTA_SA,ar,midas_umidas,2009:Q1,-1734.2252989296749,-5998.835119252678
exact,pre_advance,DELTA_SA,ar,midas_umidas,2009:Q2,0.22143764520565734,-5998.613681607472
exact,pre_advance,DELTA_SA,ar,midas_umidas,2009:Q3,-124.17561613051467,-6122.789297737987
exact,pre_advance,DELTA_SA,ar,midas_umidas,2009:Q4,-110.45342341372383,-6233.242721151711
exact,pre_advance,DELTA_SA,ar,midas_umidas,2010:Q1,-275.029314951508,-6508.272036103219
exact,pre_advance,DELTA_SA,ar,midas_umidas,2010:Q2,-53.83744935649098,-6562.1094854597095
exact,pre_advance,DELTA_SA,ar,midas_umidas,2010:Q3,-504.1498345524276,-7066.259320012137
exact,pre_advance,DELTA_SA,ar,midas_umidas,2010:Q4,-149.34422941051264,-7215.60354942265
exact,pre_advance,DELTA_SA,ar,midas_umidas,2011:Q1,-76.18270495073548,-7291.786254373385
exact,pre_advance,DELTA_SA,ar,midas_umidas,2011:Q2,-451.8456247833127,-7743.631879156698
exact,pre_advance,DELTA_SA,ar,midas_umidas,2011:Q3,0.1306085067816537,-7743.5012706499165
exact,pre_advance,DELTA_SA,ar,midas_umidas,2011:Q4,-178.48758528534628,-7921.988855935263
exact,pre_advance,DELTA_SA,ar,midas_umidas,2012:Q1,-165.6814547360206,-8087.670310671284
exact,pre_advance,DELTA_SA,ar,midas_umidas,2012:Q2,-47.673541919418405,-8135.343852590702
exact,pre_advance,DELTA_SA,ar,midas_umidas,2012:Q3,-52.97128713103753,-8188.31513972174
exact,pre_advance,DELTA_SA,ar,midas_umidas,2012:Q4,-35.87250645476155,-8224.1876461765
exact,pre_advance,DELTA_SA,ar,midas_umidas,2013:Q1,-78.68787456069492,-8302.875520737196
exact,pre_advance,DELTA_SA,ar,midas_umidas,2013:Q2,-223.52534495255938,-8526.400865689755
exact,pre_advance,DELTA_SA,ar,midas_umidas,2013:Q3,-20.60176487992064,-8547.002630569676
exact,pre_advance,DELTA_SA,ar,midas_umidas,2013:Q4,-23.131777229382795,-8570.134407799058
exact,pre_advance,DELTA_SA,ar,midas_umidas,2014:Q1,-86.83478800644464,-8656.969195805503
exact,pre_advance,DELTA_SA,ar,midas_umidas,2014:Q2,-148.1537614966031,-8805.122957302106
exact,pre_advance,DELTA_SA,ar,midas_umidas,2014:Q3,-21.563616269848954,-8826.686573571955
exact,pre_advance,DELTA_SA,ar,midas_umidas,2014:Q4,-15.719381848728865,-8842.405955420683
exact,pre_advance,DELTA_SA,ar,midas_umidas,2015:Q1,-3.2433959454790857,-8845.649351366163
exact,pre_advance,DELTA_SA,ar,midas_umidas,2015:Q2,2.8534791315047743,-8842.795872234658
exact,pre_advance,DELTA_SA,ar,midas_umidas,2015:Q3,-43.68811698390953,-8886.483989218566
exact,pre_advance,DELTA_SA,ar,midas_umidas,2015:Q4,-24.973768284074954,-8911.457757502641
exact,pre_advance,DELTA_SA,ar,midas_umidas,2016:Q1,-25.74251643989438,-8937.200273942535
exact,pre_advance,DELTA_SA,ar,midas_umidas,2016:Q2,-7.702559624924386,-8944.90283356746
exact,pre_advance,DELTA_SA,ar,midas_umidas,2016:Q3,-0.418644520766393,-8945.321478088226
exact,pre_advance,DELTA_SA,ar,midas_umidas,2016:Q4,-1.6878248577371244,-8947.009302945964
exact,pre_advance,DELTA_SA,ar,midas_umidas,2017:Q1,-1.396469369919674,-8948.405772315884
exact,pre_advance,DELTA_SA,ar,midas_umidas,2017:Q2,-0.2386418337185627,-8948.644414149603
exact,pre_advance,DELTA_SA,ar,midas_umidas,2017:Q3,-9.894772171958993,-8958.539186321563
exact,pre_advance,DELTA_SA,ar,midas_umidas,2017:Q4,-0.06785400372463576,-8958.607040325287
exact,pre_advance,DELTA_SA,ar,midas_umidas,2018:Q1,-0.8285480132736229,-8959.435588338562
exact,pre_advance,DELTA_SA,ar,midas_umidas,2018:Q2,-12.28694297591866,-8971.72253131448
exact,pre_advance,DELTA_SA,ar,midas_umidas,2018:Q3,-4.533494700401147,-8976.256026014882
exact,pre_advance,DELTA_SA,ar,midas_umidas,2019:Q1,0.29472275296400674,-8975.961303261918
exact,pre_advance,DELTA_SA,ar,midas_umidas,2019:Q2,-0.43696293477333575,-8976.398266196691
exact,pre_advance,DELTA_SA,ar,midas_umidas,2019:Q3,-1.073933679541503,-8977.472199876232
exact,pre_advance,DELTA_SA,ar,midas_umidas,2019:Q4,-0.7868392335367862,-8978.25903910977
exact,pre_advance,DELTA_SA,ar,midas_umidas,2020:Q1,-1.0551657413501645,-8979.31420485112
exact,pre_advance,DELTA_SA,ar,midas_umidas,2020:Q2,-2064.435032508436,-11043.749237359556
exact,pre_advance,DELTA_SA,ar,midas_umidas,2020:Q3,-4078.7524783179065,-15122.501715677463
exact,pre_advance,DELTA_SA,ar,midas_umidas,2020:Q4,-6.506950483246372,-15129.00866616071
exact,pre_advance,DELTA_SA,ar,midas_umidas,2021:Q1,-4.596760703580678,-15133.60542686429
exact,pre_advance,DELTA_SA,ar,midas_umidas,2021:Q2,-8.28713987226398,-15141.892566736553
exact,pre_advance,DELTA_SA,ar,midas_umidas,2021:Q3,-0.14777608474138854,-15142.040342821294
exact,pre_advance,DELTA_SA,ar,midas_umidas,2021:Q4,-0.6833823726336089,-15142.723725193928
exact,pre_advance,DELTA_SA,ar,midas_umidas,2022:Q1,-0.35382729002974433,-15143.077552483957
exact,pre_advance,DELTA_SA,ar,midas_umidas,2022:Q2,0.08787319677964962,-15142.989679287177
exact,pre_advance,DELTA_SA,ar,midas_umidas,2022:Q3,0.09018879892357301,-15142.899490488253
exact,pre_advance,DELTA_SA,ar,midas_umidas,2022:Q4,-4.967035646849074,-15147.866526135102
exact,pre_advance,DELTA_SA,ar,midas_umidas,2023:Q1,-0.7470003290390006,-15148.61352646414
exact,pre_advance,DELTA_SA,ar,midas_umidas,2023:Q2,-3.5272575221531675,-15152.140783986293
exact,pre_advance,DELTA_SA,ar,midas_umidas,2023:Q3,-0.22947939040660967,-15152.3702633767
exact,pre_advance,DELTA_SA,ar,midas_umidas,2023:Q4,-0.11970627412488263,-15152.489969650826
exact,pre_advance,DELTA_SA,ar,midas_umidas,2024:Q1,0.1867492213036634,-15152.303220429521
exact,pre_advance,DELTA_SA,ar,midas_umidas,2024:Q2,0.0029975257085396354,-15152.300222903812
exact,pre_advance,DELTA_SA,ar,midas_umidas,2024:Q3,-0.20633145236123396,-15152.506554356174
exact,pre_advance,DELTA_SA,ar,midas_umidas,2024:Q4,-1.63604893282211,-15154.142603288996
exact,pre_advance,DELTA_SA,ar,monthly_mixed_frequency_kalman_em,2005:Q1,-0.16687557707207876,-0.16687557707207876
exact,pre_advance,DELTA_SA,ar,monthly_mixed_frequency_kalman_em,2005:Q2,0.0291693366631621,-0.13770624040891666
exact,pre_advance,DELTA_SA,ar,monthly_mixed_frequency_kalman_em,2005:Q3,-0.5411459096056169,-0.6788521500145336
exact,pre_advance,DELTA_SA,ar,monthly_mixed_frequency_kalman_em,2005:Q4,0.06962658076484099,-0.6092255692496926
exact,pre_advance,DELTA_SA,ar,monthly_mixed_frequency_kalman_em,2006:Q1,-0.17318414418229033,-0.782409713431983
exact,pre_advance,DELTA_SA,ar,monthly_mixed_frequency_kalman_em,2006:Q2,0.05599976369690617,-0.7264099497350768
exact,pre_advance,DELTA_SA,ar,monthly_mixed_frequency_kalman_em,2006:Q3,-0.2527236220811053,-0.9791335718161821
exact,pre_advance,DELTA_SA,ar,monthly_mixed_frequency_kalman_em,2006:Q4,0.6444065406791357,-0.3347270311370464
exact,pre_advance,DELTA_SA,ar,monthly_mixed_frequency_kalman_em,2007:Q1,-0.25340696519421013,-0.5881339963312565
exact,pre_advance,DELTA_SA,ar,monthly_mixed_frequency_kalman_em,2007:Q2,0.47475643849838983,-0.11337755783286668
exact,pre_advance,DELTA_SA,ar,monthly_mixed_frequency_kalman_em,2007:Q3,-0.13083317246756987,-0.24421073030043655
exact,pre_advance,DELTA_SA,ar,monthly_mixed_frequency_kalman_em,2007:Q4,0.20523676217776216,-0.038973968122674396
exact,pre_advance,DELTA_SA,ar,monthly_mixed_frequency_kalman_em,2008:Q1,0.025083965122230763,-0.013890003000443633
exact,pre_advance,DELTA_SA,ar,monthly_mixed_frequency_kalman_em,2008:Q2,-0.4293848804760474,-0.443274883476491
exact,pre_advance,DELTA_SA,ar,monthly_mixed_frequency_kalman_em,2008:Q3,0.9523410509138472,0.5090661674373562
exact,pre_advance,DELTA_SA,ar,monthly_mixed_frequency_kalman_em,2008:Q4,1.6632340794350844,2.1723002468724406
exact,pre_advance,DELTA_SA,ar,monthly_mixed_frequency_kalman_em,2009:Q1,1.500518782904742,3.6728190297771826
exact,pre_advance,DELTA_SA,ar,monthly_mixed_frequency_kalman_em,2009:Q2,0.3062934140415807,3.9791124438187633
exact,pre_advance,DELTA_SA,ar,monthly_mixed_frequency_kalman_em,2009:Q3,0.21707752521561285,4.196189969034376
exact,pre_advance,DELTA_SA,ar,monthly_mixed_frequency_kalman_em,2009:Q4,0.2843162606407146,4.480506229675091
exact,pre_advance,DELTA_SA,ar,monthly_mixed_frequency_kalman_em,2010:Q1,-0.04368685692964003,4.43681937274545
exact,pre_advance,DELTA_SA,ar,monthly_mixed_frequency_kalman_em,2010:Q2,-0.27986923542118636,4.156950137324264
exact,pre_advance,DELTA_SA,ar,monthly_mixed_frequency_kalman_em,2010:Q3,0.48123618853101385,4.638186325855278
exact,pre_advance,DELTA_SA,ar,monthly_mixed_frequency_kalman_em,2010:Q4,0.12807292661241626,4.7662592524676946
exact,pre_advance,DELTA_SA,ar,monthly_mixed_frequency_kalman_em,2011:Q1,0.041650544958005103,4.807909797425699
exact,pre_advance,DELTA_SA,ar,monthly_mixed_frequency_kalman_em,2011:Q2,-0.011033580504127172,4.796876216921572
exact,pre_advance,DELTA_SA,ar,monthly_mixed_frequency_kalman_em,2011:Q3,-0.20324132335445327,4.593634893567119
exact,pre_advance,DELTA_SA,ar,monthly_mixed_frequency_kalman_em,2011:Q4,0.15666511004410275,4.750300003611222
exact,pre_advance,DELTA_SA,ar,monthly_mixed_frequency_kalman_em,2012:Q1,0.01752599027763216,4.767825993888854
exact,pre_advance,DELTA_SA,ar,monthly_mixed_frequency_kalman_em,2012:Q2,0.08660874286934056,4.854434736758194
exact,pre_advance,DELTA_SA,ar,monthly_mixed_frequency_kalman_em,2012:Q3,0.059447282754029634,4.913882019512224
exact,pre_advance,DELTA_SA,ar,monthly_mixed_frequency_kalman_em,2012:Q4,-0.013251426712232575,4.900630592799991
exact,pre_advance,DELTA_SA,ar,monthly_mixed_frequency_kalman_em,2013:Q1,0.07844616110977466,4.979076753909766
exact,pre_advance,DELTA_SA,ar,monthly_mixed_frequency_kalman_em,2013:Q2,0.20217920145529933,5.1812559553650654
exact,pre_advance,DELTA_SA,ar,monthly_mixed_frequency_kalman_em,2013:Q3,-0.2893795103549438,4.891876445010122
exact,pre_advance,DELTA_SA,ar,monthly_mixed_frequency_kalman_em,2013:Q4,0.6861741956895021,5.578050640699624
exact,pre_advance,DELTA_SA,ar,monthly_mixed_frequency_kalman_em,2014:Q1,-1.1574247240184572,4.420625916681167
exact,pre_advance,DELTA_SA,ar,monthly_mixed_frequency_kalman_em,2014:Q2,0.36323504015260455,4.783860956833771
exact,pre_advance,DELTA_SA,ar,monthly_mixed_frequency_kalman_em,2014:Q3,0.058293002575798135,4.842153959409569
exact,pre_advance,DELTA_SA,ar,monthly_mixed_frequency_kalman_em,2014:Q4,0.146971488101178,4.989125447510747
exact,pre_advance,DELTA_SA,ar,monthly_mixed_frequency_kalman_em,2015:Q1,-0.21564579170595277,4.7734796558047945
exact,pre_advance,DELTA_SA,ar,monthly_mixed_frequency_kalman_em,2015:Q2,1.5745586514232124,6.348038307228007
exact,pre_advance,DELTA_SA,ar,monthly_mixed_frequency_kalman_em,2015:Q3,-0.33790607764693836,6.010132229581069
exact,pre_advance,DELTA_SA,ar,monthly_mixed_frequency_kalman_em,2015:Q4,-0.05936110102898401,5.950771128552085
exact,pre_advance,DELTA_SA,ar,monthly_mixed_frequency_kalman_em,2016:Q1,-0.06312727928116622,5.887643849270919
exact,pre_advance,DELTA_SA,ar,monthly_mixed_frequency_kalman_em,2016:Q2,0.07189473931100138,5.95953858858192
exact,pre_advance,DELTA_SA,ar,monthly_mixed_frequency_kalman_em,2016:Q3,0.04464305044806166,6.004181639029982
exact,pre_advance,DELTA_SA,ar,monthly_mixed_frequency_kalman_em,2016:Q4,-0.07506276990550703,5.9291188691244745
exact,pre_advance,DELTA_SA,ar,monthly_mixed_frequency_kalman_em,2017:Q1,0.07581014249954528,6.00492901162402
exact,pre_advance,DELTA_SA,ar,monthly_mixed_frequency_kalman_em,2017:Q2,-0.06140985637777073,5.943519155246249
exact,pre_advance,DELTA_SA,ar,monthly_mixed_frequency_kalman_em,2017:Q3,-0.036628194807616185,5.906890960438632
exact,pre_advance,DELTA_SA,ar,monthly_mixed_frequency_kalman_em,2017:Q4,-0.0020015547607470582,5.904889405677885
exact,pre_advance,DELTA_SA,ar,monthly_mixed_frequency_kalman_em,2018:Q1,-0.04418515307957038,5.860704252598315
exact,pre_advance,DELTA_SA,ar,monthly_mixed_frequency_kalman_em,2018:Q2,0.030648118074284074,5.891352370672599
exact,pre_advance,DELTA_SA,ar,monthly_mixed_frequency_kalman_em,2018:Q3,-0.007383267315460275,5.883969103357138
exact,pre_advance,DELTA_SA,ar,monthly_mixed_frequency_kalman_em,2019:Q1,0.2844467634409555,6.168415866798094
exact,pre_advance,DELTA_SA,ar,monthly_mixed_frequency_kalman_em,2019:Q2,-0.00037443615550000325,6.168041430642594
exact,pre_advance,DELTA_SA,ar,monthly_mixed_frequency_kalman_em,2019:Q3,-0.09865768769103694,6.069383742951557
exact,pre_advance,DELTA_SA,ar,monthly_mixed_frequency_kalman_em,2019:Q4,-0.005963578719101914,6.063420164232456
exact,pre_advance,DELTA_SA,ar,monthly_mixed_frequency_kalman_em,2020:Q1,-0.16110513014546368,5.9023150340869925
exact,pre_advance,DELTA_SA,ar,monthly_mixed_frequency_kalman_em,2020:Q2,-0.3195740445375924,5.5827409895494
exact,pre_advance,DELTA_SA,ar,monthly_mixed_frequency_kalman_em,2020:Q3,5.126206547514157,10.708947537063558
exact,pre_advance,DELTA_SA,ar,monthly_mixed_frequency_kalman_em,2020:Q4,0.3546793674386379,11.063626904502197
exact,pre_advance,DELTA_SA,ar,monthly_mixed_frequency_kalman_em,2021:Q1,-0.18783715013872213,10.875789754363474
exact,pre_advance,DELTA_SA,ar,monthly_mixed_frequency_kalman_em,2021:Q2,0.004630132866059444,10.880419887229534
exact,pre_advance,DELTA_SA,ar,monthly_mixed_frequency_kalman_em,2021:Q3,-0.0021823422565824847,10.878237544972952
exact,pre_advance,DELTA_SA,ar,monthly_mixed_frequency_kalman_em,2021:Q4,-0.0074286004563914165,10.870808944516561
exact,pre_advance,DELTA_SA,ar,monthly_mixed_frequency_kalman_em,2022:Q1,0.005022197558042528,10.875831142074604
exact,pre_advance,DELTA_SA,ar,monthly_mixed_frequency_kalman_em,2022:Q2,0.05660587995924053,10.932437022033845
exact,pre_advance,DELTA_SA,ar,monthly_mixed_frequency_kalman_em,2022:Q3,0.05262809431935332,10.985065116353198
exact,pre_advance,DELTA_SA,ar,monthly_mixed_frequency_kalman_em,2022:Q4,0.0005403243596350388,10.985605440712833
exact,pre_advance,DELTA_SA,ar,monthly_mixed_frequency_kalman_em,2023:Q1,-0.012021039757232264,10.9735844009556
exact,pre_advance,DELTA_SA,ar,monthly_mixed_frequency_kalman_em,2023:Q2,-0.017365640645807562,10.956218760309792
exact,pre_advance,DELTA_SA,ar,monthly_mixed_frequency_kalman_em,2023:Q3,0.0254739181242387,10.98169267843403
exact,pre_advance,DELTA_SA,ar,monthly_mixed_frequency_kalman_em,2023:Q4,0.021153390379994294,11.002846068814025
exact,pre_advance,DELTA_SA,ar,monthly_mixed_frequency_kalman_em,2024:Q1,0.025460006686152253,11.028306075500177
exact,pre_advance,DELTA_SA,ar,monthly_mixed_frequency_kalman_em,2024:Q2,0.003041676363154407,11.031347751863331
exact,pre_advance,DELTA_SA,ar,monthly_mixed_frequency_kalman_em,2024:Q3,0.005369730426088182,11.036717482289419
exact,pre_advance,DELTA_SA,ar,monthly_mixed_frequency_kalman_em,2024:Q4,-0.001429471121788888,11.03528801116763
exact,pre_advance,DELTA_SA,ar,no_revision,2005:Q1,-0.15257503321613658,-0.15257503321613658
exact,pre_advance,DELTA_SA,ar,no_revision,2005:Q2,0.10304262774761302,-0.049532405468523555
exact,pre_advance,DELTA_SA,ar,no_revision,2005:Q3,0.03151683579611303,-0.018015569672410525
exact,pre_advance,DELTA_SA,ar,no_revision,2005:Q4,-0.17958946757420496,-0.1976050372466155
exact,pre_advance,DELTA_SA,ar,no_revision,2006:Q1,-0.22225097588053042,-0.41985601312714593
exact,pre_advance,DELTA_SA,ar,no_revision,2006:Q2,-0.1338214718146227,-0.5536774849417686
exact,pre_advance,DELTA_SA,ar,no_revision,2006:Q3,-0.2655324769569707,-0.8192099618987393
exact,pre_advance,DELTA_SA,ar,no_revision,2006:Q4,1.1280810824986391,0.30887112059989985
exact,pre_advance,DELTA_SA,ar,no_revision,2007:Q1,-0.36488258133290913,-0.05601146073300928
exact,pre_advance,DELTA_SA,ar,no_revision,2007:Q2,0.2101220628635298,0.15411060213052052
exact,pre_advance,DELTA_SA,ar,no_revision,2007:Q3,-0.5038879623481906,-0.34977736021767003
exact,pre_advance,DELTA_SA,ar,no_revision,2007:Q4,0.23194641324995732,-0.11783094696771271
exact,pre_advance,DELTA_SA,ar,no_revision,2008:Q1,-0.06565748592115798,-0.18348843288887068
exact,pre_advance,DELTA_SA,ar,no_revision,2008:Q2,-0.7051418869943866,-0.8886303198832572
exact,pre_advance,DELTA_SA,ar,no_revision,2008:Q3,0.8839041046210189,-0.004726215262238376
exact,pre_advance,DELTA_SA,ar,no_revision,2008:Q4,0.39399862829546173,0.38927241303322335
exact,pre_advance,DELTA_SA,ar,no_revision,2009:Q1,1.3203689037955737,1.709641316828797
exact,pre_advance,DELTA_SA,ar,no_revision,2009:Q2,0.36877932291984866,2.0784206397486455
exact,pre_advance,DELTA_SA,ar,no_revision,2009:Q3,0.31974831955083616,2.3981689592994817
exact,pre_advance,DELTA_SA,ar,no_revision,2009:Q4,0.2461874095178597,2.6443563688173413
exact,pre_advance,DELTA_SA,ar,no_revision,2010:Q1,0.012274663642203441,2.656631032459545
exact,pre_advance,DELTA_SA,ar,no_revision,2010:Q2,-0.10097637669884518,2.5556546557606996
exact,pre_advance,DELTA_SA,ar,no_revision,2010:Q3,0.41001530272678194,2.9656699584874815
exact,pre_advance,DELTA_SA,ar,no_revision,2010:Q4,0.33708017745408314,3.3027501359415647
exact,pre_advance,DELTA_SA,ar,no_revision,2011:Q1,0.05273638935335863,3.3554865252949235
exact,pre_advance,DELTA_SA,ar,no_revision,2011:Q2,0.0864949621817803,3.4419814874767036
exact,pre_advance,DELTA_SA,ar,no_revision,2011:Q3,-0.03822954602021156,3.403751941456492
exact,pre_advance,DELTA_SA,ar,no_revision,2011:Q4,0.1042486389810256,3.5080005804375176
exact,pre_advance,DELTA_SA,ar,no_revision,2012:Q1,0.12270345028699549,3.6307040307245133
exact,pre_advance,DELTA_SA,ar,no_revision,2012:Q2,0.05124300972150874,3.681947040446022
exact,pre_advance,DELTA_SA,ar,no_revision,2012:Q3,-0.19803121584843814,3.483915824597584
exact,pre_advance,DELTA_SA,ar,no_revision,2012:Q4,-0.06160444841889918,3.4223113761786847
exact,pre_advance,DELTA_SA,ar,no_revision,2013:Q1,0.13839352919058448,3.560704905369269
exact,pre_advance,DELTA_SA,ar,no_revision,2013:Q2,0.010665904843470964,3.5713708102127404
exact,pre_advance,DELTA_SA,ar,no_revision,2013:Q3,-0.49085393179229264,3.0805168784204477
exact,pre_advance,DELTA_SA,ar,no_revision,2013:Q4,0.8147882022650561,3.895305080685504
exact,pre_advance,DELTA_SA,ar,no_revision,2014:Q1,-0.6728261778290336,3.22247890285647
exact,pre_advance,DELTA_SA,ar,no_revision,2014:Q2,0.3153905835886226,3.537869486445093
exact,pre_advance,DELTA_SA,ar,no_revision,2014:Q3,-0.05736992828325174,3.480499558161841
exact,pre_advance,DELTA_SA,ar,no_revision,2014:Q4,0.18045818425062124,3.6609577424124624
exact,pre_advance,DELTA_SA,ar,no_revision,2015:Q1,-0.30424364925329495,3.3567140931591677
exact,pre_advance,DELTA_SA,ar,no_revision,2015:Q2,1.0249249122593762,4.381639005418544
exact,pre_advance,DELTA_SA,ar,no_revision,2015:Q3,-0.3345827492334456,4.0470562561850985
exact,pre_advance,DELTA_SA,ar,no_revision,2015:Q4,-0.09676443992777004,3.9502918162573284
exact,pre_advance,DELTA_SA,ar,no_revision,2016:Q1,-0.09029065158363185,3.8600011646736965
exact,pre_advance,DELTA_SA,ar,no_revision,2016:Q2,0.1360297525459644,3.996030917219661
exact,pre_advance,DELTA_SA,ar,no_revision,2016:Q3,-0.021175007572158712,3.974855909647502
exact,pre_advance,DELTA_SA,ar,no_revision,2016:Q4,0.02734587565242416,4.002201785299926
exact,pre_advance,DELTA_SA,ar,no_revision,2017:Q1,-0.056295362083760514,3.945906423216165
exact,pre_advance,DELTA_SA,ar,no_revision,2017:Q2,-0.1998229027002102,3.746083520515955
exact,pre_advance,DELTA_SA,ar,no_revision,2017:Q3,-0.09239460605426397,3.653688914461691
exact,pre_advance,DELTA_SA,ar,no_revision,2017:Q4,0.035699658663772574,3.6893885731254636
exact,pre_advance,DELTA_SA,ar,no_revision,2018:Q1,0.012703611098869368,3.702092184224333
exact,pre_advance,DELTA_SA,ar,no_revision,2018:Q2,0.0030213569949030655,3.705113541219236
exact,pre_advance,DELTA_SA,ar,no_revision,2018:Q3,0.0032310710133240618,3.70834461223256
exact,pre_advance,DELTA_SA,ar,no_revision,2019:Q1,0.3134694480182471,4.021814060250807
exact,pre_advance,DELTA_SA,ar,no_revision,2019:Q2,-0.00020861065790184213,4.021605449592905
exact,pre_advance,DELTA_SA,ar,no_revision,2019:Q3,-0.020795440927072837,4.000810008665832
exact,pre_advance,DELTA_SA,ar,no_revision,2019:Q4,0.022807340587339162,4.023617349253171
exact,pre_advance,DELTA_SA,ar,no_revision,2020:Q1,0.04374626691208146,4.067363616165252
exact,pre_advance,DELTA_SA,ar,no_revision,2020:Q2,-0.4848885887598303,3.582475027405422
exact,pre_advance,DELTA_SA,ar,no_revision,2020:Q3,6.6030936783793335,10.185568705784755
exact,pre_advance,DELTA_SA,ar,no_revision,2020:Q4,0.3494364241901803,10.535005129974936
exact,pre_advance,DELTA_SA,ar,no_revision,2021:Q1,0.010481372036795358,10.54548650201173
exact,pre_advance,DELTA_SA,ar,no_revision,2021:Q2,0.005674643654305938,10.551161145666036
exact,pre_advance,DELTA_SA,ar,no_revision,2021:Q3,-0.00428446848418562,10.546876677181851
exact,pre_advance,DELTA_SA,ar,no_revision,2021:Q4,-0.009636975615624089,10.537239701566227
exact,pre_advance,DELTA_SA,ar,no_revision,2022:Q1,0.05376352283472801,10.591003224400955
exact,pre_advance,DELTA_SA,ar,no_revision,2022:Q2,-0.01747374549873487,10.57352947890222
exact,pre_advance,DELTA_SA,ar,no_revision,2022:Q3,-0.038912176234116996,10.534617302668103
exact,pre_advance,DELTA_SA,ar,no_revision,2022:Q4,0.058622083054108,10.59323938572221
exact,pre_advance,DELTA_SA,ar,no_revision,2023:Q1,-0.02740533844308022,10.56583404727913
exact,pre_advance,DELTA_SA,ar,no_revision,2023:Q2,0.06172819389498699,10.627562241174118
exact,pre_advance,DELTA_SA,ar,no_revision,2023:Q3,-0.03194758936873526,10.595614651805382
exact,pre_advance,DELTA_SA,ar,no_revision,2023:Q4,0.03690159867203891,10.63251625047742
exact,pre_advance,DELTA_SA,ar,no_revision,2024:Q1,0.07155817897030346,10.704074429447724
exact,pre_advance,DELTA_SA,ar,no_revision,2024:Q2,-0.009033581491366181,10.695040847956358
exact,pre_advance,DELTA_SA,ar,no_revision,2024:Q3,0.00727617350536104,10.702317021461718
exact,pre_advance,DELTA_SA,ar,no_revision,2024:Q4,-0.008788760628669104,10.69352826083305
exact,pre_advance,DELTA_SA,ar,release_dfm,2005:Q1,-0.06457257404199196,-0.06457257404199196
exact,pre_advance,DELTA_SA,ar,release_dfm,2005:Q2,0.05392100705411307,-0.010651566987878891
exact,pre_advance,DELTA_SA,ar,release_dfm,2005:Q3,0.12191070539466523,0.11125913840678633
exact,pre_advance,DELTA_SA,ar,release_dfm,2005:Q4,-0.03851182739693809,0.07274731100984824
exact,pre_advance,DELTA_SA,ar,release_dfm,2006:Q1,-0.09630907940028732,-0.02356176839043908
exact,pre_advance,DELTA_SA,ar,release_dfm,2006:Q2,-0.006343046395281451,-0.029904814785720532
exact,pre_advance,DELTA_SA,ar,release_dfm,2006:Q3,-0.1027035776815714,-0.13260839246729195
exact,pre_advance,DELTA_SA,ar,release_dfm,2006:Q4,1.0276047402758972,0.8949963478086053
exact,pre_advance,DELTA_SA,ar,release_dfm,2007:Q1,-0.41408575323464875,0.4809105945739565
exact,pre_advance,DELTA_SA,ar,release_dfm,2007:Q2,0.3272665697635969,0.8081771643375535
exact,pre_advance,DELTA_SA,ar,release_dfm,2007:Q3,-0.3348463681699476,0.47333079616760587
exact,pre_advance,DELTA_SA,ar,release_dfm,2007:Q4,0.23170019018880766,0.7050309863564135
exact,pre_advance,DELTA_SA,ar,release_dfm,2008:Q1,-0.09998664863071874,0.6050443377256948
exact,pre_advance,DELTA_SA,ar,release_dfm,2008:Q2,-0.7880304720767588,-0.18298613435106403
exact,pre_advance,DELTA_SA,ar,release_dfm,2008:Q3,0.9004291296287449,0.7174429952776809
exact,pre_advance,DELTA_SA,ar,release_dfm,2008:Q4,2.0518569757106633,2.769299970988344
exact,pre_advance,DELTA_SA,ar,release_dfm,2009:Q1,-1.309095775368377,1.4602041956199672
exact,pre_advance,DELTA_SA,ar,release_dfm,2009:Q2,0.29556918667558446,1.7557733822955517
exact,pre_advance,DELTA_SA,ar,release_dfm,2009:Q3,0.06344779921680854,1.8192211815123602
exact,pre_advance,DELTA_SA,ar,release_dfm,2009:Q4,0.2826198032348088,2.101840984747169
exact,pre_advance,DELTA_SA,ar,release_dfm,2010:Q1,-0.23945245033583445,1.8623885344113345
exact,pre_advance,DELTA_SA,ar,release_dfm,2010:Q2,-0.43427508410354076,1.4281134503077937
exact,pre_advance,DELTA_SA,ar,release_dfm,2010:Q3,0.5008024804713807,1.9289159307791743
exact,pre_advance,DELTA_SA,ar,release_dfm,2010:Q4,0.25584879905282176,2.184764729831996
exact,pre_advance,DELTA_SA,ar,release_dfm,2011:Q1,0.016558704882427375,2.2013234347144235
exact,pre_advance,DELTA_SA,ar,release_dfm,2011:Q2,0.014075986477936259,2.2153994211923598
exact,pre_advance,DELTA_SA,ar,release_dfm,2011:Q3,-0.15806562807392172,2.057333793118438
exact,pre_advance,DELTA_SA,ar,release_dfm,2011:Q4,0.1550867166435113,2.2124205097619494
exact,pre_advance,DELTA_SA,ar,release_dfm,2012:Q1,-0.06456927922788744,2.147851230534062
exact,pre_advance,DELTA_SA,ar,release_dfm,2012:Q2,0.07649001778942476,2.2243412483234866
exact,pre_advance,DELTA_SA,ar,release_dfm,2012:Q3,-0.09411694703936069,2.1302243012841258
exact,pre_advance,DELTA_SA,ar,release_dfm,2012:Q4,0.0020050161951079247,2.1322293174792337
exact,pre_advance,DELTA_SA,ar,release_dfm,2013:Q1,0.09100039082084721,2.2232297083000807
exact,pre_advance,DELTA_SA,ar,release_dfm,2013:Q2,0.19390107916547772,2.4171307874655583
exact,pre_advance,DELTA_SA,ar,release_dfm,2013:Q3,-0.3479050431917394,2.069225744273819
exact,pre_advance,DELTA_SA,ar,release_dfm,2013:Q4,0.4497329579020104,2.518958702175829
exact,pre_advance,DELTA_SA,ar,release_dfm,2014:Q1,-0.8583308373830141,1.660627864792815
exact,pre_advance,DELTA_SA,ar,release_dfm,2014:Q2,0.3652294107029636,2.0258572754957784
exact,pre_advance,DELTA_SA,ar,release_dfm,2014:Q3,0.01403490485174793,2.0398921803475263
exact,pre_advance,DELTA_SA,ar,release_dfm,2014:Q4,0.08228803521466005,2.1221802155621865
exact,pre_advance,DELTA_SA,ar,release_dfm,2015:Q1,-0.31184236052820247,1.8103378550339841
exact,pre_advance,DELTA_SA,ar,release_dfm,2015:Q2,1.3035716979369338,3.113909552970918
exact,pre_advance,DELTA_SA,ar,release_dfm,2015:Q3,-0.23002657645394253,2.8838829765169756
exact,pre_advance,DELTA_SA,ar,release_dfm,2015:Q4,-0.07014253561235265,2.8137404409046227
exact,pre_advance,DELTA_SA,ar,release_dfm,2016:Q1,-0.06222528198854299,2.75151515891608
exact,pre_advance,DELTA_SA,ar,release_dfm,2016:Q2,0.11559094826535313,2.8671061071814328
exact,pre_advance,DELTA_SA,ar,release_dfm,2016:Q3,0.012368181166111498,2.879474288347544
exact,pre_advance,DELTA_SA,ar,release_dfm,2016:Q4,-2.457762946924194e-05,2.8794497107180748
exact,pre_advance,DELTA_SA,ar,release_dfm,2017:Q1,0.03677153658568007,2.916221247303755
exact,pre_advance,DELTA_SA,ar,release_dfm,2017:Q2,-0.10011724287491425,2.8161040044288406
exact,pre_advance,DELTA_SA,ar,release_dfm,2017:Q3,-0.05757220247213498,2.7585318019567056
exact,pre_advance,DELTA_SA,ar,release_dfm,2017:Q4,-0.018795635845599436,2.739736166111106
exact,pre_advance,DELTA_SA,ar,release_dfm,2018:Q1,-0.07137453950156954,2.6683616266095362
exact,pre_advance,DELTA_SA,ar,release_dfm,2018:Q2,0.02732140167321683,2.695683028282753
exact,pre_advance,DELTA_SA,ar,release_dfm,2018:Q3,-0.01517884791799765,2.680504180364755
exact,pre_advance,DELTA_SA,ar,release_dfm,2019:Q1,0.3056651959381533,2.9861693763029082
exact,pre_advance,DELTA_SA,ar,release_dfm,2019:Q2,-0.006542066970037425,2.9796273093328707
exact,pre_advance,DELTA_SA,ar,release_dfm,2019:Q3,0.0045591534171501615,2.9841864627500208
exact,pre_advance,DELTA_SA,ar,release_dfm,2019:Q4,0.022458742746033496,3.006645205496054
exact,pre_advance,DELTA_SA,ar,release_dfm,2020:Q1,0.07929702576198386,3.0859422312580382
exact,pre_advance,DELTA_SA,ar,release_dfm,2020:Q2,-6.343919910050812,-3.257977678792774
exact,pre_advance,DELTA_SA,ar,release_dfm,2020:Q3,6.585229036056758,3.3272513572639837
exact,pre_advance,DELTA_SA,ar,release_dfm,2020:Q4,0.3553294223382184,3.682580779602202
exact,pre_advance,DELTA_SA,ar,release_dfm,2021:Q1,0.0024895334042018043,3.685070313006404
exact,pre_advance,DELTA_SA,ar,release_dfm,2021:Q2,0.006350212614450523,3.6914205256208543
exact,pre_advance,DELTA_SA,ar,release_dfm,2021:Q3,0.003397448164514412,3.694817973785369
exact,pre_advance,DELTA_SA,ar,release_dfm,2021:Q4,0.00022254856130138077,3.69504052234667
exact,pre_advance,DELTA_SA,ar,release_dfm,2022:Q1,0.02398197233090931,3.719022494677579
exact,pre_advance,DELTA_SA,ar,release_dfm,2022:Q2,0.04202620704813996,3.761048701725719
exact,pre_advance,DELTA_SA,ar,release_dfm,2022:Q3,0.021558902901119156,3.782607604626838
exact,pre_advance,DELTA_SA,ar,release_dfm,2022:Q4,0.007549276239000424,3.7901568808658386
exact,pre_advance,DELTA_SA,ar,release_dfm,2023:Q1,0.0036429627516610056,3.7937998436175
exact,pre_advance,DELTA_SA,ar,release_dfm,2023:Q2,-0.015892029036106203,3.7779078145813934
exact,pre_advance,DELTA_SA,ar,release_dfm,2023:Q3,0.011327669946062588,3.789235484527456
exact,pre_advance,DELTA_SA,ar,release_dfm,2023:Q4,0.01429794297308309,3.8035334275005392
exact,pre_advance,DELTA_SA,ar,release_dfm,2024:Q1,-0.001782041940785073,3.8017513855597542
exact,pre_advance,DELTA_SA,ar,release_dfm,2024:Q2,0.0030115301445589647,3.804762915704313
exact,pre_advance,DELTA_SA,ar,release_dfm,2024:Q3,0.0003461342174390092,3.805109049921752
exact,pre_advance,DELTA_SA,ar,release_dfm,2024:Q4,2.5610952888988313e-05,3.805134660874641
exact,pre_advance,DELTA_SA,ar,revision_dfm_kalman_em,2005:Q1,-0.09508536621103246,-0.09508536621103246
exact,pre_advance,DELTA_SA,ar,revision_dfm_kalman_em,2005:Q2,0.07606907308853628,-0.019016293122496183
exact,pre_advance,DELTA_SA,ar,revision_dfm_kalman_em,2005:Q3,0.14255457489534162,0.12353828177284544
exact,pre_advance,DELTA_SA,ar,revision_dfm_kalman_em,2005:Q4,-0.018154875001343343,0.1053834067715021
exact,pre_advance,DELTA_SA,ar,revision_dfm_kalman_em,2006:Q1,-0.11165903460749976,-0.006275627835997666
exact,pre_advance,DELTA_SA,ar,revision_dfm_kalman_em,2006:Q2,-0.0682554669724462,-0.07453109480844386
exact,pre_advance,DELTA_SA,ar,revision_dfm_kalman_em,2006:Q3,-0.21679624394807795,-0.29132733875652184
exact,pre_advance,DELTA_SA,ar,revision_dfm_kalman_em,2006:Q4,1.1699466654019497,0.8786193266454279
exact,pre_advance,DELTA_SA,ar,revision_dfm_kalman_em,2007:Q1,-0.9093837321429001,-0.03076440549747228
exact,pre_advance,DELTA_SA,ar,revision_dfm_kalman_em,2007:Q2,0.4935582309759973,0.46279382547852504
exact,pre_advance,DELTA_SA,ar,revision_dfm_kalman_em,2007:Q3,-0.38696851801941967,0.07582530745910537
exact,pre_advance,DELTA_SA,ar,revision_dfm_kalman_em,2007:Q4,0.21650721029913814,0.29233251775824354
exact,pre_advance,DELTA_SA,ar,revision_dfm_kalman_em,2008:Q1,-0.011688264189996533,0.280644253568247
exact,pre_advance,DELTA_SA,ar,revision_dfm_kalman_em,2008:Q2,-0.4233003745221815,-0.14265612095393448
exact,pre_advance,DELTA_SA,ar,revision_dfm_kalman_em,2008:Q3,0.913396412646589,0.7707402916926545
exact,pre_advance,DELTA_SA,ar,revision_dfm_kalman_em,2008:Q4,2.260314458298777,3.0310547499914313
exact,pre_advance,DELTA_SA,ar,revision_dfm_kalman_em,2009:Q1,1.3864956146949357,4.417550364686367
exact,pre_advance,DELTA_SA,ar,revision_dfm_kalman_em,2009:Q2,-0.34601108793303226,4.0715392767533345
exact,pre_advance,DELTA_SA,ar,revision_dfm_kalman_em,2009:Q3,-1.4845766589385532,2.5869626178147813
exact,pre_advance,DELTA_SA,ar,revision_dfm_kalman_em,2009:Q4,0.27058173602113145,2.857544353835913
exact,pre_advance,DELTA_SA,ar,revision_dfm_kalman_em,2010:Q1,-0.21944990524132024,2.6380944485945927
exact,pre_advance,DELTA_SA,ar,revision_dfm_kalman_em,2010:Q2,-0.8181972759389274,1.8198971726556654
exact,pre_advance,DELTA_SA,ar,revision_dfm_kalman_em,2010:Q3,0.6328264701308858,2.4527236427865513
exact,pre_advance,DELTA_SA,ar,revision_dfm_kalman_em,2010:Q4,0.26522288847135567,2.717946531257907
exact,pre_advance,DELTA_SA,ar,revision_dfm_kalman_em,2011:Q1,-0.03315374961813686,2.68479278163977
exact,pre_advance,DELTA_SA,ar,revision_dfm_kalman_em,2011:Q2,-0.05874780020501186,2.626044981434758
exact,pre_advance,DELTA_SA,ar,revision_dfm_kalman_em,2011:Q3,-0.399243228882048,2.22680175255271
exact,pre_advance,DELTA_SA,ar,revision_dfm_kalman_em,2011:Q4,0.1536118104573465,2.3804135630100562
exact,pre_advance,DELTA_SA,ar,revision_dfm_kalman_em,2012:Q1,-0.13420755050249986,2.2462060125075562
exact,pre_advance,DELTA_SA,ar,revision_dfm_kalman_em,2012:Q2,0.08845574487435702,2.3346617573819133
exact,pre_advance,DELTA_SA,ar,revision_dfm_kalman_em,2012:Q3,-0.06172622528616245,2.272935532095751
exact,pre_advance,DELTA_SA,ar,revision_dfm_kalman_em,2012:Q4,-1.024402238958104e-05,2.2729252880733615
exact,pre_advance,DELTA_SA,ar,revision_dfm_kalman_em,2013:Q1,0.02028998909167487,2.2932152771650363
exact,pre_advance,DELTA_SA,ar,revision_dfm_kalman_em,2013:Q2,0.26248029973452636,2.555695576899563
exact,pre_advance,DELTA_SA,ar,revision_dfm_kalman_em,2013:Q3,-0.32229969780075757,2.233395879098805
exact,pre_advance,DELTA_SA,ar,revision_dfm_kalman_em,2013:Q4,0.3465173932674044,2.5799132723662095
exact,pre_advance,DELTA_SA,ar,revision_dfm_kalman_em,2014:Q1,-1.2240070196873771,1.3559062526788324
exact,pre_advance,DELTA_SA,ar,revision_dfm_kalman_em,2014:Q2,0.32941509284993964,1.6853213455287719
exact,pre_advance,DELTA_SA,ar,revision_dfm_kalman_em,2014:Q3,-0.015039268856240254,1.6702820766725317
exact,pre_advance,DELTA_SA,ar,revision_dfm_kalman_em,2014:Q4,0.03447230124442152,1.7047543779169532
exact,pre_advance,DELTA_SA,ar,revision_dfm_kalman_em,2015:Q1,-0.3620224731923024,1.3427319047246509
exact,pre_advance,DELTA_SA,ar,revision_dfm_kalman_em,2015:Q2,1.5370761720410409,2.8798080767656917
exact,pre_advance,DELTA_SA,ar,revision_dfm_kalman_em,2015:Q3,-0.23333528060625852,2.646472796159433
exact,pre_advance,DELTA_SA,ar,revision_dfm_kalman_em,2015:Q4,-0.09970317906924292,2.5467696170901903
exact,pre_advance,DELTA_SA,ar,revision_dfm_kalman_em,2016:Q1,-0.03523208053002844,2.5115375365601618
exact,pre_advance,DELTA_SA,ar,revision_dfm_kalman_em,2016:Q2,0.06725267466869692,2.5787902112288585
exact,pre_advance,DELTA_SA,ar,revision_dfm_kalman_em,2016:Q3,0.04073019273242055,2.619520403961279
exact,pre_advance,DELTA_SA,ar,revision_dfm_kalman_em,2016:Q4,0.004750805285939439,2.6242712092472185
exact,pre_advance,DELTA_SA,ar,revision_dfm_kalman_em,2017:Q1,0.07518076513907114,2.6994519743862897
exact,pre_advance,DELTA_SA,ar,revision_dfm_kalman_em,2017:Q2,-0.021952097155722886,2.677499877230567
exact,pre_advance,DELTA_SA,ar,revision_dfm_kalman_em,2017:Q3,-0.10297449751680647,2.5745253797137604
exact,pre_advance,DELTA_SA,ar,revision_dfm_kalman_em,2017:Q4,-0.11930141174826642,2.455223967965494
exact,pre_advance,DELTA_SA,ar,revision_dfm_kalman_em,2018:Q1,-0.10707218305443875,2.3481517849110554
exact,pre_advance,DELTA_SA,ar,revision_dfm_kalman_em,2018:Q2,0.02463568038686071,2.372787465297916
exact,pre_advance,DELTA_SA,ar,revision_dfm_kalman_em,2018:Q3,-0.014667138267022926,2.358120327030893
exact,pre_advance,DELTA_SA,ar,revision_dfm_kalman_em,2019:Q1,0.3001970588216314,2.6583173858525244
exact,pre_advance,DELTA_SA,ar,revision_dfm_kalman_em,2019:Q2,-0.008154439310170786,2.6501629465423537
exact,pre_advance,DELTA_SA,ar,revision_dfm_kalman_em,2019:Q3,0.019427004409919096,2.6695899509522727
exact,pre_advance,DELTA_SA,ar,revision_dfm_kalman_em,2019:Q4,0.019770712137185373,2.689360663089458
exact,pre_advance,DELTA_SA,ar,revision_dfm_kalman_em,2020:Q1,0.09932495242475031,2.7886856155142086
exact,pre_advance,DELTA_SA,ar,revision_dfm_kalman_em,2020:Q2,-3.9227870756502967,-1.1341014601360881
exact,pre_advance,DELTA_SA,ar,revision_dfm_kalman_em,2020:Q3,6.166657565055308,5.03255610491922
exact,pre_advance,DELTA_SA,ar,revision_dfm_kalman_em,2020:Q4,0.2074514894232823,5.240007594342502
exact,pre_advance,DELTA_SA,ar,revision_dfm_kalman_em,2021:Q1,-0.04315620067892398,5.196851393663578
exact,pre_advance,DELTA_SA,ar,revision_dfm_kalman_em,2021:Q2,0.0026792191843861514,5.199530612847964
exact,pre_advance,DELTA_SA,ar,revision_dfm_kalman_em,2021:Q3,0.0020810287178265182,5.2016116415657905
exact,pre_advance,DELTA_SA,ar,revision_dfm_kalman_em,2021:Q4,-0.012644526528972055,5.188967115036818
exact,pre_advance,DELTA_SA,ar,revision_dfm_kalman_em,2022:Q1,0.02125625043817371,5.210223365474992
exact,pre_advance,DELTA_SA,ar,revision_dfm_kalman_em,2022:Q2,0.11123574884974208,5.321459114324734
exact,pre_advance,DELTA_SA,ar,revision_dfm_kalman_em,2022:Q3,0.08712190091024416,5.408581015234978
exact,pre_advance,DELTA_SA,ar,revision_dfm_kalman_em,2022:Q4,-0.004718065772064489,5.403862949462913
exact,pre_advance,DELTA_SA,ar,revision_dfm_kalman_em,2023:Q1,0.0018364082221451576,5.405699357685058
exact,pre_advance,DELTA_SA,ar,revision_dfm_kalman_em,2023:Q2,-0.06412823885236577,5.341571118832692
exact,pre_advance,DELTA_SA,ar,revision_dfm_kalman_em,2023:Q3,0.03287487665198829,5.37444599548468
exact,pre_advance,DELTA_SA,ar,revision_dfm_kalman_em,2023:Q4,0.028013291026376955,5.402459286511057
exact,pre_advance,DELTA_SA,ar,revision_dfm_kalman_em,2024:Q1,0.0184896962781968,5.420948982789254
exact,pre_advance,DELTA_SA,ar,revision_dfm_kalman_em,2024:Q2,0.0019824926172257976,5.42293147540648
exact,pre_advance,DELTA_SA,ar,revision_dfm_kalman_em,2024:Q3,-0.008494038878948925,5.414437436527531
exact,pre_advance,DELTA_SA,ar,revision_dfm_kalman_em,2024:Q4,-3.504564559702296e-05,5.414402390881934
exact,pre_advance,DELTA_SA,ar,spf,2005:Q1,-0.15257503321613658,-0.15257503321613658
exact,pre_advance,DELTA_SA,ar,spf,2005:Q2,0.10304262774761302,-0.049532405468523555
exact,pre_advance,DELTA_SA,ar,spf,2005:Q3,0.03151683579611303,-0.018015569672410525
exact,pre_advance,DELTA_SA,ar,spf,2005:Q4,-0.17958946757420496,-0.1976050372466155
exact,pre_advance,DELTA_SA,ar,spf,2006:Q1,-0.22225097588053042,-0.41985601312714593
exact,pre_advance,DELTA_SA,ar,spf,2006:Q2,-0.1338214718146227,-0.5536774849417686
exact,pre_advance,DELTA_SA,ar,spf,2006:Q3,-0.2655324769569707,-0.8192099618987393
exact,pre_advance,DELTA_SA,ar,spf,2006:Q4,1.1280810824986391,0.30887112059989985
exact,pre_advance,DELTA_SA,ar,spf,2007:Q1,-0.36488258133290913,-0.05601146073300928
exact,pre_advance,DELTA_SA,ar,spf,2007:Q2,0.2101220628635298,0.15411060213052052
exact,pre_advance,DELTA_SA,ar,spf,2007:Q3,-0.5038879623481906,-0.34977736021767003
exact,pre_advance,DELTA_SA,ar,spf,2007:Q4,0.23194641324995732,-0.11783094696771271
exact,pre_advance,DELTA_SA,ar,spf,2008:Q1,-0.06565748592115798,-0.18348843288887068
exact,pre_advance,DELTA_SA,ar,spf,2008:Q2,-0.7051418869943866,-0.8886303198832572
exact,pre_advance,DELTA_SA,ar,spf,2008:Q3,0.8839041046210189,-0.004726215262238376
exact,pre_advance,DELTA_SA,ar,spf,2008:Q4,0.39399862829546173,0.38927241303322335
exact,pre_advance,DELTA_SA,ar,spf,2009:Q1,1.3203689037955737,1.709641316828797
exact,pre_advance,DELTA_SA,ar,spf,2009:Q2,0.36877932291984866,2.0784206397486455
exact,pre_advance,DELTA_SA,ar,spf,2009:Q3,0.31974831955083616,2.3981689592994817
exact,pre_advance,DELTA_SA,ar,spf,2009:Q4,0.2461874095178597,2.6443563688173413
exact,pre_advance,DELTA_SA,ar,spf,2010:Q1,0.012274663642203441,2.656631032459545
exact,pre_advance,DELTA_SA,ar,spf,2010:Q2,-0.10097637669884518,2.5556546557606996
exact,pre_advance,DELTA_SA,ar,spf,2010:Q3,0.41001530272678194,2.9656699584874815
exact,pre_advance,DELTA_SA,ar,spf,2010:Q4,0.33708017745408314,3.3027501359415647
exact,pre_advance,DELTA_SA,ar,spf,2011:Q1,0.05273638935335863,3.3554865252949235
exact,pre_advance,DELTA_SA,ar,spf,2011:Q2,0.0864949621817803,3.4419814874767036
exact,pre_advance,DELTA_SA,ar,spf,2011:Q3,-0.03822954602021156,3.403751941456492
exact,pre_advance,DELTA_SA,ar,spf,2011:Q4,0.1042486389810256,3.5080005804375176
exact,pre_advance,DELTA_SA,ar,spf,2012:Q1,0.12270345028699549,3.6307040307245133
exact,pre_advance,DELTA_SA,ar,spf,2012:Q2,0.05124300972150874,3.681947040446022
exact,pre_advance,DELTA_SA,ar,spf,2012:Q3,-0.19803121584843814,3.483915824597584
exact,pre_advance,DELTA_SA,ar,spf,2012:Q4,-0.06160444841889918,3.4223113761786847
exact,pre_advance,DELTA_SA,ar,spf,2013:Q1,0.13839352919058448,3.560704905369269
exact,pre_advance,DELTA_SA,ar,spf,2013:Q2,0.010665904843470964,3.5713708102127404
exact,pre_advance,DELTA_SA,ar,spf,2013:Q3,-0.49085393179229264,3.0805168784204477
exact,pre_advance,DELTA_SA,ar,spf,2013:Q4,0.8147882022650561,3.895305080685504
exact,pre_advance,DELTA_SA,ar,spf,2014:Q1,-0.6728261778290336,3.22247890285647
exact,pre_advance,DELTA_SA,ar,spf,2014:Q2,0.3153905835886226,3.537869486445093
exact,pre_advance,DELTA_SA,ar,spf,2014:Q3,-0.05736992828325174,3.480499558161841
exact,pre_advance,DELTA_SA,ar,spf,2014:Q4,0.18045818425062124,3.6609577424124624
exact,pre_advance,DELTA_SA,ar,spf,2015:Q1,-0.30424364925329495,3.3567140931591677
exact,pre_advance,DELTA_SA,ar,spf,2015:Q2,1.0249249122593762,4.381639005418544
exact,pre_advance,DELTA_SA,ar,spf,2015:Q3,-0.3345827492334456,4.0470562561850985
exact,pre_advance,DELTA_SA,ar,spf,2015:Q4,-0.09676443992777004,3.9502918162573284
exact,pre_advance,DELTA_SA,ar,spf,2016:Q1,-0.09029065158363185,3.8600011646736965
exact,pre_advance,DELTA_SA,ar,spf,2016:Q2,0.1360297525459644,3.996030917219661
exact,pre_advance,DELTA_SA,ar,spf,2016:Q3,-0.021175007572158712,3.974855909647502
exact,pre_advance,DELTA_SA,ar,spf,2016:Q4,0.02734587565242416,4.002201785299926
exact,pre_advance,DELTA_SA,ar,spf,2017:Q1,-0.056295362083760514,3.945906423216165
exact,pre_advance,DELTA_SA,ar,spf,2017:Q2,-0.1998229027002102,3.746083520515955
exact,pre_advance,DELTA_SA,ar,spf,2017:Q3,-0.09239460605426397,3.653688914461691
exact,pre_advance,DELTA_SA,ar,spf,2017:Q4,0.035699658663772574,3.6893885731254636
exact,pre_advance,DELTA_SA,ar,spf,2018:Q1,0.012703611098869368,3.702092184224333
exact,pre_advance,DELTA_SA,ar,spf,2018:Q2,0.0030213569949030655,3.705113541219236
exact,pre_advance,DELTA_SA,ar,spf,2018:Q3,0.0032310710133240618,3.70834461223256
exact,pre_advance,DELTA_SA,ar,spf,2019:Q1,0.3134694480182471,4.021814060250807
exact,pre_advance,DELTA_SA,ar,spf,2019:Q2,-0.00020861065790184213,4.021605449592905
exact,pre_advance,DELTA_SA,ar,spf,2019:Q3,-0.020795440927072837,4.000810008665832
exact,pre_advance,DELTA_SA,ar,spf,2019:Q4,0.022807340587339162,4.023617349253171
exact,pre_advance,DELTA_SA,ar,spf,2020:Q1,0.04374626691208146,4.067363616165252
exact,pre_advance,DELTA_SA,ar,spf,2020:Q2,-0.4848885887598303,3.582475027405422
exact,pre_advance,DELTA_SA,ar,spf,2020:Q3,6.6030936783793335,10.185568705784755
exact,pre_advance,DELTA_SA,ar,spf,2020:Q4,0.3494364241901803,10.535005129974936
exact,pre_advance,DELTA_SA,ar,spf,2021:Q1,0.010481372036795358,10.54548650201173
exact,pre_advance,DELTA_SA,ar,spf,2021:Q2,0.005674643654305938,10.551161145666036
exact,pre_advance,DELTA_SA,ar,spf,2021:Q3,-0.00428446848418562,10.546876677181851
exact,pre_advance,DELTA_SA,ar,spf,2021:Q4,-0.009636975615624089,10.537239701566227
exact,pre_advance,DELTA_SA,ar,spf,2022:Q1,0.05376352283472801,10.591003224400955
exact,pre_advance,DELTA_SA,ar,spf,2022:Q2,-0.01747374549873487,10.57352947890222
exact,pre_advance,DELTA_SA,ar,spf,2022:Q3,-0.038912176234116996,10.534617302668103
exact,pre_advance,DELTA_SA,ar,spf,2022:Q4,0.058622083054108,10.59323938572221
exact,pre_advance,DELTA_SA,ar,spf,2023:Q1,-0.02740533844308022,10.56583404727913
exact,pre_advance,DELTA_SA,ar,spf,2023:Q2,0.06172819389498699,10.627562241174118
exact,pre_advance,DELTA_SA,ar,spf,2023:Q3,-0.03194758936873526,10.595614651805382
exact,pre_advance,DELTA_SA,ar,spf,2023:Q4,0.03690159867203891,10.63251625047742
exact,pre_advance,DELTA_SA,ar,spf,2024:Q1,0.07155817897030346,10.704074429447724
exact,pre_advance,DELTA_SA,ar,spf,2024:Q2,-0.009033581491366181,10.695040847956358
exact,pre_advance,DELTA_SA,ar,spf,2024:Q3,0.00727617350536104,10.702317021461718
exact,pre_advance,DELTA_SA,ar,spf,2024:Q4,-0.008788760628669104,10.69352826083305
exact,pre_advance,DELTA_SA,ar,standard_dfm,2005:Q1,-0.06457257404199196,-0.06457257404199196
exact,pre_advance,DELTA_SA,ar,standard_dfm,2005:Q2,0.05392100705411307,-0.010651566987878891
exact,pre_advance,DELTA_SA,ar,standard_dfm,2005:Q3,0.12191070539466523,0.11125913840678633
exact,pre_advance,DELTA_SA,ar,standard_dfm,2005:Q4,-0.03851182739693809,0.07274731100984824
exact,pre_advance,DELTA_SA,ar,standard_dfm,2006:Q1,-0.09630907940028732,-0.02356176839043908
exact,pre_advance,DELTA_SA,ar,standard_dfm,2006:Q2,-0.006343046395281451,-0.029904814785720532
exact,pre_advance,DELTA_SA,ar,standard_dfm,2006:Q3,-0.1027035776815714,-0.13260839246729195
exact,pre_advance,DELTA_SA,ar,standard_dfm,2006:Q4,1.0276047402758972,0.8949963478086053
exact,pre_advance,DELTA_SA,ar,standard_dfm,2007:Q1,-0.41408575323464875,0.4809105945739565
exact,pre_advance,DELTA_SA,ar,standard_dfm,2007:Q2,0.3272665697635969,0.8081771643375535
exact,pre_advance,DELTA_SA,ar,standard_dfm,2007:Q3,-0.3348463681699476,0.47333079616760587
exact,pre_advance,DELTA_SA,ar,standard_dfm,2007:Q4,0.23170019018880766,0.7050309863564135
exact,pre_advance,DELTA_SA,ar,standard_dfm,2008:Q1,-0.09998664863071874,0.6050443377256948
exact,pre_advance,DELTA_SA,ar,standard_dfm,2008:Q2,-0.7880304720767588,-0.18298613435106403
exact,pre_advance,DELTA_SA,ar,standard_dfm,2008:Q3,0.9004291296287449,0.7174429952776809
exact,pre_advance,DELTA_SA,ar,standard_dfm,2008:Q4,2.0518569757106633,2.769299970988344
exact,pre_advance,DELTA_SA,ar,standard_dfm,2009:Q1,-1.309095775368377,1.4602041956199672
exact,pre_advance,DELTA_SA,ar,standard_dfm,2009:Q2,0.29556918667558446,1.7557733822955517
exact,pre_advance,DELTA_SA,ar,standard_dfm,2009:Q3,0.06344779921680854,1.8192211815123602
exact,pre_advance,DELTA_SA,ar,standard_dfm,2009:Q4,0.2826198032348088,2.101840984747169
exact,pre_advance,DELTA_SA,ar,standard_dfm,2010:Q1,-0.23945245033583445,1.8623885344113345
exact,pre_advance,DELTA_SA,ar,standard_dfm,2010:Q2,-0.43427508410354076,1.4281134503077937
exact,pre_advance,DELTA_SA,ar,standard_dfm,2010:Q3,0.5008024804713807,1.9289159307791743
exact,pre_advance,DELTA_SA,ar,standard_dfm,2010:Q4,0.25584879905282176,2.184764729831996
exact,pre_advance,DELTA_SA,ar,standard_dfm,2011:Q1,0.016558704882427375,2.2013234347144235
exact,pre_advance,DELTA_SA,ar,standard_dfm,2011:Q2,0.014075986477936259,2.2153994211923598
exact,pre_advance,DELTA_SA,ar,standard_dfm,2011:Q3,-0.15806562807392172,2.057333793118438
exact,pre_advance,DELTA_SA,ar,standard_dfm,2011:Q4,0.1550867166435113,2.2124205097619494
exact,pre_advance,DELTA_SA,ar,standard_dfm,2012:Q1,-0.06456927922788744,2.147851230534062
exact,pre_advance,DELTA_SA,ar,standard_dfm,2012:Q2,0.07649001778942476,2.2243412483234866
exact,pre_advance,DELTA_SA,ar,standard_dfm,2012:Q3,-0.09411694703936069,2.1302243012841258
exact,pre_advance,DELTA_SA,ar,standard_dfm,2012:Q4,0.0020050161951079247,2.1322293174792337
exact,pre_advance,DELTA_SA,ar,standard_dfm,2013:Q1,0.09100039082084721,2.2232297083000807
exact,pre_advance,DELTA_SA,ar,standard_dfm,2013:Q2,0.19390107916547772,2.4171307874655583
exact,pre_advance,DELTA_SA,ar,standard_dfm,2013:Q3,-0.3479050431917394,2.069225744273819
exact,pre_advance,DELTA_SA,ar,standard_dfm,2013:Q4,0.4497329579020104,2.518958702175829
exact,pre_advance,DELTA_SA,ar,standard_dfm,2014:Q1,-0.8583308373830141,1.660627864792815
exact,pre_advance,DELTA_SA,ar,standard_dfm,2014:Q2,0.3652294107029636,2.0258572754957784
exact,pre_advance,DELTA_SA,ar,standard_dfm,2014:Q3,0.01403490485174793,2.0398921803475263
exact,pre_advance,DELTA_SA,ar,standard_dfm,2014:Q4,0.08228803521466005,2.1221802155621865
exact,pre_advance,DELTA_SA,ar,standard_dfm,2015:Q1,-0.31184236052820247,1.8103378550339841
exact,pre_advance,DELTA_SA,ar,standard_dfm,2015:Q2,1.3035716979369338,3.113909552970918
exact,pre_advance,DELTA_SA,ar,standard_dfm,2015:Q3,-0.23002657645394253,2.8838829765169756
exact,pre_advance,DELTA_SA,ar,standard_dfm,2015:Q4,-0.07014253561235265,2.8137404409046227
exact,pre_advance,DELTA_SA,ar,standard_dfm,2016:Q1,-0.06222528198854299,2.75151515891608
exact,pre_advance,DELTA_SA,ar,standard_dfm,2016:Q2,0.11559094826535313,2.8671061071814328
exact,pre_advance,DELTA_SA,ar,standard_dfm,2016:Q3,0.012368181166111498,2.879474288347544
exact,pre_advance,DELTA_SA,ar,standard_dfm,2016:Q4,-2.457762946924194e-05,2.8794497107180748
exact,pre_advance,DELTA_SA,ar,standard_dfm,2017:Q1,0.03677153658568007,2.916221247303755
exact,pre_advance,DELTA_SA,ar,standard_dfm,2017:Q2,-0.10011724287491425,2.8161040044288406
exact,pre_advance,DELTA_SA,ar,standard_dfm,2017:Q3,-0.05757220247213498,2.7585318019567056
exact,pre_advance,DELTA_SA,ar,standard_dfm,2017:Q4,-0.018795635845599436,2.739736166111106
exact,pre_advance,DELTA_SA,ar,standard_dfm,2018:Q1,-0.07137453950156954,2.6683616266095362
exact,pre_advance,DELTA_SA,ar,standard_dfm,2018:Q2,0.02732140167321683,2.695683028282753
exact,pre_advance,DELTA_SA,ar,standard_dfm,2018:Q3,-0.01517884791799765,2.680504180364755
exact,pre_advance,DELTA_SA,ar,standard_dfm,2019:Q1,0.3056651959381533,2.9861693763029082
exact,pre_advance,DELTA_SA,ar,standard_dfm,2019:Q2,-0.006542066970037425,2.9796273093328707
exact,pre_advance,DELTA_SA,ar,standard_dfm,2019:Q3,0.0045591534171501615,2.9841864627500208
exact,pre_advance,DELTA_SA,ar,standard_dfm,2019:Q4,0.022458742746033496,3.006645205496054
exact,pre_advance,DELTA_SA,ar,standard_dfm,2020:Q1,0.07929702576198386,3.0859422312580382
exact,pre_advance,DELTA_SA,ar,standard_dfm,2020:Q2,-6.343919910050812,-3.257977678792774
exact,pre_advance,DELTA_SA,ar,standard_dfm,2020:Q3,6.585229036056758,3.3272513572639837
exact,pre_advance,DELTA_SA,ar,standard_dfm,2020:Q4,0.3553294223382184,3.682580779602202
exact,pre_advance,DELTA_SA,ar,standard_dfm,2021:Q1,0.0024895334042018043,3.685070313006404
exact,pre_advance,DELTA_SA,ar,standard_dfm,2021:Q2,0.006350212614450523,3.6914205256208543
exact,pre_advance,DELTA_SA,ar,standard_dfm,2021:Q3,0.003397448164514412,3.694817973785369
exact,pre_advance,DELTA_SA,ar,standard_dfm,2021:Q4,0.00022254856130138077,3.69504052234667
exact,pre_advance,DELTA_SA,ar,standard_dfm,2022:Q1,0.02398197233090931,3.719022494677579
exact,pre_advance,DELTA_SA,ar,standard_dfm,2022:Q2,0.04202620704813996,3.761048701725719
exact,pre_advance,DELTA_SA,ar,standard_dfm,2022:Q3,0.021558902901119156,3.782607604626838
exact,pre_advance,DELTA_SA,ar,standard_dfm,2022:Q4,0.007549276239000424,3.7901568808658386
exact,pre_advance,DELTA_SA,ar,standard_dfm,2023:Q1,0.0036429627516610056,3.7937998436175
exact,pre_advance,DELTA_SA,ar,standard_dfm,2023:Q2,-0.015892029036106203,3.7779078145813934
exact,pre_advance,DELTA_SA,ar,standard_dfm,2023:Q3,0.011327669946062588,3.789235484527456
exact,pre_advance,DELTA_SA,ar,standard_dfm,2023:Q4,0.01429794297308309,3.8035334275005392
exact,pre_advance,DELTA_SA,ar,standard_dfm,2024:Q1,-0.001782041940785073,3.8017513855597542
exact,pre_advance,DELTA_SA,ar,standard_dfm,2024:Q2,0.0030115301445589647,3.804762915704313
exact,pre_advance,DELTA_SA,ar,standard_dfm,2024:Q3,0.0003461342174390092,3.805109049921752
exact,pre_advance,DELTA_SA,ar,standard_dfm,2024:Q4,2.5610952888988313e-05,3.805134660874641
exact,pre_advance,DELTA_SA,no_revision,ar,2005:Q1,0.15257503321613658,0.15257503321613658
exact,pre_advance,DELTA_SA,no_revision,ar,2005:Q2,-0.10304262774761302,0.049532405468523555
exact,pre_advance,DELTA_SA,no_revision,ar,2005:Q3,-0.03151683579611303,0.018015569672410525
exact,pre_advance,DELTA_SA,no_revision,ar,2005:Q4,0.17958946757420496,0.1976050372466155
exact,pre_advance,DELTA_SA,no_revision,ar,2006:Q1,0.22225097588053042,0.41985601312714593
exact,pre_advance,DELTA_SA,no_revision,ar,2006:Q2,0.1338214718146227,0.5536774849417686
exact,pre_advance,DELTA_SA,no_revision,ar,2006:Q3,0.2655324769569707,0.8192099618987393
exact,pre_advance,DELTA_SA,no_revision,ar,2006:Q4,-1.1280810824986391,-0.30887112059989985
exact,pre_advance,DELTA_SA,no_revision,ar,2007:Q1,0.36488258133290913,0.05601146073300928
exact,pre_advance,DELTA_SA,no_revision,ar,2007:Q2,-0.2101220628635298,-0.15411060213052052
exact,pre_advance,DELTA_SA,no_revision,ar,2007:Q3,0.5038879623481906,0.34977736021767003
exact,pre_advance,DELTA_SA,no_revision,ar,2007:Q4,-0.23194641324995732,0.11783094696771271
exact,pre_advance,DELTA_SA,no_revision,ar,2008:Q1,0.06565748592115798,0.18348843288887068
exact,pre_advance,DELTA_SA,no_revision,ar,2008:Q2,0.7051418869943866,0.8886303198832572
exact,pre_advance,DELTA_SA,no_revision,ar,2008:Q3,-0.8839041046210189,0.004726215262238376
exact,pre_advance,DELTA_SA,no_revision,ar,2008:Q4,-0.39399862829546173,-0.38927241303322335
exact,pre_advance,DELTA_SA,no_revision,ar,2009:Q1,-1.3203689037955737,-1.709641316828797
exact,pre_advance,DELTA_SA,no_revision,ar,2009:Q2,-0.36877932291984866,-2.0784206397486455
exact,pre_advance,DELTA_SA,no_revision,ar,2009:Q3,-0.31974831955083616,-2.3981689592994817
exact,pre_advance,DELTA_SA,no_revision,ar,2009:Q4,-0.2461874095178597,-2.6443563688173413
exact,pre_advance,DELTA_SA,no_revision,ar,2010:Q1,-0.012274663642203441,-2.656631032459545
exact,pre_advance,DELTA_SA,no_revision,ar,2010:Q2,0.10097637669884518,-2.5556546557606996
exact,pre_advance,DELTA_SA,no_revision,ar,2010:Q3,-0.41001530272678194,-2.9656699584874815
exact,pre_advance,DELTA_SA,no_revision,ar,2010:Q4,-0.33708017745408314,-3.3027501359415647
exact,pre_advance,DELTA_SA,no_revision,ar,2011:Q1,-0.05273638935335863,-3.3554865252949235
exact,pre_advance,DELTA_SA,no_revision,ar,2011:Q2,-0.0864949621817803,-3.4419814874767036
exact,pre_advance,DELTA_SA,no_revision,ar,2011:Q3,0.03822954602021156,-3.403751941456492
exact,pre_advance,DELTA_SA,no_revision,ar,2011:Q4,-0.1042486389810256,-3.5080005804375176
exact,pre_advance,DELTA_SA,no_revision,ar,2012:Q1,-0.12270345028699549,-3.6307040307245133
exact,pre_advance,DELTA_SA,no_revision,ar,2012:Q2,-0.05124300972150874,-3.681947040446022
exact,pre_advance,DELTA_SA,no_revision,ar,2012:Q3,0.19803121584843814,-3.483915824597584
exact,pre_advance,DELTA_SA,no_revision,ar,2012:Q4,0.06160444841889918,-3.4223113761786847
exact,pre_advance,DELTA_SA,no_revision,ar,2013:Q1,-0.13839352919058448,-3.560704905369269
exact,pre_advance,DELTA_SA,no_revision,ar,2013:Q2,-0.010665904843470964,-3.5713708102127404
exact,pre_advance,DELTA_SA,no_revision,ar,2013:Q3,0.49085393179229264,-3.0805168784204477
exact,pre_advance,DELTA_SA,no_revision,ar,2013:Q4,-0.8147882022650561,-3.895305080685504
exact,pre_advance,DELTA_SA,no_revision,ar,2014:Q1,0.6728261778290336,-3.22247890285647
exact,pre_advance,DELTA_SA,no_revision,ar,2014:Q2,-0.3153905835886226,-3.537869486445093
exact,pre_advance,DELTA_SA,no_revision,ar,2014:Q3,0.05736992828325174,-3.480499558161841
exact,pre_advance,DELTA_SA,no_revision,ar,2014:Q4,-0.18045818425062124,-3.6609577424124624
exact,pre_advance,DELTA_SA,no_revision,ar,2015:Q1,0.30424364925329495,-3.3567140931591677
exact,pre_advance,DELTA_SA,no_revision,ar,2015:Q2,-1.0249249122593762,-4.381639005418544
exact,pre_advance,DELTA_SA,no_revision,ar,2015:Q3,0.3345827492334456,-4.0470562561850985
exact,pre_advance,DELTA_SA,no_revision,ar,2015:Q4,0.09676443992777004,-3.9502918162573284
exact,pre_advance,DELTA_SA,no_revision,ar,2016:Q1,0.09029065158363185,-3.8600011646736965
exact,pre_advance,DELTA_SA,no_revision,ar,2016:Q2,-0.1360297525459644,-3.996030917219661
exact,pre_advance,DELTA_SA,no_revision,ar,2016:Q3,0.021175007572158712,-3.974855909647502
exact,pre_advance,DELTA_SA,no_revision,ar,2016:Q4,-0.02734587565242416,-4.002201785299926
exact,pre_advance,DELTA_SA,no_revision,ar,2017:Q1,0.056295362083760514,-3.945906423216165
exact,pre_advance,DELTA_SA,no_revision,ar,2017:Q2,0.1998229027002102,-3.746083520515955
exact,pre_advance,DELTA_SA,no_revision,ar,2017:Q3,0.09239460605426397,-3.653688914461691
exact,pre_advance,DELTA_SA,no_revision,ar,2017:Q4,-0.035699658663772574,-3.6893885731254636
exact,pre_advance,DELTA_SA,no_revision,ar,2018:Q1,-0.012703611098869368,-3.702092184224333
exact,pre_advance,DELTA_SA,no_revision,ar,2018:Q2,-0.0030213569949030655,-3.705113541219236
exact,pre_advance,DELTA_SA,no_revision,ar,2018:Q3,-0.0032310710133240618,-3.70834461223256
exact,pre_advance,DELTA_SA,no_revision,ar,2019:Q1,-0.3134694480182471,-4.021814060250807
exact,pre_advance,DELTA_SA,no_revision,ar,2019:Q2,0.00020861065790184213,-4.021605449592905
exact,pre_advance,DELTA_SA,no_revision,ar,2019:Q3,0.020795440927072837,-4.000810008665832
exact,pre_advance,DELTA_SA,no_revision,ar,2019:Q4,-0.022807340587339162,-4.023617349253171
exact,pre_advance,DELTA_SA,no_revision,ar,2020:Q1,-0.04374626691208146,-4.067363616165252
exact,pre_advance,DELTA_SA,no_revision,ar,2020:Q2,0.4848885887598303,-3.582475027405422
exact,pre_advance,DELTA_SA,no_revision,ar,2020:Q3,-6.6030936783793335,-10.185568705784755
exact,pre_advance,DELTA_SA,no_revision,ar,2020:Q4,-0.3494364241901803,-10.535005129974936
exact,pre_advance,DELTA_SA,no_revision,ar,2021:Q1,-0.010481372036795358,-10.54548650201173
exact,pre_advance,DELTA_SA,no_revision,ar,2021:Q2,-0.005674643654305938,-10.551161145666036
exact,pre_advance,DELTA_SA,no_revision,ar,2021:Q3,0.00428446848418562,-10.546876677181851
exact,pre_advance,DELTA_SA,no_revision,ar,2021:Q4,0.009636975615624089,-10.537239701566227
exact,pre_advance,DELTA_SA,no_revision,ar,2022:Q1,-0.05376352283472801,-10.591003224400955
exact,pre_advance,DELTA_SA,no_revision,ar,2022:Q2,0.01747374549873487,-10.57352947890222
exact,pre_advance,DELTA_SA,no_revision,ar,2022:Q3,0.038912176234116996,-10.534617302668103
exact,pre_advance,DELTA_SA,no_revision,ar,2022:Q4,-0.058622083054108,-10.59323938572221
exact,pre_advance,DELTA_SA,no_revision,ar,2023:Q1,0.02740533844308022,-10.56583404727913
exact,pre_advance,DELTA_SA,no_revision,ar,2023:Q2,-0.06172819389498699,-10.627562241174118
exact,pre_advance,DELTA_SA,no_revision,ar,2023:Q3,0.03194758936873526,-10.595614651805382
exact,pre_advance,DELTA_SA,no_revision,ar,2023:Q4,-0.03690159867203891,-10.63251625047742
exact,pre_advance,DELTA_SA,no_revision,ar,2024:Q1,-0.07155817897030346,-10.704074429447724
exact,pre_advance,DELTA_SA,no_revision,ar,2024:Q2,0.009033581491366181,-10.695040847956358
exact,pre_advance,DELTA_SA,no_revision,ar,2024:Q3,-0.00727617350536104,-10.702317021461718
exact,pre_advance,DELTA_SA,no_revision,ar,2024:Q4,0.008788760628669104,-10.69352826083305
exact,pre_advance,DELTA_SA,no_revision,bridge,2005:Q1,0.13872897581163213,0.13872897581163213
exact,pre_advance,DELTA_SA,no_revision,bridge,2005:Q2,-0.10469290694489651,0.034036068866735616
exact,pre_advance,DELTA_SA,no_revision,bridge,2005:Q3,-0.15040667599317942,-0.1163706071264438
exact,pre_advance,DELTA_SA,no_revision,bridge,2005:Q4,0.1762057909010389,0.05983518377459511
exact,pre_advance,DELTA_SA,no_revision,bridge,2006:Q1,0.17380909119599736,0.23364427497059248
exact,pre_advance,DELTA_SA,no_revision,bridge,2006:Q2,-0.0033041605851341083,0.23034011438545837
exact,pre_advance,DELTA_SA,no_revision,bridge,2006:Q3,0.20124103131955867,0.43158114570501704
exact,pre_advance,DELTA_SA,no_revision,bridge,2006:Q4,-0.782501891643536,-0.35092074593851896
exact,pre_advance,DELTA_SA,no_revision,bridge,2007:Q1,0.35705855019610977,0.0061378042575908065
exact,pre_advance,DELTA_SA,no_revision,bridge,2007:Q2,-0.14115574401889486,-0.13501793976130405
exact,pre_advance,DELTA_SA,no_revision,bridge,2007:Q3,0.5636917032429613,0.4286737634816572
exact,pre_advance,DELTA_SA,no_revision,bridge,2007:Q4,-0.244144269819372,0.1845294936622852
exact,pre_advance,DELTA_SA,no_revision,bridge,2008:Q1,0.06131288781719704,0.24584238147948223
exact,pre_advance,DELTA_SA,no_revision,bridge,2008:Q2,0.13073477563098468,0.3765771571104669
exact,pre_advance,DELTA_SA,no_revision,bridge,2008:Q3,-0.2648840595619838,0.11169309754848311
exact,pre_advance,DELTA_SA,no_revision,bridge,2008:Q4,3.5566140690402865,3.66830716658877
exact,pre_advance,DELTA_SA,no_revision,bridge,2009:Q1,-7.419249105638873,-3.7509419390501035
exact,pre_advance,DELTA_SA,no_revision,bridge,2009:Q2,-0.24196561609657893,-3.9929075551466826
exact,pre_advance,DELTA_SA,no_revision,bridge,2009:Q3,-0.3879792115458931,-4.3808867666925755
exact,pre_advance,DELTA_SA,no_revision,bridge,2009:Q4,-0.28105586070264893,-4.6619426273952245
exact,pre_advance,DELTA_SA,no_revision,bridge,2010:Q1,-0.10094736583874375,-4.762889993233968
exact,pre_advance,DELTA_SA,no_revision,bridge,2010:Q2,0.0073939228196185924,-4.75549607041435
exact,pre_advance,DELTA_SA,no_revision,bridge,2010:Q3,-0.31509313295305513,-5.070589203367405
exact,pre_advance,DELTA_SA,no_revision,bridge,2010:Q4,-0.9034792141083648,-5.974068417475769
exact,pre_advance,DELTA_SA,no_revision,bridge,2011:Q1,-0.045895162760471446,-6.019963580236241
exact,pre_advance,DELTA_SA,no_revision,bridge,2011:Q2,-0.19151317974943005,-6.211476759985671
exact,pre_advance,DELTA_SA,no_revision,bridge,2011:Q3,-0.08325527853528197,-6.294732038520953
exact,pre_advance,DELTA_SA,no_revision,bridge,2011:Q4,-0.0413702189655959,-6.336102257486549
exact,pre_advance,DELTA_SA,no_revision,bridge,2012:Q1,-0.15859116333028828,-6.494693420816837
exact,pre_advance,DELTA_SA,no_revision,bridge,2012:Q2,-0.10006699182705994,-6.594760412643897
exact,pre_advance,DELTA_SA,no_revision,bridge,2012:Q3,0.20580628537110726,-6.38895412727279
exact,pre_advance,DELTA_SA,no_revision,bridge,2012:Q4,0.06587583351807778,-6.323078293754712
exact,pre_advance,DELTA_SA,no_revision,bridge,2013:Q1,-0.05173132842255527,-6.374809622177267
exact,pre_advance,DELTA_SA,no_revision,bridge,2013:Q2,0.014831071369016402,-6.3599785508082505
exact,pre_advance,DELTA_SA,no_revision,bridge,2013:Q3,0.42564500797830773,-5.934333542829942
exact,pre_advance,DELTA_SA,no_revision,bridge,2013:Q4,-1.2631483242591597,-7.1974818670891025
exact,pre_advance,DELTA_SA,no_revision,bridge,2014:Q1,0.7569160071134233,-6.440565859975679
exact,pre_advance,DELTA_SA,no_revision,bridge,2014:Q2,-0.15264110705323486,-6.593206967028914
exact,pre_advance,DELTA_SA,no_revision,bridge,2014:Q3,0.07832510899577891,-6.514881858033135
exact,pre_advance,DELTA_SA,no_revision,bridge,2014:Q4,-0.13705782032158967,-6.651939678354725
exact,pre_advance,DELTA_SA,no_revision,bridge,2015:Q1,0.4014697767237323,-6.250469901630993
exact,pre_advance,DELTA_SA,no_revision,bridge,2015:Q2,-0.4979232940191831,-6.748393195650176
exact,pre_advance,DELTA_SA,no_revision,bridge,2015:Q3,0.3409963676186283,-6.407396828031548
exact,pre_advance,DELTA_SA,no_revision,bridge,2015:Q4,0.0972279872791933,-6.310168840752354
exact,pre_advance,DELTA_SA,no_revision,bridge,2016:Q1,0.061597284036761374,-6.248571556715593
exact,pre_advance,DELTA_SA,no_revision,bridge,2016:Q2,-0.1430101697151514,-6.391581726430744
exact,pre_advance,DELTA_SA,no_revision,bridge,2016:Q3,0.02978637603817374,-6.361795350392571
exact,pre_advance,DELTA_SA,no_revision,bridge,2016:Q4,-0.02833064064415666,-6.390125991036728
exact,pre_advance,DELTA_SA,no_revision,bridge,2017:Q1,0.06242395788596877,-6.327702033150759
exact,pre_advance,DELTA_SA,no_revision,bridge,2017:Q2,0.17471543567711162,-6.152986597473648
exact,pre_advance,DELTA_SA,no_revision,bridge,2017:Q3,0.09391708258736975,-6.059069514886278
exact,pre_advance,DELTA_SA,no_revision,bridge,2017:Q4,-0.048232055356594986,-6.107301570242873
exact,pre_advance,DELTA_SA,no_revision,bridge,2018:Q1,-0.01372913737517556,-6.121030707618049
exact,pre_advance,DELTA_SA,no_revision,bridge,2018:Q2,0.021574368172287754,-6.099456339445761
exact,pre_advance,DELTA_SA,no_revision,bridge,2018:Q3,-0.006093663891220615,-6.105550003336982
exact,pre_advance,DELTA_SA,no_revision,bridge,2019:Q1,-0.6157461141295999,-6.721296117466582
exact,pre_advance,DELTA_SA,no_revision,bridge,2019:Q2,-0.004527295201637802,-6.72582341266822
exact,pre_advance,DELTA_SA,no_revision,bridge,2019:Q3,0.036136605743878635,-6.689686806924341
exact,pre_advance,DELTA_SA,no_revision,bridge,2019:Q4,-0.06731099954726356,-6.756997806471604
exact,pre_advance,DELTA_SA,no_revision,bridge,2020:Q1,0.0006398140758079179,-6.756357992395796
exact,pre_advance,DELTA_SA,no_revision,bridge,2020:Q2,-2.609151252294237,-9.365509244690033
exact,pre_advance,DELTA_SA,no_revision,bridge,2020:Q3,-5.185446373028794,-14.550955617718827
exact,pre_advance,DELTA_SA,no_revision,bridge,2020:Q4,0.0005276107390586081,-14.550428006979768
exact,pre_advance,DELTA_SA,no_revision,bridge,2021:Q1,-0.02384443223007639,-14.574272439209844
exact,pre_advance,DELTA_SA,no_revision,bridge,2021:Q2,-0.04144876016875458,-14.6157211993786
exact,pre_advance,DELTA_SA,no_revision,bridge,2021:Q3,0.007579934344672402,-14.608141265033927
exact,pre_advance,DELTA_SA,no_revision,bridge,2021:Q4,0.007746608209400742,-14.600394656824527
exact,pre_advance,DELTA_SA,no_revision,bridge,2022:Q1,-0.08791868219042155,-14.688313339014949
exact,pre_advance,DELTA_SA,no_revision,bridge,2022:Q2,6.444244692915824e-05,-14.68824889656802
exact,pre_advance,DELTA_SA,no_revision,bridge,2022:Q3,0.04802032621000486,-14.640228570358016
exact,pre_advance,DELTA_SA,no_revision,bridge,2022:Q4,-0.13264085899734385,-14.77286942935536
exact,pre_advance,DELTA_SA,no_revision,bridge,2023:Q1,0.03013095915636522,-14.742738470198995
exact,pre_advance,DELTA_SA,no_revision,bridge,2023:Q2,-0.27456811467170655,-15.017306584870703
exact,pre_advance,DELTA_SA,no_revision,bridge,2023:Q3,0.0028127103554888427,-15.014493874515214
exact,pre_advance,DELTA_SA,no_revision,bridge,2023:Q4,-0.09179889922938826,-15.106292773744602
exact,pre_advance,DELTA_SA,no_revision,bridge,2024:Q1,0.011523780206793927,-15.094768993537809
exact,pre_advance,DELTA_SA,no_revision,bridge,2024:Q2,-0.03186592763183746,-15.126634921169646
exact,pre_advance,DELTA_SA,no_revision,bridge,2024:Q3,-0.005197255911792052,-15.131832177081439
exact,pre_advance,DELTA_SA,no_revision,bridge,2024:Q4,0.008645112674929342,-15.12318706440651
exact,pre_advance,DELTA_SA,no_revision,indicator_revision_only_dfm_kalman_em,2005:Q1,0.0,0.0
exact,pre_advance,DELTA_SA,no_revision,indicator_revision_only_dfm_kalman_em,2005:Q2,0.0,0.0
exact,pre_advance,DELTA_SA,no_revision,indicator_revision_only_dfm_kalman_em,2005:Q3,0.0,0.0
exact,pre_advance,DELTA_SA,no_revision,indicator_revision_only_dfm_kalman_em,2005:Q4,0.0,0.0
exact,pre_advance,DELTA_SA,no_revision,indicator_revision_only_dfm_kalman_em,2006:Q1,0.0,0.0
exact,pre_advance,DELTA_SA,no_revision,indicator_revision_only_dfm_kalman_em,2006:Q2,0.0,0.0
exact,pre_advance,DELTA_SA,no_revision,indicator_revision_only_dfm_kalman_em,2006:Q3,0.0,0.0
exact,pre_advance,DELTA_SA,no_revision,indicator_revision_only_dfm_kalman_em,2006:Q4,0.0,0.0
exact,pre_advance,DELTA_SA,no_revision,indicator_revision_only_dfm_kalman_em,2007:Q1,0.0,0.0
exact,pre_advance,DELTA_SA,no_revision,indicator_revision_only_dfm_kalman_em,2007:Q2,0.0,0.0
exact,pre_advance,DELTA_SA,no_revision,indicator_revision_only_dfm_kalman_em,2007:Q3,0.0,0.0
exact,pre_advance,DELTA_SA,no_revision,indicator_revision_only_dfm_kalman_em,2007:Q4,0.0,0.0
exact,pre_advance,DELTA_SA,no_revision,indicator_revision_only_dfm_kalman_em,2008:Q1,0.0,0.0
exact,pre_advance,DELTA_SA,no_revision,indicator_revision_only_dfm_kalman_em,2008:Q2,0.0,0.0
exact,pre_advance,DELTA_SA,no_revision,indicator_revision_only_dfm_kalman_em,2008:Q3,0.0,0.0
exact,pre_advance,DELTA_SA,no_revision,indicator_revision_only_dfm_kalman_em,2008:Q4,0.0,0.0
exact,pre_advance,DELTA_SA,no_revision,indicator_revision_only_dfm_kalman_em,2009:Q1,0.0,0.0
exact,pre_advance,DELTA_SA,no_revision,indicator_revision_only_dfm_kalman_em,2009:Q2,0.0,0.0
exact,pre_advance,DELTA_SA,no_revision,indicator_revision_only_dfm_kalman_em,2009:Q3,0.0,0.0
exact,pre_advance,DELTA_SA,no_revision,indicator_revision_only_dfm_kalman_em,2009:Q4,0.0,0.0
exact,pre_advance,DELTA_SA,no_revision,indicator_revision_only_dfm_kalman_em,2010:Q1,0.0,0.0
exact,pre_advance,DELTA_SA,no_revision,indicator_revision_only_dfm_kalman_em,2010:Q2,0.0,0.0
exact,pre_advance,DELTA_SA,no_revision,indicator_revision_only_dfm_kalman_em,2010:Q3,0.0,0.0
exact,pre_advance,DELTA_SA,no_revision,indicator_revision_only_dfm_kalman_em,2010:Q4,0.0,0.0
exact,pre_advance,DELTA_SA,no_revision,indicator_revision_only_dfm_kalman_em,2011:Q1,0.0,0.0
exact,pre_advance,DELTA_SA,no_revision,indicator_revision_only_dfm_kalman_em,2011:Q2,0.0,0.0
exact,pre_advance,DELTA_SA,no_revision,indicator_revision_only_dfm_kalman_em,2011:Q3,0.0,0.0
exact,pre_advance,DELTA_SA,no_revision,indicator_revision_only_dfm_kalman_em,2011:Q4,0.0,0.0
exact,pre_advance,DELTA_SA,no_revision,indicator_revision_only_dfm_kalman_em,2012:Q1,0.0,0.0
exact,pre_advance,DELTA_SA,no_revision,indicator_revision_only_dfm_kalman_em,2012:Q2,0.0,0.0
exact,pre_advance,DELTA_SA,no_revision,indicator_revision_only_dfm_kalman_em,2012:Q3,0.0,0.0
exact,pre_advance,DELTA_SA,no_revision,indicator_revision_only_dfm_kalman_em,2012:Q4,0.0,0.0
exact,pre_advance,DELTA_SA,no_revision,indicator_revision_only_dfm_kalman_em,2013:Q1,0.0,0.0
exact,pre_advance,DELTA_SA,no_revision,indicator_revision_only_dfm_kalman_em,2013:Q2,0.0,0.0
exact,pre_advance,DELTA_SA,no_revision,indicator_revision_only_dfm_kalman_em,2013:Q3,0.0,0.0
exact,pre_advance,DELTA_SA,no_revision,indicator_revision_only_dfm_kalman_em,2013:Q4,0.0,0.0
exact,pre_advance,DELTA_SA,no_revision,indicator_revision_only_dfm_kalman_em,2014:Q1,0.0,0.0
exact,pre_advance,DELTA_SA,no_revision,indicator_revision_only_dfm_kalman_em,2014:Q2,0.0,0.0
exact,pre_advance,DELTA_SA,no_revision,indicator_revision_only_dfm_kalman_em,2014:Q3,0.0,0.0
exact,pre_advance,DELTA_SA,no_revision,indicator_revision_only_dfm_kalman_em,2014:Q4,0.0,0.0
exact,pre_advance,DELTA_SA,no_revision,indicator_revision_only_dfm_kalman_em,2015:Q1,0.0,0.0
exact,pre_advance,DELTA_SA,no_revision,indicator_revision_only_dfm_kalman_em,2015:Q2,0.0,0.0
exact,pre_advance,DELTA_SA,no_revision,indicator_revision_only_dfm_kalman_em,2015:Q3,0.0,0.0
exact,pre_advance,DELTA_SA,no_revision,indicator_revision_only_dfm_kalman_em,2015:Q4,0.0,0.0
exact,pre_advance,DELTA_SA,no_revision,indicator_revision_only_dfm_kalman_em,2016:Q1,0.0,0.0
exact,pre_advance,DELTA_SA,no_revision,indicator_revision_only_dfm_kalman_em,2016:Q2,0.0,0.0
exact,pre_advance,DELTA_SA,no_revision,indicator_revision_only_dfm_kalman_em,2016:Q3,0.0,0.0
exact,pre_advance,DELTA_SA,no_revision,indicator_revision_only_dfm_kalman_em,2016:Q4,0.0,0.0
exact,pre_advance,DELTA_SA,no_revision,indicator_revision_only_dfm_kalman_em,2017:Q1,0.0,0.0
exact,pre_advance,DELTA_SA,no_revision,indicator_revision_only_dfm_kalman_em,2017:Q2,0.0,0.0
exact,pre_advance,DELTA_SA,no_revision,indicator_revision_only_dfm_kalman_em,2017:Q3,0.0,0.0
exact,pre_advance,DELTA_SA,no_revision,indicator_revision_only_dfm_kalman_em,2017:Q4,0.0,0.0
exact,pre_advance,DELTA_SA,no_revision,indicator_revision_only_dfm_kalman_em,2018:Q1,0.0,0.0
exact,pre_advance,DELTA_SA,no_revision,indicator_revision_only_dfm_kalman_em,2018:Q2,0.0,0.0
exact,pre_advance,DELTA_SA,no_revision,indicator_revision_only_dfm_kalman_em,2018:Q3,0.0,0.0
exact,pre_advance,DELTA_SA,no_revision,indicator_revision_only_dfm_kalman_em,2019:Q1,0.0,0.0
exact,pre_advance,DELTA_SA,no_revision,indicator_revision_only_dfm_kalman_em,2019:Q2,0.0,0.0
exact,pre_advance,DELTA_SA,no_revision,indicator_revision_only_dfm_kalman_em,2019:Q3,0.0,0.0
exact,pre_advance,DELTA_SA,no_revision,indicator_revision_only_dfm_kalman_em,2019:Q4,0.0,0.0
exact,pre_advance,DELTA_SA,no_revision,indicator_revision_only_dfm_kalman_em,2020:Q1,0.0,0.0
exact,pre_advance,DELTA_SA,no_revision,indicator_revision_only_dfm_kalman_em,2020:Q2,0.0,0.0
exact,pre_advance,DELTA_SA,no_revision,indicator_revision_only_dfm_kalman_em,2020:Q3,0.0,0.0
exact,pre_advance,DELTA_SA,no_revision,indicator_revision_only_dfm_kalman_em,2020:Q4,0.0,0.0
exact,pre_advance,DELTA_SA,no_revision,indicator_revision_only_dfm_kalman_em,2021:Q1,0.0,0.0
exact,pre_advance,DELTA_SA,no_revision,indicator_revision_only_dfm_kalman_em,2021:Q2,0.0,0.0
exact,pre_advance,DELTA_SA,no_revision,indicator_revision_only_dfm_kalman_em,2021:Q3,0.0,0.0
exact,pre_advance,DELTA_SA,no_revision,indicator_revision_only_dfm_kalman_em,2021:Q4,0.0,0.0
exact,pre_advance,DELTA_SA,no_revision,indicator_revision_only_dfm_kalman_em,2022:Q1,0.0,0.0
exact,pre_advance,DELTA_SA,no_revision,indicator_revision_only_dfm_kalman_em,2022:Q2,0.0,0.0
exact,pre_advance,DELTA_SA,no_revision,indicator_revision_only_dfm_kalman_em,2022:Q3,0.0,0.0
exact,pre_advance,DELTA_SA,no_revision,indicator_revision_only_dfm_kalman_em,2022:Q4,0.0,0.0
exact,pre_advance,DELTA_SA,no_revision,indicator_revision_only_dfm_kalman_em,2023:Q1,0.0,0.0
exact,pre_advance,DELTA_SA,no_revision,indicator_revision_only_dfm_kalman_em,2023:Q2,0.0,0.0
exact,pre_advance,DELTA_SA,no_revision,indicator_revision_only_dfm_kalman_em,2023:Q3,0.0,0.0
exact,pre_advance,DELTA_SA,no_revision,indicator_revision_only_dfm_kalman_em,2023:Q4,0.0,0.0
exact,pre_advance,DELTA_SA,no_revision,indicator_revision_only_dfm_kalman_em,2024:Q1,0.0,0.0
exact,pre_advance,DELTA_SA,no_revision,indicator_revision_only_dfm_kalman_em,2024:Q2,0.0,0.0
exact,pre_advance,DELTA_SA,no_revision,indicator_revision_only_dfm_kalman_em,2024:Q3,0.0,0.0
exact,pre_advance,DELTA_SA,no_revision,indicator_revision_only_dfm_kalman_em,2024:Q4,0.0,0.0
exact,pre_advance,DELTA_SA,no_revision,joint_indicator_revision_dfm_full_kalman_em,2005:Q1,0.13782029241330504,0.13782029241330504
exact,pre_advance,DELTA_SA,no_revision,joint_indicator_revision_dfm_full_kalman_em,2005:Q2,-0.1832694878971977,-0.045449195483892674
exact,pre_advance,DELTA_SA,no_revision,joint_indicator_revision_dfm_full_kalman_em,2005:Q3,0.1872211974747408,0.14177200199084813
exact,pre_advance,DELTA_SA,no_revision,joint_indicator_revision_dfm_full_kalman_em,2005:Q4,0.22063863924298038,0.3624106412338285
exact,pre_advance,DELTA_SA,no_revision,joint_indicator_revision_dfm_full_kalman_em,2006:Q1,0.2336400001892025,0.596050641423031
exact,pre_advance,DELTA_SA,no_revision,joint_indicator_revision_dfm_full_kalman_em,2006:Q2,0.1808659074142229,0.7769165488372539
exact,pre_advance,DELTA_SA,no_revision,joint_indicator_revision_dfm_full_kalman_em,2006:Q3,-0.443870443983399,0.33304610485385494
exact,pre_advance,DELTA_SA,no_revision,joint_indicator_revision_dfm_full_kalman_em,2006:Q4,0.5109827562423874,0.8440288610962423
