haminh109/Revision-Aware-DFM/outputs/full_state_space_release_revision_dfm/frozen/q1_manuscript_v1_core/runs/exact_pseudo_backtest_max_iter100/evidence_dir/cumulative_loss_point.csv
timing_mode,checkpoint_id,outcome_id,baseline_model,model_id,target_quarter,loss_diff_baseline_minus_model,cumulative_loss_diff
exact,pre_advance,A,ar,bridge,2005:Q1,0.026508366163050863,0.026508366163050863
exact,pre_advance,A,ar,bridge,2005:Q2,0.2560509148806347,0.28255928104368555
exact,pre_advance,A,ar,bridge,2005:Q3,-0.1145844705953406,0.16797481044834495
exact,pre_advance,A,ar,bridge,2005:Q4,-1.0670534169249262,-0.8990786064765812
exact,pre_advance,A,ar,bridge,2006:Q1,1.635650125619935,0.7365715191433537
exact,pre_advance,A,ar,bridge,2006:Q2,0.7676987547042062,1.50427027384756
exact,pre_advance,A,ar,bridge,2006:Q3,-0.11413741897171992,1.39013285487584
exact,pre_advance,A,ar,bridge,2006:Q4,-11.423735984280235,-10.033603129404394
exact,pre_advance,A,ar,bridge,2007:Q1,2.9288243316873825,-7.104778797717012
exact,pre_advance,A,ar,bridge,2007:Q2,-0.571880895833992,-7.676659693551004
exact,pre_advance,A,ar,bridge,2007:Q3,-4.421703232049935,-12.098362925600938
exact,pre_advance,A,ar,bridge,2007:Q4,6.981606042021606,-5.116756883579332
exact,pre_advance,A,ar,bridge,2008:Q1,-0.8428265241404629,-5.959583407719795
exact,pre_advance,A,ar,bridge,2008:Q2,-0.577590180740207,-6.537173588460002
exact,pre_advance,A,ar,bridge,2008:Q3,6.239153415743342,-0.2980201727166598
exact,pre_advance,A,ar,bridge,2008:Q4,18.935021625538596,18.637001452821934
exact,pre_advance,A,ar,bridge,2009:Q1,28.976487905078283,47.61348935790022
exact,pre_advance,A,ar,bridge,2009:Q2,-1.09729785178964,46.51619150611058
exact,pre_advance,A,ar,bridge,2009:Q3,4.302859584500106,50.819051090610685
exact,pre_advance,A,ar,bridge,2009:Q4,0.8405391500749353,51.65959024068562
exact,pre_advance,A,ar,bridge,2010:Q1,-7.902887294564819,43.7567029461208
exact,pre_advance,A,ar,bridge,2010:Q2,0.011858308232203796,43.768561254353
exact,pre_advance,A,ar,bridge,2010:Q3,0.18832454713788038,43.956885801490884
exact,pre_advance,A,ar,bridge,2010:Q4,0.2765286183734815,44.23341441986437
exact,pre_advance,A,ar,bridge,2011:Q1,-2.6235720668932383,41.60984235297113
exact,pre_advance,A,ar,bridge,2011:Q2,-1.4729019751695827,40.136940377801544
exact,pre_advance,A,ar,bridge,2011:Q3,-0.0022523077665632663,40.13468807003498
exact,pre_advance,A,ar,bridge,2011:Q4,-1.0827571627863521,39.05193090724863
exact,pre_advance,A,ar,bridge,2012:Q1,-1.0541537717065788,37.99777713554205
exact,pre_advance,A,ar,bridge,2012:Q2,-0.48417209242578196,37.51360504311627
exact,pre_advance,A,ar,bridge,2012:Q3,-0.5745739215873321,36.93903112152894
exact,pre_advance,A,ar,bridge,2012:Q4,-8.166100960885938,28.772930160643003
exact,pre_advance,A,ar,bridge,2013:Q1,0.7861555844576769,29.55908574510068
exact,pre_advance,A,ar,bridge,2013:Q2,-0.38246131422934515,29.176624430871335
exact,pre_advance,A,ar,bridge,2013:Q3,-0.46677534104159646,28.70984908982974
exact,pre_advance,A,ar,bridge,2013:Q4,-0.03976541271587547,28.670083677113862
exact,pre_advance,A,ar,bridge,2014:Q1,3.920388840588135,32.590472517702
exact,pre_advance,A,ar,bridge,2014:Q2,4.10619434075463,36.696666858456624
exact,pre_advance,A,ar,bridge,2014:Q3,-0.056094443733069724,36.64057241472355
exact,pre_advance,A,ar,bridge,2014:Q4,0.15759851648912765,36.79817093121268
exact,pre_advance,A,ar,bridge,2015:Q1,3.3836744740684477,40.18184540528113
exact,pre_advance,A,ar,bridge,2015:Q2,0.8610543008872913,41.04289970616842
exact,pre_advance,A,ar,bridge,2015:Q3,0.6136721270869124,41.656571833255335
exact,pre_advance,A,ar,bridge,2015:Q4,0.6515995292412726,42.30817136249661
exact,pre_advance,A,ar,bridge,2016:Q1,0.7787481652209838,43.08691952771759
exact,pre_advance,A,ar,bridge,2016:Q2,0.05979701929442681,43.14671654701202
exact,pre_advance,A,ar,bridge,2016:Q3,0.36377552260716206,43.51049206961918
exact,pre_advance,A,ar,bridge,2016:Q4,-0.7375381686773931,42.772953900941786
exact,pre_advance,A,ar,bridge,2017:Q1,-0.6640699525926914,42.108883948349096
exact,pre_advance,A,ar,bridge,2017:Q2,-0.12694577975501653,41.98193816859408
exact,pre_advance,A,ar,bridge,2017:Q3,-0.3142545493377593,41.667683619256316
exact,pre_advance,A,ar,bridge,2017:Q4,-1.1500300216843709,40.51765359757194
exact,pre_advance,A,ar,bridge,2018:Q1,-0.8594179119067495,39.6582356856652
exact,pre_advance,A,ar,bridge,2018:Q2,0.39498998888680337,40.053225674552
exact,pre_advance,A,ar,bridge,2018:Q3,-0.14385888757446905,39.909366786977536
exact,pre_advance,A,ar,bridge,2018:Q4,0.09068553162124561,40.00005231859878
exact,pre_advance,A,ar,bridge,2019:Q1,-0.10760998024848467,39.8924423383503
exact,pre_advance,A,ar,bridge,2019:Q2,0.6089661755654483,40.50140851391575
exact,pre_advance,A,ar,bridge,2019:Q3,-0.33271829282384147,40.16869022109191
exact,pre_advance,A,ar,bridge,2019:Q4,-0.1678155923048119,40.000874628787095
exact,pre_advance,A,ar,bridge,2020:Q1,9.102458446038142,49.10333307482524
exact,pre_advance,A,ar,bridge,2020:Q2,532.6153717534214,581.7187048282467
exact,pre_advance,A,ar,bridge,2020:Q3,1642.8717471955658,2224.5904520238128
exact,pre_advance,A,ar,bridge,2020:Q4,-25.236584640080753,2199.353867383732
exact,pre_advance,A,ar,bridge,2021:Q1,12.991205256378658,2212.3450726401106
exact,pre_advance,A,ar,bridge,2021:Q2,15.009953845689985,2227.3550264858004
exact,pre_advance,A,ar,bridge,2021:Q3,-0.30513387574141126,2227.049892610059
exact,pre_advance,A,ar,bridge,2021:Q4,-0.541655458264021,2226.508237151795
exact,pre_advance,A,ar,bridge,2022:Q1,-27.2405600181471,2199.2676771336482
exact,pre_advance,A,ar,bridge,2022:Q2,2.316800833701395,2201.58447796735
exact,pre_advance,A,ar,bridge,2022:Q3,-3.065977252215903,2198.518500715134
exact,pre_advance,A,ar,bridge,2022:Q4,-18.358927656569055,2180.159573058565
exact,pre_advance,A,ar,bridge,2023:Q1,1.7468284771528175,2181.906401535718
exact,pre_advance,A,ar,bridge,2023:Q2,-1.406930289536204,2180.4994712461817
exact,pre_advance,A,ar,bridge,2023:Q3,0.36157263477534407,2180.861043880957
exact,pre_advance,A,ar,bridge,2023:Q4,-6.352938995644128,2174.5081048853126
exact,pre_advance,A,ar,bridge,2024:Q1,0.7855773239734216,2175.293682209286
exact,pre_advance,A,ar,bridge,2024:Q2,-0.6561092188970701,2174.637572990389
exact,pre_advance,A,ar,bridge,2024:Q3,-0.07053545014004434,2174.5670375402487
exact,pre_advance,A,ar,bridge,2024:Q4,-0.00044289376299851135,2174.5665946464856
exact,pre_advance,A,ar,indicator_revision_only_dfm_kalman_em,2005:Q1,-4.269589960443046,-4.269589960443046
exact,pre_advance,A,ar,indicator_revision_only_dfm_kalman_em,2005:Q2,0.18423405390385364,-4.085355906539192
exact,pre_advance,A,ar,indicator_revision_only_dfm_kalman_em,2005:Q3,-0.1620609026592893,-4.247416809198481
exact,pre_advance,A,ar,indicator_revision_only_dfm_kalman_em,2005:Q4,-21.144103542868322,-25.391520352066802
exact,pre_advance,A,ar,indicator_revision_only_dfm_kalman_em,2006:Q1,8.410206250881137,-16.981314101185667
exact,pre_advance,A,ar,indicator_revision_only_dfm_kalman_em,2006:Q2,-4.617594272280619,-21.598908373466287
exact,pre_advance,A,ar,indicator_revision_only_dfm_kalman_em,2006:Q3,-0.5133872087428137,-22.1122955822091
exact,pre_advance,A,ar,indicator_revision_only_dfm_kalman_em,2006:Q4,-15.429078843221866,-37.541374425430966
exact,pre_advance,A,ar,indicator_revision_only_dfm_kalman_em,2007:Q1,2.379066536836044,-35.162307888594924
exact,pre_advance,A,ar,indicator_revision_only_dfm_kalman_em,2007:Q2,-1.7191448130809874,-36.88145270167591
exact,pre_advance,A,ar,indicator_revision_only_dfm_kalman_em,2007:Q3,-30.476934394382592,-67.35838709605851
exact,pre_advance,A,ar,indicator_revision_only_dfm_kalman_em,2007:Q4,2.065313854953753,-65.29307324110475
exact,pre_advance,A,ar,indicator_revision_only_dfm_kalman_em,2008:Q1,-5.822702664341513,-71.11577590544627
exact,pre_advance,A,ar,indicator_revision_only_dfm_kalman_em,2008:Q2,-0.2542071146343799,-71.36998302008065
exact,pre_advance,A,ar,indicator_revision_only_dfm_kalman_em,2008:Q3,0.8397397569059928,-70.53024326317465
exact,pre_advance,A,ar,indicator_revision_only_dfm_kalman_em,2008:Q4,-8.366422223774467,-78.89666548694912
exact,pre_advance,A,ar,indicator_revision_only_dfm_kalman_em,2009:Q1,8.646177402136903,-70.25048808481222
exact,pre_advance,A,ar,indicator_revision_only_dfm_kalman_em,2009:Q2,0.5406204055055992,-69.70986767930663
exact,pre_advance,A,ar,indicator_revision_only_dfm_kalman_em,2009:Q3,2.7064063339096283,-67.003461345397
exact,pre_advance,A,ar,indicator_revision_only_dfm_kalman_em,2009:Q4,-6.346645150816755,-73.35010649621375
exact,pre_advance,A,ar,indicator_revision_only_dfm_kalman_em,2010:Q1,-7.805242145505891,-81.15534864171964
exact,pre_advance,A,ar,indicator_revision_only_dfm_kalman_em,2010:Q2,-3.6478932294745103,-84.80324187119415
exact,pre_advance,A,ar,indicator_revision_only_dfm_kalman_em,2010:Q3,0.14761407834677398,-84.65562779284737
exact,pre_advance,A,ar,indicator_revision_only_dfm_kalman_em,2010:Q4,0.6864768997487558,-83.96915089309861
exact,pre_advance,A,ar,indicator_revision_only_dfm_kalman_em,2011:Q1,-20.609702915293266,-104.57885380839188
exact,pre_advance,A,ar,indicator_revision_only_dfm_kalman_em,2011:Q2,0.3550997250830216,-104.22375408330886
exact,pre_advance,A,ar,indicator_revision_only_dfm_kalman_em,2011:Q3,-1.0681343233403242,-105.29188840664919
exact,pre_advance,A,ar,indicator_revision_only_dfm_kalman_em,2011:Q4,-3.089572092694428,-108.38146049934362
exact,pre_advance,A,ar,indicator_revision_only_dfm_kalman_em,2012:Q1,-4.7961247552536435,-113.17758525459726
exact,pre_advance,A,ar,indicator_revision_only_dfm_kalman_em,2012:Q2,-0.5528648243603509,-113.73045007895762
exact,pre_advance,A,ar,indicator_revision_only_dfm_kalman_em,2012:Q3,-0.16297545321517876,-113.8934255321728
exact,pre_advance,A,ar,indicator_revision_only_dfm_kalman_em,2012:Q4,-12.739518893963895,-126.63294442613669
exact,pre_advance,A,ar,indicator_revision_only_dfm_kalman_em,2013:Q1,1.106977542505658,-125.52596688363103
exact,pre_advance,A,ar,indicator_revision_only_dfm_kalman_em,2013:Q2,-0.024496910019469853,-125.5504637936505
exact,pre_advance,A,ar,indicator_revision_only_dfm_kalman_em,2013:Q3,0.2643158891833369,-125.28614790446716
exact,pre_advance,A,ar,indicator_revision_only_dfm_kalman_em,2013:Q4,-1.651932142032908,-126.93808004650006
exact,pre_advance,A,ar,indicator_revision_only_dfm_kalman_em,2014:Q1,3.380831538827546,-123.55724850767251
exact,pre_advance,A,ar,indicator_revision_only_dfm_kalman_em,2014:Q2,6.205881156482761,-117.35136735118975
exact,pre_advance,A,ar,indicator_revision_only_dfm_kalman_em,2014:Q3,-0.12010722354221794,-117.47147457473197
exact,pre_advance,A,ar,indicator_revision_only_dfm_kalman_em,2014:Q4,-0.0045439275725395745,-117.47601850230451
exact,pre_advance,A,ar,indicator_revision_only_dfm_kalman_em,2015:Q1,5.026785616868183,-112.44923288543633
exact,pre_advance,A,ar,indicator_revision_only_dfm_kalman_em,2015:Q2,0.4813875143050863,-111.96784537113125
exact,pre_advance,A,ar,indicator_revision_only_dfm_kalman_em,2015:Q3,-1.4873831928781343,-113.45522856400939
exact,pre_advance,A,ar,indicator_revision_only_dfm_kalman_em,2015:Q4,0.6455760892227564,-112.80965247478663
exact,pre_advance,A,ar,indicator_revision_only_dfm_kalman_em,2016:Q1,-0.8709486099743555,-113.68060108476098
exact,pre_advance,A,ar,indicator_revision_only_dfm_kalman_em,2016:Q2,-0.6658665994156943,-114.34646768417667
exact,pre_advance,A,ar,indicator_revision_only_dfm_kalman_em,2016:Q3,1.055623626795725,-113.29084405738095
exact,pre_advance,A,ar,indicator_revision_only_dfm_kalman_em,2016:Q4,-2.6065596084623497,-115.8974036658433
exact,pre_advance,A,ar,indicator_revision_only_dfm_kalman_em,2017:Q1,-2.9991231206428632,-118.89652678648616
exact,pre_advance,A,ar,indicator_revision_only_dfm_kalman_em,2017:Q2,0.45296287027450555,-118.44356391621166
exact,pre_advance,A,ar,indicator_revision_only_dfm_kalman_em,2017:Q3,-1.193922941369347,-119.63748685758101
exact,pre_advance,A,ar,indicator_revision_only_dfm_kalman_em,2017:Q4,-7.784206234980535,-127.42169309256154
exact,pre_advance,A,ar,indicator_revision_only_dfm_kalman_em,2018:Q1,-0.6957011193646834,-128.1173942119262
exact,pre_advance,A,ar,indicator_revision_only_dfm_kalman_em,2018:Q2,1.0529898605542614,-127.06440435137195
exact,pre_advance,A,ar,indicator_revision_only_dfm_kalman_em,2018:Q3,0.008066950650364078,-127.05633740072159
exact,pre_advance,A,ar,indicator_revision_only_dfm_kalman_em,2018:Q4,0.16863022186992974,-126.88770717885166
exact,pre_advance,A,ar,indicator_revision_only_dfm_kalman_em,2019:Q1,-2.486532933155689,-129.37424011200736
exact,pre_advance,A,ar,indicator_revision_only_dfm_kalman_em,2019:Q2,0.3469127455144158,-129.02732736649295
exact,pre_advance,A,ar,indicator_revision_only_dfm_kalman_em,2019:Q3,-0.2876649420182191,-129.31499230851117
exact,pre_advance,A,ar,indicator_revision_only_dfm_kalman_em,2019:Q4,-0.1845507675459897,-129.49954307605717
exact,pre_advance,A,ar,indicator_revision_only_dfm_kalman_em,2020:Q1,32.897380727944935,-96.60216234811223
exact,pre_advance,A,ar,indicator_revision_only_dfm_kalman_em,2020:Q2,957.4923144309727,860.8901520828605
exact,pre_advance,A,ar,indicator_revision_only_dfm_kalman_em,2020:Q3,2229.8164960330105,3090.706648115871
exact,pre_advance,A,ar,indicator_revision_only_dfm_kalman_em,2020:Q4,-10.272607441684364,3080.4340406741867
exact,pre_advance,A,ar,indicator_revision_only_dfm_kalman_em,2021:Q1,9.500641348613147,3089.9346820227997
exact,pre_advance,A,ar,indicator_revision_only_dfm_kalman_em,2021:Q2,6.461705348345715,3096.3963873711455
exact,pre_advance,A,ar,indicator_revision_only_dfm_kalman_em,2021:Q3,-5.3307932618091405,3091.0655941093364
exact,pre_advance,A,ar,indicator_revision_only_dfm_kalman_em,2021:Q4,13.574264753507261,3104.6398588628435
exact,pre_advance,A,ar,indicator_revision_only_dfm_kalman_em,2022:Q1,-33.254873324817915,3071.384985538026
exact,pre_advance,A,ar,indicator_revision_only_dfm_kalman_em,2022:Q2,-9.594240725147541,3061.790744812878
exact,pre_advance,A,ar,indicator_revision_only_dfm_kalman_em,2022:Q3,-0.002596141347526823,3061.7881486715305
exact,pre_advance,A,ar,indicator_revision_only_dfm_kalman_em,2022:Q4,-1.2399082621138875,3060.5482404094164
exact,pre_advance,A,ar,indicator_revision_only_dfm_kalman_em,2023:Q1,0.24831570328352104,3060.7965561127
exact,pre_advance,A,ar,indicator_revision_only_dfm_kalman_em,2023:Q2,-0.2698655356747315,3060.526690577025
exact,pre_advance,A,ar,indicator_revision_only_dfm_kalman_em,2023:Q3,-2.189879438043536,3058.3368111389814
exact,pre_advance,A,ar,indicator_revision_only_dfm_kalman_em,2023:Q4,-0.19839707967273024,3058.1384140593086
exact,pre_advance,A,ar,indicator_revision_only_dfm_kalman_em,2024:Q1,0.866167931501082,3059.0045819908096
exact,pre_advance,A,ar,indicator_revision_only_dfm_kalman_em,2024:Q2,-1.1835138245434347,3057.8210681662663
exact,pre_advance,A,ar,indicator_revision_only_dfm_kalman_em,2024:Q3,-0.21886124952368816,3057.6022069167425
exact,pre_advance,A,ar,indicator_revision_only_dfm_kalman_em,2024:Q4,-0.07499084385591478,3057.5272160728864
exact,pre_advance,A,ar,joint_indicator_revision_dfm_full_kalman_em,2005:Q1,-2.772998239900519,-2.772998239900519
exact,pre_advance,A,ar,joint_indicator_revision_dfm_full_kalman_em,2005:Q2,0.2415456903010888,-2.5314525495994302
exact,pre_advance,A,ar,joint_indicator_revision_dfm_full_kalman_em,2005:Q3,0.3231607242143044,-2.2082918253851256
exact,pre_advance,A,ar,joint_indicator_revision_dfm_full_kalman_em,2005:Q4,-16.439871282090657,-18.64816310747578
exact,pre_advance,A,ar,joint_indicator_revision_dfm_full_kalman_em,2006:Q1,7.83214422355227,-10.816018883923512
exact,pre_advance,A,ar,joint_indicator_revision_dfm_full_kalman_em,2006:Q2,-1.542973549413336,-12.358992433336848
exact,pre_advance,A,ar,joint_indicator_revision_dfm_full_kalman_em,2006:Q3,0.6945997891002049,-11.664392644236642
exact,pre_advance,A,ar,joint_indicator_revision_dfm_full_kalman_em,2006:Q4,-14.298904682909697,-25.96329732714634
exact,pre_advance,A,ar,joint_indicator_revision_dfm_full_kalman_em,2007:Q1,-0.4865323397746799,-26.44982966692102
exact,pre_advance,A,ar,joint_indicator_revision_dfm_full_kalman_em,2007:Q2,-2.025960587341496,-28.475790254262513
exact,pre_advance,A,ar,joint_indicator_revision_dfm_full_kalman_em,2007:Q3,-3.198431921939223,-31.674222176201738
exact,pre_advance,A,ar,joint_indicator_revision_dfm_full_kalman_em,2007:Q4,3.2421070959044562,-28.432115080297283
exact,pre_advance,A,ar,joint_indicator_revision_dfm_full_kalman_em,2008:Q1,-4.461477480046627,-32.89359256034391
exact,pre_advance,A,ar,joint_indicator_revision_dfm_full_kalman_em,2008:Q2,-0.3479257627535031,-33.24151832309742
exact,pre_advance,A,ar,joint_indicator_revision_dfm_full_kalman_em,2008:Q3,1.329518554086822,-31.911999769010595
exact,pre_advance,A,ar,joint_indicator_revision_dfm_full_kalman_em,2008:Q4,0.9249769427165866,-30.98702282629401
exact,pre_advance,A,ar,joint_indicator_revision_dfm_full_kalman_em,2009:Q1,8.099714311026815,-22.887308515267193
exact,pre_advance,A,ar,joint_indicator_revision_dfm_full_kalman_em,2009:Q2,0.6903811608121153,-22.196927354455077
exact,pre_advance,A,ar,joint_indicator_revision_dfm_full_kalman_em,2009:Q3,5.584996420366318,-16.61193093408876
exact,pre_advance,A,ar,joint_indicator_revision_dfm_full_kalman_em,2009:Q4,-7.466160957832258,-24.07809189192102
exact,pre_advance,A,ar,joint_indicator_revision_dfm_full_kalman_em,2010:Q1,-5.890242430049409,-29.968334321970428
exact,pre_advance,A,ar,joint_indicator_revision_dfm_full_kalman_em,2010:Q2,-3.77674872888602,-33.74508305085645
exact,pre_advance,A,ar,joint_indicator_revision_dfm_full_kalman_em,2010:Q3,0.15609156610420874,-33.58899148475224
exact,pre_advance,A,ar,joint_indicator_revision_dfm_full_kalman_em,2010:Q4,0.520402000710341,-33.0685894840419
exact,pre_advance,A,ar,joint_indicator_revision_dfm_full_kalman_em,2011:Q1,-17.989698316079185,-51.058287800121086
exact,pre_advance,A,ar,joint_indicator_revision_dfm_full_kalman_em,2011:Q2,0.5419215585492518,-50.51636624157183
exact,pre_advance,A,ar,joint_indicator_revision_dfm_full_kalman_em,2011:Q3,-0.4165298159456831,-50.93289605751751
exact,pre_advance,A,ar,joint_indicator_revision_dfm_full_kalman_em,2011:Q4,-2.0506347512925673,-52.98353080881008
exact,pre_advance,A,ar,joint_indicator_revision_dfm_full_kalman_em,2012:Q1,-3.6604236806906925,-56.64395448950077
exact,pre_advance,A,ar,joint_indicator_revision_dfm_full_kalman_em,2012:Q2,-0.06331228090255892,-56.70726677040333
exact,pre_advance,A,ar,joint_indicator_revision_dfm_full_kalman_em,2012:Q3,-0.054994584922586534,-56.76226135532592
exact,pre_advance,A,ar,joint_indicator_revision_dfm_full_kalman_em,2012:Q4,-9.881454823463834,-66.64371617878976
exact,pre_advance,A,ar,joint_indicator_revision_dfm_full_kalman_em,2013:Q1,1.5737405002155174,-65.06997567857424
exact,pre_advance,A,ar,joint_indicator_revision_dfm_full_kalman_em,2013:Q2,0.03906665063159076,-65.03090902794264
exact,pre_advance,A,ar,joint_indicator_revision_dfm_full_kalman_em,2013:Q3,0.5025027663400264,-64.52840626160261
exact,pre_advance,A,ar,joint_indicator_revision_dfm_full_kalman_em,2013:Q4,-0.6929408084924911,-65.2213470700951
exact,pre_advance,A,ar,joint_indicator_revision_dfm_full_kalman_em,2014:Q1,2.8017184377544506,-62.419628632340654
exact,pre_advance,A,ar,joint_indicator_revision_dfm_full_kalman_em,2014:Q2,6.804297926578104,-55.61533070576255
exact,pre_advance,A,ar,joint_indicator_revision_dfm_full_kalman_em,2014:Q3,-0.3135410469209855,-55.92887175268354
exact,pre_advance,A,ar,joint_indicator_revision_dfm_full_kalman_em,2014:Q4,0.09446496057054722,-55.83440679211299
exact,pre_advance,A,ar,joint_indicator_revision_dfm_full_kalman_em,2015:Q1,4.641990805950731,-51.19241598616226
exact,pre_advance,A,ar,joint_indicator_revision_dfm_full_kalman_em,2015:Q2,0.7219518554934911,-50.470464130668766
exact,pre_advance,A,ar,joint_indicator_revision_dfm_full_kalman_em,2015:Q3,-0.8933296925402654,-51.36379382320903
exact,pre_advance,A,ar,joint_indicator_revision_dfm_full_kalman_em,2015:Q4,0.8762230842600521,-50.487570738948975
exact,pre_advance,A,ar,joint_indicator_revision_dfm_full_kalman_em,2016:Q1,-0.4650265686208064,-50.95259730756978
exact,pre_advance,A,ar,joint_indicator_revision_dfm_full_kalman_em,2016:Q2,-0.3179705442066707,-51.270567851776455
exact,pre_advance,A,ar,joint_indicator_revision_dfm_full_kalman_em,2016:Q3,0.9447379744856913,-50.325829877290765
exact,pre_advance,A,ar,joint_indicator_revision_dfm_full_kalman_em,2016:Q4,-1.7557393304100684,-52.08156920770083
exact,pre_advance,A,ar,joint_indicator_revision_dfm_full_kalman_em,2017:Q1,-2.0951829065175027,-54.17675211421833
exact,pre_advance,A,ar,joint_indicator_revision_dfm_full_kalman_em,2017:Q2,0.7998521044838883,-53.37690000973444
exact,pre_advance,A,ar,joint_indicator_revision_dfm_full_kalman_em,2017:Q3,-1.4792257301430158,-54.856125739877456
exact,pre_advance,A,ar,joint_indicator_revision_dfm_full_kalman_em,2017:Q4,-5.395245544326772,-60.251371284204225
exact,pre_advance,A,ar,joint_indicator_revision_dfm_full_kalman_em,2018:Q1,-0.3614663740810958,-60.61283765828532
exact,pre_advance,A,ar,joint_indicator_revision_dfm_full_kalman_em,2018:Q2,0.6586121149601971,-59.95422554332512
exact,pre_advance,A,ar,joint_indicator_revision_dfm_full_kalman_em,2018:Q3,-0.045400736010661136,-59.999626279335786
exact,pre_advance,A,ar,joint_indicator_revision_dfm_full_kalman_em,2018:Q4,0.16486391390373933,-59.83476236543205
exact,pre_advance,A,ar,joint_indicator_revision_dfm_full_kalman_em,2019:Q1,-2.298477622539137,-62.13323998797119
exact,pre_advance,A,ar,joint_indicator_revision_dfm_full_kalman_em,2019:Q2,0.37336537387389335,-61.75987461409729
exact,pre_advance,A,ar,joint_indicator_revision_dfm_full_kalman_em,2019:Q3,-0.16015471222092867,-61.92002932631822
exact,pre_advance,A,ar,joint_indicator_revision_dfm_full_kalman_em,2019:Q4,-0.23286287867124195,-62.15289220498946
exact,pre_advance,A,ar,joint_indicator_revision_dfm_full_kalman_em,2020:Q1,32.271093891220076,-29.881798313769387
exact,pre_advance,A,ar,joint_indicator_revision_dfm_full_kalman_em,2020:Q2,966.9270372793126,937.0452389655431
exact,pre_advance,A,ar,joint_indicator_revision_dfm_full_kalman_em,2020:Q3,2136.25742239921,3073.3026613647535
exact,pre_advance,A,ar,joint_indicator_revision_dfm_full_kalman_em,2020:Q4,-14.71368706917778,3058.5889742955756
exact,pre_advance,A,ar,joint_indicator_revision_dfm_full_kalman_em,2021:Q1,2.12962240973288,3060.7185967053083
exact,pre_advance,A,ar,joint_indicator_revision_dfm_full_kalman_em,2021:Q2,5.779223566930099,3066.497820272238
exact,pre_advance,A,ar,joint_indicator_revision_dfm_full_kalman_em,2021:Q3,-5.692492652737082,3060.805327619501
exact,pre_advance,A,ar,joint_indicator_revision_dfm_full_kalman_em,2021:Q4,13.076389566818698,3073.8817171863197
exact,pre_advance,A,ar,joint_indicator_revision_dfm_full_kalman_em,2022:Q1,-25.669712899379654,3048.21200428694
exact,pre_advance,A,ar,joint_indicator_revision_dfm_full_kalman_em,2022:Q2,-10.391225839634112,3037.820778447306
exact,pre_advance,A,ar,joint_indicator_revision_dfm_full_kalman_em,2022:Q3,0.0481956407277256,3037.8689740880336
exact,pre_advance,A,ar,joint_indicator_revision_dfm_full_kalman_em,2022:Q4,-1.0527940184394304,3036.8161800695943
exact,pre_advance,A,ar,joint_indicator_revision_dfm_full_kalman_em,2023:Q1,0.6702292138215229,3037.486409283416
exact,pre_advance,A,ar,joint_indicator_revision_dfm_full_kalman_em,2023:Q2,-0.0621434282762338,3037.4242658551398
exact,pre_advance,A,ar,joint_indicator_revision_dfm_full_kalman_em,2023:Q3,-2.6265653351197598,3034.79770052002
exact,pre_advance,A,ar,joint_indicator_revision_dfm_full_kalman_em,2023:Q4,-1.2043031562584208,3033.5933973637616
exact,pre_advance,A,ar,joint_indicator_revision_dfm_full_kalman_em,2024:Q1,0.8645472266006651,3034.4579445903623
exact,pre_advance,A,ar,joint_indicator_revision_dfm_full_kalman_em,2024:Q2,-1.3565359049482508,3033.1014086854143
exact,pre_advance,A,ar,joint_indicator_revision_dfm_full_kalman_em,2024:Q3,-0.5972729689805238,3032.5041357164337
exact,pre_advance,A,ar,joint_indicator_revision_dfm_full_kalman_em,2024:Q4,-0.014194965792827502,3032.489940750641
exact,pre_advance,A,ar,midas_umidas,2005:Q1,-187.61991516685706,-187.61991516685706
exact,pre_advance,A,ar,midas_umidas,2005:Q2,-221.4071400207663,-409.0270551876233
exact,pre_advance,A,ar,midas_umidas,2005:Q3,-286.14988720392984,-695.1769423915532
exact,pre_advance,A,ar,midas_umidas,2005:Q4,-121.10249273577598,-816.2794351273292
exact,pre_advance,A,ar,midas_umidas,2006:Q1,-416.6870798619977,-1232.966514989327
exact,pre_advance,A,ar,midas_umidas,2006:Q2,-219.9009566134752,-1452.8674716028022
exact,pre_advance,A,ar,midas_umidas,2006:Q3,-16.762423352694537,-1469.6298949554966
exact,pre_advance,A,ar,midas_umidas,2006:Q4,-19.79785816021212,-1489.4277531157088
exact,pre_advance,A,ar,midas_umidas,2007:Q1,-18.208297323579018,-1507.6360504392878
exact,pre_advance,A,ar,midas_umidas,2007:Q2,-90.46093777982132,-1598.096988219109
exact,pre_advance,A,ar,midas_umidas,2007:Q3,-331.12591042394655,-1929.2228986430557
exact,pre_advance,A,ar,midas_umidas,2007:Q4,-28.74381121920389,-1957.9667098622597
exact,pre_advance,A,ar,midas_umidas,2008:Q1,-109.21614314993121,-2067.182853012191
exact,pre_advance,A,ar,midas_umidas,2008:Q2,-565.4112016101046,-2632.5940546222955
exact,pre_advance,A,ar,midas_umidas,2008:Q3,-58.18659707392685,-2690.7806516962223
exact,pre_advance,A,ar,midas_umidas,2008:Q4,-32.72816335872051,-2723.5088150549427
exact,pre_advance,A,ar,midas_umidas,2009:Q1,8.583597191782765,-2714.92521786316
exact,pre_advance,A,ar,midas_umidas,2009:Q2,-53.398857345170725,-2768.3240752083307
exact,pre_advance,A,ar,midas_umidas,2009:Q3,-303.9722662119711,-3072.296341420302
exact,pre_advance,A,ar,midas_umidas,2009:Q4,-64.51058242084478,-3136.8069238411467
exact,pre_advance,A,ar,midas_umidas,2010:Q1,0.5983576798366713,-3136.20856616131
exact,pre_advance,A,ar,midas_umidas,2010:Q2,-15.990555884641354,-3152.1991220459513
exact,pre_advance,A,ar,midas_umidas,2010:Q3,-307.65469542037425,-3459.8538174663254
exact,pre_advance,A,ar,midas_umidas,2010:Q4,-38.15978341148763,-3498.013600877813
exact,pre_advance,A,ar,midas_umidas,2011:Q1,-92.03290211789393,-3590.046502995707
exact,pre_advance,A,ar,midas_umidas,2011:Q2,-306.0219822893376,-3896.068485285045
exact,pre_advance,A,ar,midas_umidas,2011:Q3,-32.87401376613379,-3928.942499051179
exact,pre_advance,A,ar,midas_umidas,2011:Q4,-371.5481785272261,-4300.490677578405
exact,pre_advance,A,ar,midas_umidas,2012:Q1,-122.74567380909892,-4423.236351387503
exact,pre_advance,A,ar,midas_umidas,2012:Q2,-29.887974226324037,-4453.124325613828
exact,pre_advance,A,ar,midas_umidas,2012:Q3,-25.052584811400553,-4478.176910425228
exact,pre_advance,A,ar,midas_umidas,2012:Q4,-236.93183359302026,-4715.108744018248
exact,pre_advance,A,ar,midas_umidas,2013:Q1,-289.46108812634054,-5004.569832144589
exact,pre_advance,A,ar,midas_umidas,2013:Q2,-166.0040906633504,-5170.573922807939
exact,pre_advance,A,ar,midas_umidas,2013:Q3,-133.94421055689682,-5304.518133364836
exact,pre_advance,A,ar,midas_umidas,2013:Q4,0.18443708284159316,-5304.333696281995
exact,pre_advance,A,ar,midas_umidas,2014:Q1,-24.411049418002115,-5328.744745699997
exact,pre_advance,A,ar,midas_umidas,2014:Q2,-6.90491544809671,-5335.649661148093
exact,pre_advance,A,ar,midas_umidas,2014:Q3,-128.28898106589693,-5463.9386422139905
exact,pre_advance,A,ar,midas_umidas,2014:Q4,0.023543689470504364,-5463.91509852452
exact,pre_advance,A,ar,midas_umidas,2015:Q1,-16.38452558657344,-5480.299624111093
exact,pre_advance,A,ar,midas_umidas,2015:Q2,-85.02922229388095,-5565.328846404974
exact,pre_advance,A,ar,midas_umidas,2015:Q3,-1.3449577888954591,-5566.673804193869
exact,pre_advance,A,ar,midas_umidas,2015:Q4,-43.1095889017357,-5609.783393095605
exact,pre_advance,A,ar,midas_umidas,2016:Q1,1.1201030328544062,-5608.66329006275
exact,pre_advance,A,ar,midas_umidas,2016:Q2,-0.6664911310980901,-5609.329781193848
exact,pre_advance,A,ar,midas_umidas,2016:Q3,-25.33526065431418,-5634.665041848162
exact,pre_advance,A,ar,midas_umidas,2016:Q4,-11.497059059703178,-5646.162100907865
exact,pre_advance,A,ar,midas_umidas,2017:Q1,-6.069861218333774,-5652.2319621261995
exact,pre_advance,A,ar,midas_umidas,2017:Q2,0.9452815682099753,-5651.28668055799
exact,pre_advance,A,ar,midas_umidas,2017:Q3,-0.4140412856125233,-5651.700721843602
exact,pre_advance,A,ar,midas_umidas,2017:Q4,-0.13420448164649426,-5651.8349263252485
exact,pre_advance,A,ar,midas_umidas,2018:Q1,-3.99725702453765,-5655.832183349786
exact,pre_advance,A,ar,midas_umidas,2018:Q2,-18.26889602605072,-5674.101079375837
exact,pre_advance,A,ar,midas_umidas,2018:Q3,-2.0214950694258955,-5676.122574445263
exact,pre_advance,A,ar,midas_umidas,2018:Q4,-0.8432647553048285,-5676.965839200568
exact,pre_advance,A,ar,midas_umidas,2019:Q1,-2.4406187212482653,-5679.406457921816
exact,pre_advance,A,ar,midas_umidas,2019:Q2,-0.31022506279465656,-5679.71668298461
exact,pre_advance,A,ar,midas_umidas,2019:Q3,-0.5704491640054846,-5680.2871321486155
exact,pre_advance,A,ar,midas_umidas,2019:Q4,-3.7370281645182963,-5684.0241603131335
exact,pre_advance,A,ar,midas_umidas,2020:Q1,-88.42740718616122,-5772.4515674992945
exact,pre_advance,A,ar,midas_umidas,2020:Q2,-3056.459892531503,-8828.911460030798
exact,pre_advance,A,ar,midas_umidas,2020:Q3,-1182.7855619737256,-10011.697022004524
exact,pre_advance,A,ar,midas_umidas,2020:Q4,-9.845816644277402,-10021.542838648802
exact,pre_advance,A,ar,midas_umidas,2021:Q1,-8.101390902855796,-10029.644229551657
exact,pre_advance,A,ar,midas_umidas,2021:Q2,12.942854477099061,-10016.701375074557
exact,pre_advance,A,ar,midas_umidas,2021:Q3,-36.1065026315115,-10052.80787770607
exact,pre_advance,A,ar,midas_umidas,2021:Q4,-50.13772406877304,-10102.945601774842
exact,pre_advance,A,ar,midas_umidas,2022:Q1,11.516273142385177,-10091.429328632457
exact,pre_advance,A,ar,midas_umidas,2022:Q2,-81.47208354712383,-10172.90141217958
exact,pre_advance,A,ar,midas_umidas,2022:Q3,-10.828589581410334,-10183.73000176099
exact,pre_advance,A,ar,midas_umidas,2022:Q4,-26.164088543113774,-10209.894090304104
exact,pre_advance,A,ar,midas_umidas,2023:Q1,0.9839509254703405,-10208.910139378633
exact,pre_advance,A,ar,midas_umidas,2023:Q2,-4.190128232118403,-10213.100267610751
exact,pre_advance,A,ar,midas_umidas,2023:Q3,5.646110506615628,-10207.454157104135
exact,pre_advance,A,ar,midas_umidas,2023:Q4,-0.5226186986627845,-10207.976775802797
exact,pre_advance,A,ar,midas_umidas,2024:Q1,-6.858121252587562,-10214.834897055385
exact,pre_advance,A,ar,midas_umidas,2024:Q2,-0.009088496400308982,-10214.843985551786
exact,pre_advance,A,ar,midas_umidas,2024:Q3,-3.3941584319243674,-10218.23814398371
exact,pre_advance,A,ar,midas_umidas,2024:Q4,0.053104823491227374,-10218.185039160218
exact,pre_advance,A,ar,monthly_mixed_frequency_kalman_em,2005:Q1,-0.6288423121218821,-0.6288423121218821
exact,pre_advance,A,ar,monthly_mixed_frequency_kalman_em,2005:Q2,0.26891261450176046,-0.35992969762012167
exact,pre_advance,A,ar,monthly_mixed_frequency_kalman_em,2005:Q3,-7.794127987010828,-8.15405768463095
exact,pre_advance,A,ar,monthly_mixed_frequency_kalman_em,2005:Q4,-8.073572768074847,-16.227630452705796
exact,pre_advance,A,ar,monthly_mixed_frequency_kalman_em,2006:Q1,8.401773702690777,-7.825856750015019
exact,pre_advance,A,ar,monthly_mixed_frequency_kalman_em,2006:Q2,-0.9324731253611311,-8.75832987537615
exact,pre_advance,A,ar,monthly_mixed_frequency_kalman_em,2006:Q3,0.1207451132602716,-8.637584762115878
exact,pre_advance,A,ar,monthly_mixed_frequency_kalman_em,2006:Q4,-2.027142599151608,-10.664727361267486
exact,pre_advance,A,ar,monthly_mixed_frequency_kalman_em,2007:Q1,-0.9176630942378843,-11.58239045550537
exact,pre_advance,A,ar,monthly_mixed_frequency_kalman_em,2007:Q2,1.5822158499553045,-10.000174605550066
exact,pre_advance,A,ar,monthly_mixed_frequency_kalman_em,2007:Q3,-0.23864375421601491,-10.238818359766082
exact,pre_advance,A,ar,monthly_mixed_frequency_kalman_em,2007:Q4,6.9972077823083145,-3.2416105774577675
exact,pre_advance,A,ar,monthly_mixed_frequency_kalman_em,2008:Q1,1.1522771358486812,-2.089333441609086
exact,pre_advance,A,ar,monthly_mixed_frequency_kalman_em,2008:Q2,-1.1639774673224195,-3.2533109089315055
exact,pre_advance,A,ar,monthly_mixed_frequency_kalman_em,2008:Q3,-1.5055677337436828,-4.758878642675189
exact,pre_advance,A,ar,monthly_mixed_frequency_kalman_em,2008:Q4,19.710743722747303,14.951865080072114
exact,pre_advance,A,ar,monthly_mixed_frequency_kalman_em,2009:Q1,30.0265194762076,44.978384556279714
exact,pre_advance,A,ar,monthly_mixed_frequency_kalman_em,2009:Q2,0.6234360589890982,45.601820615268814
exact,pre_advance,A,ar,monthly_mixed_frequency_kalman_em,2009:Q3,3.086867044766368,48.688687660035185
exact,pre_advance,A,ar,monthly_mixed_frequency_kalman_em,2009:Q4,0.21237966841361455,48.9010673284488
exact,pre_advance,A,ar,monthly_mixed_frequency_kalman_em,2010:Q1,0.5352653175599393,49.43633264600874
exact,pre_advance,A,ar,monthly_mixed_frequency_kalman_em,2010:Q2,-1.7295716816481603,47.70676096436058
exact,pre_advance,A,ar,monthly_mixed_frequency_kalman_em,2010:Q3,0.09466006083123485,47.80142102519182
exact,pre_advance,A,ar,monthly_mixed_frequency_kalman_em,2010:Q4,0.44368029307808343,48.2451013182699
exact,pre_advance,A,ar,monthly_mixed_frequency_kalman_em,2011:Q1,-7.568302368171684,40.67679895009822
exact,pre_advance,A,ar,monthly_mixed_frequency_kalman_em,2011:Q2,-1.890981349563177,38.78581760053504
exact,pre_advance,A,ar,monthly_mixed_frequency_kalman_em,2011:Q3,-0.014829873810393523,38.77098772672465
exact,pre_advance,A,ar,monthly_mixed_frequency_kalman_em,2011:Q4,-1.2611729857131702,37.509814741011475
exact,pre_advance,A,ar,monthly_mixed_frequency_kalman_em,2012:Q1,-2.0777658558272734,35.4320488851842
exact,pre_advance,A,ar,monthly_mixed_frequency_kalman_em,2012:Q2,-0.4197179545509675,35.01233093063323
exact,pre_advance,A,ar,monthly_mixed_frequency_kalman_em,2012:Q3,-1.1031977635477805,33.90913316708545
exact,pre_advance,A,ar,monthly_mixed_frequency_kalman_em,2012:Q4,-8.79614046082958,25.11299270625587
exact,pre_advance,A,ar,monthly_mixed_frequency_kalman_em,2013:Q1,-0.24747798821093014,24.86551471804494
exact,pre_advance,A,ar,monthly_mixed_frequency_kalman_em,2013:Q2,-0.1268695027228235,24.738645215322116
exact,pre_advance,A,ar,monthly_mixed_frequency_kalman_em,2013:Q3,0.4109198267549188,25.149565042077036
exact,pre_advance,A,ar,monthly_mixed_frequency_kalman_em,2013:Q4,-1.394448608606894,23.755116433470143
exact,pre_advance,A,ar,monthly_mixed_frequency_kalman_em,2014:Q1,-2.8570261561599697,20.898090277310175
exact,pre_advance,A,ar,monthly_mixed_frequency_kalman_em,2014:Q2,6.843953759819448,27.742044037129624
exact,pre_advance,A,ar,monthly_mixed_frequency_kalman_em,2014:Q3,-0.2640575857667892,27.477986451362835
exact,pre_advance,A,ar,monthly_mixed_frequency_kalman_em,2014:Q4,-1.0158512812492357,26.462135170113598
exact,pre_advance,A,ar,monthly_mixed_frequency_kalman_em,2015:Q1,3.8203609931585345,30.282496163272132
exact,pre_advance,A,ar,monthly_mixed_frequency_kalman_em,2015:Q2,0.7804986699477351,31.062994833219868
exact,pre_advance,A,ar,monthly_mixed_frequency_kalman_em,2015:Q3,-1.02444879439761,30.038546038822258
exact,pre_advance,A,ar,monthly_mixed_frequency_kalman_em,2015:Q4,1.4335216886513944,31.47206772747365
exact,pre_advance,A,ar,monthly_mixed_frequency_kalman_em,2016:Q1,-0.25867440285098997,31.21339332462266
exact,pre_advance,A,ar,monthly_mixed_frequency_kalman_em,2016:Q2,-1.0699976067077839,30.143395717914878
exact,pre_advance,A,ar,monthly_mixed_frequency_kalman_em,2016:Q3,0.8249229314109443,30.968318649325823
exact,pre_advance,A,ar,monthly_mixed_frequency_kalman_em,2016:Q4,0.5261608271667881,31.49447947649261
exact,pre_advance,A,ar,monthly_mixed_frequency_kalman_em,2017:Q1,-2.083995606377021,29.41048387011559
exact,pre_advance,A,ar,monthly_mixed_frequency_kalman_em,2017:Q2,0.3441489855179716,29.754632855633563
exact,pre_advance,A,ar,monthly_mixed_frequency_kalman_em,2017:Q3,-2.008519527452318,27.746113328181245
exact,pre_advance,A,ar,monthly_mixed_frequency_kalman_em,2017:Q4,-2.492492072152888,25.253621256028357
exact,pre_advance,A,ar,monthly_mixed_frequency_kalman_em,2018:Q1,-3.106957174710072,22.146664081318285
exact,pre_advance,A,ar,monthly_mixed_frequency_kalman_em,2018:Q2,1.6673867140555103,23.814050795373795
exact,pre_advance,A,ar,monthly_mixed_frequency_kalman_em,2018:Q3,-0.10174197929880616,23.712308816074987
exact,pre_advance,A,ar,monthly_mixed_frequency_kalman_em,2018:Q4,0.1293698119199165,23.841678627994902
exact,pre_advance,A,ar,monthly_mixed_frequency_kalman_em,2019:Q1,-1.8570633910968892,21.984615236898012
exact,pre_advance,A,ar,monthly_mixed_frequency_kalman_em,2019:Q2,0.5993193587548776,22.583934595652888
exact,pre_advance,A,ar,monthly_mixed_frequency_kalman_em,2019:Q3,-0.2550764428202913,22.3288581528326
exact,pre_advance,A,ar,monthly_mixed_frequency_kalman_em,2019:Q4,-0.04117626649986053,22.287681886332738
exact,pre_advance,A,ar,monthly_mixed_frequency_kalman_em,2020:Q1,31.126088554318933,53.413770440651675
exact,pre_advance,A,ar,monthly_mixed_frequency_kalman_em,2020:Q2,764.130535518178,817.5443059588297
exact,pre_advance,A,ar,monthly_mixed_frequency_kalman_em,2020:Q3,2272.933937910316,3090.478243869146
exact,pre_advance,A,ar,monthly_mixed_frequency_kalman_em,2020:Q4,-5.497079873261669,3084.9811639958843
exact,pre_advance,A,ar,monthly_mixed_frequency_kalman_em,2021:Q1,-83.2389289643146,3001.7422350315696
exact,pre_advance,A,ar,monthly_mixed_frequency_kalman_em,2021:Q2,13.771034409089596,3015.5132694406593
exact,pre_advance,A,ar,monthly_mixed_frequency_kalman_em,2021:Q3,-1.2032127342910948,3014.3100567063684
exact,pre_advance,A,ar,monthly_mixed_frequency_kalman_em,2021:Q4,8.611809123323132,3022.9218658296913
exact,pre_advance,A,ar,monthly_mixed_frequency_kalman_em,2022:Q1,-30.068045799299107,2992.8538200303924
exact,pre_advance,A,ar,monthly_mixed_frequency_kalman_em,2022:Q2,-15.275817290901747,2977.578002739491
exact,pre_advance,A,ar,monthly_mixed_frequency_kalman_em,2022:Q3,-0.6232449418194161,2976.9547577976714
exact,pre_advance,A,ar,monthly_mixed_frequency_kalman_em,2022:Q4,-1.744830068573361,2975.209927729098
exact,pre_advance,A,ar,monthly_mixed_frequency_kalman_em,2023:Q1,1.9479597751597149,2977.157887504258
exact,pre_advance,A,ar,monthly_mixed_frequency_kalman_em,2023:Q2,-0.5251208066647275,2976.632766697593
exact,pre_advance,A,ar,monthly_mixed_frequency_kalman_em,2023:Q3,0.1695491188760272,2976.802315816469
exact,pre_advance,A,ar,monthly_mixed_frequency_kalman_em,2023:Q4,-7.716598142397849,2969.0857176740715
exact,pre_advance,A,ar,monthly_mixed_frequency_kalman_em,2024:Q1,-0.193956186382942,2968.8917614876887
exact,pre_advance,A,ar,monthly_mixed_frequency_kalman_em,2024:Q2,-1.391385832673165,2967.5003756550154
exact,pre_advance,A,ar,monthly_mixed_frequency_kalman_em,2024:Q3,-1.8398290417642225,2965.6605466132514
exact,pre_advance,A,ar,monthly_mixed_frequency_kalman_em,2024:Q4,-1.0875134227014633,2964.57303319055
exact,pre_advance,A,ar,no_revision,2005:Q1,0.01829276874886654,0.01829276874886654
exact,pre_advance,A,ar,no_revision,2005:Q2,-0.010434082728868699,0.00785868601999784
exact,pre_advance,A,ar,no_revision,2005:Q3,0.04475723724217473,0.05261592326217257
exact,pre_advance,A,ar,no_revision,2005:Q4,-0.005897102113586961,0.04671882114858561
exact,pre_advance,A,ar,no_revision,2006:Q1,0.14435758559098844,0.19107640673957405
exact,pre_advance,A,ar,no_revision,2006:Q2,0.10645890996238783,0.29753531670196187
exact,pre_advance,A,ar,no_revision,2006:Q3,-0.24152679339726402,0.056008523304697855
exact,pre_advance,A,ar,no_revision,2006:Q4,-0.30824079892148304,-0.2522322756167852
exact,pre_advance,A,ar,no_revision,2007:Q1,-0.23848279984936216,-0.49071507546614734
exact,pre_advance,A,ar,no_revision,2007:Q2,0.05512019812272051,-0.43559487734342683
exact,pre_advance,A,ar,no_revision,2007:Q3,-0.19969014430791188,-0.6352850216513387
exact,pre_advance,A,ar,no_revision,2007:Q4,-0.15567398880635874,-0.7909590104576975
exact,pre_advance,A,ar,no_revision,2008:Q1,0.05559234221203191,-0.7353666682456655
exact,pre_advance,A,ar,no_revision,2008:Q2,0.004622952477093177,-0.7307437157685723
exact,pre_advance,A,ar,no_revision,2008:Q3,-0.15221627551749783,-0.8829599912860702
exact,pre_advance,A,ar,no_revision,2008:Q4,0.5818162017862143,-0.3011437894998559
exact,pre_advance,A,ar,no_revision,2009:Q1,0.45423321116048854,0.15308942166063266
exact,pre_advance,A,ar,no_revision,2009:Q2,0.013307526119774815,0.16639694778040748
exact,pre_advance,A,ar,no_revision,2009:Q3,-1.023992772227114,-0.8575958244467066
exact,pre_advance,A,ar,no_revision,2009:Q4,-1.4621885824992091,-2.3197844069459155
exact,pre_advance,A,ar,no_revision,2010:Q1,0.5154181563893694,-1.804366250556546
exact,pre_advance,A,ar,no_revision,2010:Q2,0.1815894544157976,-1.6227767961407484
exact,pre_advance,A,ar,no_revision,2010:Q3,0.02901155984276077,-1.5937652362979877
exact,pre_advance,A,ar,no_revision,2010:Q4,0.21335030884274386,-1.3804149274552437
exact,pre_advance,A,ar,no_revision,2011:Q1,-0.06757887593352563,-1.4479938033887694
exact,pre_advance,A,ar,no_revision,2011:Q2,0.0202217337142232,-1.4277720696745462
exact,pre_advance,A,ar,no_revision,2011:Q3,-0.052984459561723096,-1.4807565292362692
exact,pre_advance,A,ar,no_revision,2011:Q4,0.01895665554257433,-1.4617998736936948
exact,pre_advance,A,ar,no_revision,2012:Q1,0.02232353618393504,-1.4394763375097597
exact,pre_advance,A,ar,no_revision,2012:Q2,0.11942453052189395,-1.3200518069878657
exact,pre_advance,A,ar,no_revision,2012:Q3,0.0006349170808925357,-1.3194168899069731
exact,pre_advance,A,ar,no_revision,2012:Q4,-0.06262090931865316,-1.3820377992256263
exact,pre_advance,A,ar,no_revision,2013:Q1,-0.008932871015000954,-1.3909706702406273
exact,pre_advance,A,ar,no_revision,2013:Q2,0.06324061631598044,-1.3277300539246468
exact,pre_advance,A,ar,no_revision,2013:Q3,0.0315667756852992,-1.2961632782393475
exact,pre_advance,A,ar,no_revision,2013:Q4,-0.17688786721241778,-1.4730511454517652
exact,pre_advance,A,ar,no_revision,2014:Q1,-0.02480433967617479,-1.49785548512794
exact,pre_advance,A,ar,no_revision,2014:Q2,-0.3039643587409291,-1.801819843868869
exact,pre_advance,A,ar,no_revision,2014:Q3,-0.01009808842494786,-1.811917932293817
exact,pre_advance,A,ar,no_revision,2014:Q4,-0.053005079780955394,-1.8649230120747724
exact,pre_advance,A,ar,no_revision,2015:Q1,0.67193818782102,-1.1929848242537524
exact,pre_advance,A,ar,no_revision,2015:Q2,0.08197493566980374,-1.1110098885839488
exact,pre_advance,A,ar,no_revision,2015:Q3,-0.08264742175217066,-1.1936573103361194
exact,pre_advance,A,ar,no_revision,2015:Q4,-0.12441534043486313,-1.3180726507709826
exact,pre_advance,A,ar,no_revision,2016:Q1,0.2275952927293533,-1.0904773580416292
exact,pre_advance,A,ar,no_revision,2016:Q2,-0.0046545719231812915,-1.0951319299648103
exact,pre_advance,A,ar,no_revision,2016:Q3,-0.04584231925914617,-1.1409742492239565
exact,pre_advance,A,ar,no_revision,2016:Q4,0.10114230910276367,-1.0398319401211928
exact,pre_advance,A,ar,no_revision,2017:Q1,0.246574617300388,-0.7932573228208049
exact,pre_advance,A,ar,no_revision,2017:Q2,-0.15926574147033767,-0.9525230642911425
exact,pre_advance,A,ar,no_revision,2017:Q3,0.022454236955837703,-0.9300688273353048
exact,pre_advance,A,ar,no_revision,2017:Q4,0.004727701091471227,-0.9253411262438336
exact,pre_advance,A,ar,no_revision,2018:Q1,0.03223932073775865,-0.8931018055060749
exact,pre_advance,A,ar,no_revision,2018:Q2,-0.05012498584200742,-0.9432267913480823
exact,pre_advance,A,ar,no_revision,2018:Q3,0.0040716179457951085,-0.9391551734022872
exact,pre_advance,A,ar,no_revision,2018:Q4,0.0107967518642271,-0.92835842153806
exact,pre_advance,A,ar,no_revision,2019:Q1,-0.06475700376940074,-0.9931154253074608
exact,pre_advance,A,ar,no_revision,2019:Q2,-0.08251128198875868,-1.0756267072962196
exact,pre_advance,A,ar,no_revision,2019:Q3,-0.02873654465966108,-1.1043632519558806
exact,pre_advance,A,ar,no_revision,2019:Q4,0.0032282376299231016,-1.1011350143259575
exact,pre_advance,A,ar,no_revision,2020:Q1,-0.47755925650978526,-1.5786942708357428
exact,pre_advance,A,ar,no_revision,2020:Q2,-0.5667662532794111,-2.145460524115154
exact,pre_advance,A,ar,no_revision,2020:Q3,-57.60016029331837,-59.74562081743352
exact,pre_advance,A,ar,no_revision,2020:Q4,-40.65854856282156,-100.40416938025507
exact,pre_advance,A,ar,no_revision,2021:Q1,-27.79553131153419,-128.19970069178925
exact,pre_advance,A,ar,no_revision,2021:Q2,-24.119251842538425,-152.31895253432768
exact,pre_advance,A,ar,no_revision,2021:Q3,-0.30877510409469244,-152.62772763842236
exact,pre_advance,A,ar,no_revision,2021:Q4,3.7679008571371924,-148.85982678128516
exact,pre_advance,A,ar,no_revision,2022:Q1,-0.5234667865097897,-149.38329356779496
exact,pre_advance,A,ar,no_revision,2022:Q2,-1.9855199282110494,-151.36881349600603
exact,pre_advance,A,ar,no_revision,2022:Q3,-0.033925124700511525,-151.40273862070654
exact,pre_advance,A,ar,no_revision,2022:Q4,-0.7384306425890252,-152.14116926329558
exact,pre_advance,A,ar,no_revision,2023:Q1,0.371137610273619,-151.77003165302196
exact,pre_advance,A,ar,no_revision,2023:Q2,-0.00528125482766627,-151.77531290784964
exact,pre_advance,A,ar,no_revision,2023:Q3,-0.5551736828791194,-152.33048659072875
exact,pre_advance,A,ar,no_revision,2023:Q4,-0.20210030709286464,-152.53258689782163
exact,pre_advance,A,ar,no_revision,2024:Q1,-0.31218151521482485,-152.84476841303646
exact,pre_advance,A,ar,no_revision,2024:Q2,0.0978852185130688,-152.7468831945234
exact,pre_advance,A,ar,no_revision,2024:Q3,-0.06291573213851451,-152.80979892666193
exact,pre_advance,A,ar,no_revision,2024:Q4,0.026146771737672124,-152.78365215492425
exact,pre_advance,A,ar,release_dfm,2005:Q1,0.005557468690040569,0.005557468690040569
exact,pre_advance,A,ar,release_dfm,2005:Q2,0.17688600917079522,0.18244347786083578
exact,pre_advance,A,ar,release_dfm,2005:Q3,-0.5496284026543578,-0.36718492479352194
exact,pre_advance,A,ar,release_dfm,2005:Q4,-1.598510703674827,-1.9656956284683489
exact,pre_advance,A,ar,release_dfm,2006:Q1,5.895364834230374,3.9296692057620257
exact,pre_advance,A,ar,release_dfm,2006:Q2,0.6326591475203764,4.562328353282402
exact,pre_advance,A,ar,release_dfm,2006:Q3,-1.1815536331980458,3.3807747200843563
exact,pre_advance,A,ar,release_dfm,2006:Q4,-0.08961491202374194,3.2911598080606144
exact,pre_advance,A,ar,release_dfm,2007:Q1,2.277615211128804,5.5687750191894185
exact,pre_advance,A,ar,release_dfm,2007:Q2,1.5721987404672848,7.140973759656704
exact,pre_advance,A,ar,release_dfm,2007:Q3,-0.9325969815824826,6.208376778074221
exact,pre_advance,A,ar,release_dfm,2007:Q4,5.619451697130959,11.82782847520518
exact,pre_advance,A,ar,release_dfm,2008:Q1,0.40717775583222005,12.235006231037401
exact,pre_advance,A,ar,release_dfm,2008:Q2,-0.14854631810386085,12.08645991293354
exact,pre_advance,A,ar,release_dfm,2008:Q3,5.4603986995371985,17.54685861247074
exact,pre_advance,A,ar,release_dfm,2008:Q4,25.320902423246764,42.86776103571751
exact,pre_advance,A,ar,release_dfm,2009:Q1,26.898920136255693,69.7666811719732
exact,pre_advance,A,ar,release_dfm,2009:Q2,0.6708675600601798,70.43754873203338
exact,pre_advance,A,ar,release_dfm,2009:Q3,7.624685900987867,78.06223463302125
exact,pre_advance,A,ar,release_dfm,2009:Q4,-0.05460311648701044,78.00763151653423
exact,pre_advance,A,ar,release_dfm,2010:Q1,-1.3835107224576693,76.62412079407656
exact,pre_advance,A,ar,release_dfm,2010:Q2,-0.9692400609140532,75.65488073316251
exact,pre_advance,A,ar,release_dfm,2010:Q3,-0.16499710555444946,75.48988362760807
exact,pre_advance,A,ar,release_dfm,2010:Q4,0.42205119712596945,75.91193482473403
exact,pre_advance,A,ar,release_dfm,2011:Q1,-7.4780707692330814,68.43386405550095
exact,pre_advance,A,ar,release_dfm,2011:Q2,-1.2601790103089012,67.17368504519204
exact,pre_advance,A,ar,release_dfm,2011:Q3,0.169691482379295,67.34337652757134
exact,pre_advance,A,ar,release_dfm,2011:Q4,-0.5786066882143086,66.76476983935703
exact,pre_advance,A,ar,release_dfm,2012:Q1,-2.2457574597114895,64.51901237964555
exact,pre_advance,A,ar,release_dfm,2012:Q2,-0.29124857939303794,64.2277638002525
exact,pre_advance,A,ar,release_dfm,2012:Q3,-0.2875970641695967,63.94016673608291
exact,pre_advance,A,ar,release_dfm,2012:Q4,-7.029358035026668,56.91080870105624
exact,pre_advance,A,ar,release_dfm,2013:Q1,1.5366394988358543,58.447448199892094
exact,pre_advance,A,ar,release_dfm,2013:Q2,-0.6193290521110049,57.82811914778109
exact,pre_advance,A,ar,release_dfm,2013:Q3,0.5116495142349746,58.33976866201606
exact,pre_advance,A,ar,release_dfm,2013:Q4,0.1881211670679197,58.52788982908398
exact,pre_advance,A,ar,release_dfm,2014:Q1,2.2611836602781894,60.789073489362174
exact,pre_advance,A,ar,release_dfm,2014:Q2,6.950285300050513,67.73935878941269
exact,pre_advance,A,ar,release_dfm,2014:Q3,-0.23970610456212987,67.49965268485056
exact,pre_advance,A,ar,release_dfm,2014:Q4,0.15993158149245626,67.65958426634302
exact,pre_advance,A,ar,release_dfm,2015:Q1,3.4584411620002116,71.11802542834323
exact,pre_advance,A,ar,release_dfm,2015:Q2,0.6081887664408485,71.72621419478408
exact,pre_advance,A,ar,release_dfm,2015:Q3,-0.49388308416577154,71.2323311106183
exact,pre_advance,A,ar,release_dfm,2015:Q4,-0.19969496392135166,71.03263614669696
exact,pre_advance,A,ar,release_dfm,2016:Q1,-1.3432215168252546,69.6894146298717
exact,pre_advance,A,ar,release_dfm,2016:Q2,-0.9852587561590905,68.70415587371262
exact,pre_advance,A,ar,release_dfm,2016:Q3,0.8086089264622582,69.51276480017488
exact,pre_advance,A,ar,release_dfm,2016:Q4,-0.9426756961184087,68.57008910405646
exact,pre_advance,A,ar,release_dfm,2017:Q1,-2.1563377782168565,66.41375132583961
exact,pre_advance,A,ar,release_dfm,2017:Q2,0.8839097043219548,67.29766103016156
exact,pre_advance,A,ar,release_dfm,2017:Q3,-0.4498136888489407,66.84784734131263
exact,pre_advance,A,ar,release_dfm,2017:Q4,-1.472453224608988,65.37539411670365
exact,pre_advance,A,ar,release_dfm,2018:Q1,-1.1961916583162755,64.17920245838737
exact,pre_advance,A,ar,release_dfm,2018:Q2,0.7936938430062765,64.97289630139365
exact,pre_advance,A,ar,release_dfm,2018:Q3,-0.1781213138623781,64.79477498753127
exact,pre_advance,A,ar,release_dfm,2018:Q4,0.16398670734271426,64.95876169487398
exact,pre_advance,A,ar,release_dfm,2019:Q1,-1.3737634057761716,63.58499828909781
exact,pre_advance,A,ar,release_dfm,2019:Q2,0.5864738210399745,64.17147211013778
exact,pre_advance,A,ar,release_dfm,2019:Q3,-0.046367842978673635,64.12510426715912
exact,pre_advance,A,ar,release_dfm,2019:Q4,-0.009652078071393923,64.11545218908772
exact,pre_advance,A,ar,release_dfm,2020:Q1,20.78770088725127,84.90315307633898
exact,pre_advance,A,ar,release_dfm,2020:Q2,712.4929959502995,797.3961490266385
exact,pre_advance,A,ar,release_dfm,2020:Q3,2567.084749771238,3364.4808987978763
exact,pre_advance,A,ar,release_dfm,2020:Q4,-9.760194583218505,3354.720704214658
exact,pre_advance,A,ar,release_dfm,2021:Q1,14.717586220885224,3369.438290435543
exact,pre_advance,A,ar,release_dfm,2021:Q2,11.250739364102031,3380.689029799645
exact,pre_advance,A,ar,release_dfm,2021:Q3,-1.552906580913287,3379.136123218732
exact,pre_advance,A,ar,release_dfm,2021:Q4,14.115040173354647,3393.2511633920867
exact,pre_advance,A,ar,release_dfm,2022:Q1,-52.79943459352654,3340.45172879856
exact,pre_advance,A,ar,release_dfm,2022:Q2,-12.669399125677797,3327.782329672882
exact,pre_advance,A,ar,release_dfm,2022:Q3,0.013300193484457885,3327.7956298663667
exact,pre_advance,A,ar,release_dfm,2022:Q4,-1.3244838241014654,3326.471146042265
exact,pre_advance,A,ar,release_dfm,2023:Q1,0.6909286887191397,3327.162074730984
exact,pre_advance,A,ar,release_dfm,2023:Q2,-0.12096587289956348,3327.0411088580845
exact,pre_advance,A,ar,release_dfm,2023:Q3,-2.313832963877977,3324.7272758942067
exact,pre_advance,A,ar,release_dfm,2023:Q4,-1.707528374686477,3323.0197475195205
exact,pre_advance,A,ar,release_dfm,2024:Q1,0.4624004308907377,3323.482147950411
exact,pre_advance,A,ar,release_dfm,2024:Q2,0.1298334675859058,3323.611981417997
exact,pre_advance,A,ar,release_dfm,2024:Q3,-0.8060037928736986,3322.8059776251234
exact,pre_advance,A,ar,release_dfm,2024:Q4,0.033129491051418665,3322.839107116175
exact,pre_advance,A,ar,revision_dfm_kalman_em,2005:Q1,0.03002595689883108,0.03002595689883108
exact,pre_advance,A,ar,revision_dfm_kalman_em,2005:Q2,-0.14792461864078765,-0.11789866174195657
exact,pre_advance,A,ar,revision_dfm_kalman_em,2005:Q3,-0.8097514869432368,-0.9276501486851934
exact,pre_advance,A,ar,revision_dfm_kalman_em,2005:Q4,-4.234499435314043,-5.162149583999236
exact,pre_advance,A,ar,revision_dfm_kalman_em,2006:Q1,4.620229927289307,-0.5419196567099291
exact,pre_advance,A,ar,revision_dfm_kalman_em,2006:Q2,-0.006621299477356235,-0.5485409561872854
exact,pre_advance,A,ar,revision_dfm_kalman_em,2006:Q3,0.7573623353488064,0.208821379161521
exact,pre_advance,A,ar,revision_dfm_kalman_em,2006:Q4,-5.369373714334558,-5.160552335173037
exact,pre_advance,A,ar,revision_dfm_kalman_em,2007:Q1,-0.5844694973471003,-5.745021832520138
exact,pre_advance,A,ar,revision_dfm_kalman_em,2007:Q2,1.9213049562241418,-3.823716876295996
exact,pre_advance,A,ar,revision_dfm_kalman_em,2007:Q3,-2.3805749674508467,-6.204291843746843
exact,pre_advance,A,ar,revision_dfm_kalman_em,2007:Q4,6.899797054723191,0.6955052109763482
exact,pre_advance,A,ar,revision_dfm_kalman_em,2008:Q1,1.1776583115564223,1.8731635225327705
exact,pre_advance,A,ar,revision_dfm_kalman_em,2008:Q2,-2.5850614054444416,-0.7118978829116711
exact,pre_advance,A,ar,revision_dfm_kalman_em,2008:Q3,6.301100318888074,5.589202435976403
exact,pre_advance,A,ar,revision_dfm_kalman_em,2008:Q4,18.285978560590454,23.875180996566858
exact,pre_advance,A,ar,revision_dfm_kalman_em,2009:Q1,12.481789833202864,36.35697082976972
exact,pre_advance,A,ar,revision_dfm_kalman_em,2009:Q2,-6.509779969000583,29.84719086076914
exact,pre_advance,A,ar,revision_dfm_kalman_em,2009:Q3,5.322838398929604,35.170029259698744
exact,pre_advance,A,ar,revision_dfm_kalman_em,2009:Q4,3.7903588596991513,38.9603881193979
exact,pre_advance,A,ar,revision_dfm_kalman_em,2010:Q1,-5.509067620579952,33.45132049881795
exact,pre_advance,A,ar,revision_dfm_kalman_em,2010:Q2,-2.430303196751937,31.021017302066014
exact,pre_advance,A,ar,revision_dfm_kalman_em,2010:Q3,-0.6630764729949812,30.357940829071033
exact,pre_advance,A,ar,revision_dfm_kalman_em,2010:Q4,-0.23140058263671215,30.12654024643432
exact,pre_advance,A,ar,revision_dfm_kalman_em,2011:Q1,-10.445625599638491,19.680914646795827
exact,pre_advance,A,ar,revision_dfm_kalman_em,2011:Q2,0.34644309699150316,20.02735774378733
exact,pre_advance,A,ar,revision_dfm_kalman_em,2011:Q3,-0.4463616746070273,19.580996069180305
exact,pre_advance,A,ar,revision_dfm_kalman_em,2011:Q4,-0.6103929491468634,18.97060312003344
exact,pre_advance,A,ar,revision_dfm_kalman_em,2012:Q1,-2.486515629705406,16.484087490328037
exact,pre_advance,A,ar,revision_dfm_kalman_em,2012:Q2,0.43391004344778905,16.917997533775825
exact,pre_advance,A,ar,revision_dfm_kalman_em,2012:Q3,-0.03593921389839307,16.882058319877434
exact,pre_advance,A,ar,revision_dfm_kalman_em,2012:Q4,-5.259885100223027,11.622173219654407
exact,pre_advance,A,ar,revision_dfm_kalman_em,2013:Q1,1.7162767181297292,13.338449937784135
exact,pre_advance,A,ar,revision_dfm_kalman_em,2013:Q2,0.03259314896155907,13.371043086745695
exact,pre_advance,A,ar,revision_dfm_kalman_em,2013:Q3,0.35322260038520814,13.724265687130904
exact,pre_advance,A,ar,revision_dfm_kalman_em,2013:Q4,-0.6978202802664337,13.02644540686447
exact,pre_advance,A,ar,revision_dfm_kalman_em,2014:Q1,-0.6087976758898233,12.417647730974647
exact,pre_advance,A,ar,revision_dfm_kalman_em,2014:Q2,6.934562579004486,19.35221030997913
exact,pre_advance,A,ar,revision_dfm_kalman_em,2014:Q3,-0.4951858639788668,18.857024446000263
exact,pre_advance,A,ar,revision_dfm_kalman_em,2014:Q4,-0.1641724957566154,18.692851950243647
exact,pre_advance,A,ar,revision_dfm_kalman_em,2015:Q1,4.935409008488932,23.62826095873258
exact,pre_advance,A,ar,revision_dfm_kalman_em,2015:Q2,0.5142827322512212,24.1425436909838
exact,pre_advance,A,ar,revision_dfm_kalman_em,2015:Q3,-0.923800962027113,23.218742728956688
exact,pre_advance,A,ar,revision_dfm_kalman_em,2015:Q4,1.7355837624431185,24.954326491399804
exact,pre_advance,A,ar,revision_dfm_kalman_em,2016:Q1,0.39588798973918937,25.350214481138995
exact,pre_advance,A,ar,revision_dfm_kalman_em,2016:Q2,-0.1223403139003207,25.227874167238674
exact,pre_advance,A,ar,revision_dfm_kalman_em,2016:Q3,0.8780662951383301,26.105940462377003
exact,pre_advance,A,ar,revision_dfm_kalman_em,2016:Q4,0.13639856532261574,26.242339027699618
exact,pre_advance,A,ar,revision_dfm_kalman_em,2017:Q1,-0.9781745869326572,25.26416444076696
exact,pre_advance,A,ar,revision_dfm_kalman_em,2017:Q2,0.4847922311543304,25.74895667192129
exact,pre_advance,A,ar,revision_dfm_kalman_em,2017:Q3,-3.287452224255769,22.461504447665522
exact,pre_advance,A,ar,revision_dfm_kalman_em,2017:Q4,-6.443776174368491,16.01772827329703
exact,pre_advance,A,ar,revision_dfm_kalman_em,2018:Q1,-0.590321643090719,15.427406630206312
exact,pre_advance,A,ar,revision_dfm_kalman_em,2018:Q2,2.2269987369239788,17.65440536713029
exact,pre_advance,A,ar,revision_dfm_kalman_em,2018:Q3,-0.019763410743907348,17.634641956386385
exact,pre_advance,A,ar,revision_dfm_kalman_em,2018:Q4,0.07804180994118819,17.712683766327572
exact,pre_advance,A,ar,revision_dfm_kalman_em,2019:Q1,-2.4913916831583265,15.221292083169246
exact,pre_advance,A,ar,revision_dfm_kalman_em,2019:Q2,0.6069629769831969,15.828255060152443
exact,pre_advance,A,ar,revision_dfm_kalman_em,2019:Q3,-0.16966249151615811,15.658592568636285
exact,pre_advance,A,ar,revision_dfm_kalman_em,2019:Q4,-0.3989507760426751,15.25964179259361
exact,pre_advance,A,ar,revision_dfm_kalman_em,2020:Q1,34.97942890190552,50.239070694499134
exact,pre_advance,A,ar,revision_dfm_kalman_em,2020:Q2,855.2669162868153,905.5059869813144
exact,pre_advance,A,ar,revision_dfm_kalman_em,2020:Q3,2292.341790563793,3197.8477775451074
exact,pre_advance,A,ar,revision_dfm_kalman_em,2020:Q4,-1.6010675534344725,3196.246709991673
exact,pre_advance,A,ar,revision_dfm_kalman_em,2021:Q1,0.19240063966685916,3196.43911063134
exact,pre_advance,A,ar,revision_dfm_kalman_em,2021:Q2,9.86311106715505,3206.302221698495
exact,pre_advance,A,ar,revision_dfm_kalman_em,2021:Q3,-2.22745635614877,3204.0747653423464
exact,pre_advance,A,ar,revision_dfm_kalman_em,2021:Q4,9.396598191501488,3213.471363533848
exact,pre_advance,A,ar,revision_dfm_kalman_em,2022:Q1,-34.18016110915119,3179.2912024246966
exact,pre_advance,A,ar,revision_dfm_kalman_em,2022:Q2,-8.650660461129126,3170.6405419635676
exact,pre_advance,A,ar,revision_dfm_kalman_em,2022:Q3,-0.1471322212572992,3170.49340974231
exact,pre_advance,A,ar,revision_dfm_kalman_em,2022:Q4,-4.050600056943344,3166.4428096853667
exact,pre_advance,A,ar,revision_dfm_kalman_em,2023:Q1,0.25967323153839783,3166.702482916905
exact,pre_advance,A,ar,revision_dfm_kalman_em,2023:Q2,-0.0020163420449997786,3166.70046657486
exact,pre_advance,A,ar,revision_dfm_kalman_em,2023:Q3,0.6238945527401878,3167.3243611276002
exact,pre_advance,A,ar,revision_dfm_kalman_em,2023:Q4,-5.8077566596381445,3161.516604467962
exact,pre_advance,A,ar,revision_dfm_kalman_em,2024:Q1,0.8094933245822523,3162.3260977925443
exact,pre_advance,A,ar,revision_dfm_kalman_em,2024:Q2,-1.527671168341509,3160.798426624203
exact,pre_advance,A,ar,revision_dfm_kalman_em,2024:Q3,-1.396220902544248,3159.4022057216584
exact,pre_advance,A,ar,revision_dfm_kalman_em,2024:Q4,-0.061171663380916036,3159.3410340582777
exact,pre_advance,A,ar,spf,2005:Q1,-0.42517854575438496,-0.42517854575438496
exact,pre_advance,A,ar,spf,2005:Q2,0.08831751947213484,-0.3368610262822501
exact,pre_advance,A,ar,spf,2005:Q3,0.4507088181174133,0.11384779183516319
exact,pre_advance,A,ar,spf,2005:Q4,0.2025752765366695,0.3164230683718327
exact,pre_advance,A,ar,spf,2006:Q1,7.924225342930829,8.240648411302661
exact,pre_advance,A,ar,spf,2006:Q2,0.9735201416432564,9.214168552945917
exact,pre_advance,A,ar,spf,2006:Q3,-0.5016709430059996,8.712497609939918
exact,pre_advance,A,ar,spf,2006:Q4,0.8016502039321348,9.514147813872054
exact,pre_advance,A,ar,spf,2007:Q1,1.6502665112336372,11.16441432510569
exact,pre_advance,A,ar,spf,2007:Q2,0.9864284552164425,12.150842780322133
exact,pre_advance,A,ar,spf,2007:Q3,-0.9193476113978154,11.231495168924317
exact,pre_advance,A,ar,spf,2007:Q4,5.6967814013468345,16.92827657027115
exact,pre_advance,A,ar,spf,2008:Q1,1.204990077036036,18.133266647307188
exact,pre_advance,A,ar,spf,2008:Q2,-3.2238512984891305,14.909415348818058
exact,pre_advance,A,ar,spf,2008:Q3,3.9356302256616567,18.845045574479716
exact,pre_advance,A,ar,spf,2008:Q4,24.09859860416627,42.94364417864598
exact,pre_advance,A,ar,spf,2009:Q1,29.64231503174285,72.58595921038884
exact,pre_advance,A,ar,spf,2009:Q2,0.7444354842419123,73.33039469463075
exact,pre_advance,A,ar,spf,2009:Q3,6.413336075458125,79.74373077008887
exact,pre_advance,A,ar,spf,2009:Q4,-2.6823601235725896,77.06137064651628
exact,pre_advance,A,ar,spf,2010:Q1,0.5057329121489584,77.56710355866524
exact,pre_advance,A,ar,spf,2010:Q2,-0.6110653931217516,76.95603816554349
exact,pre_advance,A,ar,spf,2010:Q3,0.057757461558770956,77.01379562710225
exact,pre_advance,A,ar,spf,2010:Q4,-0.11279743336282044,76.90099819373944
exact,pre_advance,A,ar,spf,2011:Q1,-1.9313760280653232,74.96962216567411
exact,pre_advance,A,ar,spf,2011:Q2,-3.063146223748209,71.9064759419259
exact,pre_advance,A,ar,spf,2011:Q3,0.2947819256509671,72.20125786757687
exact,pre_advance,A,ar,spf,2011:Q4,-0.005129844824395442,72.19612802275248
exact,pre_advance,A,ar,spf,2012:Q1,0.20458547617010198,72.40071349892257
exact,pre_advance,A,ar,spf,2012:Q2,-0.018409770611496512,72.38230372831107
exact,pre_advance,A,ar,spf,2012:Q3,-0.07217463608159123,72.31012909222949
exact,pre_advance,A,ar,spf,2012:Q4,1.942029542373171,74.25215863460267
exact,pre_advance,A,ar,spf,2013:Q1,1.6946220230777251,75.94678065768039
exact,pre_advance,A,ar,spf,2013:Q2,0.6973315171270864,76.64411217480747
exact,pre_advance,A,ar,spf,2013:Q3,0.30591725775643197,76.95002943256391
exact,pre_advance,A,ar,spf,2013:Q4,-1.6325980275425858,75.31743140502132
exact,pre_advance,A,ar,spf,2014:Q1,3.9699001821393285,79.28733158716065
exact,pre_advance,A,ar,spf,2014:Q2,6.438074299007829,85.72540588616847
exact,pre_advance,A,ar,spf,2014:Q3,-0.251635163548447,85.47377072262003
exact,pre_advance,A,ar,spf,2014:Q4,0.15145887412351158,85.62522959674354
exact,pre_advance,A,ar,spf,2015:Q1,-0.5212496814951058,85.10397991524843
exact,pre_advance,A,ar,spf,2015:Q2,0.8318632025934702,85.9358431178419
exact,pre_advance,A,ar,spf,2015:Q3,-0.9288030556021227,85.00704006223978
exact,pre_advance,A,ar,spf,2015:Q4,-2.3284026900794466,82.67863737216034
exact,pre_advance,A,ar,spf,2016:Q1,-1.0743226983875476,81.60431467377279
exact,pre_advance,A,ar,spf,2016:Q2,-0.8018984522303787,80.80241622154242
exact,pre_advance,A,ar,spf,2016:Q3,1.081090054002291,81.8835062755447
exact,pre_advance,A,ar,spf,2016:Q4,0.5801221432004156,82.46362841874512
exact,pre_advance,A,ar,spf,2017:Q1,-0.40971985483717344,82.05390856390794
exact,pre_advance,A,ar,spf,2017:Q2,0.642430113382157,82.6963386772901
exact,pre_advance,A,ar,spf,2017:Q3,0.13811758081006068,82.83445625810016
exact,pre_advance,A,ar,spf,2017:Q4,0.02064702779276604,82.85510328589292
exact,pre_advance,A,ar,spf,2018:Q1,-0.5112817400069796,82.34382154588594
exact,pre_advance,A,ar,spf,2018:Q2,1.9556914179554414,84.29951296384138
exact,pre_advance,A,ar,spf,2018:Q3,-0.16830279942107848,84.1312101644203
exact,pre_advance,A,ar,spf,2018:Q4,0.16799650605565186,84.29920667047595
exact,pre_advance,A,ar,spf,2019:Q1,-2.1668629688608125,82.13234370161514
exact,pre_advance,A,ar,spf,2019:Q2,0.5770120504342601,82.7093557520494
exact,pre_advance,A,ar,spf,2019:Q3,0.12206090810372335,82.83141666015312
exact,pre_advance,A,ar,spf,2019:Q4,-0.11990346709440587,82.71151319305872
exact,pre_advance,A,ar,spf,2020:Q1,8.308627598562644,91.02014079162137
exact,pre_advance,A,ar,spf,2020:Q2,1006.5196753159297,1097.5398161075511
exact,pre_advance,A,ar,spf,2020:Q3,2578.5391004156163,3676.078916523167
exact,pre_advance,A,ar,spf,2020:Q4,0.02681258593660213,3676.105729109104
exact,pre_advance,A,ar,spf,2021:Q1,3.252762678213962,3679.3584917873177
exact,pre_advance,A,ar,spf,2021:Q2,12.68371881776786,3692.0422106050855
exact,pre_advance,A,ar,spf,2021:Q3,-22.331344034562516,3669.710866570523
exact,pre_advance,A,ar,spf,2021:Q4,15.240271989586443,3684.9511385601095
exact,pre_advance,A,ar,spf,2022:Q1,7.091401681972036,3692.0425402420815
exact,pre_advance,A,ar,spf,2022:Q2,1.1551812488577688,3693.1977214909393
exact,pre_advance,A,ar,spf,2022:Q3,-1.638800736536628,3691.5589207544026
exact,pre_advance,A,ar,spf,2022:Q4,-3.345468483020446,3688.2134522713823
exact,pre_advance,A,ar,spf,2023:Q1,1.8011756926901332,3690.0146279640726
exact,pre_advance,A,ar,spf,2023:Q2,-2.467037637592867,3687.5475903264796
exact,pre_advance,A,ar,spf,2023:Q3,-3.7624631138196234,3683.78512721266
exact,pre_advance,A,ar,spf,2023:Q4,-4.231139798306024,3679.5539874143537
exact,pre_advance,A,ar,spf,2024:Q1,0.6176035835239486,3680.1715909978775
exact,pre_advance,A,ar,spf,2024:Q2,-0.5427808169482209,3679.628810180929
exact,pre_advance,A,ar,spf,2024:Q3,-0.8072172383919204,3678.8215929425373
exact,pre_advance,A,ar,spf,2024:Q4,-0.05692555044772479,3678.7646673920895
exact,pre_advance,A,ar,standard_dfm,2005:Q1,0.005557468690040569,0.005557468690040569
exact,pre_advance,A,ar,standard_dfm,2005:Q2,0.17688600917079522,0.18244347786083578
exact,pre_advance,A,ar,standard_dfm,2005:Q3,-0.5496284026543578,-0.36718492479352194
exact,pre_advance,A,ar,standard_dfm,2005:Q4,-1.598510703674827,-1.9656956284683489
exact,pre_advance,A,ar,standard_dfm,2006:Q1,5.895364834230374,3.9296692057620257
exact,pre_advance,A,ar,standard_dfm,2006:Q2,0.6326591475203764,4.562328353282402
exact,pre_advance,A,ar,standard_dfm,2006:Q3,-1.1815536331980458,3.3807747200843563
exact,pre_advance,A,ar,standard_dfm,2006:Q4,-0.08961491202374194,3.2911598080606144
exact,pre_advance,A,ar,standard_dfm,2007:Q1,2.277615211128804,5.5687750191894185
exact,pre_advance,A,ar,standard_dfm,2007:Q2,1.5721987404672848,7.140973759656704
exact,pre_advance,A,ar,standard_dfm,2007:Q3,-0.9325969815824826,6.208376778074221
exact,pre_advance,A,ar,standard_dfm,2007:Q4,5.619451697130959,11.82782847520518
exact,pre_advance,A,ar,standard_dfm,2008:Q1,0.40717775583222005,12.235006231037401
exact,pre_advance,A,ar,standard_dfm,2008:Q2,-0.14854631810386085,12.08645991293354
exact,pre_advance,A,ar,standard_dfm,2008:Q3,5.4603986995371985,17.54685861247074
exact,pre_advance,A,ar,standard_dfm,2008:Q4,25.320902423246764,42.86776103571751
exact,pre_advance,A,ar,standard_dfm,2009:Q1,26.898920136255693,69.7666811719732
exact,pre_advance,A,ar,standard_dfm,2009:Q2,0.6708675600601798,70.43754873203338
exact,pre_advance,A,ar,standard_dfm,2009:Q3,7.624685900987867,78.06223463302125
exact,pre_advance,A,ar,standard_dfm,2009:Q4,-0.05460311648701044,78.00763151653423
exact,pre_advance,A,ar,standard_dfm,2010:Q1,-1.3835107224576693,76.62412079407656
exact,pre_advance,A,ar,standard_dfm,2010:Q2,-0.9692400609140532,75.65488073316251
exact,pre_advance,A,ar,standard_dfm,2010:Q3,-0.16499710555444946,75.48988362760807
exact,pre_advance,A,ar,standard_dfm,2010:Q4,0.42205119712596945,75.91193482473403
exact,pre_advance,A,ar,standard_dfm,2011:Q1,-7.4780707692330814,68.43386405550095
exact,pre_advance,A,ar,standard_dfm,2011:Q2,-1.2601790103089012,67.17368504519204
exact,pre_advance,A,ar,standard_dfm,2011:Q3,0.169691482379295,67.34337652757134
exact,pre_advance,A,ar,standard_dfm,2011:Q4,-0.5786066882143086,66.76476983935703
exact,pre_advance,A,ar,standard_dfm,2012:Q1,-2.2457574597114895,64.51901237964555
exact,pre_advance,A,ar,standard_dfm,2012:Q2,-0.29124857939303794,64.2277638002525
exact,pre_advance,A,ar,standard_dfm,2012:Q3,-0.2875970641695967,63.94016673608291
exact,pre_advance,A,ar,standard_dfm,2012:Q4,-7.029358035026668,56.91080870105624
exact,pre_advance,A,ar,standard_dfm,2013:Q1,1.5366394988358543,58.447448199892094
exact,pre_advance,A,ar,standard_dfm,2013:Q2,-0.6193290521110049,57.82811914778109
exact,pre_advance,A,ar,standard_dfm,2013:Q3,0.5116495142349746,58.33976866201606
exact,pre_advance,A,ar,standard_dfm,2013:Q4,0.1881211670679197,58.52788982908398
exact,pre_advance,A,ar,standard_dfm,2014:Q1,2.2611836602781894,60.789073489362174
exact,pre_advance,A,ar,standard_dfm,2014:Q2,6.950285300050513,67.73935878941269
exact,pre_advance,A,ar,standard_dfm,2014:Q3,-0.23970610456212987,67.49965268485056
exact,pre_advance,A,ar,standard_dfm,2014:Q4,0.15993158149245626,67.65958426634302
exact,pre_advance,A,ar,standard_dfm,2015:Q1,3.4584411620002116,71.11802542834323
exact,pre_advance,A,ar,standard_dfm,2015:Q2,0.6081887664408485,71.72621419478408
exact,pre_advance,A,ar,standard_dfm,2015:Q3,-0.49388308416577154,71.2323311106183
exact,pre_advance,A,ar,standard_dfm,2015:Q4,-0.19969496392135166,71.03263614669696
exact,pre_advance,A,ar,standard_dfm,2016:Q1,-1.3432215168252546,69.6894146298717
exact,pre_advance,A,ar,standard_dfm,2016:Q2,-0.9852587561590905,68.70415587371262
exact,pre_advance,A,ar,standard_dfm,2016:Q3,0.8086089264622582,69.51276480017488
exact,pre_advance,A,ar,standard_dfm,2016:Q4,-0.9426756961184087,68.57008910405646
exact,pre_advance,A,ar,standard_dfm,2017:Q1,-2.1563377782168565,66.41375132583961
exact,pre_advance,A,ar,standard_dfm,2017:Q2,0.8839097043219548,67.29766103016156
exact,pre_advance,A,ar,standard_dfm,2017:Q3,-0.4498136888489407,66.84784734131263
exact,pre_advance,A,ar,standard_dfm,2017:Q4,-1.472453224608988,65.37539411670365
exact,pre_advance,A,ar,standard_dfm,2018:Q1,-1.1961916583162755,64.17920245838737
exact,pre_advance,A,ar,standard_dfm,2018:Q2,0.7936938430062765,64.97289630139365
exact,pre_advance,A,ar,standard_dfm,2018:Q3,-0.1781213138623781,64.79477498753127
exact,pre_advance,A,ar,standard_dfm,2018:Q4,0.16398670734271426,64.95876169487398
exact,pre_advance,A,ar,standard_dfm,2019:Q1,-1.3737634057761716,63.58499828909781
exact,pre_advance,A,ar,standard_dfm,2019:Q2,0.5864738210399745,64.17147211013778
exact,pre_advance,A,ar,standard_dfm,2019:Q3,-0.046367842978673635,64.12510426715912
exact,pre_advance,A,ar,standard_dfm,2019:Q4,-0.009652078071393923,64.11545218908772
exact,pre_advance,A,ar,standard_dfm,2020:Q1,20.78770088725127,84.90315307633898
exact,pre_advance,A,ar,standard_dfm,2020:Q2,712.4929959502995,797.3961490266385
exact,pre_advance,A,ar,standard_dfm,2020:Q3,2567.084749771238,3364.4808987978763
exact,pre_advance,A,ar,standard_dfm,2020:Q4,-9.760194583218505,3354.720704214658
exact,pre_advance,A,ar,standard_dfm,2021:Q1,14.717586220885224,3369.438290435543
exact,pre_advance,A,ar,standard_dfm,2021:Q2,11.250739364102031,3380.689029799645
exact,pre_advance,A,ar,standard_dfm,2021:Q3,-1.552906580913287,3379.136123218732
exact,pre_advance,A,ar,standard_dfm,2021:Q4,14.115040173354647,3393.2511633920867
exact,pre_advance,A,ar,standard_dfm,2022:Q1,-52.79943459352654,3340.45172879856
exact,pre_advance,A,ar,standard_dfm,2022:Q2,-12.669399125677797,3327.782329672882
exact,pre_advance,A,ar,standard_dfm,2022:Q3,0.013300193484457885,3327.7956298663667
exact,pre_advance,A,ar,standard_dfm,2022:Q4,-1.3244838241014654,3326.471146042265
exact,pre_advance,A,ar,standard_dfm,2023:Q1,0.6909286887191397,3327.162074730984
exact,pre_advance,A,ar,standard_dfm,2023:Q2,-0.12096587289956348,3327.0411088580845
exact,pre_advance,A,ar,standard_dfm,2023:Q3,-2.313832963877977,3324.7272758942067
exact,pre_advance,A,ar,standard_dfm,2023:Q4,-1.707528374686477,3323.0197475195205
exact,pre_advance,A,ar,standard_dfm,2024:Q1,0.4624004308907377,3323.482147950411
exact,pre_advance,A,ar,standard_dfm,2024:Q2,0.1298334675859058,3323.611981417997
exact,pre_advance,A,ar,standard_dfm,2024:Q3,-0.8060037928736986,3322.8059776251234
exact,pre_advance,A,ar,standard_dfm,2024:Q4,0.033129491051418665,3322.839107116175
exact,pre_advance,A,no_revision,ar,2005:Q1,-0.01829276874886654,-0.01829276874886654
exact,pre_advance,A,no_revision,ar,2005:Q2,0.010434082728868699,-0.00785868601999784
exact,pre_advance,A,no_revision,ar,2005:Q3,-0.04475723724217473,-0.05261592326217257
exact,pre_advance,A,no_revision,ar,2005:Q4,0.005897102113586961,-0.04671882114858561
exact,pre_advance,A,no_revision,ar,2006:Q1,-0.14435758559098844,-0.19107640673957405
exact,pre_advance,A,no_revision,ar,2006:Q2,-0.10645890996238783,-0.29753531670196187
exact,pre_advance,A,no_revision,ar,2006:Q3,0.24152679339726402,-0.056008523304697855
exact,pre_advance,A,no_revision,ar,2006:Q4,0.30824079892148304,0.2522322756167852
exact,pre_advance,A,no_revision,ar,2007:Q1,0.23848279984936216,0.49071507546614734
exact,pre_advance,A,no_revision,ar,2007:Q2,-0.05512019812272051,0.43559487734342683
exact,pre_advance,A,no_revision,ar,2007:Q3,0.19969014430791188,0.6352850216513387
exact,pre_advance,A,no_revision,ar,2007:Q4,0.15567398880635874,0.7909590104576975
exact,pre_advance,A,no_revision,ar,2008:Q1,-0.05559234221203191,0.7353666682456655
exact,pre_advance,A,no_revision,ar,2008:Q2,-0.004622952477093177,0.7307437157685723
exact,pre_advance,A,no_revision,ar,2008:Q3,0.15221627551749783,0.8829599912860702
exact,pre_advance,A,no_revision,ar,2008:Q4,-0.5818162017862143,0.3011437894998559
exact,pre_advance,A,no_revision,ar,2009:Q1,-0.45423321116048854,-0.15308942166063266
exact,pre_advance,A,no_revision,ar,2009:Q2,-0.013307526119774815,-0.16639694778040748
exact,pre_advance,A,no_revision,ar,2009:Q3,1.023992772227114,0.8575958244467066
exact,pre_advance,A,no_revision,ar,2009:Q4,1.4621885824992091,2.3197844069459155
exact,pre_advance,A,no_revision,ar,2010:Q1,-0.5154181563893694,1.804366250556546
exact,pre_advance,A,no_revision,ar,2010:Q2,-0.1815894544157976,1.6227767961407484
exact,pre_advance,A,no_revision,ar,2010:Q3,-0.02901155984276077,1.5937652362979877
exact,pre_advance,A,no_revision,ar,2010:Q4,-0.21335030884274386,1.3804149274552437
exact,pre_advance,A,no_revision,ar,2011:Q1,0.06757887593352563,1.4479938033887694
exact,pre_advance,A,no_revision,ar,2011:Q2,-0.0202217337142232,1.4277720696745462
exact,pre_advance,A,no_revision,ar,2011:Q3,0.052984459561723096,1.4807565292362692
exact,pre_advance,A,no_revision,ar,2011:Q4,-0.01895665554257433,1.4617998736936948
exact,pre_advance,A,no_revision,ar,2012:Q1,-0.02232353618393504,1.4394763375097597
exact,pre_advance,A,no_revision,ar,2012:Q2,-0.11942453052189395,1.3200518069878657
exact,pre_advance,A,no_revision,ar,2012:Q3,-0.0006349170808925357,1.3194168899069731
exact,pre_advance,A,no_revision,ar,2012:Q4,0.06262090931865316,1.3820377992256263
exact,pre_advance,A,no_revision,ar,2013:Q1,0.008932871015000954,1.3909706702406273
exact,pre_advance,A,no_revision,ar,2013:Q2,-0.06324061631598044,1.3277300539246468
exact,pre_advance,A,no_revision,ar,2013:Q3,-0.0315667756852992,1.2961632782393475
exact,pre_advance,A,no_revision,ar,2013:Q4,0.17688786721241778,1.4730511454517652
exact,pre_advance,A,no_revision,ar,2014:Q1,0.02480433967617479,1.49785548512794
exact,pre_advance,A,no_revision,ar,2014:Q2,0.3039643587409291,1.801819843868869
exact,pre_advance,A,no_revision,ar,2014:Q3,0.01009808842494786,1.811917932293817
exact,pre_advance,A,no_revision,ar,2014:Q4,0.053005079780955394,1.8649230120747724
exact,pre_advance,A,no_revision,ar,2015:Q1,-0.67193818782102,1.1929848242537524
exact,pre_advance,A,no_revision,ar,2015:Q2,-0.08197493566980374,1.1110098885839488
exact,pre_advance,A,no_revision,ar,2015:Q3,0.08264742175217066,1.1936573103361194
exact,pre_advance,A,no_revision,ar,2015:Q4,0.12441534043486313,1.3180726507709826
exact,pre_advance,A,no_revision,ar,2016:Q1,-0.2275952927293533,1.0904773580416292
exact,pre_advance,A,no_revision,ar,2016:Q2,0.0046545719231812915,1.0951319299648103
exact,pre_advance,A,no_revision,ar,2016:Q3,0.04584231925914617,1.1409742492239565
exact,pre_advance,A,no_revision,ar,2016:Q4,-0.10114230910276367,1.0398319401211928
exact,pre_advance,A,no_revision,ar,2017:Q1,-0.246574617300388,0.7932573228208049
exact,pre_advance,A,no_revision,ar,2017:Q2,0.15926574147033767,0.9525230642911425
exact,pre_advance,A,no_revision,ar,2017:Q3,-0.022454236955837703,0.9300688273353048
exact,pre_advance,A,no_revision,ar,2017:Q4,-0.004727701091471227,0.9253411262438336
exact,pre_advance,A,no_revision,ar,2018:Q1,-0.03223932073775865,0.8931018055060749
exact,pre_advance,A,no_revision,ar,2018:Q2,0.05012498584200742,0.9432267913480823
exact,pre_advance,A,no_revision,ar,2018:Q3,-0.0040716179457951085,0.9391551734022872
exact,pre_advance,A,no_revision,ar,2018:Q4,-0.0107967518642271,0.92835842153806
exact,pre_advance,A,no_revision,ar,2019:Q1,0.06475700376940074,0.9931154253074608
exact,pre_advance,A,no_revision,ar,2019:Q2,0.08251128198875868,1.0756267072962196
exact,pre_advance,A,no_revision,ar,2019:Q3,0.02873654465966108,1.1043632519558806
exact,pre_advance,A,no_revision,ar,2019:Q4,-0.0032282376299231016,1.1011350143259575
exact,pre_advance,A,no_revision,ar,2020:Q1,0.47755925650978526,1.5786942708357428
exact,pre_advance,A,no_revision,ar,2020:Q2,0.5667662532794111,2.145460524115154
exact,pre_advance,A,no_revision,ar,2020:Q3,57.60016029331837,59.74562081743352
exact,pre_advance,A,no_revision,ar,2020:Q4,40.65854856282156,100.40416938025507
exact,pre_advance,A,no_revision,ar,2021:Q1,27.79553131153419,128.19970069178925
exact,pre_advance,A,no_revision,ar,2021:Q2,24.119251842538425,152.31895253432768
exact,pre_advance,A,no_revision,ar,2021:Q3,0.30877510409469244,152.62772763842236
exact,pre_advance,A,no_revision,ar,2021:Q4,-3.7679008571371924,148.85982678128516
exact,pre_advance,A,no_revision,ar,2022:Q1,0.5234667865097897,149.38329356779496
exact,pre_advance,A,no_revision,ar,2022:Q2,1.9855199282110494,151.36881349600603
exact,pre_advance,A,no_revision,ar,2022:Q3,0.033925124700511525,151.40273862070654
exact,pre_advance,A,no_revision,ar,2022:Q4,0.7384306425890252,152.14116926329558
exact,pre_advance,A,no_revision,ar,2023:Q1,-0.371137610273619,151.77003165302196
exact,pre_advance,A,no_revision,ar,2023:Q2,0.00528125482766627,151.77531290784964
exact,pre_advance,A,no_revision,ar,2023:Q3,0.5551736828791194,152.33048659072875
exact,pre_advance,A,no_revision,ar,2023:Q4,0.20210030709286464,152.53258689782163
exact,pre_advance,A,no_revision,ar,2024:Q1,0.31218151521482485,152.84476841303646
exact,pre_advance,A,no_revision,ar,2024:Q2,-0.0978852185130688,152.7468831945234
exact,pre_advance,A,no_revision,ar,2024:Q3,0.06291573213851451,152.80979892666193
exact,pre_advance,A,no_revision,ar,2024:Q4,-0.026146771737672124,152.78365215492425
exact,pre_advance,A,no_revision,bridge,2005:Q1,0.008215597414184327,0.008215597414184327
exact,pre_advance,A,no_revision,bridge,2005:Q2,0.2664849976095034,0.2747005950236877
exact,pre_advance,A,no_revision,bridge,2005:Q3,-0.15934170783751533,0.11535888718617238
exact,pre_advance,A,no_revision,bridge,2005:Q4,-1.0611563148113392,-0.9457974276251668
exact,pre_advance,A,no_revision,bridge,2006:Q1,1.4912925400289465,0.5454951124037797
exact,pre_advance,A,no_revision,bridge,2006:Q2,0.6612398447418184,1.206734957145598
exact,pre_advance,A,no_revision,bridge,2006:Q3,0.1273893744255441,1.3341243315711422
exact,pre_advance,A,no_revision,bridge,2006:Q4,-11.115495185358752,-9.78137085378761
exact,pre_advance,A,no_revision,bridge,2007:Q1,3.1673071315367447,-6.614063722250865
exact,pre_advance,A,no_revision,bridge,2007:Q2,-0.6270010939567126,-7.241064816207578
exact,pre_advance,A,no_revision,bridge,2007:Q3,-4.222013087742023,-11.4630779039496
exact,pre_advance,A,no_revision,bridge,2007:Q4,7.137280030827965,-4.325797873121635
exact,pre_advance,A,no_revision,bridge,2008:Q1,-0.8984188663524948,-5.22421673947413
exact,pre_advance,A,no_revision,bridge,2008:Q2,-0.5822131332173002,-5.80642987269143
exact,pre_advance,A,no_revision,bridge,2008:Q3,6.39136969126084,0.5849398185694099
exact,pre_advance,A,no_revision,bridge,2008:Q4,18.35320542375238,18.93814524232179
exact,pre_advance,A,no_revision,bridge,2009:Q1,28.522254693917795,47.46039993623958
exact,pre_advance,A,no_revision,bridge,2009:Q2,-1.1106053779094145,46.34979455833017
exact,pre_advance,A,no_revision,bridge,2009:Q3,5.32685235672722,51.67664691505739
exact,pre_advance,A,no_revision,bridge,2009:Q4,2.3027277325741444,53.97937464763153
exact,pre_advance,A,no_revision,bridge,2010:Q1,-8.418305450954188,45.561069196677344
exact,pre_advance,A,no_revision,bridge,2010:Q2,-0.1697311461835938,45.39133805049375
exact,pre_advance,A,no_revision,bridge,2010:Q3,0.1593129872951196,45.55065103778887
exact,pre_advance,A,no_revision,bridge,2010:Q4,0.06317830953073766,45.61382934731961
exact,pre_advance,A,no_revision,bridge,2011:Q1,-2.555993190959713,43.0578361563599
exact,pre_advance,A,no_revision,bridge,2011:Q2,-1.493123708883806,41.56471244747609
exact,pre_advance,A,no_revision,bridge,2011:Q3,0.05073215179515983,41.61544459927125
exact,pre_advance,A,no_revision,bridge,2011:Q4,-1.1017138183289266,40.513730780942325
exact,pre_advance,A,no_revision,bridge,2012:Q1,-1.0764773078905139,39.43725347305181
exact,pre_advance,A,no_revision,bridge,2012:Q2,-0.6035966229476759,38.833656850104134
exact,pre_advance,A,no_revision,bridge,2012:Q3,-0.5752088386682247,38.25844801143591
exact,pre_advance,A,no_revision,bridge,2012:Q4,-8.103480051567285,30.154967959868625
exact,pre_advance,A,no_revision,bridge,2013:Q1,0.7950884554726778,30.9500564153413
exact,pre_advance,A,no_revision,bridge,2013:Q2,-0.4457019305453256,30.504354484795975
exact,pre_advance,A,no_revision,bridge,2013:Q3,-0.49834211672689566,30.00601236806908
exact,pre_advance,A,no_revision,bridge,2013:Q4,0.1371224544965423,30.14313482256562
exact,pre_advance,A,no_revision,bridge,2014:Q1,3.94519318026431,34.08832800282993
exact,pre_advance,A,no_revision,bridge,2014:Q2,4.410158699495559,38.49848670232549
exact,pre_advance,A,no_revision,bridge,2014:Q3,-0.045996355308121864,38.452490347017374
exact,pre_advance,A,no_revision,bridge,2014:Q4,0.21060359627008304,38.66309394328746
exact,pre_advance,A,no_revision,bridge,2015:Q1,2.7117362862474277,41.374830229534886
exact,pre_advance,A,no_revision,bridge,2015:Q2,0.7790793652174877,42.15390959475238
exact,pre_advance,A,no_revision,bridge,2015:Q3,0.6963195488390831,42.85022914359146
exact,pre_advance,A,no_revision,bridge,2015:Q4,0.7760148696761358,43.6262440132676
exact,pre_advance,A,no_revision,bridge,2016:Q1,0.5511528724916305,44.17739688575923
exact,pre_advance,A,no_revision,bridge,2016:Q2,0.0644515912176081,44.241848476976834
exact,pre_advance,A,no_revision,bridge,2016:Q3,0.40961784186630823,44.65146631884314
exact,pre_advance,A,no_revision,bridge,2016:Q4,-0.8386804777801568,43.81278584106298
exact,pre_advance,A,no_revision,bridge,2017:Q1,-0.9106445698930794,42.9021412711699
exact,pre_advance,A,no_revision,bridge,2017:Q2,0.032319961715321144,42.934461232885226
exact,pre_advance,A,no_revision,bridge,2017:Q3,-0.336708786293597,42.59775244659163
exact,pre_advance,A,no_revision,bridge,2017:Q4,-1.154757722775842,41.44299472381579
exact,pre_advance,A,no_revision,bridge,2018:Q1,-0.8916572326445082,40.55133749117128
exact,pre_advance,A,no_revision,bridge,2018:Q2,0.4451149747288108,40.99645246590009
exact,pre_advance,A,no_revision,bridge,2018:Q3,-0.14793050552026416,40.84852196037983
exact,pre_advance,A,no_revision,bridge,2018:Q4,0.07988877975701851,40.92841074013685
exact,pre_advance,A,no_revision,bridge,2019:Q1,-0.042852976479083926,40.885557763657765
exact,pre_advance,A,no_revision,bridge,2019:Q2,0.691477457554207,41.57703522121197
exact,pre_advance,A,no_revision,bridge,2019:Q3,-0.30398174816418033,41.27305347304779
exact,pre_advance,A,no_revision,bridge,2019:Q4,-0.17104382993473502,41.10200964311306
exact,pre_advance,A,no_revision,bridge,2020:Q1,9.580017702547927,50.682027345660984
exact,pre_advance,A,no_revision,bridge,2020:Q2,533.1821380067008,583.8641653523619
exact,pre_advance,A,no_revision,bridge,2020:Q3,1700.4719074888842,2284.3360728412463
exact,pre_advance,A,no_revision,bridge,2020:Q4,15.421963922740805,2299.758036763987
exact,pre_advance,A,no_revision,bridge,2021:Q1,40.78673656791285,2340.5447733319
exact,pre_advance,A,no_revision,bridge,2021:Q2,39.12920568822841,2379.6739790201286
exact,pre_advance,A,no_revision,bridge,2021:Q3,0.0036412283532811784,2379.677620248482
exact,pre_advance,A,no_revision,bridge,2021:Q4,-4.309556315401213,2375.368063933081
exact,pre_advance,A,no_revision,bridge,2022:Q1,-26.71709323163731,2348.650970701444
exact,pre_advance,A,no_revision,bridge,2022:Q2,4.302320761912444,2352.9532914633564
exact,pre_advance,A,no_revision,bridge,2022:Q3,-3.0320521275153913,2349.921239335841
exact,pre_advance,A,no_revision,bridge,2022:Q4,-17.62049701398003,2332.300742321861
exact,pre_advance,A,no_revision,bridge,2023:Q1,1.3756908668791987,2333.6764331887402
exact,pre_advance,A,no_revision,bridge,2023:Q2,-1.4016490347085375,2332.2747841540317
exact,pre_advance,A,no_revision,bridge,2023:Q3,0.9167463176544635,2333.1915304716863
exact,pre_advance,A,no_revision,bridge,2023:Q4,-6.150838688551263,2327.040691783135
exact,pre_advance,A,no_revision,bridge,2024:Q1,1.0977588391882465,2328.1384506223235
exact,pre_advance,A,no_revision,bridge,2024:Q2,-0.7539944374101389,2327.3844561849132
exact,pre_advance,A,no_revision,bridge,2024:Q3,-0.007619718001529829,2327.3768364669118
exact,pre_advance,A,no_revision,bridge,2024:Q4,-0.026589665500670635,2327.3502468014112
exact,pre_advance,A,no_revision,indicator_revision_only_dfm_kalman_em,2005:Q1,-4.287882729191913,-4.287882729191913
exact,pre_advance,A,no_revision,indicator_revision_only_dfm_kalman_em,2005:Q2,0.19466813663272234,-4.093214592559191
exact,pre_advance,A,no_revision,indicator_revision_only_dfm_kalman_em,2005:Q3,-0.20681813990146403,-4.300032732460655
exact,pre_advance,A,no_revision,indicator_revision_only_dfm_kalman_em,2005:Q4,-21.138206440754736,-25.43823917321539
exact,pre_advance,A,no_revision,indicator_revision_only_dfm_kalman_em,2006:Q1,8.265848665290148,-17.172390507925243
exact,pre_advance,A,no_revision,indicator_revision_only_dfm_kalman_em,2006:Q2,-4.724053182243007,-21.89644369016825
exact,pre_advance,A,no_revision,indicator_revision_only_dfm_kalman_em,2006:Q3,-0.2718604153455497,-22.1683041055138
exact,pre_advance,A,no_revision,indicator_revision_only_dfm_kalman_em,2006:Q4,-15.120838044300383,-37.28914214981418
exact,pre_advance,A,no_revision,indicator_revision_only_dfm_kalman_em,2007:Q1,2.617549336685406,-34.671592813128775
exact,pre_advance,A,no_revision,indicator_revision_only_dfm_kalman_em,2007:Q2,-1.774265011203708,-36.445857824332485
exact,pre_advance,A,no_revision,indicator_revision_only_dfm_kalman_em,2007:Q3,-30.27724425007468,-66.72310207440717
exact,pre_advance,A,no_revision,indicator_revision_only_dfm_kalman_em,2007:Q4,2.2209878437601116,-64.50211423064705
exact,pre_advance,A,no_revision,indicator_revision_only_dfm_kalman_em,2008:Q1,-5.878295006553545,-70.3804092372006
exact,pre_advance,A,no_revision,indicator_revision_only_dfm_kalman_em,2008:Q2,-0.25883006711147305,-70.63923930431207
exact,pre_advance,A,no_revision,indicator_revision_only_dfm_kalman_em,2008:Q3,0.9919560324234906,-69.64728327188858
exact,pre_advance,A,no_revision,indicator_revision_only_dfm_kalman_em,2008:Q4,-8.948238425560682,-78.59552169744927
exact,pre_advance,A,no_revision,indicator_revision_only_dfm_kalman_em,2009:Q1,8.191944190976415,-70.40357750647286
exact,pre_advance,A,no_revision,indicator_revision_only_dfm_kalman_em,2009:Q2,0.5273128793858244,-69.87626462708704
exact,pre_advance,A,no_revision,indicator_revision_only_dfm_kalman_em,2009:Q3,3.7303991061367423,-66.1458655209503
exact,pre_advance,A,no_revision,indicator_revision_only_dfm_kalman_em,2009:Q4,-4.884456568317546,-71.03032208926784
exact,pre_advance,A,no_revision,indicator_revision_only_dfm_kalman_em,2010:Q1,-8.32066030189526,-79.3509823911631
exact,pre_advance,A,no_revision,indicator_revision_only_dfm_kalman_em,2010:Q2,-3.829482683890308,-83.1804650750534
exact,pre_advance,A,no_revision,indicator_revision_only_dfm_kalman_em,2010:Q3,0.1186025185040132,-83.06186255654939
exact,pre_advance,A,no_revision,indicator_revision_only_dfm_kalman_em,2010:Q4,0.47312659090601195,-82.58873596564338
exact,pre_advance,A,no_revision,indicator_revision_only_dfm_kalman_em,2011:Q1,-20.54212403935974,-103.13086000500311
exact,pre_advance,A,no_revision,indicator_revision_only_dfm_kalman_em,2011:Q2,0.3348779913687984,-102.79598201363432
exact,pre_advance,A,no_revision,indicator_revision_only_dfm_kalman_em,2011:Q3,-1.0151498637786012,-103.81113187741292
exact,pre_advance,A,no_revision,indicator_revision_only_dfm_kalman_em,2011:Q4,-3.1085287482370023,-106.91966062564993
exact,pre_advance,A,no_revision,indicator_revision_only_dfm_kalman_em,2012:Q1,-4.818448291437578,-111.7381089170875
exact,pre_advance,A,no_revision,indicator_revision_only_dfm_kalman_em,2012:Q2,-0.6722893548822448,-112.41039827196974
exact,pre_advance,A,no_revision,indicator_revision_only_dfm_kalman_em,2012:Q3,-0.16361037029607128,-112.57400864226581
exact,pre_advance,A,no_revision,indicator_revision_only_dfm_kalman_em,2012:Q4,-12.676897984645242,-125.25090662691105
exact,pre_advance,A,no_revision,indicator_revision_only_dfm_kalman_em,2013:Q1,1.115910413520659,-124.1349962133904
exact,pre_advance,A,no_revision,indicator_revision_only_dfm_kalman_em,2013:Q2,-0.08773752633545029,-124.22273373972584
exact,pre_advance,A,no_revision,indicator_revision_only_dfm_kalman_em,2013:Q3,0.23274911349803773,-123.9899846262278
exact,pre_advance,A,no_revision,indicator_revision_only_dfm_kalman_em,2013:Q4,-1.4750442748204904,-125.46502890104829
exact,pre_advance,A,no_revision,indicator_revision_only_dfm_kalman_em,2014:Q1,3.4056358785037206,-122.05939302254457
exact,pre_advance,A,no_revision,indicator_revision_only_dfm_kalman_em,2014:Q2,6.50984551522369,-115.54954750732088
exact,pre_advance,A,no_revision,indicator_revision_only_dfm_kalman_em,2014:Q3,-0.11000913511727008,-115.65955664243815
exact,pre_advance,A,no_revision,indicator_revision_only_dfm_kalman_em,2014:Q4,0.04846115220841582,-115.61109549022973
exact,pre_advance,A,no_revision,indicator_revision_only_dfm_kalman_em,2015:Q1,4.354847429047163,-111.25624806118256
exact,pre_advance,A,no_revision,indicator_revision_only_dfm_kalman_em,2015:Q2,0.39941257863528257,-110.85683548254728
exact,pre_advance,A,no_revision,indicator_revision_only_dfm_kalman_em,2015:Q3,-1.4047357711259636,-112.26157125367325
exact,pre_advance,A,no_revision,indicator_revision_only_dfm_kalman_em,2015:Q4,0.7699914296576196,-111.49157982401563
exact,pre_advance,A,no_revision,indicator_revision_only_dfm_kalman_em,2016:Q1,-1.098543902703709,-112.59012372671934
exact,pre_advance,A,no_revision,indicator_revision_only_dfm_kalman_em,2016:Q2,-0.661212027492513,-113.25133575421185
exact,pre_advance,A,no_revision,indicator_revision_only_dfm_kalman_em,2016:Q3,1.1014659460548712,-112.14986980815698
exact,pre_advance,A,no_revision,indicator_revision_only_dfm_kalman_em,2016:Q4,-2.7077019175651134,-114.8575717257221
exact,pre_advance,A,no_revision,indicator_revision_only_dfm_kalman_em,2017:Q1,-3.2456977379432512,-118.10326946366534
exact,pre_advance,A,no_revision,indicator_revision_only_dfm_kalman_em,2017:Q2,0.6122286117448432,-117.4910408519205
exact,pre_advance,A,no_revision,indicator_revision_only_dfm_kalman_em,2017:Q3,-1.2163771783251849,-118.70741803024569
exact,pre_advance,A,no_revision,indicator_revision_only_dfm_kalman_em,2017:Q4,-7.788933936072006,-126.49635196631769
exact,pre_advance,A,no_revision,indicator_revision_only_dfm_kalman_em,2018:Q1,-0.7279404401024421,-127.22429240642013
exact,pre_advance,A,no_revision,indicator_revision_only_dfm_kalman_em,2018:Q2,1.1031148463962688,-126.12117756002387
exact,pre_advance,A,no_revision,indicator_revision_only_dfm_kalman_em,2018:Q3,0.00399533270456897,-126.1171822273193
exact,pre_advance,A,no_revision,indicator_revision_only_dfm_kalman_em,2018:Q4,0.15783347000570264,-125.9593487573136
exact,pre_advance,A,no_revision,indicator_revision_only_dfm_kalman_em,2019:Q1,-2.4217759293862886,-128.3811246866999
exact,pre_advance,A,no_revision,indicator_revision_only_dfm_kalman_em,2019:Q2,0.4294240275031745,-127.95170065919673
exact,pre_advance,A,no_revision,indicator_revision_only_dfm_kalman_em,2019:Q3,-0.2589283973585581,-128.2106290565553
exact,pre_advance,A,no_revision,indicator_revision_only_dfm_kalman_em,2019:Q4,-0.1877790051759128,-128.3984080617312
exact,pre_advance,A,no_revision,indicator_revision_only_dfm_kalman_em,2020:Q1,33.37493998445473,-95.02346807727648
exact,pre_advance,A,no_revision,indicator_revision_only_dfm_kalman_em,2020:Q2,958.0590806842521,863.0356126069756
exact,pre_advance,A,no_revision,indicator_revision_only_dfm_kalman_em,2020:Q3,2287.416656326329,3150.4522689333044
exact,pre_advance,A,no_revision,indicator_revision_only_dfm_kalman_em,2020:Q4,30.385941121137193,3180.8382100544413
exact,pre_advance,A,no_revision,indicator_revision_only_dfm_kalman_em,2021:Q1,37.29617266014734,3218.134382714589
exact,pre_advance,A,no_revision,indicator_revision_only_dfm_kalman_em,2021:Q2,30.58095719088414,3248.715339905473
exact,pre_advance,A,no_revision,indicator_revision_only_dfm_kalman_em,2021:Q3,-5.022018157714448,3243.6933217477585
exact,pre_advance,A,no_revision,indicator_revision_only_dfm_kalman_em,2021:Q4,9.806363896370069,3253.4996856441285
exact,pre_advance,A,no_revision,indicator_revision_only_dfm_kalman_em,2022:Q1,-32.73140653830812,3220.7682791058205
exact,pre_advance,A,no_revision,indicator_revision_only_dfm_kalman_em,2022:Q2,-7.608720796936492,3213.1595583088842
exact,pre_advance,A,no_revision,indicator_revision_only_dfm_kalman_em,2022:Q3,0.0313289833529847,3213.190887292237
exact,pre_advance,A,no_revision,indicator_revision_only_dfm_kalman_em,2022:Q4,-0.5014776195248621,3212.6894096727124
exact,pre_advance,A,no_revision,indicator_revision_only_dfm_kalman_em,2023:Q1,-0.12282190699009798,3212.5665877657225
exact,pre_advance,A,no_revision,indicator_revision_only_dfm_kalman_em,2023:Q2,-0.2645842808470652,3212.3020034848755
exact,pre_advance,A,no_revision,indicator_revision_only_dfm_kalman_em,2023:Q3,-1.6347057551644166,3210.667297729711
exact,pre_advance,A,no_revision,indicator_revision_only_dfm_kalman_em,2023:Q4,0.003703227420134403,3210.671000957131
exact,pre_advance,A,no_revision,indicator_revision_only_dfm_kalman_em,2024:Q1,1.1783494467159068,3211.849350403847
exact,pre_advance,A,no_revision,indicator_revision_only_dfm_kalman_em,2024:Q2,-1.2813990430565034,3210.5679513607906
exact,pre_advance,A,no_revision,indicator_revision_only_dfm_kalman_em,2024:Q3,-0.15594551738517365,3210.4120058434055
exact,pre_advance,A,no_revision,indicator_revision_only_dfm_kalman_em,2024:Q4,-0.10113761559358692,3210.310868227812
exact,pre_advance,A,no_revision,joint_indicator_revision_dfm_full_kalman_em,2005:Q1,-2.7912910086493854,-2.7912910086493854
exact,pre_advance,A,no_revision,joint_indicator_revision_dfm_full_kalman_em,2005:Q2,0.2519797730299575,-2.539311235619428
exact,pre_advance,A,no_revision,joint_indicator_revision_dfm_full_kalman_em,2005:Q3,0.2784034869721297,-2.2609077486472984
exact,pre_advance,A,no_revision,joint_indicator_revision_dfm_full_kalman_em,2005:Q4,-16.43397417997707,-18.69488192862437
exact,pre_advance,A,no_revision,joint_indicator_revision_dfm_full_kalman_em,2006:Q1,7.687786637961281,-11.007095290663088
exact,pre_advance,A,no_revision,joint_indicator_revision_dfm_full_kalman_em,2006:Q2,-1.649432459375724,-12.656527750038812
exact,pre_advance,A,no_revision,joint_indicator_revision_dfm_full_kalman_em,2006:Q3,0.9361265824974689,-11.720401167541343
exact,pre_advance,A,no_revision,joint_indicator_revision_dfm_full_kalman_em,2006:Q4,-13.990663883988214,-25.71106505152956
exact,pre_advance,A,no_revision,joint_indicator_revision_dfm_full_kalman_em,2007:Q1,-0.24804953992531775,-25.959114591454878
exact,pre_advance,A,no_revision,joint_indicator_revision_dfm_full_kalman_em,2007:Q2,-2.0810807854642164,-28.040195376919094
exact,pre_advance,A,no_revision,joint_indicator_revision_dfm_full_kalman_em,2007:Q3,-2.998741777631311,-31.038937154550403
exact,pre_advance,A,no_revision,joint_indicator_revision_dfm_full_kalman_em,2007:Q4,3.397781084710815,-27.64115606983959
exact,pre_advance,A,no_revision,joint_indicator_revision_dfm_full_kalman_em,2008:Q1,-4.517069822258659,-32.158225892098244
exact,pre_advance,A,no_revision,joint_indicator_revision_dfm_full_kalman_em,2008:Q2,-0.3525487152305963,-32.51077460732884
exact,pre_advance,A,no_revision,joint_indicator_revision_dfm_full_kalman_em,2008:Q3,1.4817348296043198,-31.02903977772452
exact,pre_advance,A,no_revision,joint_indicator_revision_dfm_full_kalman_em,2008:Q4,0.3431607409303723,-30.685879036794148
exact,pre_advance,A,no_revision,joint_indicator_revision_dfm_full_kalman_em,2009:Q1,7.645481099866327,-23.04039793692782
exact,pre_advance,A,no_revision,joint_indicator_revision_dfm_full_kalman_em,2009:Q2,0.6770736346923405,-22.36332430223548
exact,pre_advance,A,no_revision,joint_indicator_revision_dfm_full_kalman_em,2009:Q3,6.608989192593432,-15.754335109642048
exact,pre_advance,A,no_revision,joint_indicator_revision_dfm_full_kalman_em,2009:Q4,-6.003972375333049,-21.7583074849751
exact,pre_advance,A,no_revision,joint_indicator_revision_dfm_full_kalman_em,2010:Q1,-6.405660586438779,-28.163968071413876
exact,pre_advance,A,no_revision,joint_indicator_revision_dfm_full_kalman_em,2010:Q2,-3.9583381833018176,-32.122306254715696
exact,pre_advance,A,no_revision,joint_indicator_revision_dfm_full_kalman_em,2010:Q3,0.12708000626144797,-31.995226248454248
exact,pre_advance,A,no_revision,joint_indicator_revision_dfm_full_kalman_em,2010:Q4,0.3070516918675972,-31.688174556586652
exact,pre_advance,A,no_revision,joint_indicator_revision_dfm_full_kalman_em,2011:Q1,-17.92211944014566,-49.61029399673231
exact,pre_advance,A,no_revision,joint_indicator_revision_dfm_full_kalman_em,2011:Q2,0.5216998248350286,-49.088594171897284
exact,pre_advance,A,no_revision,joint_indicator_revision_dfm_full_kalman_em,2011:Q3,-0.36354535638396,-49.45213952828124
exact,pre_advance,A,no_revision,joint_indicator_revision_dfm_full_kalman_em,2011:Q4,-2.0695914068351415,-51.52173093511639
exact,pre_advance,A,no_revision,joint_indicator_revision_dfm_full_kalman_em,2012:Q1,-3.6827472168746276,-55.20447815199101
exact,pre_advance,A,no_revision,joint_indicator_revision_dfm_full_kalman_em,2012:Q2,-0.18273681142445286,-55.38721496341547
exact,pre_advance,A,no_revision,joint_indicator_revision_dfm_full_kalman_em,2012:Q3,-0.055629502003479075,-55.44284446541894
exact,pre_advance,A,no_revision,joint_indicator_revision_dfm_full_kalman_em,2012:Q4,-9.81883391414518,-65.26167837956413
exact,pre_advance,A,no_revision,joint_indicator_revision_dfm_full_kalman_em,2013:Q1,1.5826733712305183,-63.67900500833361
exact,pre_advance,A,no_revision,joint_indicator_revision_dfm_full_kalman_em,2013:Q2,-0.024173965684389676,-63.703178974018
exact,pre_advance,A,no_revision,joint_indicator_revision_dfm_full_kalman_em,2013:Q3,0.4709359906547272,-63.23224298336327
exact,pre_advance,A,no_revision,joint_indicator_revision_dfm_full_kalman_em,2013:Q4,-0.5160529412800734,-63.748295924643344
exact,pre_advance,A,no_revision,joint_indicator_revision_dfm_full_kalman_em,2014:Q1,2.8265227774306254,-60.92177314721272
exact,pre_advance,A,no_revision,joint_indicator_revision_dfm_full_kalman_em,2014:Q2,7.108262285319033,-53.81351086189368
exact,pre_advance,A,no_revision,joint_indicator_revision_dfm_full_kalman_em,2014:Q3,-0.30344295849603764,-54.11695382038972
exact,pre_advance,A,no_revision,joint_indicator_revision_dfm_full_kalman_em,2014:Q4,0.14747004035150263,-53.96948378003822
exact,pre_advance,A,no_revision,joint_indicator_revision_dfm_full_kalman_em,2015:Q1,3.9700526181297113,-49.999431161908504
exact,pre_advance,A,no_revision,joint_indicator_revision_dfm_full_kalman_em,2015:Q2,0.6399769198236873,-49.359454242084816
exact,pre_advance,A,no_revision,joint_indicator_revision_dfm_full_kalman_em,2015:Q3,-0.8106822707880947,-50.17013651287291
exact,pre_advance,A,no_revision,joint_indicator_revision_dfm_full_kalman_em,2015:Q4,1.0006384246949152,-49.169498088177995
exact,pre_advance,A,no_revision,joint_indicator_revision_dfm_full_kalman_em,2016:Q1,-0.6926218613501597,-49.86211994952816
