haminh109/Revision-Aware-DFM/outputs/full_state_space_release_revision_dfm/frozen/q2_manuscript_best_v1/mature_robustness_runs/mature_1y/evidence_dir/cumulative_loss_revision.csv
timing_mode,checkpoint_id,outcome_id,baseline_model,model_id,target_quarter,loss_diff_baseline_minus_model,cumulative_loss_diff
exact,pre_advance,DELTA_SA,ar,bridge,2005:Q1,-0.013846057404504467,-0.013846057404504467
exact,pre_advance,DELTA_SA,ar,bridge,2005:Q2,-0.0016502791972834857,-0.015496336601787952
exact,pre_advance,DELTA_SA,ar,bridge,2005:Q3,-0.11888984019706639,-0.13438617679885434
exact,pre_advance,DELTA_SA,ar,bridge,2005:Q4,-0.0033836766731660667,-0.13776985347202042
exact,pre_advance,DELTA_SA,ar,bridge,2006:Q1,-0.04844188468453305,-0.18621173815655348
exact,pre_advance,DELTA_SA,ar,bridge,2006:Q2,-0.1371256323997568,-0.3233373705563103
exact,pre_advance,DELTA_SA,ar,bridge,2006:Q3,-0.06429144563741201,-0.3876288161937223
exact,pre_advance,DELTA_SA,ar,bridge,2006:Q4,0.34557919085510314,-0.04204962533861917
exact,pre_advance,DELTA_SA,ar,bridge,2007:Q1,-0.007824031136799381,-0.04987365647541855
exact,pre_advance,DELTA_SA,ar,bridge,2007:Q2,0.06896631884463494,0.019092662369216397
exact,pre_advance,DELTA_SA,ar,bridge,2007:Q3,0.059803740894770696,0.07889640326398709
exact,pre_advance,DELTA_SA,ar,bridge,2007:Q4,-0.012197856569414689,0.0666985466945724
exact,pre_advance,DELTA_SA,ar,bridge,2008:Q1,-0.004344598103960942,0.062353948590611455
exact,pre_advance,DELTA_SA,ar,bridge,2008:Q2,-0.574407111363402,-0.5120531627727904
exact,pre_advance,DELTA_SA,ar,bridge,2008:Q3,0.6190200450590351,0.10696688228624462
exact,pre_advance,DELTA_SA,ar,bridge,2008:Q4,3.9506126973357483,4.057579579621993
exact,pre_advance,DELTA_SA,ar,bridge,2009:Q1,-6.0988802018433,-2.041300622221307
exact,pre_advance,DELTA_SA,ar,bridge,2009:Q2,0.1268137068232697,-1.9144869153980373
exact,pre_advance,DELTA_SA,ar,bridge,2009:Q3,-0.06823089199505694,-1.9827178073930942
exact,pre_advance,DELTA_SA,ar,bridge,2009:Q4,-0.034868451184789206,-2.017586258577883
exact,pre_advance,DELTA_SA,ar,bridge,2010:Q1,-0.0886727021965403,-2.1062589607744235
exact,pre_advance,DELTA_SA,ar,bridge,2010:Q2,-0.09358245387922659,-2.1998414146536502
exact,pre_advance,DELTA_SA,ar,bridge,2010:Q3,0.0949221697737268,-2.104919244879923
exact,pre_advance,DELTA_SA,ar,bridge,2010:Q4,-0.5663990366542817,-2.671318281534205
exact,pre_advance,DELTA_SA,ar,bridge,2011:Q1,0.006841226592887183,-2.664477054941318
exact,pre_advance,DELTA_SA,ar,bridge,2011:Q2,-0.10501821756764976,-2.769495272508968
exact,pre_advance,DELTA_SA,ar,bridge,2011:Q3,-0.12148482455549353,-2.8909800970644612
exact,pre_advance,DELTA_SA,ar,bridge,2011:Q4,0.0628784200154297,-2.8281016770490317
exact,pre_advance,DELTA_SA,ar,bridge,2012:Q1,-0.035887713043292774,-2.8639893900923243
exact,pre_advance,DELTA_SA,ar,bridge,2012:Q2,-0.048823982105551195,-2.9128133721978755
exact,pre_advance,DELTA_SA,ar,bridge,2012:Q3,0.007775069522669126,-2.9050383026752065
exact,pre_advance,DELTA_SA,ar,bridge,2012:Q4,0.004271385099178611,-2.900766917576028
exact,pre_advance,DELTA_SA,ar,bridge,2013:Q1,0.08666220076802922,-2.8141047168079987
exact,pre_advance,DELTA_SA,ar,bridge,2013:Q2,0.025496976212487366,-2.7886077405955114
exact,pre_advance,DELTA_SA,ar,bridge,2013:Q3,-0.06520892381398495,-2.8538166644094964
exact,pre_advance,DELTA_SA,ar,bridge,2013:Q4,-0.4483601219941036,-3.3021767864036002
exact,pre_advance,DELTA_SA,ar,bridge,2014:Q1,0.08408982928438968,-3.2180869571192106
exact,pre_advance,DELTA_SA,ar,bridge,2014:Q2,0.1627494765353877,-3.0553374805838227
exact,pre_advance,DELTA_SA,ar,bridge,2014:Q3,0.02095518071252716,-3.0343822998712957
exact,pre_advance,DELTA_SA,ar,bridge,2014:Q4,0.04340036392903157,-2.9909819359422642
exact,pre_advance,DELTA_SA,ar,bridge,2015:Q1,0.09722612747043735,-2.893755808471827
exact,pre_advance,DELTA_SA,ar,bridge,2015:Q2,0.5270016182401931,-2.366754190231634
exact,pre_advance,DELTA_SA,ar,bridge,2015:Q3,0.00641361838518265,-2.360340571846451
exact,pre_advance,DELTA_SA,ar,bridge,2015:Q4,0.0004635473514232574,-2.359877024495028
exact,pre_advance,DELTA_SA,ar,bridge,2016:Q1,-0.02869336754687048,-2.388570392041898
exact,pre_advance,DELTA_SA,ar,bridge,2016:Q2,-0.006980417169187014,-2.3955508092110853
exact,pre_advance,DELTA_SA,ar,bridge,2016:Q3,0.008611368466015026,-2.38693944074507
exact,pre_advance,DELTA_SA,ar,bridge,2016:Q4,-0.0009847649917325008,-2.3879242057368026
exact,pre_advance,DELTA_SA,ar,bridge,2017:Q1,0.006128595802208259,-2.3817956099345943
exact,pre_advance,DELTA_SA,ar,bridge,2017:Q2,-0.02510746702309855,-2.406903076957693
exact,pre_advance,DELTA_SA,ar,bridge,2017:Q3,0.0015224765331057744,-2.405380600424587
exact,pre_advance,DELTA_SA,ar,bridge,2017:Q4,-0.012532396692822412,-2.4179129971174094
exact,pre_advance,DELTA_SA,ar,bridge,2018:Q1,-0.001025526276306192,-2.4189385233937157
exact,pre_advance,DELTA_SA,ar,bridge,2018:Q2,0.02459572516719082,-2.394342798226525
exact,pre_advance,DELTA_SA,ar,bridge,2018:Q3,-0.0028625928778965534,-2.3972053911044213
exact,pre_advance,DELTA_SA,ar,bridge,2019:Q1,-0.3022766661113528,-2.699482057215774
exact,pre_advance,DELTA_SA,ar,bridge,2019:Q2,-0.004735905859539644,-2.7042179630753136
exact,pre_advance,DELTA_SA,ar,bridge,2019:Q3,0.015341164816805796,-2.688876798258508
exact,pre_advance,DELTA_SA,ar,bridge,2019:Q4,-0.044503658959924405,-2.7333804572184324
exact,pre_advance,DELTA_SA,ar,bridge,2020:Q1,0.044386080987889376,-2.688994376230543
exact,pre_advance,DELTA_SA,ar,bridge,2020:Q2,-3.0940398410540673,-5.7830342172846105
exact,pre_advance,DELTA_SA,ar,bridge,2020:Q3,1.4176473053505392,-4.365386911934071
exact,pre_advance,DELTA_SA,ar,bridge,2020:Q4,0.3499640349292389,-4.015422877004832
exact,pre_advance,DELTA_SA,ar,bridge,2021:Q1,-0.013363060193281033,-4.028785937198113
exact,pre_advance,DELTA_SA,ar,bridge,2021:Q2,-0.03577411651444864,-4.064560053712562
exact,pre_advance,DELTA_SA,ar,bridge,2021:Q3,0.0032954658604867817,-4.061264587852075
exact,pre_advance,DELTA_SA,ar,bridge,2021:Q4,-0.001890367406223347,-4.063154955258298
exact,pre_advance,DELTA_SA,ar,bridge,2022:Q1,-0.034155159355693535,-4.097310114613991
exact,pre_advance,DELTA_SA,ar,bridge,2022:Q2,-0.017409303051805713,-4.114719417665797
exact,pre_advance,DELTA_SA,ar,bridge,2022:Q3,0.009108149975887866,-4.105611267689909
exact,pre_advance,DELTA_SA,ar,bridge,2022:Q4,-0.07401877594323583,-4.179630043633145
exact,pre_advance,DELTA_SA,ar,bridge,2023:Q1,0.002725620713285002,-4.1769044229198595
exact,pre_advance,DELTA_SA,ar,bridge,2023:Q2,-0.21283992077671957,-4.389744343696579
exact,pre_advance,DELTA_SA,ar,bridge,2023:Q3,-0.02913487901324642,-4.418879222709825
exact,pre_advance,DELTA_SA,ar,bridge,2023:Q4,-0.05489730055734936,-4.4737765232671745
exact,pre_advance,DELTA_SA,ar,bridge,2024:Q1,0.08308195917709739,-4.390694564090077
exact,pre_advance,DELTA_SA,ar,bridge,2024:Q2,-0.04089950912320364,-4.43159407321328
exact,pre_advance,DELTA_SA,ar,bridge,2024:Q3,0.002078917593568988,-4.429515155619711
exact,pre_advance,DELTA_SA,ar,bridge,2024:Q4,-0.00014364795373976344,-4.429658803573451
exact,pre_advance,DELTA_SA,ar,indicator_revision_only_dfm_kalman_em,2005:Q1,-0.15257503321613658,-0.15257503321613658
exact,pre_advance,DELTA_SA,ar,indicator_revision_only_dfm_kalman_em,2005:Q2,0.10304262774761302,-0.049532405468523555
exact,pre_advance,DELTA_SA,ar,indicator_revision_only_dfm_kalman_em,2005:Q3,0.03151683579611303,-0.018015569672410525
exact,pre_advance,DELTA_SA,ar,indicator_revision_only_dfm_kalman_em,2005:Q4,-0.17958946757420496,-0.1976050372466155
exact,pre_advance,DELTA_SA,ar,indicator_revision_only_dfm_kalman_em,2006:Q1,-0.22225097588053042,-0.41985601312714593
exact,pre_advance,DELTA_SA,ar,indicator_revision_only_dfm_kalman_em,2006:Q2,-0.1338214718146227,-0.5536774849417686
exact,pre_advance,DELTA_SA,ar,indicator_revision_only_dfm_kalman_em,2006:Q3,-0.2655324769569707,-0.8192099618987393
exact,pre_advance,DELTA_SA,ar,indicator_revision_only_dfm_kalman_em,2006:Q4,1.1280810824986391,0.30887112059989985
exact,pre_advance,DELTA_SA,ar,indicator_revision_only_dfm_kalman_em,2007:Q1,-0.36488258133290913,-0.05601146073300928
exact,pre_advance,DELTA_SA,ar,indicator_revision_only_dfm_kalman_em,2007:Q2,0.2101220628635298,0.15411060213052052
exact,pre_advance,DELTA_SA,ar,indicator_revision_only_dfm_kalman_em,2007:Q3,-0.5038879623481906,-0.34977736021767003
exact,pre_advance,DELTA_SA,ar,indicator_revision_only_dfm_kalman_em,2007:Q4,0.23194641324995732,-0.11783094696771271
exact,pre_advance,DELTA_SA,ar,indicator_revision_only_dfm_kalman_em,2008:Q1,-0.06565748592115798,-0.18348843288887068
exact,pre_advance,DELTA_SA,ar,indicator_revision_only_dfm_kalman_em,2008:Q2,-0.7051418869943866,-0.8886303198832572
exact,pre_advance,DELTA_SA,ar,indicator_revision_only_dfm_kalman_em,2008:Q3,0.8839041046210189,-0.004726215262238376
exact,pre_advance,DELTA_SA,ar,indicator_revision_only_dfm_kalman_em,2008:Q4,0.39399862829546173,0.38927241303322335
exact,pre_advance,DELTA_SA,ar,indicator_revision_only_dfm_kalman_em,2009:Q1,1.3203689037955737,1.709641316828797
exact,pre_advance,DELTA_SA,ar,indicator_revision_only_dfm_kalman_em,2009:Q2,0.36877932291984866,2.0784206397486455
exact,pre_advance,DELTA_SA,ar,indicator_revision_only_dfm_kalman_em,2009:Q3,0.31974831955083616,2.3981689592994817
exact,pre_advance,DELTA_SA,ar,indicator_revision_only_dfm_kalman_em,2009:Q4,0.2461874095178597,2.6443563688173413
exact,pre_advance,DELTA_SA,ar,indicator_revision_only_dfm_kalman_em,2010:Q1,0.012274663642203441,2.656631032459545
exact,pre_advance,DELTA_SA,ar,indicator_revision_only_dfm_kalman_em,2010:Q2,-0.10097637669884518,2.5556546557606996
exact,pre_advance,DELTA_SA,ar,indicator_revision_only_dfm_kalman_em,2010:Q3,0.41001530272678194,2.9656699584874815
exact,pre_advance,DELTA_SA,ar,indicator_revision_only_dfm_kalman_em,2010:Q4,0.33708017745408314,3.3027501359415647
exact,pre_advance,DELTA_SA,ar,indicator_revision_only_dfm_kalman_em,2011:Q1,0.05273638935335863,3.3554865252949235
exact,pre_advance,DELTA_SA,ar,indicator_revision_only_dfm_kalman_em,2011:Q2,0.0864949621817803,3.4419814874767036
exact,pre_advance,DELTA_SA,ar,indicator_revision_only_dfm_kalman_em,2011:Q3,-0.03822954602021156,3.403751941456492
exact,pre_advance,DELTA_SA,ar,indicator_revision_only_dfm_kalman_em,2011:Q4,0.1042486389810256,3.5080005804375176
exact,pre_advance,DELTA_SA,ar,indicator_revision_only_dfm_kalman_em,2012:Q1,0.12270345028699549,3.6307040307245133
exact,pre_advance,DELTA_SA,ar,indicator_revision_only_dfm_kalman_em,2012:Q2,0.05124300972150874,3.681947040446022
exact,pre_advance,DELTA_SA,ar,indicator_revision_only_dfm_kalman_em,2012:Q3,-0.19803121584843814,3.483915824597584
exact,pre_advance,DELTA_SA,ar,indicator_revision_only_dfm_kalman_em,2012:Q4,-0.06160444841889918,3.4223113761786847
exact,pre_advance,DELTA_SA,ar,indicator_revision_only_dfm_kalman_em,2013:Q1,0.13839352919058448,3.560704905369269
exact,pre_advance,DELTA_SA,ar,indicator_revision_only_dfm_kalman_em,2013:Q2,0.010665904843470964,3.5713708102127404
exact,pre_advance,DELTA_SA,ar,indicator_revision_only_dfm_kalman_em,2013:Q3,-0.49085393179229264,3.0805168784204477
exact,pre_advance,DELTA_SA,ar,indicator_revision_only_dfm_kalman_em,2013:Q4,0.8147882022650561,3.895305080685504
exact,pre_advance,DELTA_SA,ar,indicator_revision_only_dfm_kalman_em,2014:Q1,-0.6728261778290336,3.22247890285647
exact,pre_advance,DELTA_SA,ar,indicator_revision_only_dfm_kalman_em,2014:Q2,0.3153905835886226,3.537869486445093
exact,pre_advance,DELTA_SA,ar,indicator_revision_only_dfm_kalman_em,2014:Q3,-0.05736992828325174,3.480499558161841
exact,pre_advance,DELTA_SA,ar,indicator_revision_only_dfm_kalman_em,2014:Q4,0.18045818425062124,3.6609577424124624
exact,pre_advance,DELTA_SA,ar,indicator_revision_only_dfm_kalman_em,2015:Q1,-0.30424364925329495,3.3567140931591677
exact,pre_advance,DELTA_SA,ar,indicator_revision_only_dfm_kalman_em,2015:Q2,1.0249249122593762,4.381639005418544
exact,pre_advance,DELTA_SA,ar,indicator_revision_only_dfm_kalman_em,2015:Q3,-0.3345827492334456,4.0470562561850985
exact,pre_advance,DELTA_SA,ar,indicator_revision_only_dfm_kalman_em,2015:Q4,-0.09676443992777004,3.9502918162573284
exact,pre_advance,DELTA_SA,ar,indicator_revision_only_dfm_kalman_em,2016:Q1,-0.09029065158363185,3.8600011646736965
exact,pre_advance,DELTA_SA,ar,indicator_revision_only_dfm_kalman_em,2016:Q2,0.1360297525459644,3.996030917219661
exact,pre_advance,DELTA_SA,ar,indicator_revision_only_dfm_kalman_em,2016:Q3,-0.021175007572158712,3.974855909647502
exact,pre_advance,DELTA_SA,ar,indicator_revision_only_dfm_kalman_em,2016:Q4,0.02734587565242416,4.002201785299926
exact,pre_advance,DELTA_SA,ar,indicator_revision_only_dfm_kalman_em,2017:Q1,-0.056295362083760514,3.945906423216165
exact,pre_advance,DELTA_SA,ar,indicator_revision_only_dfm_kalman_em,2017:Q2,-0.1998229027002102,3.746083520515955
exact,pre_advance,DELTA_SA,ar,indicator_revision_only_dfm_kalman_em,2017:Q3,-0.09239460605426397,3.653688914461691
exact,pre_advance,DELTA_SA,ar,indicator_revision_only_dfm_kalman_em,2017:Q4,0.035699658663772574,3.6893885731254636
exact,pre_advance,DELTA_SA,ar,indicator_revision_only_dfm_kalman_em,2018:Q1,0.012703611098869368,3.702092184224333
exact,pre_advance,DELTA_SA,ar,indicator_revision_only_dfm_kalman_em,2018:Q2,0.0030213569949030655,3.705113541219236
exact,pre_advance,DELTA_SA,ar,indicator_revision_only_dfm_kalman_em,2018:Q3,0.0032310710133240618,3.70834461223256
exact,pre_advance,DELTA_SA,ar,indicator_revision_only_dfm_kalman_em,2019:Q1,0.3134694480182471,4.021814060250807
exact,pre_advance,DELTA_SA,ar,indicator_revision_only_dfm_kalman_em,2019:Q2,-0.00020861065790184213,4.021605449592905
exact,pre_advance,DELTA_SA,ar,indicator_revision_only_dfm_kalman_em,2019:Q3,-0.020795440927072837,4.000810008665832
exact,pre_advance,DELTA_SA,ar,indicator_revision_only_dfm_kalman_em,2019:Q4,0.022807340587339162,4.023617349253171
exact,pre_advance,DELTA_SA,ar,indicator_revision_only_dfm_kalman_em,2020:Q1,0.04374626691208146,4.067363616165252
exact,pre_advance,DELTA_SA,ar,indicator_revision_only_dfm_kalman_em,2020:Q2,-0.4848885887598303,3.582475027405422
exact,pre_advance,DELTA_SA,ar,indicator_revision_only_dfm_kalman_em,2020:Q3,6.6030936783793335,10.185568705784755
exact,pre_advance,DELTA_SA,ar,indicator_revision_only_dfm_kalman_em,2020:Q4,0.3494364241901803,10.535005129974936
exact,pre_advance,DELTA_SA,ar,indicator_revision_only_dfm_kalman_em,2021:Q1,0.010481372036795358,10.54548650201173
exact,pre_advance,DELTA_SA,ar,indicator_revision_only_dfm_kalman_em,2021:Q2,0.005674643654305938,10.551161145666036
exact,pre_advance,DELTA_SA,ar,indicator_revision_only_dfm_kalman_em,2021:Q3,-0.00428446848418562,10.546876677181851
exact,pre_advance,DELTA_SA,ar,indicator_revision_only_dfm_kalman_em,2021:Q4,-0.009636975615624089,10.537239701566227
exact,pre_advance,DELTA_SA,ar,indicator_revision_only_dfm_kalman_em,2022:Q1,0.05376352283472801,10.591003224400955
exact,pre_advance,DELTA_SA,ar,indicator_revision_only_dfm_kalman_em,2022:Q2,-0.01747374549873487,10.57352947890222
exact,pre_advance,DELTA_SA,ar,indicator_revision_only_dfm_kalman_em,2022:Q3,-0.038912176234116996,10.534617302668103
exact,pre_advance,DELTA_SA,ar,indicator_revision_only_dfm_kalman_em,2022:Q4,0.058622083054108,10.59323938572221
exact,pre_advance,DELTA_SA,ar,indicator_revision_only_dfm_kalman_em,2023:Q1,-0.02740533844308022,10.56583404727913
exact,pre_advance,DELTA_SA,ar,indicator_revision_only_dfm_kalman_em,2023:Q2,0.06172819389498699,10.627562241174118
exact,pre_advance,DELTA_SA,ar,indicator_revision_only_dfm_kalman_em,2023:Q3,-0.03194758936873526,10.595614651805382
exact,pre_advance,DELTA_SA,ar,indicator_revision_only_dfm_kalman_em,2023:Q4,0.03690159867203891,10.63251625047742
exact,pre_advance,DELTA_SA,ar,indicator_revision_only_dfm_kalman_em,2024:Q1,0.07155817897030346,10.704074429447724
exact,pre_advance,DELTA_SA,ar,indicator_revision_only_dfm_kalman_em,2024:Q2,-0.009033581491366181,10.695040847956358
exact,pre_advance,DELTA_SA,ar,indicator_revision_only_dfm_kalman_em,2024:Q3,0.00727617350536104,10.702317021461718
exact,pre_advance,DELTA_SA,ar,indicator_revision_only_dfm_kalman_em,2024:Q4,-0.008788760628669104,10.69352826083305
exact,pre_advance,DELTA_SA,ar,joint_indicator_revision_dfm_full_kalman_em,2005:Q1,-0.018789864518126902,-0.018789864518126902
exact,pre_advance,DELTA_SA,ar,joint_indicator_revision_dfm_full_kalman_em,2005:Q2,-0.1273139300043512,-0.1461037945224781
exact,pre_advance,DELTA_SA,ar,joint_indicator_revision_dfm_full_kalman_em,2005:Q3,0.21462488368784477,0.06852108916536667
exact,pre_advance,DELTA_SA,ar,joint_indicator_revision_dfm_full_kalman_em,2005:Q4,0.0486518422128205,0.11717293137818717
exact,pre_advance,DELTA_SA,ar,joint_indicator_revision_dfm_full_kalman_em,2006:Q1,0.014337820588780083,0.13151075196696727
exact,pre_advance,DELTA_SA,ar,joint_indicator_revision_dfm_full_kalman_em,2006:Q2,0.04166318021157644,0.1731739321785437
exact,pre_advance,DELTA_SA,ar,joint_indicator_revision_dfm_full_kalman_em,2006:Q3,-0.829287902311701,-0.6561139701331573
exact,pre_advance,DELTA_SA,ar,joint_indicator_revision_dfm_full_kalman_em,2006:Q4,1.746179630321987,1.0900656601888297
exact,pre_advance,DELTA_SA,ar,joint_indicator_revision_dfm_full_kalman_em,2007:Q1,-0.3742094905761885,0.7158561696126411
exact,pre_advance,DELTA_SA,ar,joint_indicator_revision_dfm_full_kalman_em,2007:Q2,0.43436125574837314,1.1502174253610142
exact,pre_advance,DELTA_SA,ar,joint_indicator_revision_dfm_full_kalman_em,2007:Q3,-1.7405649096848892,-0.590347484323875
exact,pre_advance,DELTA_SA,ar,joint_indicator_revision_dfm_full_kalman_em,2007:Q4,-0.14080003021225843,-0.7311475145361334
exact,pre_advance,DELTA_SA,ar,joint_indicator_revision_dfm_full_kalman_em,2008:Q1,-0.264575394398221,-0.9957229089343543
exact,pre_advance,DELTA_SA,ar,joint_indicator_revision_dfm_full_kalman_em,2008:Q2,-0.5144776180912858,-1.5102005270256402
exact,pre_advance,DELTA_SA,ar,joint_indicator_revision_dfm_full_kalman_em,2008:Q3,0.9146926000318257,-0.5955079269938145
exact,pre_advance,DELTA_SA,ar,joint_indicator_revision_dfm_full_kalman_em,2008:Q4,3.7135515239192953,3.1180435969254807
exact,pre_advance,DELTA_SA,ar,joint_indicator_revision_dfm_full_kalman_em,2009:Q1,1.4797561910676709,4.597799787993152
exact,pre_advance,DELTA_SA,ar,joint_indicator_revision_dfm_full_kalman_em,2009:Q2,-0.1939650279935996,4.403834759999552
exact,pre_advance,DELTA_SA,ar,joint_indicator_revision_dfm_full_kalman_em,2009:Q3,-2.251460171313762,2.15237458868579
exact,pre_advance,DELTA_SA,ar,joint_indicator_revision_dfm_full_kalman_em,2009:Q4,0.1829829702923449,2.335357558978135
exact,pre_advance,DELTA_SA,ar,joint_indicator_revision_dfm_full_kalman_em,2010:Q1,-0.4324277500821157,1.9029298088960194
exact,pre_advance,DELTA_SA,ar,joint_indicator_revision_dfm_full_kalman_em,2010:Q2,-0.40906365605095363,1.4938661528450656
exact,pre_advance,DELTA_SA,ar,joint_indicator_revision_dfm_full_kalman_em,2010:Q3,0.5743283930872365,2.068194545932302
exact,pre_advance,DELTA_SA,ar,joint_indicator_revision_dfm_full_kalman_em,2010:Q4,0.2529752401960519,2.321169786128354
exact,pre_advance,DELTA_SA,ar,joint_indicator_revision_dfm_full_kalman_em,2011:Q1,-0.015945583230974877,2.305224202897379
exact,pre_advance,DELTA_SA,ar,joint_indicator_revision_dfm_full_kalman_em,2011:Q2,-0.06979035409685821,2.2354338488005205
exact,pre_advance,DELTA_SA,ar,joint_indicator_revision_dfm_full_kalman_em,2011:Q3,-0.42852336001862235,1.8069104887818983
exact,pre_advance,DELTA_SA,ar,joint_indicator_revision_dfm_full_kalman_em,2011:Q4,0.13128470383102184,1.9381951926129202
exact,pre_advance,DELTA_SA,ar,joint_indicator_revision_dfm_full_kalman_em,2012:Q1,-0.07826801065074776,1.8599271819621723
exact,pre_advance,DELTA_SA,ar,joint_indicator_revision_dfm_full_kalman_em,2012:Q2,0.08768438311055249,1.9476115650727248
exact,pre_advance,DELTA_SA,ar,joint_indicator_revision_dfm_full_kalman_em,2012:Q3,-0.008993577428547478,1.9386179876441774
exact,pre_advance,DELTA_SA,ar,joint_indicator_revision_dfm_full_kalman_em,2012:Q4,0.009413374544927421,1.9480313621891048
exact,pre_advance,DELTA_SA,ar,joint_indicator_revision_dfm_full_kalman_em,2013:Q1,0.06553800466233542,2.0135693668514403
exact,pre_advance,DELTA_SA,ar,joint_indicator_revision_dfm_full_kalman_em,2013:Q2,0.2152491322087846,2.2288184990602247
exact,pre_advance,DELTA_SA,ar,joint_indicator_revision_dfm_full_kalman_em,2013:Q3,-0.3063500279167757,1.922468471143449
exact,pre_advance,DELTA_SA,ar,joint_indicator_revision_dfm_full_kalman_em,2013:Q4,0.36029668267821724,2.282765153821666
exact,pre_advance,DELTA_SA,ar,joint_indicator_revision_dfm_full_kalman_em,2014:Q1,-0.9667327630141509,1.316032390807515
exact,pre_advance,DELTA_SA,ar,joint_indicator_revision_dfm_full_kalman_em,2014:Q2,0.2460273849852757,1.5620597757927908
exact,pre_advance,DELTA_SA,ar,joint_indicator_revision_dfm_full_kalman_em,2014:Q3,0.0034148584103903326,1.5654746342031811
exact,pre_advance,DELTA_SA,ar,joint_indicator_revision_dfm_full_kalman_em,2014:Q4,0.11047195855529657,1.6759465927584776
exact,pre_advance,DELTA_SA,ar,joint_indicator_revision_dfm_full_kalman_em,2015:Q1,-0.1518574381201514,1.5240891546383262
exact,pre_advance,DELTA_SA,ar,joint_indicator_revision_dfm_full_kalman_em,2015:Q2,1.7816881184418751,3.305777273080201
exact,pre_advance,DELTA_SA,ar,joint_indicator_revision_dfm_full_kalman_em,2015:Q3,-0.30663778772404177,2.9991394853561593
exact,pre_advance,DELTA_SA,ar,joint_indicator_revision_dfm_full_kalman_em,2015:Q4,-0.07002264455120887,2.9291168408049506
exact,pre_advance,DELTA_SA,ar,joint_indicator_revision_dfm_full_kalman_em,2016:Q1,-0.037036299124430225,2.8920805416805204
exact,pre_advance,DELTA_SA,ar,joint_indicator_revision_dfm_full_kalman_em,2016:Q2,0.09162557387255563,2.983706115553076
exact,pre_advance,DELTA_SA,ar,joint_indicator_revision_dfm_full_kalman_em,2016:Q3,0.042801208955118554,3.0265073245081946
exact,pre_advance,DELTA_SA,ar,joint_indicator_revision_dfm_full_kalman_em,2016:Q4,-0.03495801418977386,2.9915493103184208
exact,pre_advance,DELTA_SA,ar,joint_indicator_revision_dfm_full_kalman_em,2017:Q1,0.10490745685604205,3.096456767174463
exact,pre_advance,DELTA_SA,ar,joint_indicator_revision_dfm_full_kalman_em,2017:Q2,-0.03425548951440735,3.062201277660056
exact,pre_advance,DELTA_SA,ar,joint_indicator_revision_dfm_full_kalman_em,2017:Q3,-0.06880275798417787,2.993398519675878
exact,pre_advance,DELTA_SA,ar,joint_indicator_revision_dfm_full_kalman_em,2017:Q4,-0.1601511826390998,2.833247337036778
exact,pre_advance,DELTA_SA,ar,joint_indicator_revision_dfm_full_kalman_em,2018:Q1,-0.11880951769514408,2.714437819341634
exact,pre_advance,DELTA_SA,ar,joint_indicator_revision_dfm_full_kalman_em,2018:Q2,0.030563845417264153,2.745001664758898
exact,pre_advance,DELTA_SA,ar,joint_indicator_revision_dfm_full_kalman_em,2018:Q3,-0.007292061362783079,2.737709603396115
exact,pre_advance,DELTA_SA,ar,joint_indicator_revision_dfm_full_kalman_em,2019:Q1,0.30894481309006083,3.046654416486176
exact,pre_advance,DELTA_SA,ar,joint_indicator_revision_dfm_full_kalman_em,2019:Q2,-0.010141599267158645,3.0365128172190174
exact,pre_advance,DELTA_SA,ar,joint_indicator_revision_dfm_full_kalman_em,2019:Q3,0.019482410383040452,3.055995227602058
exact,pre_advance,DELTA_SA,ar,joint_indicator_revision_dfm_full_kalman_em,2019:Q4,0.02194843398373149,3.0779436615857896
exact,pre_advance,DELTA_SA,ar,joint_indicator_revision_dfm_full_kalman_em,2020:Q1,0.0941976820766612,3.172141343662451
exact,pre_advance,DELTA_SA,ar,joint_indicator_revision_dfm_full_kalman_em,2020:Q2,-3.9214369951910295,-0.7492956515285787
exact,pre_advance,DELTA_SA,ar,joint_indicator_revision_dfm_full_kalman_em,2020:Q3,5.638829293501854,4.889533641973276
exact,pre_advance,DELTA_SA,ar,joint_indicator_revision_dfm_full_kalman_em,2020:Q4,0.0767613087189225,4.966294950692198
exact,pre_advance,DELTA_SA,ar,joint_indicator_revision_dfm_full_kalman_em,2021:Q1,-0.3421986985232193,4.624096252168979
exact,pre_advance,DELTA_SA,ar,joint_indicator_revision_dfm_full_kalman_em,2021:Q2,0.0054984466033623,4.629594698772341
exact,pre_advance,DELTA_SA,ar,joint_indicator_revision_dfm_full_kalman_em,2021:Q3,-0.06657349805507631,4.563021200717265
exact,pre_advance,DELTA_SA,ar,joint_indicator_revision_dfm_full_kalman_em,2021:Q4,-0.013528202257050622,4.549492998460215
exact,pre_advance,DELTA_SA,ar,joint_indicator_revision_dfm_full_kalman_em,2022:Q1,-0.46302377431308617,4.0864692241471285
exact,pre_advance,DELTA_SA,ar,joint_indicator_revision_dfm_full_kalman_em,2022:Q2,-0.01557137800680794,4.070897846140321
exact,pre_advance,DELTA_SA,ar,joint_indicator_revision_dfm_full_kalman_em,2022:Q3,-0.01697278154834013,4.053925064591981
exact,pre_advance,DELTA_SA,ar,joint_indicator_revision_dfm_full_kalman_em,2022:Q4,0.10506628843186538,4.158991353023847
exact,pre_advance,DELTA_SA,ar,joint_indicator_revision_dfm_full_kalman_em,2023:Q1,-0.13316210526611585,4.025829247757731
exact,pre_advance,DELTA_SA,ar,joint_indicator_revision_dfm_full_kalman_em,2023:Q2,-0.4200824782755551,3.6057467694821757
exact,pre_advance,DELTA_SA,ar,joint_indicator_revision_dfm_full_kalman_em,2023:Q3,-0.0019151602493837627,3.6038316092327918
exact,pre_advance,DELTA_SA,ar,joint_indicator_revision_dfm_full_kalman_em,2023:Q4,0.0419246896897034,3.645756298922495
exact,pre_advance,DELTA_SA,ar,joint_indicator_revision_dfm_full_kalman_em,2024:Q1,0.06383545735677504,3.7095917562792704
exact,pre_advance,DELTA_SA,ar,joint_indicator_revision_dfm_full_kalman_em,2024:Q2,-0.002040082937038322,3.7075516733422322
exact,pre_advance,DELTA_SA,ar,joint_indicator_revision_dfm_full_kalman_em,2024:Q3,0.006798380338967162,3.7143500536811995
exact,pre_advance,DELTA_SA,ar,joint_indicator_revision_dfm_full_kalman_em,2024:Q4,-0.006375624253555576,3.7079744294276438
exact,pre_advance,DELTA_SA,ar,midas_umidas,2005:Q1,-39.797824425064846,-39.797824425064846
exact,pre_advance,DELTA_SA,ar,midas_umidas,2005:Q2,-10.838923677608678,-50.63674810267352
exact,pre_advance,DELTA_SA,ar,midas_umidas,2005:Q3,-2.2266161401798246,-52.86336424285334
exact,pre_advance,DELTA_SA,ar,midas_umidas,2005:Q4,-76.51074939331531,-129.37411363616866
exact,pre_advance,DELTA_SA,ar,midas_umidas,2006:Q1,-624.8393306229966,-754.2134442591653
exact,pre_advance,DELTA_SA,ar,midas_umidas,2006:Q2,-51.60484976710727,-805.8182940262725
exact,pre_advance,DELTA_SA,ar,midas_umidas,2006:Q3,-2.896052548813862,-808.7143465750863
exact,pre_advance,DELTA_SA,ar,midas_umidas,2006:Q4,-20.201108426843934,-828.9154550019302
exact,pre_advance,DELTA_SA,ar,midas_umidas,2007:Q1,-339.242528006535,-1168.1579830084652
exact,pre_advance,DELTA_SA,ar,midas_umidas,2007:Q2,-454.63351199969196,-1622.7914950081572
exact,pre_advance,DELTA_SA,ar,midas_umidas,2007:Q3,-1445.2558135562338,-3068.0473085643907
exact,pre_advance,DELTA_SA,ar,midas_umidas,2007:Q4,-109.85550522469542,-3177.902813789086
exact,pre_advance,DELTA_SA,ar,midas_umidas,2008:Q1,-0.353653234035842,-3178.256467023122
exact,pre_advance,DELTA_SA,ar,midas_umidas,2008:Q2,-411.6733521385076,-3589.9298191616294
exact,pre_advance,DELTA_SA,ar,midas_umidas,2008:Q3,-16.457374174265517,-3606.387193335895
exact,pre_advance,DELTA_SA,ar,midas_umidas,2008:Q4,-658.2226269871077,-4264.609820323003
exact,pre_advance,DELTA_SA,ar,midas_umidas,2009:Q1,-1734.2252989296749,-5998.835119252678
exact,pre_advance,DELTA_SA,ar,midas_umidas,2009:Q2,0.22143764520565734,-5998.613681607472
exact,pre_advance,DELTA_SA,ar,midas_umidas,2009:Q3,-124.17561613051467,-6122.789297737987
exact,pre_advance,DELTA_SA,ar,midas_umidas,2009:Q4,-110.45342341372383,-6233.242721151711
exact,pre_advance,DELTA_SA,ar,midas_umidas,2010:Q1,-275.029314951508,-6508.272036103219
exact,pre_advance,DELTA_SA,ar,midas_umidas,2010:Q2,-53.83744935649098,-6562.1094854597095
exact,pre_advance,DELTA_SA,ar,midas_umidas,2010:Q3,-504.1498345524276,-7066.259320012137
exact,pre_advance,DELTA_SA,ar,midas_umidas,2010:Q4,-149.34422941051264,-7215.60354942265
exact,pre_advance,DELTA_SA,ar,midas_umidas,2011:Q1,-76.18270495073548,-7291.786254373385
exact,pre_advance,DELTA_SA,ar,midas_umidas,2011:Q2,-451.8456247833127,-7743.631879156698
exact,pre_advance,DELTA_SA,ar,midas_umidas,2011:Q3,0.1306085067816537,-7743.5012706499165
exact,pre_advance,DELTA_SA,ar,midas_umidas,2011:Q4,-178.48758528534628,-7921.988855935263
exact,pre_advance,DELTA_SA,ar,midas_umidas,2012:Q1,-165.6814547360206,-8087.670310671284
exact,pre_advance,DELTA_SA,ar,midas_umidas,2012:Q2,-47.673541919418405,-8135.343852590702
exact,pre_advance,DELTA_SA,ar,midas_umidas,2012:Q3,-52.97128713103753,-8188.31513972174
exact,pre_advance,DELTA_SA,ar,midas_umidas,2012:Q4,-35.87250645476155,-8224.1876461765
exact,pre_advance,DELTA_SA,ar,midas_umidas,2013:Q1,-78.68787456069492,-8302.875520737196
exact,pre_advance,DELTA_SA,ar,midas_umidas,2013:Q2,-223.52534495255938,-8526.400865689755
exact,pre_advance,DELTA_SA,ar,midas_umidas,2013:Q3,-20.60176487992064,-8547.002630569676
exact,pre_advance,DELTA_SA,ar,midas_umidas,2013:Q4,-23.131777229382795,-8570.134407799058
exact,pre_advance,DELTA_SA,ar,midas_umidas,2014:Q1,-86.83478800644464,-8656.969195805503
exact,pre_advance,DELTA_SA,ar,midas_umidas,2014:Q2,-148.1537614966031,-8805.122957302106
exact,pre_advance,DELTA_SA,ar,midas_umidas,2014:Q3,-21.563616269848954,-8826.686573571955
exact,pre_advance,DELTA_SA,ar,midas_umidas,2014:Q4,-15.719381848728865,-8842.405955420683
exact,pre_advance,DELTA_SA,ar,midas_umidas,2015:Q1,-3.2433959454790857,-8845.649351366163
exact,pre_advance,DELTA_SA,ar,midas_umidas,2015:Q2,2.8534791315047743,-8842.795872234658
exact,pre_advance,DELTA_SA,ar,midas_umidas,2015:Q3,-43.68811698390953,-8886.483989218566
exact,pre_advance,DELTA_SA,ar,midas_umidas,2015:Q4,-24.973768284074954,-8911.457757502641
exact,pre_advance,DELTA_SA,ar,midas_umidas,2016:Q1,-25.74251643989438,-8937.200273942535
exact,pre_advance,DELTA_SA,ar,midas_umidas,2016:Q2,-7.702559624924386,-8944.90283356746
exact,pre_advance,DELTA_SA,ar,midas_umidas,2016:Q3,-0.418644520766393,-8945.321478088226
exact,pre_advance,DELTA_SA,ar,midas_umidas,2016:Q4,-1.6878248577371244,-8947.009302945964
exact,pre_advance,DELTA_SA,ar,midas_umidas,2017:Q1,-1.396469369919674,-8948.405772315884
exact,pre_advance,DELTA_SA,ar,midas_umidas,2017:Q2,-0.2386418337185627,-8948.644414149603
exact,pre_advance,DELTA_SA,ar,midas_umidas,2017:Q3,-9.894772171958993,-8958.539186321563
exact,pre_advance,DELTA_SA,ar,midas_umidas,2017:Q4,-0.06785400372463576,-8958.607040325287
exact,pre_advance,DELTA_SA,ar,midas_umidas,2018:Q1,-0.8285480132736229,-8959.435588338562
exact,pre_advance,DELTA_SA,ar,midas_umidas,2018:Q2,-12.28694297591866,-8971.72253131448
exact,pre_advance,DELTA_SA,ar,midas_umidas,2018:Q3,-4.533494700401147,-8976.256026014882
exact,pre_advance,DELTA_SA,ar,midas_umidas,2019:Q1,0.29472275296400674,-8975.961303261918
exact,pre_advance,DELTA_SA,ar,midas_umidas,2019:Q2,-0.43696293477333575,-8976.398266196691
exact,pre_advance,DELTA_SA,ar,midas_umidas,2019:Q3,-1.073933679541503,-8977.472199876232
exact,pre_advance,DELTA_SA,ar,midas_umidas,2019:Q4,-0.7868392335367862,-8978.25903910977
exact,pre_advance,DELTA_SA,ar,midas_umidas,2020:Q1,-1.0551657413501645,-8979.31420485112
exact,pre_advance,DELTA_SA,ar,midas_umidas,2020:Q2,-2064.435032508436,-11043.749237359556
exact,pre_advance,DELTA_SA,ar,midas_umidas,2020:Q3,-4078.7524783179065,-15122.501715677463
exact,pre_advance,DELTA_SA,ar,midas_umidas,2020:Q4,-6.506950483246372,-15129.00866616071
exact,pre_advance,DELTA_SA,ar,midas_umidas,2021:Q1,-4.596760703580678,-15133.60542686429
exact,pre_advance,DELTA_SA,ar,midas_umidas,2021:Q2,-8.28713987226398,-15141.892566736553
exact,pre_advance,DELTA_SA,ar,midas_umidas,2021:Q3,-0.14777608474138854,-15142.040342821294
exact,pre_advance,DELTA_SA,ar,midas_umidas,2021:Q4,-0.6833823726336089,-15142.723725193928
exact,pre_advance,DELTA_SA,ar,midas_umidas,2022:Q1,-0.35382729002974433,-15143.077552483957
exact,pre_advance,DELTA_SA,ar,midas_umidas,2022:Q2,0.08787319677964962,-15142.989679287177
exact,pre_advance,DELTA_SA,ar,midas_umidas,2022:Q3,0.09018879892357301,-15142.899490488253
exact,pre_advance,DELTA_SA,ar,midas_umidas,2022:Q4,-4.967035646849074,-15147.866526135102
exact,pre_advance,DELTA_SA,ar,midas_umidas,2023:Q1,-0.7470003290390006,-15148.61352646414
exact,pre_advance,DELTA_SA,ar,midas_umidas,2023:Q2,-3.5272575221531675,-15152.140783986293
exact,pre_advance,DELTA_SA,ar,midas_umidas,2023:Q3,-0.22947939040660967,-15152.3702633767
exact,pre_advance,DELTA_SA,ar,midas_umidas,2023:Q4,-0.11970627412488263,-15152.489969650826
exact,pre_advance,DELTA_SA,ar,midas_umidas,2024:Q1,0.1867492213036634,-15152.303220429521
exact,pre_advance,DELTA_SA,ar,midas_umidas,2024:Q2,0.0029975257085396354,-15152.300222903812
exact,pre_advance,DELTA_SA,ar,midas_umidas,2024:Q3,-0.20633145236123396,-15152.506554356174
exact,pre_advance,DELTA_SA,ar,midas_umidas,2024:Q4,-1.63604893282211,-15154.142603288996
exact,pre_advance,DELTA_SA,ar,monthly_mixed_frequency_kalman_em,2005:Q1,-0.17805708658498554,-0.17805708658498554
exact,pre_advance,DELTA_SA,ar,monthly_mixed_frequency_kalman_em,2005:Q2,0.0460815313694085,-0.13197555521557702
exact,pre_advance,DELTA_SA,ar,monthly_mixed_frequency_kalman_em,2005:Q3,-0.528455616811773,-0.66043117202735
exact,pre_advance,DELTA_SA,ar,monthly_mixed_frequency_kalman_em,2005:Q4,0.05758961866493246,-0.6028415533624175
exact,pre_advance,DELTA_SA,ar,monthly_mixed_frequency_kalman_em,2006:Q1,-0.22967668482141868,-0.8325182381838362
exact,pre_advance,DELTA_SA,ar,monthly_mixed_frequency_kalman_em,2006:Q2,0.051200341354966525,-0.7813178968288697
exact,pre_advance,DELTA_SA,ar,monthly_mixed_frequency_kalman_em,2006:Q3,-0.32127353613425885,-1.1025914329631286
exact,pre_advance,DELTA_SA,ar,monthly_mixed_frequency_kalman_em,2006:Q4,0.6902811654827263,-0.4123102674804022
exact,pre_advance,DELTA_SA,ar,monthly_mixed_frequency_kalman_em,2007:Q1,-0.2076472144318263,-0.6199574819122285
exact,pre_advance,DELTA_SA,ar,monthly_mixed_frequency_kalman_em,2007:Q2,0.4662614581386297,-0.15369602377359887
exact,pre_advance,DELTA_SA,ar,monthly_mixed_frequency_kalman_em,2007:Q3,-0.1730079607500864,-0.32670398452368526
exact,pre_advance,DELTA_SA,ar,monthly_mixed_frequency_kalman_em,2007:Q4,0.19795963324046895,-0.12874435128321632
exact,pre_advance,DELTA_SA,ar,monthly_mixed_frequency_kalman_em,2008:Q1,0.02100487972986294,-0.10773947155335338
exact,pre_advance,DELTA_SA,ar,monthly_mixed_frequency_kalman_em,2008:Q2,-0.5581278076682781,-0.6658672792216315
exact,pre_advance,DELTA_SA,ar,monthly_mixed_frequency_kalman_em,2008:Q3,0.9511567399955346,0.28528946077390316
exact,pre_advance,DELTA_SA,ar,monthly_mixed_frequency_kalman_em,2008:Q4,1.586490951321485,1.8717804120953883
exact,pre_advance,DELTA_SA,ar,monthly_mixed_frequency_kalman_em,2009:Q1,1.4969245936120001,3.3687050057073886
exact,pre_advance,DELTA_SA,ar,monthly_mixed_frequency_kalman_em,2009:Q2,0.2556081598301483,3.624313165537537
exact,pre_advance,DELTA_SA,ar,monthly_mixed_frequency_kalman_em,2009:Q3,0.28731103781549594,3.911624203353033
exact,pre_advance,DELTA_SA,ar,monthly_mixed_frequency_kalman_em,2009:Q4,0.28163500042353745,4.19325920377657
exact,pre_advance,DELTA_SA,ar,monthly_mixed_frequency_kalman_em,2010:Q1,-0.017454373509306564,4.175804830267263
exact,pre_advance,DELTA_SA,ar,monthly_mixed_frequency_kalman_em,2010:Q2,-0.27733262420130966,3.8984722060659536
exact,pre_advance,DELTA_SA,ar,monthly_mixed_frequency_kalman_em,2010:Q3,0.47338587967286333,4.3718580857388165
exact,pre_advance,DELTA_SA,ar,monthly_mixed_frequency_kalman_em,2010:Q4,0.18489848124679148,4.556756566985608
exact,pre_advance,DELTA_SA,ar,monthly_mixed_frequency_kalman_em,2011:Q1,0.049430155294715075,4.606186722280323
exact,pre_advance,DELTA_SA,ar,monthly_mixed_frequency_kalman_em,2011:Q2,0.0005131911252316268,4.606699913405555
exact,pre_advance,DELTA_SA,ar,monthly_mixed_frequency_kalman_em,2011:Q3,-0.17303367687118504,4.4336662365343695
exact,pre_advance,DELTA_SA,ar,monthly_mixed_frequency_kalman_em,2011:Q4,0.15452136566361385,4.5881876021979835
exact,pre_advance,DELTA_SA,ar,monthly_mixed_frequency_kalman_em,2012:Q1,0.03443378452880133,4.6226213867267845
exact,pre_advance,DELTA_SA,ar,monthly_mixed_frequency_kalman_em,2012:Q2,0.08412498007108642,4.706746366797871
exact,pre_advance,DELTA_SA,ar,monthly_mixed_frequency_kalman_em,2012:Q3,0.029409300603313177,4.736155667401184
exact,pre_advance,DELTA_SA,ar,monthly_mixed_frequency_kalman_em,2012:Q4,-0.026922127134086003,4.709233540267098
exact,pre_advance,DELTA_SA,ar,monthly_mixed_frequency_kalman_em,2013:Q1,0.13428986547435065,4.843523405741449
exact,pre_advance,DELTA_SA,ar,monthly_mixed_frequency_kalman_em,2013:Q2,0.13988275431753616,4.983406160058985
exact,pre_advance,DELTA_SA,ar,monthly_mixed_frequency_kalman_em,2013:Q3,-0.3527785019962606,4.630627658062725
exact,pre_advance,DELTA_SA,ar,monthly_mixed_frequency_kalman_em,2013:Q4,0.7548816059181084,5.3855092639808335
exact,pre_advance,DELTA_SA,ar,monthly_mixed_frequency_kalman_em,2014:Q1,-0.8018420774405373,4.583667186540296
exact,pre_advance,DELTA_SA,ar,monthly_mixed_frequency_kalman_em,2014:Q2,0.3408269810678381,4.924494167608135
exact,pre_advance,DELTA_SA,ar,monthly_mixed_frequency_kalman_em,2014:Q3,0.03568280201321304,4.960176969621347
exact,pre_advance,DELTA_SA,ar,monthly_mixed_frequency_kalman_em,2014:Q4,0.2425775654222139,5.202754535043561
exact,pre_advance,DELTA_SA,ar,monthly_mixed_frequency_kalman_em,2015:Q1,-0.1836738643989826,5.019080670644579
exact,pre_advance,DELTA_SA,ar,monthly_mixed_frequency_kalman_em,2015:Q2,1.5252839749558045,6.544364645600384
exact,pre_advance,DELTA_SA,ar,monthly_mixed_frequency_kalman_em,2015:Q3,-0.34777491115090364,6.19658973444948
exact,pre_advance,DELTA_SA,ar,monthly_mixed_frequency_kalman_em,2015:Q4,-0.051530782297726445,6.145058952151754
exact,pre_advance,DELTA_SA,ar,monthly_mixed_frequency_kalman_em,2016:Q1,-0.031967990404861264,6.1130909617468925
exact,pre_advance,DELTA_SA,ar,monthly_mixed_frequency_kalman_em,2016:Q2,0.0483745127567439,6.161465474503636
exact,pre_advance,DELTA_SA,ar,monthly_mixed_frequency_kalman_em,2016:Q3,0.04367262341330772,6.205138097916944
exact,pre_advance,DELTA_SA,ar,monthly_mixed_frequency_kalman_em,2016:Q4,-0.033106851223265926,6.1720312466936775
exact,pre_advance,DELTA_SA,ar,monthly_mixed_frequency_kalman_em,2017:Q1,0.07164748578840233,6.2436787324820795
exact,pre_advance,DELTA_SA,ar,monthly_mixed_frequency_kalman_em,2017:Q2,-0.02613880088457952,6.2175399315975
exact,pre_advance,DELTA_SA,ar,monthly_mixed_frequency_kalman_em,2017:Q3,-0.021038237598899265,6.1965016939986
exact,pre_advance,DELTA_SA,ar,monthly_mixed_frequency_kalman_em,2017:Q4,-0.10571972383964254,6.090781970158958
exact,pre_advance,DELTA_SA,ar,monthly_mixed_frequency_kalman_em,2018:Q1,0.02148956582502877,6.112271535983987
exact,pre_advance,DELTA_SA,ar,monthly_mixed_frequency_kalman_em,2018:Q2,0.013840453168853514,6.12611198915284
exact,pre_advance,DELTA_SA,ar,monthly_mixed_frequency_kalman_em,2018:Q3,-0.0013445773226124897,6.124767411830228
exact,pre_advance,DELTA_SA,ar,monthly_mixed_frequency_kalman_em,2019:Q1,0.2962444944137291,6.421011906243957
exact,pre_advance,DELTA_SA,ar,monthly_mixed_frequency_kalman_em,2019:Q2,-0.0013248484362840289,6.419687057807673
exact,pre_advance,DELTA_SA,ar,monthly_mixed_frequency_kalman_em,2019:Q3,-0.08721676840178506,6.3324702894058875
exact,pre_advance,DELTA_SA,ar,monthly_mixed_frequency_kalman_em,2019:Q4,-0.015564144028188977,6.316906145377699
exact,pre_advance,DELTA_SA,ar,monthly_mixed_frequency_kalman_em,2020:Q1,-0.1683331030267075,6.148573042350991
exact,pre_advance,DELTA_SA,ar,monthly_mixed_frequency_kalman_em,2020:Q2,-0.5194358627776884,5.629137179573303
exact,pre_advance,DELTA_SA,ar,monthly_mixed_frequency_kalman_em,2020:Q3,5.11236533840292,10.741502517976222
exact,pre_advance,DELTA_SA,ar,monthly_mixed_frequency_kalman_em,2020:Q4,0.31899741372835755,11.06049993170458
exact,pre_advance,DELTA_SA,ar,monthly_mixed_frequency_kalman_em,2021:Q1,-0.16461765514511015,10.89588227655947
exact,pre_advance,DELTA_SA,ar,monthly_mixed_frequency_kalman_em,2021:Q2,0.008307981532142255,10.904190258091614
exact,pre_advance,DELTA_SA,ar,monthly_mixed_frequency_kalman_em,2021:Q3,-0.010850543821625683,10.893339714269988
exact,pre_advance,DELTA_SA,ar,monthly_mixed_frequency_kalman_em,2021:Q4,-0.010385226344241907,10.882954487925746
exact,pre_advance,DELTA_SA,ar,monthly_mixed_frequency_kalman_em,2022:Q1,0.029389818948234704,10.912344306873981
exact,pre_advance,DELTA_SA,ar,monthly_mixed_frequency_kalman_em,2022:Q2,0.04369433249549527,10.956038639369476
exact,pre_advance,DELTA_SA,ar,monthly_mixed_frequency_kalman_em,2022:Q3,0.039345558241220484,10.995384197610697
exact,pre_advance,DELTA_SA,ar,monthly_mixed_frequency_kalman_em,2022:Q4,0.027420328511652214,11.02280452612235
exact,pre_advance,DELTA_SA,ar,monthly_mixed_frequency_kalman_em,2023:Q1,-0.015485972905346812,11.007318553217003
exact,pre_advance,DELTA_SA,ar,monthly_mixed_frequency_kalman_em,2023:Q2,-0.011397712861919929,10.995920840355083
exact,pre_advance,DELTA_SA,ar,monthly_mixed_frequency_kalman_em,2023:Q3,0.013191346677098498,11.009112187032182
exact,pre_advance,DELTA_SA,ar,monthly_mixed_frequency_kalman_em,2023:Q4,0.02886176802589393,11.037973955058076
exact,pre_advance,DELTA_SA,ar,monthly_mixed_frequency_kalman_em,2024:Q1,0.05985126904329263,11.097825224101369
exact,pre_advance,DELTA_SA,ar,monthly_mixed_frequency_kalman_em,2024:Q2,0.002378785489957854,11.100204009591327
exact,pre_advance,DELTA_SA,ar,monthly_mixed_frequency_kalman_em,2024:Q3,0.007151336601932953,11.107355346193259
exact,pre_advance,DELTA_SA,ar,monthly_mixed_frequency_kalman_em,2024:Q4,-0.0002607779944586651,11.1070945681988
exact,pre_advance,DELTA_SA,ar,no_revision,2005:Q1,-0.15257503321613658,-0.15257503321613658
exact,pre_advance,DELTA_SA,ar,no_revision,2005:Q2,0.10304262774761302,-0.049532405468523555
exact,pre_advance,DELTA_SA,ar,no_revision,2005:Q3,0.03151683579611303,-0.018015569672410525
exact,pre_advance,DELTA_SA,ar,no_revision,2005:Q4,-0.17958946757420496,-0.1976050372466155
exact,pre_advance,DELTA_SA,ar,no_revision,2006:Q1,-0.22225097588053042,-0.41985601312714593
exact,pre_advance,DELTA_SA,ar,no_revision,2006:Q2,-0.1338214718146227,-0.5536774849417686
exact,pre_advance,DELTA_SA,ar,no_revision,2006:Q3,-0.2655324769569707,-0.8192099618987393
exact,pre_advance,DELTA_SA,ar,no_revision,2006:Q4,1.1280810824986391,0.30887112059989985
exact,pre_advance,DELTA_SA,ar,no_revision,2007:Q1,-0.36488258133290913,-0.05601146073300928
exact,pre_advance,DELTA_SA,ar,no_revision,2007:Q2,0.2101220628635298,0.15411060213052052
exact,pre_advance,DELTA_SA,ar,no_revision,2007:Q3,-0.5038879623481906,-0.34977736021767003
exact,pre_advance,DELTA_SA,ar,no_revision,2007:Q4,0.23194641324995732,-0.11783094696771271
exact,pre_advance,DELTA_SA,ar,no_revision,2008:Q1,-0.06565748592115798,-0.18348843288887068
exact,pre_advance,DELTA_SA,ar,no_revision,2008:Q2,-0.7051418869943866,-0.8886303198832572
exact,pre_advance,DELTA_SA,ar,no_revision,2008:Q3,0.8839041046210189,-0.004726215262238376
exact,pre_advance,DELTA_SA,ar,no_revision,2008:Q4,0.39399862829546173,0.38927241303322335
exact,pre_advance,DELTA_SA,ar,no_revision,2009:Q1,1.3203689037955737,1.709641316828797
exact,pre_advance,DELTA_SA,ar,no_revision,2009:Q2,0.36877932291984866,2.0784206397486455
exact,pre_advance,DELTA_SA,ar,no_revision,2009:Q3,0.31974831955083616,2.3981689592994817
exact,pre_advance,DELTA_SA,ar,no_revision,2009:Q4,0.2461874095178597,2.6443563688173413
exact,pre_advance,DELTA_SA,ar,no_revision,2010:Q1,0.012274663642203441,2.656631032459545
exact,pre_advance,DELTA_SA,ar,no_revision,2010:Q2,-0.10097637669884518,2.5556546557606996
exact,pre_advance,DELTA_SA,ar,no_revision,2010:Q3,0.41001530272678194,2.9656699584874815
exact,pre_advance,DELTA_SA,ar,no_revision,2010:Q4,0.33708017745408314,3.3027501359415647
exact,pre_advance,DELTA_SA,ar,no_revision,2011:Q1,0.05273638935335863,3.3554865252949235
exact,pre_advance,DELTA_SA,ar,no_revision,2011:Q2,0.0864949621817803,3.4419814874767036
exact,pre_advance,DELTA_SA,ar,no_revision,2011:Q3,-0.03822954602021156,3.403751941456492
exact,pre_advance,DELTA_SA,ar,no_revision,2011:Q4,0.1042486389810256,3.5080005804375176
exact,pre_advance,DELTA_SA,ar,no_revision,2012:Q1,0.12270345028699549,3.6307040307245133
exact,pre_advance,DELTA_SA,ar,no_revision,2012:Q2,0.05124300972150874,3.681947040446022
exact,pre_advance,DELTA_SA,ar,no_revision,2012:Q3,-0.19803121584843814,3.483915824597584
exact,pre_advance,DELTA_SA,ar,no_revision,2012:Q4,-0.06160444841889918,3.4223113761786847
exact,pre_advance,DELTA_SA,ar,no_revision,2013:Q1,0.13839352919058448,3.560704905369269
exact,pre_advance,DELTA_SA,ar,no_revision,2013:Q2,0.010665904843470964,3.5713708102127404
exact,pre_advance,DELTA_SA,ar,no_revision,2013:Q3,-0.49085393179229264,3.0805168784204477
exact,pre_advance,DELTA_SA,ar,no_revision,2013:Q4,0.8147882022650561,3.895305080685504
exact,pre_advance,DELTA_SA,ar,no_revision,2014:Q1,-0.6728261778290336,3.22247890285647
exact,pre_advance,DELTA_SA,ar,no_revision,2014:Q2,0.3153905835886226,3.537869486445093
exact,pre_advance,DELTA_SA,ar,no_revision,2014:Q3,-0.05736992828325174,3.480499558161841
exact,pre_advance,DELTA_SA,ar,no_revision,2014:Q4,0.18045818425062124,3.6609577424124624
exact,pre_advance,DELTA_SA,ar,no_revision,2015:Q1,-0.30424364925329495,3.3567140931591677
exact,pre_advance,DELTA_SA,ar,no_revision,2015:Q2,1.0249249122593762,4.381639005418544
exact,pre_advance,DELTA_SA,ar,no_revision,2015:Q3,-0.3345827492334456,4.0470562561850985
exact,pre_advance,DELTA_SA,ar,no_revision,2015:Q4,-0.09676443992777004,3.9502918162573284
exact,pre_advance,DELTA_SA,ar,no_revision,2016:Q1,-0.09029065158363185,3.8600011646736965
exact,pre_advance,DELTA_SA,ar,no_revision,2016:Q2,0.1360297525459644,3.996030917219661
exact,pre_advance,DELTA_SA,ar,no_revision,2016:Q3,-0.021175007572158712,3.974855909647502
exact,pre_advance,DELTA_SA,ar,no_revision,2016:Q4,0.02734587565242416,4.002201785299926
exact,pre_advance,DELTA_SA,ar,no_revision,2017:Q1,-0.056295362083760514,3.945906423216165
exact,pre_advance,DELTA_SA,ar,no_revision,2017:Q2,-0.1998229027002102,3.746083520515955
exact,pre_advance,DELTA_SA,ar,no_revision,2017:Q3,-0.09239460605426397,3.653688914461691
exact,pre_advance,DELTA_SA,ar,no_revision,2017:Q4,0.035699658663772574,3.6893885731254636
exact,pre_advance,DELTA_SA,ar,no_revision,2018:Q1,0.012703611098869368,3.702092184224333
exact,pre_advance,DELTA_SA,ar,no_revision,2018:Q2,0.0030213569949030655,3.705113541219236
exact,pre_advance,DELTA_SA,ar,no_revision,2018:Q3,0.0032310710133240618,3.70834461223256
exact,pre_advance,DELTA_SA,ar,no_revision,2019:Q1,0.3134694480182471,4.021814060250807
exact,pre_advance,DELTA_SA,ar,no_revision,2019:Q2,-0.00020861065790184213,4.021605449592905
exact,pre_advance,DELTA_SA,ar,no_revision,2019:Q3,-0.020795440927072837,4.000810008665832
exact,pre_advance,DELTA_SA,ar,no_revision,2019:Q4,0.022807340587339162,4.023617349253171
exact,pre_advance,DELTA_SA,ar,no_revision,2020:Q1,0.04374626691208146,4.067363616165252
exact,pre_advance,DELTA_SA,ar,no_revision,2020:Q2,-0.4848885887598303,3.582475027405422
exact,pre_advance,DELTA_SA,ar,no_revision,2020:Q3,6.6030936783793335,10.185568705784755
exact,pre_advance,DELTA_SA,ar,no_revision,2020:Q4,0.3494364241901803,10.535005129974936
exact,pre_advance,DELTA_SA,ar,no_revision,2021:Q1,0.010481372036795358,10.54548650201173
exact,pre_advance,DELTA_SA,ar,no_revision,2021:Q2,0.005674643654305938,10.551161145666036
exact,pre_advance,DELTA_SA,ar,no_revision,2021:Q3,-0.00428446848418562,10.546876677181851
exact,pre_advance,DELTA_SA,ar,no_revision,2021:Q4,-0.009636975615624089,10.537239701566227
exact,pre_advance,DELTA_SA,ar,no_revision,2022:Q1,0.05376352283472801,10.591003224400955
exact,pre_advance,DELTA_SA,ar,no_revision,2022:Q2,-0.01747374549873487,10.57352947890222
exact,pre_advance,DELTA_SA,ar,no_revision,2022:Q3,-0.038912176234116996,10.534617302668103
exact,pre_advance,DELTA_SA,ar,no_revision,2022:Q4,0.058622083054108,10.59323938572221
exact,pre_advance,DELTA_SA,ar,no_revision,2023:Q1,-0.02740533844308022,10.56583404727913
exact,pre_advance,DELTA_SA,ar,no_revision,2023:Q2,0.06172819389498699,10.627562241174118
exact,pre_advance,DELTA_SA,ar,no_revision,2023:Q3,-0.03194758936873526,10.595614651805382
exact,pre_advance,DELTA_SA,ar,no_revision,2023:Q4,0.03690159867203891,10.63251625047742
exact,pre_advance,DELTA_SA,ar,no_revision,2024:Q1,0.07155817897030346,10.704074429447724
exact,pre_advance,DELTA_SA,ar,no_revision,2024:Q2,-0.009033581491366181,10.695040847956358
exact,pre_advance,DELTA_SA,ar,no_revision,2024:Q3,0.00727617350536104,10.702317021461718
exact,pre_advance,DELTA_SA,ar,no_revision,2024:Q4,-0.008788760628669104,10.69352826083305
exact,pre_advance,DELTA_SA,ar,release_dfm,2005:Q1,-0.06457257404199196,-0.06457257404199196
exact,pre_advance,DELTA_SA,ar,release_dfm,2005:Q2,0.05392100705411307,-0.010651566987878891
exact,pre_advance,DELTA_SA,ar,release_dfm,2005:Q3,0.12191070539466523,0.11125913840678633
exact,pre_advance,DELTA_SA,ar,release_dfm,2005:Q4,-0.03851182739693809,0.07274731100984824
exact,pre_advance,DELTA_SA,ar,release_dfm,2006:Q1,-0.09630907940028732,-0.02356176839043908
exact,pre_advance,DELTA_SA,ar,release_dfm,2006:Q2,-0.006343046395281451,-0.029904814785720532
exact,pre_advance,DELTA_SA,ar,release_dfm,2006:Q3,-0.1027035776815714,-0.13260839246729195
exact,pre_advance,DELTA_SA,ar,release_dfm,2006:Q4,1.0276047402758972,0.8949963478086053
exact,pre_advance,DELTA_SA,ar,release_dfm,2007:Q1,-0.41408575323464875,0.4809105945739565
exact,pre_advance,DELTA_SA,ar,release_dfm,2007:Q2,0.3272665697635969,0.8081771643375535
exact,pre_advance,DELTA_SA,ar,release_dfm,2007:Q3,-0.3348463681699476,0.47333079616760587
exact,pre_advance,DELTA_SA,ar,release_dfm,2007:Q4,0.23170019018880766,0.7050309863564135
exact,pre_advance,DELTA_SA,ar,release_dfm,2008:Q1,-0.09998664863071874,0.6050443377256948
exact,pre_advance,DELTA_SA,ar,release_dfm,2008:Q2,-0.7880304720767588,-0.18298613435106403
exact,pre_advance,DELTA_SA,ar,release_dfm,2008:Q3,0.9004291296287449,0.7174429952776809
exact,pre_advance,DELTA_SA,ar,release_dfm,2008:Q4,2.0518569757106633,2.769299970988344
exact,pre_advance,DELTA_SA,ar,release_dfm,2009:Q1,-1.309095775368377,1.4602041956199672
exact,pre_advance,DELTA_SA,ar,release_dfm,2009:Q2,0.29556918667558446,1.7557733822955517
exact,pre_advance,DELTA_SA,ar,release_dfm,2009:Q3,0.06344779921680854,1.8192211815123602
exact,pre_advance,DELTA_SA,ar,release_dfm,2009:Q4,0.2826198032348088,2.101840984747169
exact,pre_advance,DELTA_SA,ar,release_dfm,2010:Q1,-0.23945245033583445,1.8623885344113345
exact,pre_advance,DELTA_SA,ar,release_dfm,2010:Q2,-0.43427508410354076,1.4281134503077937
exact,pre_advance,DELTA_SA,ar,release_dfm,2010:Q3,0.5008024804713807,1.9289159307791743
exact,pre_advance,DELTA_SA,ar,release_dfm,2010:Q4,0.25584879905282176,2.184764729831996
exact,pre_advance,DELTA_SA,ar,release_dfm,2011:Q1,0.016558704882427375,2.2013234347144235
exact,pre_advance,DELTA_SA,ar,release_dfm,2011:Q2,0.014075986477936259,2.2153994211923598
exact,pre_advance,DELTA_SA,ar,release_dfm,2011:Q3,-0.15806562807392172,2.057333793118438
exact,pre_advance,DELTA_SA,ar,release_dfm,2011:Q4,0.1550867166435113,2.2124205097619494
exact,pre_advance,DELTA_SA,ar,release_dfm,2012:Q1,-0.06456927922788744,2.147851230534062
exact,pre_advance,DELTA_SA,ar,release_dfm,2012:Q2,0.07649001778942476,2.2243412483234866
exact,pre_advance,DELTA_SA,ar,release_dfm,2012:Q3,-0.09411694703936069,2.1302243012841258
exact,pre_advance,DELTA_SA,ar,release_dfm,2012:Q4,0.0020050161951079247,2.1322293174792337
exact,pre_advance,DELTA_SA,ar,release_dfm,2013:Q1,0.09100039082084721,2.2232297083000807
exact,pre_advance,DELTA_SA,ar,release_dfm,2013:Q2,0.19390107916547772,2.4171307874655583
exact,pre_advance,DELTA_SA,ar,release_dfm,2013:Q3,-0.3479050431917394,2.069225744273819
exact,pre_advance,DELTA_SA,ar,release_dfm,2013:Q4,0.4497329579020104,2.518958702175829
exact,pre_advance,DELTA_SA,ar,release_dfm,2014:Q1,-0.8583308373830141,1.660627864792815
exact,pre_advance,DELTA_SA,ar,release_dfm,2014:Q2,0.3652294107029636,2.0258572754957784
exact,pre_advance,DELTA_SA,ar,release_dfm,2014:Q3,0.01403490485174793,2.0398921803475263
exact,pre_advance,DELTA_SA,ar,release_dfm,2014:Q4,0.08228803521466005,2.1221802155621865
exact,pre_advance,DELTA_SA,ar,release_dfm,2015:Q1,-0.31184236052820247,1.8103378550339841
exact,pre_advance,DELTA_SA,ar,release_dfm,2015:Q2,1.3035716979369338,3.113909552970918
exact,pre_advance,DELTA_SA,ar,release_dfm,2015:Q3,-0.23002657645394253,2.8838829765169756
exact,pre_advance,DELTA_SA,ar,release_dfm,2015:Q4,-0.07014253561235265,2.8137404409046227
exact,pre_advance,DELTA_SA,ar,release_dfm,2016:Q1,-0.06222528198854299,2.75151515891608
exact,pre_advance,DELTA_SA,ar,release_dfm,2016:Q2,0.11559094826535313,2.8671061071814328
exact,pre_advance,DELTA_SA,ar,release_dfm,2016:Q3,0.012368181166111498,2.879474288347544
exact,pre_advance,DELTA_SA,ar,release_dfm,2016:Q4,-2.457762946924194e-05,2.8794497107180748
exact,pre_advance,DELTA_SA,ar,release_dfm,2017:Q1,0.03677153658568007,2.916221247303755
exact,pre_advance,DELTA_SA,ar,release_dfm,2017:Q2,-0.10011724287491425,2.8161040044288406
exact,pre_advance,DELTA_SA,ar,release_dfm,2017:Q3,-0.05757220247213498,2.7585318019567056
exact,pre_advance,DELTA_SA,ar,release_dfm,2017:Q4,-0.018795635845599436,2.739736166111106
exact,pre_advance,DELTA_SA,ar,release_dfm,2018:Q1,-0.07137453950156954,2.6683616266095362
exact,pre_advance,DELTA_SA,ar,release_dfm,2018:Q2,0.02732140167321683,2.695683028282753
exact,pre_advance,DELTA_SA,ar,release_dfm,2018:Q3,-0.01517884791799765,2.680504180364755
exact,pre_advance,DELTA_SA,ar,release_dfm,2019:Q1,0.3056651959381533,2.9861693763029082
exact,pre_advance,DELTA_SA,ar,release_dfm,2019:Q2,-0.006542066970037425,2.9796273093328707
exact,pre_advance,DELTA_SA,ar,release_dfm,2019:Q3,0.0045591534171501615,2.9841864627500208
exact,pre_advance,DELTA_SA,ar,release_dfm,2019:Q4,0.022458742746033496,3.006645205496054
exact,pre_advance,DELTA_SA,ar,release_dfm,2020:Q1,0.07929702576198386,3.0859422312580382
exact,pre_advance,DELTA_SA,ar,release_dfm,2020:Q2,-6.343919910050812,-3.257977678792774
exact,pre_advance,DELTA_SA,ar,release_dfm,2020:Q3,6.585229036056758,3.3272513572639837
exact,pre_advance,DELTA_SA,ar,release_dfm,2020:Q4,0.3553294223382184,3.682580779602202
exact,pre_advance,DELTA_SA,ar,release_dfm,2021:Q1,0.0024895334042018043,3.685070313006404
exact,pre_advance,DELTA_SA,ar,release_dfm,2021:Q2,0.006350212614450523,3.6914205256208543
exact,pre_advance,DELTA_SA,ar,release_dfm,2021:Q3,0.003397448164514412,3.694817973785369
exact,pre_advance,DELTA_SA,ar,release_dfm,2021:Q4,0.00022254856130138077,3.69504052234667
exact,pre_advance,DELTA_SA,ar,release_dfm,2022:Q1,0.02398197233090931,3.719022494677579
exact,pre_advance,DELTA_SA,ar,release_dfm,2022:Q2,0.04202620704813996,3.761048701725719
exact,pre_advance,DELTA_SA,ar,release_dfm,2022:Q3,0.021558902901119156,3.782607604626838
exact,pre_advance,DELTA_SA,ar,release_dfm,2022:Q4,0.007549276239000424,3.7901568808658386
exact,pre_advance,DELTA_SA,ar,release_dfm,2023:Q1,0.0036429627516610056,3.7937998436175
exact,pre_advance,DELTA_SA,ar,release_dfm,2023:Q2,-0.015892029036106203,3.7779078145813934
exact,pre_advance,DELTA_SA,ar,release_dfm,2023:Q3,0.011327669946062588,3.789235484527456
exact,pre_advance,DELTA_SA,ar,release_dfm,2023:Q4,0.01429794297308309,3.8035334275005392
exact,pre_advance,DELTA_SA,ar,release_dfm,2024:Q1,-0.001782041940785073,3.8017513855597542
exact,pre_advance,DELTA_SA,ar,release_dfm,2024:Q2,0.0030115301445589647,3.804762915704313
exact,pre_advance,DELTA_SA,ar,release_dfm,2024:Q3,0.0003461342174390092,3.805109049921752
exact,pre_advance,DELTA_SA,ar,release_dfm,2024:Q4,2.5610952888988313e-05,3.805134660874641
exact,pre_advance,DELTA_SA,ar,revision_dfm_kalman_em,2005:Q1,-0.11396286687056843,-0.11396286687056843
exact,pre_advance,DELTA_SA,ar,revision_dfm_kalman_em,2005:Q2,0.08717368674842242,-0.02678918012214601
exact,pre_advance,DELTA_SA,ar,revision_dfm_kalman_em,2005:Q3,0.13526727492483898,0.10847809480269296
exact,pre_advance,DELTA_SA,ar,revision_dfm_kalman_em,2005:Q4,-0.025033806546989362,0.0834442882557036
exact,pre_advance,DELTA_SA,ar,revision_dfm_kalman_em,2006:Q1,-0.11374420651024322,-0.03029991825453962
exact,pre_advance,DELTA_SA,ar,revision_dfm_kalman_em,2006:Q2,-0.10484314471836276,-0.13514306297290238
exact,pre_advance,DELTA_SA,ar,revision_dfm_kalman_em,2006:Q3,-0.2399150567164075,-0.3750581196893099
exact,pre_advance,DELTA_SA,ar,revision_dfm_kalman_em,2006:Q4,1.2584830188773044,0.8834248991879945
exact,pre_advance,DELTA_SA,ar,revision_dfm_kalman_em,2007:Q1,-0.9795303272158076,-0.09610542802781308
exact,pre_advance,DELTA_SA,ar,revision_dfm_kalman_em,2007:Q2,0.5116530976118352,0.4155476695840221
exact,pre_advance,DELTA_SA,ar,revision_dfm_kalman_em,2007:Q3,-0.46414245998631676,-0.04859479040229464
exact,pre_advance,DELTA_SA,ar,revision_dfm_kalman_em,2007:Q4,0.19100010171735304,0.1424053113150584
exact,pre_advance,DELTA_SA,ar,revision_dfm_kalman_em,2008:Q1,-0.01041568014226078,0.13198963117279763
exact,pre_advance,DELTA_SA,ar,revision_dfm_kalman_em,2008:Q2,-0.46609169303926445,-0.33410206186646685
exact,pre_advance,DELTA_SA,ar,revision_dfm_kalman_em,2008:Q3,0.9379237002409911,0.6038216383745243
exact,pre_advance,DELTA_SA,ar,revision_dfm_kalman_em,2008:Q4,2.5367495673827003,3.1405712057572246
exact,pre_advance,DELTA_SA,ar,revision_dfm_kalman_em,2009:Q1,1.318025701186834,4.4585969069440585
exact,pre_advance,DELTA_SA,ar,revision_dfm_kalman_em,2009:Q2,-0.8243869847910653,3.6342099221529933
exact,pre_advance,DELTA_SA,ar,revision_dfm_kalman_em,2009:Q3,-1.192548101652843,2.4416618205001503
exact,pre_advance,DELTA_SA,ar,revision_dfm_kalman_em,2009:Q4,0.26188272739429436,2.703544547894445
exact,pre_advance,DELTA_SA,ar,revision_dfm_kalman_em,2010:Q1,-0.23211069272459006,2.4714338551698547
exact,pre_advance,DELTA_SA,ar,revision_dfm_kalman_em,2010:Q2,-0.9025563661594781,1.5688774890103767
exact,pre_advance,DELTA_SA,ar,revision_dfm_kalman_em,2010:Q3,0.6535134423460128,2.2223909313563897
exact,pre_advance,DELTA_SA,ar,revision_dfm_kalman_em,2010:Q4,0.29349668494612785,2.5158876163025177
exact,pre_advance,DELTA_SA,ar,revision_dfm_kalman_em,2011:Q1,-0.054854810636275286,2.4610328056662425
exact,pre_advance,DELTA_SA,ar,revision_dfm_kalman_em,2011:Q2,-0.09059350991534768,2.3704392957508946
exact,pre_advance,DELTA_SA,ar,revision_dfm_kalman_em,2011:Q3,-0.41532817467805727,1.9551111210728374
exact,pre_advance,DELTA_SA,ar,revision_dfm_kalman_em,2011:Q4,0.14942248121750634,2.104533602290344
exact,pre_advance,DELTA_SA,ar,revision_dfm_kalman_em,2012:Q1,-0.15345875635224462,1.951074845938099
exact,pre_advance,DELTA_SA,ar,revision_dfm_kalman_em,2012:Q2,0.08922894036953108,2.0403037863076303
exact,pre_advance,DELTA_SA,ar,revision_dfm_kalman_em,2012:Q3,-0.071336483147727,1.9689673031599033
exact,pre_advance,DELTA_SA,ar,revision_dfm_kalman_em,2012:Q4,-0.005471521166033607,1.9634957819938696
exact,pre_advance,DELTA_SA,ar,revision_dfm_kalman_em,2013:Q1,0.01006865524217515,1.9735644372360448
exact,pre_advance,DELTA_SA,ar,revision_dfm_kalman_em,2013:Q2,0.2725169827204393,2.246081419956484
exact,pre_advance,DELTA_SA,ar,revision_dfm_kalman_em,2013:Q3,-0.3496109792762831,1.8964704406802009
exact,pre_advance,DELTA_SA,ar,revision_dfm_kalman_em,2013:Q4,0.3746676035167742,2.271138044196975
exact,pre_advance,DELTA_SA,ar,revision_dfm_kalman_em,2014:Q1,-1.2924495703102572,0.9786884738867179
exact,pre_advance,DELTA_SA,ar,revision_dfm_kalman_em,2014:Q2,0.2889515257571334,1.2676399996438512
exact,pre_advance,DELTA_SA,ar,revision_dfm_kalman_em,2014:Q3,-0.0381473027358151,1.2294926969080362
exact,pre_advance,DELTA_SA,ar,revision_dfm_kalman_em,2014:Q4,0.05055425600655561,1.2800469529145917
exact,pre_advance,DELTA_SA,ar,revision_dfm_kalman_em,2015:Q1,-0.3124160776355106,0.9676308752790811
exact,pre_advance,DELTA_SA,ar,revision_dfm_kalman_em,2015:Q2,1.5962142179323364,2.5638450932114174
exact,pre_advance,DELTA_SA,ar,revision_dfm_kalman_em,2015:Q3,-0.2753787667388424,2.288466326472575
exact,pre_advance,DELTA_SA,ar,revision_dfm_kalman_em,2015:Q4,-0.1276306614510069,2.160835665021568
exact,pre_advance,DELTA_SA,ar,revision_dfm_kalman_em,2016:Q1,-0.04680749653781862,2.1140281684837494
exact,pre_advance,DELTA_SA,ar,revision_dfm_kalman_em,2016:Q2,0.06944312120612066,2.1834712896898703
exact,pre_advance,DELTA_SA,ar,revision_dfm_kalman_em,2016:Q3,0.04008971384556444,2.2235610035354347
exact,pre_advance,DELTA_SA,ar,revision_dfm_kalman_em,2016:Q4,0.009430385192606063,2.2329913887280406
exact,pre_advance,DELTA_SA,ar,revision_dfm_kalman_em,2017:Q1,0.07711960877190048,2.310110997499941
exact,pre_advance,DELTA_SA,ar,revision_dfm_kalman_em,2017:Q2,-0.019856032599302322,2.290254964900639
exact,pre_advance,DELTA_SA,ar,revision_dfm_kalman_em,2017:Q3,-0.13794309303684413,2.152311871863795
exact,pre_advance,DELTA_SA,ar,revision_dfm_kalman_em,2017:Q4,-0.14889286637088786,2.003419005492907
exact,pre_advance,DELTA_SA,ar,revision_dfm_kalman_em,2018:Q1,-0.13015705251185503,1.8732619529810521
exact,pre_advance,DELTA_SA,ar,revision_dfm_kalman_em,2018:Q2,0.02147919006846329,1.8947411430495154
exact,pre_advance,DELTA_SA,ar,revision_dfm_kalman_em,2018:Q3,-0.012819545559075255,1.8819215974904402
exact,pre_advance,DELTA_SA,ar,revision_dfm_kalman_em,2019:Q1,0.30626321916101423,2.1881848166514546
exact,pre_advance,DELTA_SA,ar,revision_dfm_kalman_em,2019:Q2,-0.0029554307747357003,2.185229385876719
exact,pre_advance,DELTA_SA,ar,revision_dfm_kalman_em,2019:Q3,0.01775529658755383,2.202984682464273
exact,pre_advance,DELTA_SA,ar,revision_dfm_kalman_em,2019:Q4,0.02116924933621182,2.2241539318004846
exact,pre_advance,DELTA_SA,ar,revision_dfm_kalman_em,2020:Q1,0.11065061793903942,2.3348045497395242
exact,pre_advance,DELTA_SA,ar,revision_dfm_kalman_em,2020:Q2,-5.269646718306476,-2.934842168566952
exact,pre_advance,DELTA_SA,ar,revision_dfm_kalman_em,2020:Q3,5.720477958810198,2.785635790243246
exact,pre_advance,DELTA_SA,ar,revision_dfm_kalman_em,2020:Q4,0.2282466248815339,3.01388241512478
exact,pre_advance,DELTA_SA,ar,revision_dfm_kalman_em,2021:Q1,-0.03375099328675821,2.980131421838022
exact,pre_advance,DELTA_SA,ar,revision_dfm_kalman_em,2021:Q2,0.0028380532865570577,2.982969475124579
exact,pre_advance,DELTA_SA,ar,revision_dfm_kalman_em,2021:Q3,0.002320431086560196,2.9852899062111393
exact,pre_advance,DELTA_SA,ar,revision_dfm_kalman_em,2021:Q4,-0.009959766658749673,2.9753301395523897
exact,pre_advance,DELTA_SA,ar,revision_dfm_kalman_em,2022:Q1,0.01870849909788065,2.99403863865027
exact,pre_advance,DELTA_SA,ar,revision_dfm_kalman_em,2022:Q2,0.11114952945599307,3.105188168106263
exact,pre_advance,DELTA_SA,ar,revision_dfm_kalman_em,2022:Q3,0.08252022873989655,3.1877083968461597
exact,pre_advance,DELTA_SA,ar,revision_dfm_kalman_em,2022:Q4,0.004001670327097959,3.1917100671732577
exact,pre_advance,DELTA_SA,ar,revision_dfm_kalman_em,2023:Q1,0.001706141293435371,3.193416208466693
exact,pre_advance,DELTA_SA,ar,revision_dfm_kalman_em,2023:Q2,-0.05126989013759348,3.1421463183290994
exact,pre_advance,DELTA_SA,ar,revision_dfm_kalman_em,2023:Q3,0.03142493402417007,3.1735712523532693
exact,pre_advance,DELTA_SA,ar,revision_dfm_kalman_em,2023:Q4,0.02880799715916431,3.2023792495124335
exact,pre_advance,DELTA_SA,ar,revision_dfm_kalman_em,2024:Q1,0.022629354973675436,3.225008604486109
exact,pre_advance,DELTA_SA,ar,revision_dfm_kalman_em,2024:Q2,0.0019205109531769086,3.226929115439286
exact,pre_advance,DELTA_SA,ar,revision_dfm_kalman_em,2024:Q3,-0.005932082259141604,3.220997033180144
exact,pre_advance,DELTA_SA,ar,revision_dfm_kalman_em,2024:Q4,2.8389730988203987e-05,3.2210254229111324
exact,pre_advance,DELTA_SA,ar,standard_dfm,2005:Q1,-0.06457257404199196,-0.06457257404199196
exact,pre_advance,DELTA_SA,ar,standard_dfm,2005:Q2,0.05392100705411307,-0.010651566987878891
exact,pre_advance,DELTA_SA,ar,standard_dfm,2005:Q3,0.12191070539466523,0.11125913840678633
exact,pre_advance,DELTA_SA,ar,standard_dfm,2005:Q4,-0.03851182739693809,0.07274731100984824
exact,pre_advance,DELTA_SA,ar,standard_dfm,2006:Q1,-0.09630907940028732,-0.02356176839043908
exact,pre_advance,DELTA_SA,ar,standard_dfm,2006:Q2,-0.006343046395281451,-0.029904814785720532
exact,pre_advance,DELTA_SA,ar,standard_dfm,2006:Q3,-0.1027035776815714,-0.13260839246729195
exact,pre_advance,DELTA_SA,ar,standard_dfm,2006:Q4,1.0276047402758972,0.8949963478086053
exact,pre_advance,DELTA_SA,ar,standard_dfm,2007:Q1,-0.41408575323464875,0.4809105945739565
exact,pre_advance,DELTA_SA,ar,standard_dfm,2007:Q2,0.3272665697635969,0.8081771643375535
exact,pre_advance,DELTA_SA,ar,standard_dfm,2007:Q3,-0.3348463681699476,0.47333079616760587
exact,pre_advance,DELTA_SA,ar,standard_dfm,2007:Q4,0.23170019018880766,0.7050309863564135
exact,pre_advance,DELTA_SA,ar,standard_dfm,2008:Q1,-0.09998664863071874,0.6050443377256948
exact,pre_advance,DELTA_SA,ar,standard_dfm,2008:Q2,-0.7880304720767588,-0.18298613435106403
exact,pre_advance,DELTA_SA,ar,standard_dfm,2008:Q3,0.9004291296287449,0.7174429952776809
exact,pre_advance,DELTA_SA,ar,standard_dfm,2008:Q4,2.0518569757106633,2.769299970988344
exact,pre_advance,DELTA_SA,ar,standard_dfm,2009:Q1,-1.309095775368377,1.4602041956199672
exact,pre_advance,DELTA_SA,ar,standard_dfm,2009:Q2,0.29556918667558446,1.7557733822955517
exact,pre_advance,DELTA_SA,ar,standard_dfm,2009:Q3,0.06344779921680854,1.8192211815123602
exact,pre_advance,DELTA_SA,ar,standard_dfm,2009:Q4,0.2826198032348088,2.101840984747169
exact,pre_advance,DELTA_SA,ar,standard_dfm,2010:Q1,-0.23945245033583445,1.8623885344113345
exact,pre_advance,DELTA_SA,ar,standard_dfm,2010:Q2,-0.43427508410354076,1.4281134503077937
exact,pre_advance,DELTA_SA,ar,standard_dfm,2010:Q3,0.5008024804713807,1.9289159307791743
exact,pre_advance,DELTA_SA,ar,standard_dfm,2010:Q4,0.25584879905282176,2.184764729831996
exact,pre_advance,DELTA_SA,ar,standard_dfm,2011:Q1,0.016558704882427375,2.2013234347144235
exact,pre_advance,DELTA_SA,ar,standard_dfm,2011:Q2,0.014075986477936259,2.2153994211923598
exact,pre_advance,DELTA_SA,ar,standard_dfm,2011:Q3,-0.15806562807392172,2.057333793118438
exact,pre_advance,DELTA_SA,ar,standard_dfm,2011:Q4,0.1550867166435113,2.2124205097619494
exact,pre_advance,DELTA_SA,ar,standard_dfm,2012:Q1,-0.06456927922788744,2.147851230534062
exact,pre_advance,DELTA_SA,ar,standard_dfm,2012:Q2,0.07649001778942476,2.2243412483234866
exact,pre_advance,DELTA_SA,ar,standard_dfm,2012:Q3,-0.09411694703936069,2.1302243012841258
exact,pre_advance,DELTA_SA,ar,standard_dfm,2012:Q4,0.0020050161951079247,2.1322293174792337
exact,pre_advance,DELTA_SA,ar,standard_dfm,2013:Q1,0.09100039082084721,2.2232297083000807
exact,pre_advance,DELTA_SA,ar,standard_dfm,2013:Q2,0.19390107916547772,2.4171307874655583
exact,pre_advance,DELTA_SA,ar,standard_dfm,2013:Q3,-0.3479050431917394,2.069225744273819
exact,pre_advance,DELTA_SA,ar,standard_dfm,2013:Q4,0.4497329579020104,2.518958702175829
exact,pre_advance,DELTA_SA,ar,standard_dfm,2014:Q1,-0.8583308373830141,1.660627864792815
exact,pre_advance,DELTA_SA,ar,standard_dfm,2014:Q2,0.3652294107029636,2.0258572754957784
exact,pre_advance,DELTA_SA,ar,standard_dfm,2014:Q3,0.01403490485174793,2.0398921803475263
exact,pre_advance,DELTA_SA,ar,standard_dfm,2014:Q4,0.08228803521466005,2.1221802155621865
exact,pre_advance,DELTA_SA,ar,standard_dfm,2015:Q1,-0.31184236052820247,1.8103378550339841
exact,pre_advance,DELTA_SA,ar,standard_dfm,2015:Q2,1.3035716979369338,3.113909552970918
exact,pre_advance,DELTA_SA,ar,standard_dfm,2015:Q3,-0.23002657645394253,2.8838829765169756
exact,pre_advance,DELTA_SA,ar,standard_dfm,2015:Q4,-0.07014253561235265,2.8137404409046227
exact,pre_advance,DELTA_SA,ar,standard_dfm,2016:Q1,-0.06222528198854299,2.75151515891608
exact,pre_advance,DELTA_SA,ar,standard_dfm,2016:Q2,0.11559094826535313,2.8671061071814328
exact,pre_advance,DELTA_SA,ar,standard_dfm,2016:Q3,0.012368181166111498,2.879474288347544
exact,pre_advance,DELTA_SA,ar,standard_dfm,2016:Q4,-2.457762946924194e-05,2.8794497107180748
exact,pre_advance,DELTA_SA,ar,standard_dfm,2017:Q1,0.03677153658568007,2.916221247303755
exact,pre_advance,DELTA_SA,ar,standard_dfm,2017:Q2,-0.10011724287491425,2.8161040044288406
exact,pre_advance,DELTA_SA,ar,standard_dfm,2017:Q3,-0.05757220247213498,2.7585318019567056
exact,pre_advance,DELTA_SA,ar,standard_dfm,2017:Q4,-0.018795635845599436,2.739736166111106
exact,pre_advance,DELTA_SA,ar,standard_dfm,2018:Q1,-0.07137453950156954,2.6683616266095362
exact,pre_advance,DELTA_SA,ar,standard_dfm,2018:Q2,0.02732140167321683,2.695683028282753
exact,pre_advance,DELTA_SA,ar,standard_dfm,2018:Q3,-0.01517884791799765,2.680504180364755
exact,pre_advance,DELTA_SA,ar,standard_dfm,2019:Q1,0.3056651959381533,2.9861693763029082
exact,pre_advance,DELTA_SA,ar,standard_dfm,2019:Q2,-0.006542066970037425,2.9796273093328707
exact,pre_advance,DELTA_SA,ar,standard_dfm,2019:Q3,0.0045591534171501615,2.9841864627500208
exact,pre_advance,DELTA_SA,ar,standard_dfm,2019:Q4,0.022458742746033496,3.006645205496054
exact,pre_advance,DELTA_SA,ar,standard_dfm,2020:Q1,0.07929702576198386,3.0859422312580382
exact,pre_advance,DELTA_SA,ar,standard_dfm,2020:Q2,-6.343919910050812,-3.257977678792774
exact,pre_advance,DELTA_SA,ar,standard_dfm,2020:Q3,6.585229036056758,3.3272513572639837
exact,pre_advance,DELTA_SA,ar,standard_dfm,2020:Q4,0.3553294223382184,3.682580779602202
exact,pre_advance,DELTA_SA,ar,standard_dfm,2021:Q1,0.0024895334042018043,3.685070313006404
exact,pre_advance,DELTA_SA,ar,standard_dfm,2021:Q2,0.006350212614450523,3.6914205256208543
exact,pre_advance,DELTA_SA,ar,standard_dfm,2021:Q3,0.003397448164514412,3.694817973785369
exact,pre_advance,DELTA_SA,ar,standard_dfm,2021:Q4,0.00022254856130138077,3.69504052234667
exact,pre_advance,DELTA_SA,ar,standard_dfm,2022:Q1,0.02398197233090931,3.719022494677579
exact,pre_advance,DELTA_SA,ar,standard_dfm,2022:Q2,0.04202620704813996,3.761048701725719
exact,pre_advance,DELTA_SA,ar,standard_dfm,2022:Q3,0.021558902901119156,3.782607604626838
exact,pre_advance,DELTA_SA,ar,standard_dfm,2022:Q4,0.007549276239000424,3.7901568808658386
exact,pre_advance,DELTA_SA,ar,standard_dfm,2023:Q1,0.0036429627516610056,3.7937998436175
exact,pre_advance,DELTA_SA,ar,standard_dfm,2023:Q2,-0.015892029036106203,3.7779078145813934
exact,pre_advance,DELTA_SA,ar,standard_dfm,2023:Q3,0.011327669946062588,3.789235484527456
exact,pre_advance,DELTA_SA,ar,standard_dfm,2023:Q4,0.01429794297308309,3.8035334275005392
exact,pre_advance,DELTA_SA,ar,standard_dfm,2024:Q1,-0.001782041940785073,3.8017513855597542
exact,pre_advance,DELTA_SA,ar,standard_dfm,2024:Q2,0.0030115301445589647,3.804762915704313
exact,pre_advance,DELTA_SA,ar,standard_dfm,2024:Q3,0.0003461342174390092,3.805109049921752
exact,pre_advance,DELTA_SA,ar,standard_dfm,2024:Q4,2.5610952888988313e-05,3.805134660874641
exact,pre_advance,DELTA_SA,no_revision,ar,2005:Q1,0.15257503321613658,0.15257503321613658
exact,pre_advance,DELTA_SA,no_revision,ar,2005:Q2,-0.10304262774761302,0.049532405468523555
exact,pre_advance,DELTA_SA,no_revision,ar,2005:Q3,-0.03151683579611303,0.018015569672410525
exact,pre_advance,DELTA_SA,no_revision,ar,2005:Q4,0.17958946757420496,0.1976050372466155
exact,pre_advance,DELTA_SA,no_revision,ar,2006:Q1,0.22225097588053042,0.41985601312714593
exact,pre_advance,DELTA_SA,no_revision,ar,2006:Q2,0.1338214718146227,0.5536774849417686
exact,pre_advance,DELTA_SA,no_revision,ar,2006:Q3,0.2655324769569707,0.8192099618987393
exact,pre_advance,DELTA_SA,no_revision,ar,2006:Q4,-1.1280810824986391,-0.30887112059989985
exact,pre_advance,DELTA_SA,no_revision,ar,2007:Q1,0.36488258133290913,0.05601146073300928
exact,pre_advance,DELTA_SA,no_revision,ar,2007:Q2,-0.2101220628635298,-0.15411060213052052
exact,pre_advance,DELTA_SA,no_revision,ar,2007:Q3,0.5038879623481906,0.34977736021767003
exact,pre_advance,DELTA_SA,no_revision,ar,2007:Q4,-0.23194641324995732,0.11783094696771271
exact,pre_advance,DELTA_SA,no_revision,ar,2008:Q1,0.06565748592115798,0.18348843288887068
exact,pre_advance,DELTA_SA,no_revision,ar,2008:Q2,0.7051418869943866,0.8886303198832572
exact,pre_advance,DELTA_SA,no_revision,ar,2008:Q3,-0.8839041046210189,0.004726215262238376
exact,pre_advance,DELTA_SA,no_revision,ar,2008:Q4,-0.39399862829546173,-0.38927241303322335
exact,pre_advance,DELTA_SA,no_revision,ar,2009:Q1,-1.3203689037955737,-1.709641316828797
exact,pre_advance,DELTA_SA,no_revision,ar,2009:Q2,-0.36877932291984866,-2.0784206397486455
exact,pre_advance,DELTA_SA,no_revision,ar,2009:Q3,-0.31974831955083616,-2.3981689592994817
exact,pre_advance,DELTA_SA,no_revision,ar,2009:Q4,-0.2461874095178597,-2.6443563688173413
exact,pre_advance,DELTA_SA,no_revision,ar,2010:Q1,-0.012274663642203441,-2.656631032459545
exact,pre_advance,DELTA_SA,no_revision,ar,2010:Q2,0.10097637669884518,-2.5556546557606996
exact,pre_advance,DELTA_SA,no_revision,ar,2010:Q3,-0.41001530272678194,-2.9656699584874815
exact,pre_advance,DELTA_SA,no_revision,ar,2010:Q4,-0.33708017745408314,-3.3027501359415647
exact,pre_advance,DELTA_SA,no_revision,ar,2011:Q1,-0.05273638935335863,-3.3554865252949235
exact,pre_advance,DELTA_SA,no_revision,ar,2011:Q2,-0.0864949621817803,-3.4419814874767036
exact,pre_advance,DELTA_SA,no_revision,ar,2011:Q3,0.03822954602021156,-3.403751941456492
exact,pre_advance,DELTA_SA,no_revision,ar,2011:Q4,-0.1042486389810256,-3.5080005804375176
exact,pre_advance,DELTA_SA,no_revision,ar,2012:Q1,-0.12270345028699549,-3.6307040307245133
exact,pre_advance,DELTA_SA,no_revision,ar,2012:Q2,-0.05124300972150874,-3.681947040446022
exact,pre_advance,DELTA_SA,no_revision,ar,2012:Q3,0.19803121584843814,-3.483915824597584
exact,pre_advance,DELTA_SA,no_revision,ar,2012:Q4,0.06160444841889918,-3.4223113761786847
exact,pre_advance,DELTA_SA,no_revision,ar,2013:Q1,-0.13839352919058448,-3.560704905369269
exact,pre_advance,DELTA_SA,no_revision,ar,2013:Q2,-0.010665904843470964,-3.5713708102127404
exact,pre_advance,DELTA_SA,no_revision,ar,2013:Q3,0.49085393179229264,-3.0805168784204477
exact,pre_advance,DELTA_SA,no_revision,ar,2013:Q4,-0.8147882022650561,-3.895305080685504
exact,pre_advance,DELTA_SA,no_revision,ar,2014:Q1,0.6728261778290336,-3.22247890285647
exact,pre_advance,DELTA_SA,no_revision,ar,2014:Q2,-0.3153905835886226,-3.537869486445093
exact,pre_advance,DELTA_SA,no_revision,ar,2014:Q3,0.05736992828325174,-3.480499558161841
exact,pre_advance,DELTA_SA,no_revision,ar,2014:Q4,-0.18045818425062124,-3.6609577424124624
exact,pre_advance,DELTA_SA,no_revision,ar,2015:Q1,0.30424364925329495,-3.3567140931591677
exact,pre_advance,DELTA_SA,no_revision,ar,2015:Q2,-1.0249249122593762,-4.381639005418544
exact,pre_advance,DELTA_SA,no_revision,ar,2015:Q3,0.3345827492334456,-4.0470562561850985
exact,pre_advance,DELTA_SA,no_revision,ar,2015:Q4,0.09676443992777004,-3.9502918162573284
exact,pre_advance,DELTA_SA,no_revision,ar,2016:Q1,0.09029065158363185,-3.8600011646736965
exact,pre_advance,DELTA_SA,no_revision,ar,2016:Q2,-0.1360297525459644,-3.996030917219661
exact,pre_advance,DELTA_SA,no_revision,ar,2016:Q3,0.021175007572158712,-3.974855909647502
exact,pre_advance,DELTA_SA,no_revision,ar,2016:Q4,-0.02734587565242416,-4.002201785299926
exact,pre_advance,DELTA_SA,no_revision,ar,2017:Q1,0.056295362083760514,-3.945906423216165
exact,pre_advance,DELTA_SA,no_revision,ar,2017:Q2,0.1998229027002102,-3.746083520515955
exact,pre_advance,DELTA_SA,no_revision,ar,2017:Q3,0.09239460605426397,-3.653688914461691
exact,pre_advance,DELTA_SA,no_revision,ar,2017:Q4,-0.035699658663772574,-3.6893885731254636
exact,pre_advance,DELTA_SA,no_revision,ar,2018:Q1,-0.012703611098869368,-3.702092184224333
exact,pre_advance,DELTA_SA,no_revision,ar,2018:Q2,-0.0030213569949030655,-3.705113541219236
exact,pre_advance,DELTA_SA,no_revision,ar,2018:Q3,-0.0032310710133240618,-3.70834461223256
exact,pre_advance,DELTA_SA,no_revision,ar,2019:Q1,-0.3134694480182471,-4.021814060250807
exact,pre_advance,DELTA_SA,no_revision,ar,2019:Q2,0.00020861065790184213,-4.021605449592905
exact,pre_advance,DELTA_SA,no_revision,ar,2019:Q3,0.020795440927072837,-4.000810008665832
exact,pre_advance,DELTA_SA,no_revision,ar,2019:Q4,-0.022807340587339162,-4.023617349253171
exact,pre_advance,DELTA_SA,no_revision,ar,2020:Q1,-0.04374626691208146,-4.067363616165252
exact,pre_advance,DELTA_SA,no_revision,ar,2020:Q2,0.4848885887598303,-3.582475027405422
exact,pre_advance,DELTA_SA,no_revision,ar,2020:Q3,-6.6030936783793335,-10.185568705784755
exact,pre_advance,DELTA_SA,no_revision,ar,2020:Q4,-0.3494364241901803,-10.535005129974936
exact,pre_advance,DELTA_SA,no_revision,ar,2021:Q1,-0.010481372036795358,-10.54548650201173
exact,pre_advance,DELTA_SA,no_revision,ar,2021:Q2,-0.005674643654305938,-10.551161145666036
exact,pre_advance,DELTA_SA,no_revision,ar,2021:Q3,0.00428446848418562,-10.546876677181851
exact,pre_advance,DELTA_SA,no_revision,ar,2021:Q4,0.009636975615624089,-10.537239701566227
exact,pre_advance,DELTA_SA,no_revision,ar,2022:Q1,-0.05376352283472801,-10.591003224400955
exact,pre_advance,DELTA_SA,no_revision,ar,2022:Q2,0.01747374549873487,-10.57352947890222
exact,pre_advance,DELTA_SA,no_revision,ar,2022:Q3,0.038912176234116996,-10.534617302668103
exact,pre_advance,DELTA_SA,no_revision,ar,2022:Q4,-0.058622083054108,-10.59323938572221
exact,pre_advance,DELTA_SA,no_revision,ar,2023:Q1,0.02740533844308022,-10.56583404727913
exact,pre_advance,DELTA_SA,no_revision,ar,2023:Q2,-0.06172819389498699,-10.627562241174118
exact,pre_advance,DELTA_SA,no_revision,ar,2023:Q3,0.03194758936873526,-10.595614651805382
exact,pre_advance,DELTA_SA,no_revision,ar,2023:Q4,-0.03690159867203891,-10.63251625047742
exact,pre_advance,DELTA_SA,no_revision,ar,2024:Q1,-0.07155817897030346,-10.704074429447724
exact,pre_advance,DELTA_SA,no_revision,ar,2024:Q2,0.009033581491366181,-10.695040847956358
exact,pre_advance,DELTA_SA,no_revision,ar,2024:Q3,-0.00727617350536104,-10.702317021461718
exact,pre_advance,DELTA_SA,no_revision,ar,2024:Q4,0.008788760628669104,-10.69352826083305
exact,pre_advance,DELTA_SA,no_revision,bridge,2005:Q1,0.13872897581163213,0.13872897581163213
exact,pre_advance,DELTA_SA,no_revision,bridge,2005:Q2,-0.10469290694489651,0.034036068866735616
exact,pre_advance,DELTA_SA,no_revision,bridge,2005:Q3,-0.15040667599317942,-0.1163706071264438
exact,pre_advance,DELTA_SA,no_revision,bridge,2005:Q4,0.1762057909010389,0.05983518377459511
exact,pre_advance,DELTA_SA,no_revision,bridge,2006:Q1,0.17380909119599736,0.23364427497059248
exact,pre_advance,DELTA_SA,no_revision,bridge,2006:Q2,-0.0033041605851341083,0.23034011438545837
exact,pre_advance,DELTA_SA,no_revision,bridge,2006:Q3,0.20124103131955867,0.43158114570501704
exact,pre_advance,DELTA_SA,no_revision,bridge,2006:Q4,-0.782501891643536,-0.35092074593851896
exact,pre_advance,DELTA_SA,no_revision,bridge,2007:Q1,0.35705855019610977,0.0061378042575908065
exact,pre_advance,DELTA_SA,no_revision,bridge,2007:Q2,-0.14115574401889486,-0.13501793976130405
exact,pre_advance,DELTA_SA,no_revision,bridge,2007:Q3,0.5636917032429613,0.4286737634816572
exact,pre_advance,DELTA_SA,no_revision,bridge,2007:Q4,-0.244144269819372,0.1845294936622852
exact,pre_advance,DELTA_SA,no_revision,bridge,2008:Q1,0.06131288781719704,0.24584238147948223
exact,pre_advance,DELTA_SA,no_revision,bridge,2008:Q2,0.13073477563098468,0.3765771571104669
exact,pre_advance,DELTA_SA,no_revision,bridge,2008:Q3,-0.2648840595619838,0.11169309754848311
exact,pre_advance,DELTA_SA,no_revision,bridge,2008:Q4,3.5566140690402865,3.66830716658877
exact,pre_advance,DELTA_SA,no_revision,bridge,2009:Q1,-7.419249105638873,-3.7509419390501035
exact,pre_advance,DELTA_SA,no_revision,bridge,2009:Q2,-0.24196561609657893,-3.9929075551466826
exact,pre_advance,DELTA_SA,no_revision,bridge,2009:Q3,-0.3879792115458931,-4.3808867666925755
exact,pre_advance,DELTA_SA,no_revision,bridge,2009:Q4,-0.28105586070264893,-4.6619426273952245
exact,pre_advance,DELTA_SA,no_revision,bridge,2010:Q1,-0.10094736583874375,-4.762889993233968
exact,pre_advance,DELTA_SA,no_revision,bridge,2010:Q2,0.0073939228196185924,-4.75549607041435
exact,pre_advance,DELTA_SA,no_revision,bridge,2010:Q3,-0.31509313295305513,-5.070589203367405
exact,pre_advance,DELTA_SA,no_revision,bridge,2010:Q4,-0.9034792141083648,-5.974068417475769
exact,pre_advance,DELTA_SA,no_revision,bridge,2011:Q1,-0.045895162760471446,-6.019963580236241
exact,pre_advance,DELTA_SA,no_revision,bridge,2011:Q2,-0.19151317974943005,-6.211476759985671
exact,pre_advance,DELTA_SA,no_revision,bridge,2011:Q3,-0.08325527853528197,-6.294732038520953
exact,pre_advance,DELTA_SA,no_revision,bridge,2011:Q4,-0.0413702189655959,-6.336102257486549
exact,pre_advance,DELTA_SA,no_revision,bridge,2012:Q1,-0.15859116333028828,-6.494693420816837
exact,pre_advance,DELTA_SA,no_revision,bridge,2012:Q2,-0.10006699182705994,-6.594760412643897
exact,pre_advance,DELTA_SA,no_revision,bridge,2012:Q3,0.20580628537110726,-6.38895412727279
exact,pre_advance,DELTA_SA,no_revision,bridge,2012:Q4,0.06587583351807778,-6.323078293754712
exact,pre_advance,DELTA_SA,no_revision,bridge,2013:Q1,-0.05173132842255527,-6.374809622177267
exact,pre_advance,DELTA_SA,no_revision,bridge,2013:Q2,0.014831071369016402,-6.3599785508082505
exact,pre_advance,DELTA_SA,no_revision,bridge,2013:Q3,0.42564500797830773,-5.934333542829942
exact,pre_advance,DELTA_SA,no_revision,bridge,2013:Q4,-1.2631483242591597,-7.1974818670891025
exact,pre_advance,DELTA_SA,no_revision,bridge,2014:Q1,0.7569160071134233,-6.440565859975679
exact,pre_advance,DELTA_SA,no_revision,bridge,2014:Q2,-0.15264110705323486,-6.593206967028914
exact,pre_advance,DELTA_SA,no_revision,bridge,2014:Q3,0.07832510899577891,-6.514881858033135
exact,pre_advance,DELTA_SA,no_revision,bridge,2014:Q4,-0.13705782032158967,-6.651939678354725
exact,pre_advance,DELTA_SA,no_revision,bridge,2015:Q1,0.4014697767237323,-6.250469901630993
exact,pre_advance,DELTA_SA,no_revision,bridge,2015:Q2,-0.4979232940191831,-6.748393195650176
exact,pre_advance,DELTA_SA,no_revision,bridge,2015:Q3,0.3409963676186283,-6.407396828031548
exact,pre_advance,DELTA_SA,no_revision,bridge,2015:Q4,0.0972279872791933,-6.310168840752354
exact,pre_advance,DELTA_SA,no_revision,bridge,2016:Q1,0.061597284036761374,-6.248571556715593
exact,pre_advance,DELTA_SA,no_revision,bridge,2016:Q2,-0.1430101697151514,-6.391581726430744
exact,pre_advance,DELTA_SA,no_revision,bridge,2016:Q3,0.02978637603817374,-6.361795350392571
exact,pre_advance,DELTA_SA,no_revision,bridge,2016:Q4,-0.02833064064415666,-6.390125991036728
exact,pre_advance,DELTA_SA,no_revision,bridge,2017:Q1,0.06242395788596877,-6.327702033150759
exact,pre_advance,DELTA_SA,no_revision,bridge,2017:Q2,0.17471543567711162,-6.152986597473648
exact,pre_advance,DELTA_SA,no_revision,bridge,2017:Q3,0.09391708258736975,-6.059069514886278
exact,pre_advance,DELTA_SA,no_revision,bridge,2017:Q4,-0.048232055356594986,-6.107301570242873
exact,pre_advance,DELTA_SA,no_revision,bridge,2018:Q1,-0.01372913737517556,-6.121030707618049
exact,pre_advance,DELTA_SA,no_revision,bridge,2018:Q2,0.021574368172287754,-6.099456339445761
exact,pre_advance,DELTA_SA,no_revision,bridge,2018:Q3,-0.006093663891220615,-6.105550003336982
exact,pre_advance,DELTA_SA,no_revision,bridge,2019:Q1,-0.6157461141295999,-6.721296117466582
exact,pre_advance,DELTA_SA,no_revision,bridge,2019:Q2,-0.004527295201637802,-6.72582341266822
exact,pre_advance,DELTA_SA,no_revision,bridge,2019:Q3,0.036136605743878635,-6.689686806924341
exact,pre_advance,DELTA_SA,no_revision,bridge,2019:Q4,-0.06731099954726356,-6.756997806471604
exact,pre_advance,DELTA_SA,no_revision,bridge,2020:Q1,0.0006398140758079179,-6.756357992395796
exact,pre_advance,DELTA_SA,no_revision,bridge,2020:Q2,-2.609151252294237,-9.365509244690033
exact,pre_advance,DELTA_SA,no_revision,bridge,2020:Q3,-5.185446373028794,-14.550955617718827
exact,pre_advance,DELTA_SA,no_revision,bridge,2020:Q4,0.0005276107390586081,-14.550428006979768
exact,pre_advance,DELTA_SA,no_revision,bridge,2021:Q1,-0.02384443223007639,-14.574272439209844
exact,pre_advance,DELTA_SA,no_revision,bridge,2021:Q2,-0.04144876016875458,-14.6157211993786
exact,pre_advance,DELTA_SA,no_revision,bridge,2021:Q3,0.007579934344672402,-14.608141265033927
exact,pre_advance,DELTA_SA,no_revision,bridge,2021:Q4,0.007746608209400742,-14.600394656824527
exact,pre_advance,DELTA_SA,no_revision,bridge,2022:Q1,-0.08791868219042155,-14.688313339014949
exact,pre_advance,DELTA_SA,no_revision,bridge,2022:Q2,6.444244692915824e-05,-14.68824889656802
exact,pre_advance,DELTA_SA,no_revision,bridge,2022:Q3,0.04802032621000486,-14.640228570358016
exact,pre_advance,DELTA_SA,no_revision,bridge,2022:Q4,-0.13264085899734385,-14.77286942935536
exact,pre_advance,DELTA_SA,no_revision,bridge,2023:Q1,0.03013095915636522,-14.742738470198995
exact,pre_advance,DELTA_SA,no_revision,bridge,2023:Q2,-0.27456811467170655,-15.017306584870703
exact,pre_advance,DELTA_SA,no_revision,bridge,2023:Q3,0.0028127103554888427,-15.014493874515214
exact,pre_advance,DELTA_SA,no_revision,bridge,2023:Q4,-0.09179889922938826,-15.106292773744602
exact,pre_advance,DELTA_SA,no_revision,bridge,2024:Q1,0.011523780206793927,-15.094768993537809
exact,pre_advance,DELTA_SA,no_revision,bridge,2024:Q2,-0.03186592763183746,-15.126634921169646
exact,pre_advance,DELTA_SA,no_revision,bridge,2024:Q3,-0.005197255911792052,-15.131832177081439
exact,pre_advance,DELTA_SA,no_revision,bridge,2024:Q4,0.008645112674929342,-15.12318706440651
exact,pre_advance,DELTA_SA,no_revision,indicator_revision_only_dfm_kalman_em,2005:Q1,0.0,0.0
exact,pre_advance,DELTA_SA,no_revision,indicator_revision_only_dfm_kalman_em,2005:Q2,0.0,0.0
exact,pre_advance,DELTA_SA,no_revision,indicator_revision_only_dfm_kalman_em,2005:Q3,0.0,0.0
exact,pre_advance,DELTA_SA,no_revision,indicator_revision_only_dfm_kalman_em,2005:Q4,0.0,0.0
exact,pre_advance,DELTA_SA,no_revision,indicator_revision_only_dfm_kalman_em,2006:Q1,0.0,0.0
exact,pre_advance,DELTA_SA,no_revision,indicator_revision_only_dfm_kalman_em,2006:Q2,0.0,0.0
exact,pre_advance,DELTA_SA,no_revision,indicator_revision_only_dfm_kalman_em,2006:Q3,0.0,0.0
exact,pre_advance,DELTA_SA,no_revision,indicator_revision_only_dfm_kalman_em,2006:Q4,0.0,0.0
exact,pre_advance,DELTA_SA,no_revision,indicator_revision_only_dfm_kalman_em,2007:Q1,0.0,0.0
exact,pre_advance,DELTA_SA,no_revision,indicator_revision_only_dfm_kalman_em,2007:Q2,0.0,0.0
exact,pre_advance,DELTA_SA,no_revision,indicator_revision_only_dfm_kalman_em,2007:Q3,0.0,0.0
exact,pre_advance,DELTA_SA,no_revision,indicator_revision_only_dfm_kalman_em,2007:Q4,0.0,0.0
exact,pre_advance,DELTA_SA,no_revision,indicator_revision_only_dfm_kalman_em,2008:Q1,0.0,0.0
exact,pre_advance,DELTA_SA,no_revision,indicator_revision_only_dfm_kalman_em,2008:Q2,0.0,0.0
exact,pre_advance,DELTA_SA,no_revision,indicator_revision_only_dfm_kalman_em,2008:Q3,0.0,0.0
exact,pre_advance,DELTA_SA,no_revision,indicator_revision_only_dfm_kalman_em,2008:Q4,0.0,0.0
exact,pre_advance,DELTA_SA,no_revision,indicator_revision_only_dfm_kalman_em,2009:Q1,0.0,0.0
exact,pre_advance,DELTA_SA,no_revision,indicator_revision_only_dfm_kalman_em,2009:Q2,0.0,0.0
exact,pre_advance,DELTA_SA,no_revision,indicator_revision_only_dfm_kalman_em,2009:Q3,0.0,0.0
exact,pre_advance,DELTA_SA,no_revision,indicator_revision_only_dfm_kalman_em,2009:Q4,0.0,0.0
exact,pre_advance,DELTA_SA,no_revision,indicator_revision_only_dfm_kalman_em,2010:Q1,0.0,0.0
exact,pre_advance,DELTA_SA,no_revision,indicator_revision_only_dfm_kalman_em,2010:Q2,0.0,0.0
exact,pre_advance,DELTA_SA,no_revision,indicator_revision_only_dfm_kalman_em,2010:Q3,0.0,0.0
exact,pre_advance,DELTA_SA,no_revision,indicator_revision_only_dfm_kalman_em,2010:Q4,0.0,0.0
exact,pre_advance,DELTA_SA,no_revision,indicator_revision_only_dfm_kalman_em,2011:Q1,0.0,0.0
exact,pre_advance,DELTA_SA,no_revision,indicator_revision_only_dfm_kalman_em,2011:Q2,0.0,0.0
exact,pre_advance,DELTA_SA,no_revision,indicator_revision_only_dfm_kalman_em,2011:Q3,0.0,0.0
exact,pre_advance,DELTA_SA,no_revision,indicator_revision_only_dfm_kalman_em,2011:Q4,0.0,0.0
exact,pre_advance,DELTA_SA,no_revision,indicator_revision_only_dfm_kalman_em,2012:Q1,0.0,0.0
exact,pre_advance,DELTA_SA,no_revision,indicator_revision_only_dfm_kalman_em,2012:Q2,0.0,0.0
exact,pre_advance,DELTA_SA,no_revision,indicator_revision_only_dfm_kalman_em,2012:Q3,0.0,0.0
exact,pre_advance,DELTA_SA,no_revision,indicator_revision_only_dfm_kalman_em,2012:Q4,0.0,0.0
exact,pre_advance,DELTA_SA,no_revision,indicator_revision_only_dfm_kalman_em,2013:Q1,0.0,0.0
exact,pre_advance,DELTA_SA,no_revision,indicator_revision_only_dfm_kalman_em,2013:Q2,0.0,0.0
exact,pre_advance,DELTA_SA,no_revision,indicator_revision_only_dfm_kalman_em,2013:Q3,0.0,0.0
exact,pre_advance,DELTA_SA,no_revision,indicator_revision_only_dfm_kalman_em,2013:Q4,0.0,0.0
exact,pre_advance,DELTA_SA,no_revision,indicator_revision_only_dfm_kalman_em,2014:Q1,0.0,0.0
exact,pre_advance,DELTA_SA,no_revision,indicator_revision_only_dfm_kalman_em,2014:Q2,0.0,0.0
exact,pre_advance,DELTA_SA,no_revision,indicator_revision_only_dfm_kalman_em,2014:Q3,0.0,0.0
exact,pre_advance,DELTA_SA,no_revision,indicator_revision_only_dfm_kalman_em,2014:Q4,0.0,0.0
exact,pre_advance,DELTA_SA,no_revision,indicator_revision_only_dfm_kalman_em,2015:Q1,0.0,0.0
exact,pre_advance,DELTA_SA,no_revision,indicator_revision_only_dfm_kalman_em,2015:Q2,0.0,0.0
exact,pre_advance,DELTA_SA,no_revision,indicator_revision_only_dfm_kalman_em,2015:Q3,0.0,0.0
exact,pre_advance,DELTA_SA,no_revision,indicator_revision_only_dfm_kalman_em,2015:Q4,0.0,0.0
exact,pre_advance,DELTA_SA,no_revision,indicator_revision_only_dfm_kalman_em,2016:Q1,0.0,0.0
exact,pre_advance,DELTA_SA,no_revision,indicator_revision_only_dfm_kalman_em,2016:Q2,0.0,0.0
exact,pre_advance,DELTA_SA,no_revision,indicator_revision_only_dfm_kalman_em,2016:Q3,0.0,0.0
exact,pre_advance,DELTA_SA,no_revision,indicator_revision_only_dfm_kalman_em,2016:Q4,0.0,0.0
exact,pre_advance,DELTA_SA,no_revision,indicator_revision_only_dfm_kalman_em,2017:Q1,0.0,0.0
exact,pre_advance,DELTA_SA,no_revision,indicator_revision_only_dfm_kalman_em,2017:Q2,0.0,0.0
exact,pre_advance,DELTA_SA,no_revision,indicator_revision_only_dfm_kalman_em,2017:Q3,0.0,0.0
exact,pre_advance,DELTA_SA,no_revision,indicator_revision_only_dfm_kalman_em,2017:Q4,0.0,0.0
exact,pre_advance,DELTA_SA,no_revision,indicator_revision_only_dfm_kalman_em,2018:Q1,0.0,0.0
exact,pre_advance,DELTA_SA,no_revision,indicator_revision_only_dfm_kalman_em,2018:Q2,0.0,0.0
exact,pre_advance,DELTA_SA,no_revision,indicator_revision_only_dfm_kalman_em,2018:Q3,0.0,0.0
exact,pre_advance,DELTA_SA,no_revision,indicator_revision_only_dfm_kalman_em,2019:Q1,0.0,0.0
exact,pre_advance,DELTA_SA,no_revision,indicator_revision_only_dfm_kalman_em,2019:Q2,0.0,0.0
exact,pre_advance,DELTA_SA,no_revision,indicator_revision_only_dfm_kalman_em,2019:Q3,0.0,0.0
exact,pre_advance,DELTA_SA,no_revision,indicator_revision_only_dfm_kalman_em,2019:Q4,0.0,0.0
exact,pre_advance,DELTA_SA,no_revision,indicator_revision_only_dfm_kalman_em,2020:Q1,0.0,0.0
exact,pre_advance,DELTA_SA,no_revision,indicator_revision_only_dfm_kalman_em,2020:Q2,0.0,0.0
exact,pre_advance,DELTA_SA,no_revision,indicator_revision_only_dfm_kalman_em,2020:Q3,0.0,0.0
exact,pre_advance,DELTA_SA,no_revision,indicator_revision_only_dfm_kalman_em,2020:Q4,0.0,0.0
exact,pre_advance,DELTA_SA,no_revision,indicator_revision_only_dfm_kalman_em,2021:Q1,0.0,0.0
exact,pre_advance,DELTA_SA,no_revision,indicator_revision_only_dfm_kalman_em,2021:Q2,0.0,0.0
exact,pre_advance,DELTA_SA,no_revision,indicator_revision_only_dfm_kalman_em,2021:Q3,0.0,0.0
exact,pre_advance,DELTA_SA,no_revision,indicator_revision_only_dfm_kalman_em,2021:Q4,0.0,0.0
exact,pre_advance,DELTA_SA,no_revision,indicator_revision_only_dfm_kalman_em,2022:Q1,0.0,0.0
exact,pre_advance,DELTA_SA,no_revision,indicator_revision_only_dfm_kalman_em,2022:Q2,0.0,0.0
exact,pre_advance,DELTA_SA,no_revision,indicator_revision_only_dfm_kalman_em,2022:Q3,0.0,0.0
exact,pre_advance,DELTA_SA,no_revision,indicator_revision_only_dfm_kalman_em,2022:Q4,0.0,0.0
exact,pre_advance,DELTA_SA,no_revision,indicator_revision_only_dfm_kalman_em,2023:Q1,0.0,0.0
exact,pre_advance,DELTA_SA,no_revision,indicator_revision_only_dfm_kalman_em,2023:Q2,0.0,0.0
exact,pre_advance,DELTA_SA,no_revision,indicator_revision_only_dfm_kalman_em,2023:Q3,0.0,0.0
exact,pre_advance,DELTA_SA,no_revision,indicator_revision_only_dfm_kalman_em,2023:Q4,0.0,0.0
exact,pre_advance,DELTA_SA,no_revision,indicator_revision_only_dfm_kalman_em,2024:Q1,0.0,0.0
exact,pre_advance,DELTA_SA,no_revision,indicator_revision_only_dfm_kalman_em,2024:Q2,0.0,0.0
exact,pre_advance,DELTA_SA,no_revision,indicator_revision_only_dfm_kalman_em,2024:Q3,0.0,0.0
exact,pre_advance,DELTA_SA,no_revision,indicator_revision_only_dfm_kalman_em,2024:Q4,0.0,0.0
exact,pre_advance,DELTA_SA,no_revision,joint_indicator_revision_dfm_full_kalman_em,2005:Q1,0.1337851686980097,0.1337851686980097
exact,pre_advance,DELTA_SA,no_revision,joint_indicator_revision_dfm_full_kalman_em,2005:Q2,-0.23035655775196423,-0.09657138905395454
exact,pre_advance,DELTA_SA,no_revision,joint_indicator_revision_dfm_full_kalman_em,2005:Q3,0.18310804789173174,0.0865366588377772
exact,pre_advance,DELTA_SA,no_revision,joint_indicator_revision_dfm_full_kalman_em,2005:Q4,0.22824130978702548,0.3147779686248027
exact,pre_advance,DELTA_SA,no_revision,joint_indicator_revision_dfm_full_kalman_em,2006:Q1,0.2365887964693105,0.5513667650941132
exact,pre_advance,DELTA_SA,no_revision,joint_indicator_revision_dfm_full_kalman_em,2006:Q2,0.17548465202619914,0.7268514171203123
exact,pre_advance,DELTA_SA,no_revision,joint_indicator_revision_dfm_full_kalman_em,2006:Q3,-0.5637554253547303,0.16309599176558198
exact,pre_advance,DELTA_SA,no_revision,joint_indicator_revision_dfm_full_kalman_em,2006:Q4,0.6180985478233478,0.7811945395889298
exact,pre_advance,DELTA_SA,no_revision,joint_indicator_revision_dfm_full_kalman_em,2007:Q1,-0.009326909243279391,0.7718676303456504
exact,pre_advance,DELTA_SA,no_revision,joint_indicator_revision_dfm_full_kalman_em,2007:Q2,0.22423919288484334,0.9961068232304937
exact,pre_advance,DELTA_SA,no_revision,joint_indicator_revision_dfm_full_kalman_em,2007:Q3,-1.2366769473366985,-0.24057012410620482
exact,pre_advance,DELTA_SA,no_revision,joint_indicator_revision_dfm_full_kalman_em,2007:Q4,-0.37274644346221575,-0.6133165675684206
exact,pre_advance,DELTA_SA,no_revision,joint_indicator_revision_dfm_full_kalman_em,2008:Q1,-0.19891790847706303,-0.8122344760454836
exact,pre_advance,DELTA_SA,no_revision,joint_indicator_revision_dfm_full_kalman_em,2008:Q2,0.19066426890310084,-0.6215702071423828
exact,pre_advance,DELTA_SA,no_revision,joint_indicator_revision_dfm_full_kalman_em,2008:Q3,0.03078849541080686,-0.5907817117315759
exact,pre_advance,DELTA_SA,no_revision,joint_indicator_revision_dfm_full_kalman_em,2008:Q4,3.3195528956238336,2.728771183892258
exact,pre_advance,DELTA_SA,no_revision,joint_indicator_revision_dfm_full_kalman_em,2009:Q1,0.15938728727209706,2.888158471164355
exact,pre_advance,DELTA_SA,no_revision,joint_indicator_revision_dfm_full_kalman_em,2009:Q2,-0.5627443509134482,2.3254141202509064
exact,pre_advance,DELTA_SA,no_revision,joint_indicator_revision_dfm_full_kalman_em,2009:Q3,-2.5712084908645982,-0.2457943706136918
exact,pre_advance,DELTA_SA,no_revision,joint_indicator_revision_dfm_full_kalman_em,2009:Q4,-0.0632044392255148,-0.3089988098392066
exact,pre_advance,DELTA_SA,no_revision,joint_indicator_revision_dfm_full_kalman_em,2010:Q1,-0.4447024137243191,-0.7537012235635256
exact,pre_advance,DELTA_SA,no_revision,joint_indicator_revision_dfm_full_kalman_em,2010:Q2,-0.30808727935210845,-1.061788502915634
exact,pre_advance,DELTA_SA,no_revision,joint_indicator_revision_dfm_full_kalman_em,2010:Q3,0.1643130903604545,-0.8974754125551795
exact,pre_advance,DELTA_SA,no_revision,joint_indicator_revision_dfm_full_kalman_em,2010:Q4,-0.08410493725803123,-0.9815803498132107
exact,pre_advance,DELTA_SA,no_revision,joint_indicator_revision_dfm_full_kalman_em,2011:Q1,-0.0686819725843335,-1.0502623223975442
exact,pre_advance,DELTA_SA,no_revision,joint_indicator_revision_dfm_full_kalman_em,2011:Q2,-0.1562853162786385,-1.2065476386761826
exact,pre_advance,DELTA_SA,no_revision,joint_indicator_revision_dfm_full_kalman_em,2011:Q3,-0.3902938139984108,-1.5968414526745933
exact,pre_advance,DELTA_SA,no_revision,joint_indicator_revision_dfm_full_kalman_em,2011:Q4,0.027036064849996235,-1.569805387824597
exact,pre_advance,DELTA_SA,no_revision,joint_indicator_revision_dfm_full_kalman_em,2012:Q1,-0.20097146093774326,-1.7707768487623403
exact,pre_advance,DELTA_SA,no_revision,joint_indicator_revision_dfm_full_kalman_em,2012:Q2,0.03644137338904375,-1.7343354753732965
exact,pre_advance,DELTA_SA,no_revision,joint_indicator_revision_dfm_full_kalman_em,2012:Q3,0.18903763841989066,-1.5452978369534058
exact,pre_advance,DELTA_SA,no_revision,joint_indicator_revision_dfm_full_kalman_em,2012:Q4,0.0710178229638266,-1.4742800139895793
exact,pre_advance,DELTA_SA,no_revision,joint_indicator_revision_dfm_full_kalman_em,2013:Q1,-0.07285552452824906,-1.5471355385178285
exact,pre_advance,DELTA_SA,no_revision,joint_indicator_revision_dfm_full_kalman_em,2013:Q2,0.20458322736531365,-1.3425523111525148
exact,pre_advance,DELTA_SA,no_revision,joint_indicator_revision_dfm_full_kalman_em,2013:Q3,0.18450390387551696,-1.1580484072769979
exact,pre_advance,DELTA_SA,no_revision,joint_indicator_revision_dfm_full_kalman_em,2013:Q4,-0.45449151958683887,-1.6125399268638367
exact,pre_advance,DELTA_SA,no_revision,joint_indicator_revision_dfm_full_kalman_em,2014:Q1,-0.29390658518511725,-1.906446512048954
exact,pre_advance,DELTA_SA,no_revision,joint_indicator_revision_dfm_full_kalman_em,2014:Q2,-0.06936319860334686,-1.975809710652301
exact,pre_advance,DELTA_SA,no_revision,joint_indicator_revision_dfm_full_kalman_em,2014:Q3,0.060784786693642075,-1.9150249239586588
exact,pre_advance,DELTA_SA,no_revision,joint_indicator_revision_dfm_full_kalman_em,2014:Q4,-0.06998622569532467,-1.9850111496539835
exact,pre_advance,DELTA_SA,no_revision,joint_indicator_revision_dfm_full_kalman_em,2015:Q1,0.15238621113314355,-1.83262493852084
exact,pre_advance,DELTA_SA,no_revision,joint_indicator_revision_dfm_full_kalman_em,2015:Q2,0.7567632061824989,-1.075861732338341
exact,pre_advance,DELTA_SA,no_revision,joint_indicator_revision_dfm_full_kalman_em,2015:Q3,0.027944961509403843,-1.0479167708289372
exact,pre_advance,DELTA_SA,no_revision,joint_indicator_revision_dfm_full_kalman_em,2015:Q4,0.02674179537656117,-1.021174975452376
exact,pre_advance,DELTA_SA,no_revision,joint_indicator_revision_dfm_full_kalman_em,2016:Q1,0.053254352459201626,-0.9679206229931744
exact,pre_advance,DELTA_SA,no_revision,joint_indicator_revision_dfm_full_kalman_em,2016:Q2,-0.04440417867340876,-1.0123248016665831
exact,pre_advance,DELTA_SA,no_revision,joint_indicator_revision_dfm_full_kalman_em,2016:Q3,0.06397621652727727,-0.9483485851393059
exact,pre_advance,DELTA_SA,no_revision,joint_indicator_revision_dfm_full_kalman_em,2016:Q4,-0.06230388984219802,-1.0106524749815038
exact,pre_advance,DELTA_SA,no_revision,joint_indicator_revision_dfm_full_kalman_em,2017:Q1,0.16120281893980257,-0.8494496560417012
exact,pre_advance,DELTA_SA,no_revision,joint_indicator_revision_dfm_full_kalman_em,2017:Q2,0.16556741318580284,-0.6838822428558984
exact,pre_advance,DELTA_SA,no_revision,joint_indicator_revision_dfm_full_kalman_em,2017:Q3,0.023591848070086102,-0.6602903947858123
exact,pre_advance,DELTA_SA,no_revision,joint_indicator_revision_dfm_full_kalman_em,2017:Q4,-0.1958508413028724,-0.8561412360886846
exact,pre_advance,DELTA_SA,no_revision,joint_indicator_revision_dfm_full_kalman_em,2018:Q1,-0.13151312879401345,-0.9876543648826981
exact,pre_advance,DELTA_SA,no_revision,joint_indicator_revision_dfm_full_kalman_em,2018:Q2,0.027542488422361087,-0.960111876460337
exact,pre_advance,DELTA_SA,no_revision,joint_indicator_revision_dfm_full_kalman_em,2018:Q3,-0.01052313237610714,-0.9706350088364442
exact,pre_advance,DELTA_SA,no_revision,joint_indicator_revision_dfm_full_kalman_em,2019:Q1,-0.004524634928186295,-0.9751596437646305
exact,pre_advance,DELTA_SA,no_revision,joint_indicator_revision_dfm_full_kalman_em,2019:Q2,-0.009932988609256803,-0.9850926323738873
