haminh109/Revision-Aware-DFM/outputs/full_state_space_release_revision_dfm/frozen/q2_manuscript_best_v1/mature_robustness_runs/mature_1y/evidence_dir/cumulative_loss_point.csv
timing_mode,checkpoint_id,outcome_id,baseline_model,model_id,target_quarter,loss_diff_baseline_minus_model,cumulative_loss_diff
exact,pre_advance,A,ar,bridge,2005:Q1,0.026508366163050925,0.026508366163050925
exact,pre_advance,A,ar,bridge,2005:Q2,0.25605091488063453,0.28255928104368544
exact,pre_advance,A,ar,bridge,2005:Q3,-0.1145844705953406,0.16797481044834484
exact,pre_advance,A,ar,bridge,2005:Q4,-1.067053416924928,-0.8990786064765831
exact,pre_advance,A,ar,bridge,2006:Q1,1.6356501256199305,0.7365715191433474
exact,pre_advance,A,ar,bridge,2006:Q2,0.7676987547042062,1.5042702738475535
exact,pre_advance,A,ar,bridge,2006:Q3,-0.11413741897172125,1.3901328548758323
exact,pre_advance,A,ar,bridge,2006:Q4,-11.42373598428023,-10.033603129404398
exact,pre_advance,A,ar,bridge,2007:Q1,2.9288243316873825,-7.104778797717016
exact,pre_advance,A,ar,bridge,2007:Q2,-0.571880895833992,-7.676659693551008
exact,pre_advance,A,ar,bridge,2007:Q3,-4.421703232049937,-12.098362925600945
exact,pre_advance,A,ar,bridge,2007:Q4,6.981606042021606,-5.116756883579339
exact,pre_advance,A,ar,bridge,2008:Q1,-0.8428265241404642,-5.959583407719803
exact,pre_advance,A,ar,bridge,2008:Q2,-0.5775901807402076,-6.537173588460011
exact,pre_advance,A,ar,bridge,2008:Q3,6.239153415743342,-0.2980201727166687
exact,pre_advance,A,ar,bridge,2008:Q4,18.935021625538596,18.637001452821927
exact,pre_advance,A,ar,bridge,2009:Q1,28.976487905078283,47.61348935790021
exact,pre_advance,A,ar,bridge,2009:Q2,-1.0972978517896448,46.51619150611056
exact,pre_advance,A,ar,bridge,2009:Q3,4.302859584500106,50.819051090610664
exact,pre_advance,A,ar,bridge,2009:Q4,0.8405391500749486,51.65959024068561
exact,pre_advance,A,ar,bridge,2010:Q1,-7.902887294564825,43.75670294612078
exact,pre_advance,A,ar,bridge,2010:Q2,0.011858308232202852,43.76856125435299
exact,pre_advance,A,ar,bridge,2010:Q3,0.18832454713788116,43.95688580149087
exact,pre_advance,A,ar,bridge,2010:Q4,0.2765286183734815,44.23341441986435
exact,pre_advance,A,ar,bridge,2011:Q1,-2.6235720668932383,41.609842352971114
exact,pre_advance,A,ar,bridge,2011:Q2,-1.4729019751695853,40.13694037780153
exact,pre_advance,A,ar,bridge,2011:Q3,-0.0022523077665603797,40.13468807003497
exact,pre_advance,A,ar,bridge,2011:Q4,-1.082757162786356,39.05193090724861
exact,pre_advance,A,ar,bridge,2012:Q1,-1.0541537717065796,37.99777713554203
exact,pre_advance,A,ar,bridge,2012:Q2,-0.4841720924257811,37.51360504311625
exact,pre_advance,A,ar,bridge,2012:Q3,-0.5745739215873314,36.93903112152892
exact,pre_advance,A,ar,bridge,2012:Q4,-8.166100960885938,28.772930160642982
exact,pre_advance,A,ar,bridge,2013:Q1,0.7861555844576769,29.55908574510066
exact,pre_advance,A,ar,bridge,2013:Q2,-0.3824613142293476,29.176624430871314
exact,pre_advance,A,ar,bridge,2013:Q3,-0.46677534104159424,28.70984908982972
exact,pre_advance,A,ar,bridge,2013:Q4,-0.039765412715874415,28.670083677113848
exact,pre_advance,A,ar,bridge,2014:Q1,3.920388840588136,32.59047251770198
exact,pre_advance,A,ar,bridge,2014:Q2,4.106194340754633,36.69666685845662
exact,pre_advance,A,ar,bridge,2014:Q3,-0.056094443733069724,36.64057241472354
exact,pre_advance,A,ar,bridge,2014:Q4,0.1575985164891277,36.798170931212674
exact,pre_advance,A,ar,bridge,2015:Q1,3.3836744740684486,40.18184540528112
exact,pre_advance,A,ar,bridge,2015:Q2,0.8610543008872912,41.04289970616841
exact,pre_advance,A,ar,bridge,2015:Q3,0.6136721270869122,41.65657183325533
exact,pre_advance,A,ar,bridge,2015:Q4,0.6515995292412713,42.3081713624966
exact,pre_advance,A,ar,bridge,2016:Q1,0.7787481652209838,43.08691952771758
exact,pre_advance,A,ar,bridge,2016:Q2,0.059797019294426566,43.14671654701201
exact,pre_advance,A,ar,bridge,2016:Q3,0.36377552260716206,43.510492069619175
exact,pre_advance,A,ar,bridge,2016:Q4,-0.7375381686773962,42.77295390094178
exact,pre_advance,A,ar,bridge,2017:Q1,-0.6640699525926914,42.10888394834909
exact,pre_advance,A,ar,bridge,2017:Q2,-0.12694577975501653,41.98193816859407
exact,pre_advance,A,ar,bridge,2017:Q3,-0.3142545493377593,41.66768361925631
exact,pre_advance,A,ar,bridge,2017:Q4,-1.1500300216843717,40.517653597571936
exact,pre_advance,A,ar,bridge,2018:Q1,-0.8594179119067495,39.65823568566519
exact,pre_advance,A,ar,bridge,2018:Q2,0.39498998888680337,40.053225674551996
exact,pre_advance,A,ar,bridge,2018:Q3,-0.1438588875744695,39.90936678697753
exact,pre_advance,A,ar,bridge,2018:Q4,0.09068553162124533,40.000052318598776
exact,pre_advance,A,ar,bridge,2019:Q1,-0.10760998024848467,39.89244233835029
exact,pre_advance,A,ar,bridge,2019:Q2,0.6089661755654483,40.50140851391574
exact,pre_advance,A,ar,bridge,2019:Q3,-0.33271829282384024,40.1686902210919
exact,pre_advance,A,ar,bridge,2019:Q4,-0.16781559230481113,40.00087462878709
exact,pre_advance,A,ar,bridge,2020:Q1,9.102458446038156,49.103333074825244
exact,pre_advance,A,ar,bridge,2020:Q2,532.6153717534219,581.7187048282472
exact,pre_advance,A,ar,bridge,2020:Q3,1642.8717471955658,2224.5904520238128
exact,pre_advance,A,ar,bridge,2020:Q4,-25.236584640080753,2199.353867383732
exact,pre_advance,A,ar,bridge,2021:Q1,12.991205256378652,2212.3450726401106
exact,pre_advance,A,ar,bridge,2021:Q2,15.009953845689985,2227.3550264858004
exact,pre_advance,A,ar,bridge,2021:Q3,-0.3051338757414128,2227.049892610059
exact,pre_advance,A,ar,bridge,2021:Q4,-0.5416554582639961,2226.508237151795
exact,pre_advance,A,ar,bridge,2022:Q1,-27.24056001814712,2199.267677133648
exact,pre_advance,A,ar,bridge,2022:Q2,2.3168008337014,2201.5844779673494
exact,pre_advance,A,ar,bridge,2022:Q3,-3.0659772522159,2198.5185007151335
exact,pre_advance,A,ar,bridge,2022:Q4,-18.358927656569044,2180.1595730585645
exact,pre_advance,A,ar,bridge,2023:Q1,1.746828477152817,2181.9064015357176
exact,pre_advance,A,ar,bridge,2023:Q2,-1.4069302895362061,2180.499471246181
exact,pre_advance,A,ar,bridge,2023:Q3,0.3615726347753414,2180.8610438809565
exact,pre_advance,A,ar,bridge,2023:Q4,-6.352938995644131,2174.508104885312
exact,pre_advance,A,ar,bridge,2024:Q1,0.7855773239734215,2175.2936822092856
exact,pre_advance,A,ar,bridge,2024:Q2,-0.6561092188970661,2174.6375729903884
exact,pre_advance,A,ar,bridge,2024:Q3,-0.07053545014004475,2174.5670375402483
exact,pre_advance,A,ar,bridge,2024:Q4,-0.00044289376299851135,2174.566594646485
exact,pre_advance,A,ar,indicator_revision_only_dfm_kalman_em,2005:Q1,-2.135402522774477,-2.135402522774477
exact,pre_advance,A,ar,indicator_revision_only_dfm_kalman_em,2005:Q2,-0.5082225477380682,-2.6436250705125452
exact,pre_advance,A,ar,indicator_revision_only_dfm_kalman_em,2005:Q3,0.5092377121349184,-2.134387358377627
exact,pre_advance,A,ar,indicator_revision_only_dfm_kalman_em,2005:Q4,-24.14472876213825,-26.279116120515877
exact,pre_advance,A,ar,indicator_revision_only_dfm_kalman_em,2006:Q1,8.351357815865374,-17.927758304650503
exact,pre_advance,A,ar,indicator_revision_only_dfm_kalman_em,2006:Q2,-3.237735323214472,-21.165493627864976
exact,pre_advance,A,ar,indicator_revision_only_dfm_kalman_em,2006:Q3,-3.2697206266256638,-24.43521425449064
exact,pre_advance,A,ar,indicator_revision_only_dfm_kalman_em,2006:Q4,-20.435645709311522,-44.87085996380216
exact,pre_advance,A,ar,indicator_revision_only_dfm_kalman_em,2007:Q1,2.493528913566701,-42.37733105023546
exact,pre_advance,A,ar,indicator_revision_only_dfm_kalman_em,2007:Q2,1.9224741037085562,-40.4548569465269
exact,pre_advance,A,ar,indicator_revision_only_dfm_kalman_em,2007:Q3,-39.294712008104185,-79.74956895463109
exact,pre_advance,A,ar,indicator_revision_only_dfm_kalman_em,2007:Q4,-5.678619661351032,-85.42818861598212
exact,pre_advance,A,ar,indicator_revision_only_dfm_kalman_em,2008:Q1,-12.399023298230363,-97.82721191421248
exact,pre_advance,A,ar,indicator_revision_only_dfm_kalman_em,2008:Q2,-0.1059640415786014,-97.93317595579109
exact,pre_advance,A,ar,indicator_revision_only_dfm_kalman_em,2008:Q3,-4.7613049023013785,-102.69448085809246
exact,pre_advance,A,ar,indicator_revision_only_dfm_kalman_em,2008:Q4,-30.230515338283848,-132.9249961963763
exact,pre_advance,A,ar,indicator_revision_only_dfm_kalman_em,2009:Q1,-1.5611881127259153,-134.4861843091022
exact,pre_advance,A,ar,indicator_revision_only_dfm_kalman_em,2009:Q2,-5.054361772003737,-139.54054608110596
exact,pre_advance,A,ar,indicator_revision_only_dfm_kalman_em,2009:Q3,-1.2427057716184216,-140.7832518527244
exact,pre_advance,A,ar,indicator_revision_only_dfm_kalman_em,2009:Q4,2.5051392195926043,-138.2781126331318
exact,pre_advance,A,ar,indicator_revision_only_dfm_kalman_em,2010:Q1,-11.178052053050653,-149.45616468618246
exact,pre_advance,A,ar,indicator_revision_only_dfm_kalman_em,2010:Q2,-5.271416208221765,-154.7275808944042
exact,pre_advance,A,ar,indicator_revision_only_dfm_kalman_em,2010:Q3,0.014630852503528552,-154.71295004190068
exact,pre_advance,A,ar,indicator_revision_only_dfm_kalman_em,2010:Q4,0.6502961557319942,-154.06265388616868
exact,pre_advance,A,ar,indicator_revision_only_dfm_kalman_em,2011:Q1,-20.834288802448786,-174.89694268861746
exact,pre_advance,A,ar,indicator_revision_only_dfm_kalman_em,2011:Q2,0.4301252202941013,-174.46681746832337
exact,pre_advance,A,ar,indicator_revision_only_dfm_kalman_em,2011:Q3,-1.3096385966067645,-175.77645606493013
exact,pre_advance,A,ar,indicator_revision_only_dfm_kalman_em,2011:Q4,-3.848421642703516,-179.62487770763366
exact,pre_advance,A,ar,indicator_revision_only_dfm_kalman_em,2012:Q1,-7.075365244359448,-186.70024295199312
exact,pre_advance,A,ar,indicator_revision_only_dfm_kalman_em,2012:Q2,-1.1167597969275231,-187.81700274892063
exact,pre_advance,A,ar,indicator_revision_only_dfm_kalman_em,2012:Q3,-0.2119148853237069,-188.02891763424432
exact,pre_advance,A,ar,indicator_revision_only_dfm_kalman_em,2012:Q4,-13.457007254864232,-201.48592488910856
exact,pre_advance,A,ar,indicator_revision_only_dfm_kalman_em,2013:Q1,1.302716764029337,-200.18320812507923
exact,pre_advance,A,ar,indicator_revision_only_dfm_kalman_em,2013:Q2,-0.5407213190243809,-200.72392944410362
exact,pre_advance,A,ar,indicator_revision_only_dfm_kalman_em,2013:Q3,0.3316850950848005,-200.39224434901882
exact,pre_advance,A,ar,indicator_revision_only_dfm_kalman_em,2013:Q4,-2.2301481723239513,-202.6223925213428
exact,pre_advance,A,ar,indicator_revision_only_dfm_kalman_em,2014:Q1,2.5650543338882796,-200.05733818745452
exact,pre_advance,A,ar,indicator_revision_only_dfm_kalman_em,2014:Q2,5.364091357128001,-194.69324683032653
exact,pre_advance,A,ar,indicator_revision_only_dfm_kalman_em,2014:Q3,-0.06653642801677008,-194.7597832583433
exact,pre_advance,A,ar,indicator_revision_only_dfm_kalman_em,2014:Q4,-0.007232467011173582,-194.76701572535447
exact,pre_advance,A,ar,indicator_revision_only_dfm_kalman_em,2015:Q1,5.0989129981611425,-189.66810272719331
exact,pre_advance,A,ar,indicator_revision_only_dfm_kalman_em,2015:Q2,0.4035290757671153,-189.2645736514262
exact,pre_advance,A,ar,indicator_revision_only_dfm_kalman_em,2015:Q3,-1.9675650382806862,-191.2321386897069
exact,pre_advance,A,ar,indicator_revision_only_dfm_kalman_em,2015:Q4,0.8062687809451619,-190.4258699087617
exact,pre_advance,A,ar,indicator_revision_only_dfm_kalman_em,2016:Q1,-1.097162505359872,-191.5230324141216
exact,pre_advance,A,ar,indicator_revision_only_dfm_kalman_em,2016:Q2,-0.6441614297532633,-192.16719384387486
exact,pre_advance,A,ar,indicator_revision_only_dfm_kalman_em,2016:Q3,1.0899223068587276,-191.07727153701612
exact,pre_advance,A,ar,indicator_revision_only_dfm_kalman_em,2016:Q4,-3.4262388690626953,-194.50351040607882
exact,pre_advance,A,ar,indicator_revision_only_dfm_kalman_em,2017:Q1,-3.4920868078492284,-197.99559721392805
exact,pre_advance,A,ar,indicator_revision_only_dfm_kalman_em,2017:Q2,-0.07030020212460697,-198.06589741605265
exact,pre_advance,A,ar,indicator_revision_only_dfm_kalman_em,2017:Q3,-1.5770103909525948,-199.64290780700526
exact,pre_advance,A,ar,indicator_revision_only_dfm_kalman_em,2017:Q4,-10.20974870695818,-209.85265651396344
exact,pre_advance,A,ar,indicator_revision_only_dfm_kalman_em,2018:Q1,-1.1385577461825762,-210.99121426014602
exact,pre_advance,A,ar,indicator_revision_only_dfm_kalman_em,2018:Q2,1.2895151590693976,-209.70169910107663
exact,pre_advance,A,ar,indicator_revision_only_dfm_kalman_em,2018:Q3,0.04767405637791886,-209.6540250446987
exact,pre_advance,A,ar,indicator_revision_only_dfm_kalman_em,2018:Q4,0.16742883866136787,-209.48659620603732
exact,pre_advance,A,ar,indicator_revision_only_dfm_kalman_em,2019:Q1,-2.9051637280341214,-212.39175993407144
exact,pre_advance,A,ar,indicator_revision_only_dfm_kalman_em,2019:Q2,0.22361584242475852,-212.1681440916467
exact,pre_advance,A,ar,indicator_revision_only_dfm_kalman_em,2019:Q3,-0.3063255219617945,-212.47446961360848
exact,pre_advance,A,ar,indicator_revision_only_dfm_kalman_em,2019:Q4,-0.21762668057331963,-212.6920962941818
exact,pre_advance,A,ar,indicator_revision_only_dfm_kalman_em,2020:Q1,37.489731472284504,-175.20236482189728
exact,pre_advance,A,ar,indicator_revision_only_dfm_kalman_em,2020:Q2,990.2999413619523,815.097576540055
exact,pre_advance,A,ar,indicator_revision_only_dfm_kalman_em,2020:Q3,2160.9084915575704,2976.0060680976253
exact,pre_advance,A,ar,indicator_revision_only_dfm_kalman_em,2020:Q4,-17.935157921999583,2958.0709101756256
exact,pre_advance,A,ar,indicator_revision_only_dfm_kalman_em,2021:Q1,9.495443741436286,2967.566353917062
exact,pre_advance,A,ar,indicator_revision_only_dfm_kalman_em,2021:Q2,6.822445600800645,2974.3887995178625
exact,pre_advance,A,ar,indicator_revision_only_dfm_kalman_em,2021:Q3,-5.66852442890632,2968.720275088956
exact,pre_advance,A,ar,indicator_revision_only_dfm_kalman_em,2021:Q4,13.802268019528238,2982.522543108484
exact,pre_advance,A,ar,indicator_revision_only_dfm_kalman_em,2022:Q1,-36.27444290345632,2946.2481002050276
exact,pre_advance,A,ar,indicator_revision_only_dfm_kalman_em,2022:Q2,-8.8913852178981,2937.3567149871296
exact,pre_advance,A,ar,indicator_revision_only_dfm_kalman_em,2022:Q3,-0.3213482310765142,2937.035366756053
exact,pre_advance,A,ar,indicator_revision_only_dfm_kalman_em,2022:Q4,-2.183868235959623,2934.851498520093
exact,pre_advance,A,ar,indicator_revision_only_dfm_kalman_em,2023:Q1,-1.0729111432204772,2933.7785873768726
exact,pre_advance,A,ar,indicator_revision_only_dfm_kalman_em,2023:Q2,-0.34202724851742483,2933.4365601283553
exact,pre_advance,A,ar,indicator_revision_only_dfm_kalman_em,2023:Q3,-2.4132341799331867,2931.023325948422
exact,pre_advance,A,ar,indicator_revision_only_dfm_kalman_em,2023:Q4,-1.1110634660518195,2929.9122624823704
exact,pre_advance,A,ar,indicator_revision_only_dfm_kalman_em,2024:Q1,0.8685177740822659,2930.7807802564525
exact,pre_advance,A,ar,indicator_revision_only_dfm_kalman_em,2024:Q2,-1.0821731907979422,2929.6986070656544
exact,pre_advance,A,ar,indicator_revision_only_dfm_kalman_em,2024:Q3,-0.7995956807858677,2928.8990113848686
exact,pre_advance,A,ar,indicator_revision_only_dfm_kalman_em,2024:Q4,-0.18896597585135547,2928.7100454090173
exact,pre_advance,A,ar,joint_indicator_revision_dfm_full_kalman_em,2005:Q1,-0.10275627992927369,-0.10275627992927369
exact,pre_advance,A,ar,joint_indicator_revision_dfm_full_kalman_em,2005:Q2,-0.0905460473186101,-0.1933023272478838
exact,pre_advance,A,ar,joint_indicator_revision_dfm_full_kalman_em,2005:Q3,0.36702482676800796,0.17372249952012417
exact,pre_advance,A,ar,joint_indicator_revision_dfm_full_kalman_em,2005:Q4,-18.682848154277018,-18.509125654756893
exact,pre_advance,A,ar,joint_indicator_revision_dfm_full_kalman_em,2006:Q1,6.696097847347824,-11.81302780740907
exact,pre_advance,A,ar,joint_indicator_revision_dfm_full_kalman_em,2006:Q2,0.09682030476912518,-11.716207502639945
exact,pre_advance,A,ar,joint_indicator_revision_dfm_full_kalman_em,2006:Q3,-4.472530230073373,-16.188737732713317
exact,pre_advance,A,ar,joint_indicator_revision_dfm_full_kalman_em,2006:Q4,-20.885345078543086,-37.0740828112564
exact,pre_advance,A,ar,joint_indicator_revision_dfm_full_kalman_em,2007:Q1,-0.7798180260251826,-37.853900837281586
exact,pre_advance,A,ar,joint_indicator_revision_dfm_full_kalman_em,2007:Q2,1.7470366337783625,-36.10686420350322
exact,pre_advance,A,ar,joint_indicator_revision_dfm_full_kalman_em,2007:Q3,-35.81795127307882,-71.92481547658204
exact,pre_advance,A,ar,joint_indicator_revision_dfm_full_kalman_em,2007:Q4,-2.4815140563644285,-74.40632953294647
exact,pre_advance,A,ar,joint_indicator_revision_dfm_full_kalman_em,2008:Q1,-9.029955440489429,-83.4362849734359
exact,pre_advance,A,ar,joint_indicator_revision_dfm_full_kalman_em,2008:Q2,0.036983866098046526,-83.39930110733786
exact,pre_advance,A,ar,joint_indicator_revision_dfm_full_kalman_em,2008:Q3,-4.4038646267526955,-87.80316573409056
exact,pre_advance,A,ar,joint_indicator_revision_dfm_full_kalman_em,2008:Q4,-14.733377512728008,-102.53654324681857
exact,pre_advance,A,ar,joint_indicator_revision_dfm_full_kalman_em,2009:Q1,-9.149137034480248,-111.68568028129881
exact,pre_advance,A,ar,joint_indicator_revision_dfm_full_kalman_em,2009:Q2,-0.47803683396797914,-112.16371711526679
exact,pre_advance,A,ar,joint_indicator_revision_dfm_full_kalman_em,2009:Q3,2.161055365104543,-110.00266175016225
exact,pre_advance,A,ar,joint_indicator_revision_dfm_full_kalman_em,2009:Q4,1.3062246174490264,-108.69643713271321
exact,pre_advance,A,ar,joint_indicator_revision_dfm_full_kalman_em,2010:Q1,-9.65816592204337,-118.35460305475658
exact,pre_advance,A,ar,joint_indicator_revision_dfm_full_kalman_em,2010:Q2,-5.555698212593802,-123.91030126735038
exact,pre_advance,A,ar,joint_indicator_revision_dfm_full_kalman_em,2010:Q3,0.07906245254210414,-123.83123881480827
exact,pre_advance,A,ar,joint_indicator_revision_dfm_full_kalman_em,2010:Q4,0.3235597771943762,-123.5076790376139
exact,pre_advance,A,ar,joint_indicator_revision_dfm_full_kalman_em,2011:Q1,-18.348228274250356,-141.85590731186426
exact,pre_advance,A,ar,joint_indicator_revision_dfm_full_kalman_em,2011:Q2,0.7177538754322158,-141.13815343643205
exact,pre_advance,A,ar,joint_indicator_revision_dfm_full_kalman_em,2011:Q3,-0.535927549811682,-141.67408098624372
exact,pre_advance,A,ar,joint_indicator_revision_dfm_full_kalman_em,2011:Q4,-3.0311097552234725,-144.7051907414672
exact,pre_advance,A,ar,joint_indicator_revision_dfm_full_kalman_em,2012:Q1,-5.515335015403297,-150.2205257568705
exact,pre_advance,A,ar,joint_indicator_revision_dfm_full_kalman_em,2012:Q2,-0.7714008262138119,-150.9919265830843
exact,pre_advance,A,ar,joint_indicator_revision_dfm_full_kalman_em,2012:Q3,-0.048125411792752315,-151.04005199487705
exact,pre_advance,A,ar,joint_indicator_revision_dfm_full_kalman_em,2012:Q4,-9.229201799023823,-160.26925379390087
exact,pre_advance,A,ar,joint_indicator_revision_dfm_full_kalman_em,2013:Q1,1.7344948724809013,-158.53475892141998
exact,pre_advance,A,ar,joint_indicator_revision_dfm_full_kalman_em,2013:Q2,-0.34701717545967004,-158.88177609687966
exact,pre_advance,A,ar,joint_indicator_revision_dfm_full_kalman_em,2013:Q3,0.555830319970463,-158.3259457769092
exact,pre_advance,A,ar,joint_indicator_revision_dfm_full_kalman_em,2013:Q4,-0.7542474595903264,-159.08019323649953
exact,pre_advance,A,ar,joint_indicator_revision_dfm_full_kalman_em,2014:Q1,1.4186824927185118,-157.661510743781
exact,pre_advance,A,ar,joint_indicator_revision_dfm_full_kalman_em,2014:Q2,5.757122801670118,-151.9043879421109
exact,pre_advance,A,ar,joint_indicator_revision_dfm_full_kalman_em,2014:Q3,-0.28134752444937405,-152.1857354665603
exact,pre_advance,A,ar,joint_indicator_revision_dfm_full_kalman_em,2014:Q4,0.12200028797482754,-152.06373517858546
exact,pre_advance,A,ar,joint_indicator_revision_dfm_full_kalman_em,2015:Q1,4.711818834981957,-147.3519163436035
exact,pre_advance,A,ar,joint_indicator_revision_dfm_full_kalman_em,2015:Q2,0.5754195658646104,-146.77649677773888
exact,pre_advance,A,ar,joint_indicator_revision_dfm_full_kalman_em,2015:Q3,-0.5134820203156281,-147.2899787980545
exact,pre_advance,A,ar,joint_indicator_revision_dfm_full_kalman_em,2015:Q4,1.2360414297686053,-146.0539373682859
exact,pre_advance,A,ar,joint_indicator_revision_dfm_full_kalman_em,2016:Q1,-0.195635284994375,-146.24957265328027
exact,pre_advance,A,ar,joint_indicator_revision_dfm_full_kalman_em,2016:Q2,-0.16790736988108118,-146.41748002316135
exact,pre_advance,A,ar,joint_indicator_revision_dfm_full_kalman_em,2016:Q3,1.01134820196142,-145.40613182119992
exact,pre_advance,A,ar,joint_indicator_revision_dfm_full_kalman_em,2016:Q4,-2.3150286713308432,-147.72116049253077
exact,pre_advance,A,ar,joint_indicator_revision_dfm_full_kalman_em,2017:Q1,-2.18381779596413,-149.9049782884949
exact,pre_advance,A,ar,joint_indicator_revision_dfm_full_kalman_em,2017:Q2,0.7612467924567359,-149.14373149603816
exact,pre_advance,A,ar,joint_indicator_revision_dfm_full_kalman_em,2017:Q3,-2.222052107005916,-151.36578360304406
exact,pre_advance,A,ar,joint_indicator_revision_dfm_full_kalman_em,2017:Q4,-7.4390789339036765,-158.80486253694775
exact,pre_advance,A,ar,joint_indicator_revision_dfm_full_kalman_em,2018:Q1,-0.560011036654543,-159.3648735736023
exact,pre_advance,A,ar,joint_indicator_revision_dfm_full_kalman_em,2018:Q2,0.9239845279927577,-158.44088904560954
exact,pre_advance,A,ar,joint_indicator_revision_dfm_full_kalman_em,2018:Q3,0.045397416319057936,-158.3954916292905
exact,pre_advance,A,ar,joint_indicator_revision_dfm_full_kalman_em,2018:Q4,0.16810887461066187,-158.22738275467984
exact,pre_advance,A,ar,joint_indicator_revision_dfm_full_kalman_em,2019:Q1,-2.336581510698934,-160.56396426537876
exact,pre_advance,A,ar,joint_indicator_revision_dfm_full_kalman_em,2019:Q2,0.08597871661112633,-160.47798554876763
exact,pre_advance,A,ar,joint_indicator_revision_dfm_full_kalman_em,2019:Q3,-0.21957535982250184,-160.69756090859013
exact,pre_advance,A,ar,joint_indicator_revision_dfm_full_kalman_em,2019:Q4,-0.30371037950856833,-161.0012712880987
exact,pre_advance,A,ar,joint_indicator_revision_dfm_full_kalman_em,2020:Q1,36.12640790869807,-124.87486337940064
exact,pre_advance,A,ar,joint_indicator_revision_dfm_full_kalman_em,2020:Q2,985.0577700867583,860.1829067073577
exact,pre_advance,A,ar,joint_indicator_revision_dfm_full_kalman_em,2020:Q3,2140.5267437001394,3000.709650407497
exact,pre_advance,A,ar,joint_indicator_revision_dfm_full_kalman_em,2020:Q4,-12.746575390702004,2987.963075016795
exact,pre_advance,A,ar,joint_indicator_revision_dfm_full_kalman_em,2021:Q1,6.940197955565447,2994.9032729723604
exact,pre_advance,A,ar,joint_indicator_revision_dfm_full_kalman_em,2021:Q2,6.10412047686788,3001.0073934492284
exact,pre_advance,A,ar,joint_indicator_revision_dfm_full_kalman_em,2021:Q3,-6.038201448845875,2994.9691920003825
exact,pre_advance,A,ar,joint_indicator_revision_dfm_full_kalman_em,2021:Q4,14.037284556210146,3009.0064765565926
exact,pre_advance,A,ar,joint_indicator_revision_dfm_full_kalman_em,2022:Q1,-28.02296383681876,2980.983512719774
exact,pre_advance,A,ar,joint_indicator_revision_dfm_full_kalman_em,2022:Q2,-10.116230563892065,2970.8672821558816
exact,pre_advance,A,ar,joint_indicator_revision_dfm_full_kalman_em,2022:Q3,0.013698476322063183,2970.880980632204
exact,pre_advance,A,ar,joint_indicator_revision_dfm_full_kalman_em,2022:Q4,-1.5970093462341202,2969.2839712859695
exact,pre_advance,A,ar,joint_indicator_revision_dfm_full_kalman_em,2023:Q1,-1.197142211682944,2968.0868290742865
exact,pre_advance,A,ar,joint_indicator_revision_dfm_full_kalman_em,2023:Q2,-0.10384692929820405,2967.9829821449885
exact,pre_advance,A,ar,joint_indicator_revision_dfm_full_kalman_em,2023:Q3,-2.6918345888905213,2965.2911475560977
exact,pre_advance,A,ar,joint_indicator_revision_dfm_full_kalman_em,2023:Q4,-0.7706951963610789,2964.5204523597367
exact,pre_advance,A,ar,joint_indicator_revision_dfm_full_kalman_em,2024:Q1,0.8685860169206067,2965.3890383766575
exact,pre_advance,A,ar,joint_indicator_revision_dfm_full_kalman_em,2024:Q2,-1.325150360653635,2964.063888016004
exact,pre_advance,A,ar,joint_indicator_revision_dfm_full_kalman_em,2024:Q3,-1.0931523838344308,2962.9707356321696
exact,pre_advance,A,ar,joint_indicator_revision_dfm_full_kalman_em,2024:Q4,-0.059881546128430635,2962.910854086041
exact,pre_advance,A,ar,midas_umidas,2005:Q1,-187.6199151665184,-187.6199151665184
exact,pre_advance,A,ar,midas_umidas,2005:Q2,-221.40714001951997,-409.0270551860384
exact,pre_advance,A,ar,midas_umidas,2005:Q3,-286.1498872043989,-695.1769423904373
exact,pre_advance,A,ar,midas_umidas,2005:Q4,-121.10249273451387,-816.2794351249511
exact,pre_advance,A,ar,midas_umidas,2006:Q1,-416.6870798629993,-1232.9665149879504
exact,pre_advance,A,ar,midas_umidas,2006:Q2,-219.90095661332757,-1452.8674716012779
exact,pre_advance,A,ar,midas_umidas,2006:Q3,-16.762423352507025,-1469.629894953785
exact,pre_advance,A,ar,midas_umidas,2006:Q4,-19.797858160134435,-1489.4277531139194
exact,pre_advance,A,ar,midas_umidas,2007:Q1,-18.208297323335493,-1507.6360504372549
exact,pre_advance,A,ar,midas_umidas,2007:Q2,-90.46093777998257,-1598.0969882172374
exact,pre_advance,A,ar,midas_umidas,2007:Q3,-331.1259104236887,-1929.2228986409261
exact,pre_advance,A,ar,midas_umidas,2007:Q4,-28.7438112194976,-1957.9667098604236
exact,pre_advance,A,ar,midas_umidas,2008:Q1,-109.21614314991803,-2067.1828530103417
exact,pre_advance,A,ar,midas_umidas,2008:Q2,-565.4112016092611,-2632.5940546196025
exact,pre_advance,A,ar,midas_umidas,2008:Q3,-58.186597073757085,-2690.7806516933597
exact,pre_advance,A,ar,midas_umidas,2008:Q4,-32.728163358606764,-2723.5088150519664
exact,pre_advance,A,ar,midas_umidas,2009:Q1,8.583597191716123,-2714.92521786025
exact,pre_advance,A,ar,midas_umidas,2009:Q2,-53.39885734537558,-2768.324075205626
exact,pre_advance,A,ar,midas_umidas,2009:Q3,-303.9722662121401,-3072.2963414177657
exact,pre_advance,A,ar,midas_umidas,2009:Q4,-64.51058242069575,-3136.8069238384614
exact,pre_advance,A,ar,midas_umidas,2010:Q1,0.5983576798340858,-3136.2085661586275
exact,pre_advance,A,ar,midas_umidas,2010:Q2,-15.990555884620134,-3152.199122043248
exact,pre_advance,A,ar,midas_umidas,2010:Q3,-307.6546954204589,-3459.853817463707
exact,pre_advance,A,ar,midas_umidas,2010:Q4,-38.15978341146515,-3498.013600875172
exact,pre_advance,A,ar,midas_umidas,2011:Q1,-92.03290211782502,-3590.046502992997
exact,pre_advance,A,ar,midas_umidas,2011:Q2,-306.02198228956087,-3896.068485282558
exact,pre_advance,A,ar,midas_umidas,2011:Q3,-32.87401376606293,-3928.942499048621
exact,pre_advance,A,ar,midas_umidas,2011:Q4,-371.54817852718503,-4300.490677575806
exact,pre_advance,A,ar,midas_umidas,2012:Q1,-122.74567380920654,-4423.236351385013
exact,pre_advance,A,ar,midas_umidas,2012:Q2,-29.88797422631989,-4453.124325611333
exact,pre_advance,A,ar,midas_umidas,2012:Q3,-25.05258481143651,-4478.17691042277
exact,pre_advance,A,ar,midas_umidas,2012:Q4,-236.931833593097,-4715.108744015866
exact,pre_advance,A,ar,midas_umidas,2013:Q1,-289.46108812641023,-5004.569832142277
exact,pre_advance,A,ar,midas_umidas,2013:Q2,-166.00409066325903,-5170.573922805536
exact,pre_advance,A,ar,midas_umidas,2013:Q3,-133.94421055689523,-5304.518133362431
exact,pre_advance,A,ar,midas_umidas,2013:Q4,0.1844370828420358,-5304.333696279589
exact,pre_advance,A,ar,midas_umidas,2014:Q1,-24.41104941800282,-5328.744745697592
exact,pre_advance,A,ar,midas_umidas,2014:Q2,-6.904915448098296,-5335.6496611456905
exact,pre_advance,A,ar,midas_umidas,2014:Q3,-128.28898106590654,-5463.938642211597
exact,pre_advance,A,ar,midas_umidas,2014:Q4,0.023543689470378798,-5463.915098522127
exact,pre_advance,A,ar,midas_umidas,2015:Q1,-16.38452558657465,-5480.299624108701
exact,pre_advance,A,ar,midas_umidas,2015:Q2,-85.02922229388085,-5565.328846402582
exact,pre_advance,A,ar,midas_umidas,2015:Q3,-1.344957788895401,-5566.673804191477
exact,pre_advance,A,ar,midas_umidas,2015:Q4,-43.10958890173534,-5609.783393093212
exact,pre_advance,A,ar,midas_umidas,2016:Q1,1.120103032854391,-5608.663290060357
exact,pre_advance,A,ar,midas_umidas,2016:Q2,-0.666491131098135,-5609.329781191455
exact,pre_advance,A,ar,midas_umidas,2016:Q3,-25.335260654313558,-5634.665041845769
exact,pre_advance,A,ar,midas_umidas,2016:Q4,-11.497059059703457,-5646.1621009054725
exact,pre_advance,A,ar,midas_umidas,2017:Q1,-6.0698612183336405,-5652.231962123806
exact,pre_advance,A,ar,midas_umidas,2017:Q2,0.9452815682099636,-5651.286680555596
exact,pre_advance,A,ar,midas_umidas,2017:Q3,-0.41404128561245446,-5651.700721841208
exact,pre_advance,A,ar,midas_umidas,2017:Q4,-0.13420448164651677,-5651.834926322855
exact,pre_advance,A,ar,midas_umidas,2018:Q1,-3.997257024537364,-5655.832183347392
exact,pre_advance,A,ar,midas_umidas,2018:Q2,-18.26889602605065,-5674.101079373442
exact,pre_advance,A,ar,midas_umidas,2018:Q3,-2.021495069425829,-5676.122574442868
exact,pre_advance,A,ar,midas_umidas,2018:Q4,-0.8432647553047836,-5676.965839198173
exact,pre_advance,A,ar,midas_umidas,2019:Q1,-2.440618721248274,-5679.406457919421
exact,pre_advance,A,ar,midas_umidas,2019:Q2,-0.31022506279469664,-5679.716682982215
exact,pre_advance,A,ar,midas_umidas,2019:Q3,-0.5704491640055204,-5680.287132146221
exact,pre_advance,A,ar,midas_umidas,2019:Q4,-3.737028164518225,-5684.024160310739
exact,pre_advance,A,ar,midas_umidas,2020:Q1,-88.42740718615849,-5772.451567496897
exact,pre_advance,A,ar,midas_umidas,2020:Q2,-3056.4598925313708,-8828.911460028268
exact,pre_advance,A,ar,midas_umidas,2020:Q3,-1182.785561973823,-10011.697022002092
exact,pre_advance,A,ar,midas_umidas,2020:Q4,-9.845816644277923,-10021.54283864637
exact,pre_advance,A,ar,midas_umidas,2021:Q1,-8.101390902857082,-10029.644229549227
exact,pre_advance,A,ar,midas_umidas,2021:Q2,12.942854477099132,-10016.701375072127
exact,pre_advance,A,ar,midas_umidas,2021:Q3,-36.10650263151161,-10052.807877703639
exact,pre_advance,A,ar,midas_umidas,2021:Q4,-50.137724068774205,-10102.945601772413
exact,pre_advance,A,ar,midas_umidas,2022:Q1,11.516273142384971,-10091.429328630029
exact,pre_advance,A,ar,midas_umidas,2022:Q2,-81.47208354712295,-10172.901412177152
exact,pre_advance,A,ar,midas_umidas,2022:Q3,-10.828589581410352,-10183.730001758562
exact,pre_advance,A,ar,midas_umidas,2022:Q4,-26.164088543113238,-10209.894090301676
exact,pre_advance,A,ar,midas_umidas,2023:Q1,0.983950925470207,-10208.910139376205
exact,pre_advance,A,ar,midas_umidas,2023:Q2,-4.190128232118229,-10213.100267608323
exact,pre_advance,A,ar,midas_umidas,2023:Q3,5.646110506615621,-10207.454157101707
exact,pre_advance,A,ar,midas_umidas,2023:Q4,-0.5226186986627077,-10207.976775800369
exact,pre_advance,A,ar,midas_umidas,2024:Q1,-6.858121252587646,-10214.834897052957
exact,pre_advance,A,ar,midas_umidas,2024:Q2,-0.00908849640029552,-10214.843985549358
exact,pre_advance,A,ar,midas_umidas,2024:Q3,-3.39415843192423,-10218.238143981282
exact,pre_advance,A,ar,midas_umidas,2024:Q4,0.053104823491226846,-10218.18503915779
exact,pre_advance,A,ar,monthly_mixed_frequency_kalman_em,2005:Q1,-2.1433795911062408,-2.1433795911062408
exact,pre_advance,A,ar,monthly_mixed_frequency_kalman_em,2005:Q2,0.08297374976981134,-2.0604058413364292
exact,pre_advance,A,ar,monthly_mixed_frequency_kalman_em,2005:Q3,-13.351711334239234,-15.412117175575663
exact,pre_advance,A,ar,monthly_mixed_frequency_kalman_em,2005:Q4,-17.997917989508164,-33.410035165083826
exact,pre_advance,A,ar,monthly_mixed_frequency_kalman_em,2006:Q1,6.868511512285548,-26.54152365279828
exact,pre_advance,A,ar,monthly_mixed_frequency_kalman_em,2006:Q2,-5.07911032852988,-31.620633981328158
exact,pre_advance,A,ar,monthly_mixed_frequency_kalman_em,2006:Q3,0.9832832636428366,-30.637350717685322
exact,pre_advance,A,ar,monthly_mixed_frequency_kalman_em,2006:Q4,-2.7129250987034768,-33.3502758163888
exact,pre_advance,A,ar,monthly_mixed_frequency_kalman_em,2007:Q1,-2.4624296619456416,-35.81270547833444
exact,pre_advance,A,ar,monthly_mixed_frequency_kalman_em,2007:Q2,1.2134405932327756,-34.59926488510167
exact,pre_advance,A,ar,monthly_mixed_frequency_kalman_em,2007:Q3,0.19895745154245204,-34.40030743355921
exact,pre_advance,A,ar,monthly_mixed_frequency_kalman_em,2007:Q4,6.996993534099591,-27.403313899459622
exact,pre_advance,A,ar,monthly_mixed_frequency_kalman_em,2008:Q1,1.2002173017828752,-26.203096597676748
exact,pre_advance,A,ar,monthly_mixed_frequency_kalman_em,2008:Q2,-2.078927751256637,-28.282024348933383
exact,pre_advance,A,ar,monthly_mixed_frequency_kalman_em,2008:Q3,-14.270086234496286,-42.552110583429666
exact,pre_advance,A,ar,monthly_mixed_frequency_kalman_em,2008:Q4,17.13413373476198,-25.417976848667685
exact,pre_advance,A,ar,monthly_mixed_frequency_kalman_em,2009:Q1,-12.119278027919648,-37.53725487658733
exact,pre_advance,A,ar,monthly_mixed_frequency_kalman_em,2009:Q2,-1.5294765057160808,-39.066731382303416
exact,pre_advance,A,ar,monthly_mixed_frequency_kalman_em,2009:Q3,-2.153947684188635,-41.22067906649205
exact,pre_advance,A,ar,monthly_mixed_frequency_kalman_em,2009:Q4,1.7154358055345904,-39.505243260957464
exact,pre_advance,A,ar,monthly_mixed_frequency_kalman_em,2010:Q1,0.16943414939769674,-39.33580911155977
exact,pre_advance,A,ar,monthly_mixed_frequency_kalman_em,2010:Q2,-2.3107030325934734,-41.64651214415324
exact,pre_advance,A,ar,monthly_mixed_frequency_kalman_em,2010:Q3,0.19602534015515496,-41.45048680399809
exact,pre_advance,A,ar,monthly_mixed_frequency_kalman_em,2010:Q4,0.7465918378532915,-40.703894966144794
exact,pre_advance,A,ar,monthly_mixed_frequency_kalman_em,2011:Q1,-7.093166275760732,-47.797061241905524
exact,pre_advance,A,ar,monthly_mixed_frequency_kalman_em,2011:Q2,-1.6294486180425327,-49.426509859948055
exact,pre_advance,A,ar,monthly_mixed_frequency_kalman_em,2011:Q3,0.24356625024158257,-49.18294360970647
exact,pre_advance,A,ar,monthly_mixed_frequency_kalman_em,2011:Q4,-1.051547160691387,-50.234490770397855
exact,pre_advance,A,ar,monthly_mixed_frequency_kalman_em,2012:Q1,-2.4971407626678137,-52.731631533065666
exact,pre_advance,A,ar,monthly_mixed_frequency_kalman_em,2012:Q2,-0.37984631685211245,-53.111477849917776
exact,pre_advance,A,ar,monthly_mixed_frequency_kalman_em,2012:Q3,-0.6980982756377712,-53.809576125555544
exact,pre_advance,A,ar,monthly_mixed_frequency_kalman_em,2012:Q4,-6.943937145613122,-60.753513271168664
exact,pre_advance,A,ar,monthly_mixed_frequency_kalman_em,2013:Q1,1.2195720282505476,-59.53394124291812
exact,pre_advance,A,ar,monthly_mixed_frequency_kalman_em,2013:Q2,-0.13944131482459876,-59.67338255774272
exact,pre_advance,A,ar,monthly_mixed_frequency_kalman_em,2013:Q3,0.5229288258746418,-59.150453731868076
exact,pre_advance,A,ar,monthly_mixed_frequency_kalman_em,2013:Q4,-0.3092656315945214,-59.4597193634626
exact,pre_advance,A,ar,monthly_mixed_frequency_kalman_em,2014:Q1,-3.306486002008654,-62.76620536547125
exact,pre_advance,A,ar,monthly_mixed_frequency_kalman_em,2014:Q2,6.8449481258288944,-55.92125723964236
exact,pre_advance,A,ar,monthly_mixed_frequency_kalman_em,2014:Q3,-0.8024706783654725,-56.72372791800783
exact,pre_advance,A,ar,monthly_mixed_frequency_kalman_em,2014:Q4,-1.1404395266086682,-57.8641674446165
exact,pre_advance,A,ar,monthly_mixed_frequency_kalman_em,2015:Q1,3.4087261888870852,-54.45544125572941
exact,pre_advance,A,ar,monthly_mixed_frequency_kalman_em,2015:Q2,0.8352110290434673,-53.62023022668595
exact,pre_advance,A,ar,monthly_mixed_frequency_kalman_em,2015:Q3,-0.25517222404294837,-53.8754024507289
exact,pre_advance,A,ar,monthly_mixed_frequency_kalman_em,2015:Q4,1.0988337871325378,-52.776568663596365
exact,pre_advance,A,ar,monthly_mixed_frequency_kalman_em,2016:Q1,-0.03038611024623661,-52.8069547738426
exact,pre_advance,A,ar,monthly_mixed_frequency_kalman_em,2016:Q2,-0.6097965439615677,-53.41675131780416
exact,pre_advance,A,ar,monthly_mixed_frequency_kalman_em,2016:Q3,0.7822611167731549,-52.63449020103101
exact,pre_advance,A,ar,monthly_mixed_frequency_kalman_em,2016:Q4,0.3644618844338387,-52.27002831659717
exact,pre_advance,A,ar,monthly_mixed_frequency_kalman_em,2017:Q1,-2.6115910292422835,-54.881619345839454
exact,pre_advance,A,ar,monthly_mixed_frequency_kalman_em,2017:Q2,0.5569430268839521,-54.324676318955504
exact,pre_advance,A,ar,monthly_mixed_frequency_kalman_em,2017:Q3,-1.248833993802776,-55.57351031275828
exact,pre_advance,A,ar,monthly_mixed_frequency_kalman_em,2017:Q4,-3.283228390343377,-58.856738703101655
exact,pre_advance,A,ar,monthly_mixed_frequency_kalman_em,2018:Q1,-2.452477693600998,-61.30921639670265
exact,pre_advance,A,ar,monthly_mixed_frequency_kalman_em,2018:Q2,2.2173102869849255,-59.091906109717726
exact,pre_advance,A,ar,monthly_mixed_frequency_kalman_em,2018:Q3,0.035130648881016954,-59.05677546083671
exact,pre_advance,A,ar,monthly_mixed_frequency_kalman_em,2018:Q4,-0.20296176831252113,-59.25973722914923
exact,pre_advance,A,ar,monthly_mixed_frequency_kalman_em,2019:Q1,-1.2748066247913021,-60.534543853940534
exact,pre_advance,A,ar,monthly_mixed_frequency_kalman_em,2019:Q2,0.5800420027281903,-59.95450185121234
exact,pre_advance,A,ar,monthly_mixed_frequency_kalman_em,2019:Q3,-0.0694464431264527,-60.023948294338794
exact,pre_advance,A,ar,monthly_mixed_frequency_kalman_em,2019:Q4,-0.06089551343122927,-60.08484380777002
exact,pre_advance,A,ar,monthly_mixed_frequency_kalman_em,2020:Q1,35.77322976171928,-24.311614046050742
exact,pre_advance,A,ar,monthly_mixed_frequency_kalman_em,2020:Q2,168.6658193078107,144.35420526175994
exact,pre_advance,A,ar,monthly_mixed_frequency_kalman_em,2020:Q3,2369.051208149665,2513.405413411425
exact,pre_advance,A,ar,monthly_mixed_frequency_kalman_em,2020:Q4,-2.547146488188377,2510.8582669232364
exact,pre_advance,A,ar,monthly_mixed_frequency_kalman_em,2021:Q1,-60.39758649428268,2450.4606804289538
exact,pre_advance,A,ar,monthly_mixed_frequency_kalman_em,2021:Q2,13.992777928668177,2464.453458357622
exact,pre_advance,A,ar,monthly_mixed_frequency_kalman_em,2021:Q3,-1.8393244373906072,2462.6141339202313
exact,pre_advance,A,ar,monthly_mixed_frequency_kalman_em,2021:Q4,7.620836106917762,2470.2349700271493
exact,pre_advance,A,ar,monthly_mixed_frequency_kalman_em,2022:Q1,-38.75070312455215,2431.484266902597
exact,pre_advance,A,ar,monthly_mixed_frequency_kalman_em,2022:Q2,-16.863335674623144,2414.620931227974
exact,pre_advance,A,ar,monthly_mixed_frequency_kalman_em,2022:Q3,-0.5163253785043385,2414.1046058494694
exact,pre_advance,A,ar,monthly_mixed_frequency_kalman_em,2022:Q4,-1.8611991475962066,2412.243406701873
exact,pre_advance,A,ar,monthly_mixed_frequency_kalman_em,2023:Q1,2.0635232924957703,2414.3069299943686
exact,pre_advance,A,ar,monthly_mixed_frequency_kalman_em,2023:Q2,-0.12042087414185727,2414.1865091202267
exact,pre_advance,A,ar,monthly_mixed_frequency_kalman_em,2023:Q3,0.9827072981380738,2415.1692164183646
exact,pre_advance,A,ar,monthly_mixed_frequency_kalman_em,2023:Q4,-7.364037284862714,2407.805179133502
exact,pre_advance,A,ar,monthly_mixed_frequency_kalman_em,2024:Q1,0.07050964094890222,2407.8756887744507
exact,pre_advance,A,ar,monthly_mixed_frequency_kalman_em,2024:Q2,-1.62482109074933,2406.2508676837015
exact,pre_advance,A,ar,monthly_mixed_frequency_kalman_em,2024:Q3,-1.371922534314321,2404.878945149387
exact,pre_advance,A,ar,monthly_mixed_frequency_kalman_em,2024:Q4,-0.9297635741998584,2403.949181575187
exact,pre_advance,A,ar,no_revision,2005:Q1,0.01829276874886654,0.01829276874886654
exact,pre_advance,A,ar,no_revision,2005:Q2,-0.010434082728868699,0.00785868601999784
exact,pre_advance,A,ar,no_revision,2005:Q3,0.04475723724217473,0.05261592326217257
exact,pre_advance,A,ar,no_revision,2005:Q4,-0.005897102113586961,0.04671882114858561
exact,pre_advance,A,ar,no_revision,2006:Q1,0.14435758559098844,0.19107640673957405
exact,pre_advance,A,ar,no_revision,2006:Q2,0.10645890996238783,0.29753531670196187
exact,pre_advance,A,ar,no_revision,2006:Q3,-0.24152679339726402,0.056008523304697855
exact,pre_advance,A,ar,no_revision,2006:Q4,-0.30824079892148304,-0.2522322756167852
exact,pre_advance,A,ar,no_revision,2007:Q1,-0.23848279984936216,-0.49071507546614734
exact,pre_advance,A,ar,no_revision,2007:Q2,0.05512019812272051,-0.43559487734342683
exact,pre_advance,A,ar,no_revision,2007:Q3,-0.19969014430791188,-0.6352850216513387
exact,pre_advance,A,ar,no_revision,2007:Q4,-0.15567398880635874,-0.7909590104576975
exact,pre_advance,A,ar,no_revision,2008:Q1,0.05559234221203191,-0.7353666682456655
exact,pre_advance,A,ar,no_revision,2008:Q2,0.004622952477093177,-0.7307437157685723
exact,pre_advance,A,ar,no_revision,2008:Q3,-0.15221627551749783,-0.8829599912860702
exact,pre_advance,A,ar,no_revision,2008:Q4,0.5818162017862143,-0.3011437894998559
exact,pre_advance,A,ar,no_revision,2009:Q1,0.45423321116048854,0.15308942166063266
exact,pre_advance,A,ar,no_revision,2009:Q2,0.013307526119774815,0.16639694778040748
exact,pre_advance,A,ar,no_revision,2009:Q3,-1.023992772227114,-0.8575958244467066
exact,pre_advance,A,ar,no_revision,2009:Q4,-1.4621885824992091,-2.3197844069459155
exact,pre_advance,A,ar,no_revision,2010:Q1,0.5154181563893694,-1.804366250556546
exact,pre_advance,A,ar,no_revision,2010:Q2,0.1815894544157976,-1.6227767961407484
exact,pre_advance,A,ar,no_revision,2010:Q3,0.02901155984276077,-1.5937652362979877
exact,pre_advance,A,ar,no_revision,2010:Q4,0.21335030884274386,-1.3804149274552437
exact,pre_advance,A,ar,no_revision,2011:Q1,-0.06757887593352563,-1.4479938033887694
exact,pre_advance,A,ar,no_revision,2011:Q2,0.0202217337142232,-1.4277720696745462
exact,pre_advance,A,ar,no_revision,2011:Q3,-0.052984459561723096,-1.4807565292362692
exact,pre_advance,A,ar,no_revision,2011:Q4,0.01895665554257433,-1.4617998736936948
exact,pre_advance,A,ar,no_revision,2012:Q1,0.02232353618393504,-1.4394763375097597
exact,pre_advance,A,ar,no_revision,2012:Q2,0.11942453052189395,-1.3200518069878657
exact,pre_advance,A,ar,no_revision,2012:Q3,0.0006349170808925357,-1.3194168899069731
exact,pre_advance,A,ar,no_revision,2012:Q4,-0.06262090931865316,-1.3820377992256263
exact,pre_advance,A,ar,no_revision,2013:Q1,-0.008932871015000954,-1.3909706702406273
exact,pre_advance,A,ar,no_revision,2013:Q2,0.06324061631598044,-1.3277300539246468
exact,pre_advance,A,ar,no_revision,2013:Q3,0.0315667756852992,-1.2961632782393475
exact,pre_advance,A,ar,no_revision,2013:Q4,-0.17688786721241778,-1.4730511454517652
exact,pre_advance,A,ar,no_revision,2014:Q1,-0.02480433967617479,-1.49785548512794
exact,pre_advance,A,ar,no_revision,2014:Q2,-0.3039643587409291,-1.801819843868869
exact,pre_advance,A,ar,no_revision,2014:Q3,-0.01009808842494786,-1.811917932293817
exact,pre_advance,A,ar,no_revision,2014:Q4,-0.053005079780955394,-1.8649230120747724
exact,pre_advance,A,ar,no_revision,2015:Q1,0.67193818782102,-1.1929848242537524
exact,pre_advance,A,ar,no_revision,2015:Q2,0.08197493566980374,-1.1110098885839488
exact,pre_advance,A,ar,no_revision,2015:Q3,-0.08264742175217066,-1.1936573103361194
exact,pre_advance,A,ar,no_revision,2015:Q4,-0.12441534043486313,-1.3180726507709826
exact,pre_advance,A,ar,no_revision,2016:Q1,0.2275952927293533,-1.0904773580416292
exact,pre_advance,A,ar,no_revision,2016:Q2,-0.0046545719231812915,-1.0951319299648103
exact,pre_advance,A,ar,no_revision,2016:Q3,-0.04584231925914617,-1.1409742492239565
exact,pre_advance,A,ar,no_revision,2016:Q4,0.10114230910276367,-1.0398319401211928
exact,pre_advance,A,ar,no_revision,2017:Q1,0.246574617300388,-0.7932573228208049
exact,pre_advance,A,ar,no_revision,2017:Q2,-0.15926574147033767,-0.9525230642911425
exact,pre_advance,A,ar,no_revision,2017:Q3,0.022454236955837703,-0.9300688273353048
exact,pre_advance,A,ar,no_revision,2017:Q4,0.004727701091471227,-0.9253411262438336
exact,pre_advance,A,ar,no_revision,2018:Q1,0.03223932073775865,-0.8931018055060749
exact,pre_advance,A,ar,no_revision,2018:Q2,-0.05012498584200742,-0.9432267913480823
exact,pre_advance,A,ar,no_revision,2018:Q3,0.0040716179457951085,-0.9391551734022872
exact,pre_advance,A,ar,no_revision,2018:Q4,0.0107967518642271,-0.92835842153806
exact,pre_advance,A,ar,no_revision,2019:Q1,-0.06475700376940074,-0.9931154253074608
exact,pre_advance,A,ar,no_revision,2019:Q2,-0.08251128198875868,-1.0756267072962196
exact,pre_advance,A,ar,no_revision,2019:Q3,-0.02873654465966108,-1.1043632519558806
exact,pre_advance,A,ar,no_revision,2019:Q4,0.0032282376299231016,-1.1011350143259575
exact,pre_advance,A,ar,no_revision,2020:Q1,-0.47755925650978526,-1.5786942708357428
exact,pre_advance,A,ar,no_revision,2020:Q2,-0.5667662532794111,-2.145460524115154
exact,pre_advance,A,ar,no_revision,2020:Q3,-57.60016029331837,-59.74562081743352
exact,pre_advance,A,ar,no_revision,2020:Q4,-40.65854856282156,-100.40416938025507
exact,pre_advance,A,ar,no_revision,2021:Q1,-27.79553131153419,-128.19970069178925
exact,pre_advance,A,ar,no_revision,2021:Q2,-24.119251842538425,-152.31895253432768
exact,pre_advance,A,ar,no_revision,2021:Q3,-0.30877510409469244,-152.62772763842236
exact,pre_advance,A,ar,no_revision,2021:Q4,3.7679008571371924,-148.85982678128516
exact,pre_advance,A,ar,no_revision,2022:Q1,-0.5234667865097897,-149.38329356779496
exact,pre_advance,A,ar,no_revision,2022:Q2,-1.9855199282110494,-151.36881349600603
exact,pre_advance,A,ar,no_revision,2022:Q3,-0.033925124700511525,-151.40273862070654
exact,pre_advance,A,ar,no_revision,2022:Q4,-0.7384306425890252,-152.14116926329558
exact,pre_advance,A,ar,no_revision,2023:Q1,0.371137610273619,-151.77003165302196
exact,pre_advance,A,ar,no_revision,2023:Q2,-0.00528125482766627,-151.77531290784964
exact,pre_advance,A,ar,no_revision,2023:Q3,-0.5551736828791194,-152.33048659072875
exact,pre_advance,A,ar,no_revision,2023:Q4,-0.20210030709286464,-152.53258689782163
exact,pre_advance,A,ar,no_revision,2024:Q1,-0.31218151521482485,-152.84476841303646
exact,pre_advance,A,ar,no_revision,2024:Q2,0.0978852185130688,-152.7468831945234
exact,pre_advance,A,ar,no_revision,2024:Q3,-0.06291573213851451,-152.80979892666193
exact,pre_advance,A,ar,no_revision,2024:Q4,0.026146771737672124,-152.78365215492425
exact,pre_advance,A,ar,release_dfm,2005:Q1,0.005557468690040701,0.005557468690040701
exact,pre_advance,A,ar,release_dfm,2005:Q2,0.17688600917079522,0.18244347786083592
exact,pre_advance,A,ar,release_dfm,2005:Q3,-0.5496284026543578,-0.3671849247935218
exact,pre_advance,A,ar,release_dfm,2005:Q4,-1.598510703674827,-1.9656956284683487
exact,pre_advance,A,ar,release_dfm,2006:Q1,5.895364834230374,3.9296692057620257
exact,pre_advance,A,ar,release_dfm,2006:Q2,0.6326591475203756,4.5623283532824015
exact,pre_advance,A,ar,release_dfm,2006:Q3,-1.1815536331980458,3.3807747200843554
exact,pre_advance,A,ar,release_dfm,2006:Q4,-0.08961491202374061,3.291159808060615
exact,pre_advance,A,ar,release_dfm,2007:Q1,2.277615211128804,5.5687750191894185
exact,pre_advance,A,ar,release_dfm,2007:Q2,1.5721987404672848,7.140973759656704
exact,pre_advance,A,ar,release_dfm,2007:Q3,-0.9325969815824826,6.208376778074221
exact,pre_advance,A,ar,release_dfm,2007:Q4,5.619451697130961,11.827828475205182
exact,pre_advance,A,ar,release_dfm,2008:Q1,0.4071777558322208,12.235006231037403
exact,pre_advance,A,ar,release_dfm,2008:Q2,-0.1485463181038612,12.086459912933542
exact,pre_advance,A,ar,release_dfm,2008:Q3,5.4603986995371985,17.54685861247074
exact,pre_advance,A,ar,release_dfm,2008:Q4,25.320902423246768,42.86776103571751
exact,pre_advance,A,ar,release_dfm,2009:Q1,26.898920136255693,69.7666811719732
exact,pre_advance,A,ar,release_dfm,2009:Q2,0.6708675600601806,70.43754873203338
exact,pre_advance,A,ar,release_dfm,2009:Q3,7.624685900987867,78.06223463302125
exact,pre_advance,A,ar,release_dfm,2009:Q4,-0.05460311648701044,78.00763151653423
exact,pre_advance,A,ar,release_dfm,2010:Q1,-1.383510722457672,76.62412079407656
exact,pre_advance,A,ar,release_dfm,2010:Q2,-0.9692400609140532,75.65488073316251
exact,pre_advance,A,ar,release_dfm,2010:Q3,-0.16499710555444946,75.48988362760807
exact,pre_advance,A,ar,release_dfm,2010:Q4,0.42205119712596945,75.91193482473403
exact,pre_advance,A,ar,release_dfm,2011:Q1,-7.478070769233071,68.43386405550096
exact,pre_advance,A,ar,release_dfm,2011:Q2,-1.2601790103089012,67.17368504519206
exact,pre_advance,A,ar,release_dfm,2011:Q3,0.169691482379295,67.34337652757135
exact,pre_advance,A,ar,release_dfm,2011:Q4,-0.5786066882143093,66.76476983935704
exact,pre_advance,A,ar,release_dfm,2012:Q1,-2.2457574597114895,64.51901237964556
exact,pre_advance,A,ar,release_dfm,2012:Q2,-0.29124857939303794,64.22776380025252
exact,pre_advance,A,ar,release_dfm,2012:Q3,-0.2875970641695967,63.94016673608292
exact,pre_advance,A,ar,release_dfm,2012:Q4,-7.029358035026668,56.910808701056254
exact,pre_advance,A,ar,release_dfm,2013:Q1,1.5366394988358547,58.44744819989211
exact,pre_advance,A,ar,release_dfm,2013:Q2,-0.6193290521110049,57.8281191477811
exact,pre_advance,A,ar,release_dfm,2013:Q3,0.5116495142349746,58.33976866201608
exact,pre_advance,A,ar,release_dfm,2013:Q4,0.1881211670679197,58.527889829083996
exact,pre_advance,A,ar,release_dfm,2014:Q1,2.2611836602781894,60.78907348936219
exact,pre_advance,A,ar,release_dfm,2014:Q2,6.950285300050513,67.7393587894127
exact,pre_advance,A,ar,release_dfm,2014:Q3,-0.23970610456213043,67.49965268485057
exact,pre_advance,A,ar,release_dfm,2014:Q4,0.15993158149245626,67.65958426634303
exact,pre_advance,A,ar,release_dfm,2015:Q1,3.458441162000213,71.11802542834324
exact,pre_advance,A,ar,release_dfm,2015:Q2,0.608188766440848,71.72621419478409
exact,pre_advance,A,ar,release_dfm,2015:Q3,-0.49388308416577154,71.23233111061832
exact,pre_advance,A,ar,release_dfm,2015:Q4,-0.199694963921353,71.03263614669696
exact,pre_advance,A,ar,release_dfm,2016:Q1,-1.3432215168252546,69.6894146298717
exact,pre_advance,A,ar,release_dfm,2016:Q2,-0.9852587561590919,68.70415587371261
exact,pre_advance,A,ar,release_dfm,2016:Q3,0.8086089264622582,69.51276480017486
exact,pre_advance,A,ar,release_dfm,2016:Q4,-0.9426756961184087,68.57008910405645
exact,pre_advance,A,ar,release_dfm,2017:Q1,-2.1563377782168547,66.4137513258396
exact,pre_advance,A,ar,release_dfm,2017:Q2,0.8839097043219548,67.29766103016155
exact,pre_advance,A,ar,release_dfm,2017:Q3,-0.4498136888489407,66.84784734131262
exact,pre_advance,A,ar,release_dfm,2017:Q4,-1.472453224608988,65.37539411670363
exact,pre_advance,A,ar,release_dfm,2018:Q1,-1.1961916583162755,64.17920245838735
exact,pre_advance,A,ar,release_dfm,2018:Q2,0.7936938430062765,64.97289630139363
exact,pre_advance,A,ar,release_dfm,2018:Q3,-0.1781213138623781,64.79477498753126
exact,pre_advance,A,ar,release_dfm,2018:Q4,0.16398670734271426,64.95876169487397
exact,pre_advance,A,ar,release_dfm,2019:Q1,-1.3737634057761716,63.5849982890978
exact,pre_advance,A,ar,release_dfm,2019:Q2,0.5864738210399745,64.17147211013777
exact,pre_advance,A,ar,release_dfm,2019:Q3,-0.04636784297867397,64.1251042671591
exact,pre_advance,A,ar,release_dfm,2019:Q4,-0.009652078071393923,64.1154521890877
exact,pre_advance,A,ar,release_dfm,2020:Q1,20.78770088725128,84.90315307633898
exact,pre_advance,A,ar,release_dfm,2020:Q2,712.4929959502997,797.3961490266387
exact,pre_advance,A,ar,release_dfm,2020:Q3,2567.0847497712384,3364.480898797877
exact,pre_advance,A,ar,release_dfm,2020:Q4,-9.760194583218505,3354.720704214659
exact,pre_advance,A,ar,release_dfm,2021:Q1,14.717586220885224,3369.438290435544
exact,pre_advance,A,ar,release_dfm,2021:Q2,11.250739364102031,3380.689029799646
exact,pre_advance,A,ar,release_dfm,2021:Q3,-1.552906580913287,3379.136123218733
exact,pre_advance,A,ar,release_dfm,2021:Q4,14.115040173354647,3393.2511633920876
exact,pre_advance,A,ar,release_dfm,2022:Q1,-52.79943459352654,3340.451728798561
exact,pre_advance,A,ar,release_dfm,2022:Q2,-12.669399125677783,3327.782329672883
exact,pre_advance,A,ar,release_dfm,2022:Q3,0.01330019348445774,3327.7956298663676
exact,pre_advance,A,ar,release_dfm,2022:Q4,-1.3244838241014658,3326.471146042266
exact,pre_advance,A,ar,release_dfm,2023:Q1,0.6909286887191397,3327.162074730985
exact,pre_advance,A,ar,release_dfm,2023:Q2,-0.12096587289956348,3327.0411088580854
exact,pre_advance,A,ar,release_dfm,2023:Q3,-2.313832963877977,3324.7272758942077
exact,pre_advance,A,ar,release_dfm,2023:Q4,-1.707528374686477,3323.0197475195214
exact,pre_advance,A,ar,release_dfm,2024:Q1,0.4624004308907374,3323.482147950412
exact,pre_advance,A,ar,release_dfm,2024:Q2,0.12983346758590594,3323.611981417998
exact,pre_advance,A,ar,release_dfm,2024:Q3,-0.8060037928736986,3322.8059776251243
exact,pre_advance,A,ar,release_dfm,2024:Q4,0.033129491051418346,3322.839107116176
exact,pre_advance,A,ar,revision_dfm_kalman_em,2005:Q1,-0.02561320848895053,-0.02561320848895053
exact,pre_advance,A,ar,revision_dfm_kalman_em,2005:Q2,-0.5510758604778137,-0.5766890689667642
exact,pre_advance,A,ar,revision_dfm_kalman_em,2005:Q3,-1.0620145094245732,-1.6387035783913375
exact,pre_advance,A,ar,revision_dfm_kalman_em,2005:Q4,-4.969840082222695,-6.608543660614032
exact,pre_advance,A,ar,revision_dfm_kalman_em,2006:Q1,2.9104720271083897,-3.6980716335056423
exact,pre_advance,A,ar,revision_dfm_kalman_em,2006:Q2,0.625329270585345,-3.0727423629202972
exact,pre_advance,A,ar,revision_dfm_kalman_em,2006:Q3,0.9983103460844328,-2.0744320168358645
exact,pre_advance,A,ar,revision_dfm_kalman_em,2006:Q4,-7.494112191451994,-9.56854420828786
exact,pre_advance,A,ar,revision_dfm_kalman_em,2007:Q1,-2.013033877021207,-11.581578085309065
exact,pre_advance,A,ar,revision_dfm_kalman_em,2007:Q2,1.8867207778291264,-9.69485730747994
exact,pre_advance,A,ar,revision_dfm_kalman_em,2007:Q3,-2.059673816621703,-11.754531124101643
exact,pre_advance,A,ar,revision_dfm_kalman_em,2007:Q4,6.965175731482404,-4.789355392619239
exact,pre_advance,A,ar,revision_dfm_kalman_em,2008:Q1,1.2005249977106531,-3.5888303949085856
exact,pre_advance,A,ar,revision_dfm_kalman_em,2008:Q2,-2.0403676901532215,-5.629198085061807
exact,pre_advance,A,ar,revision_dfm_kalman_em,2008:Q3,5.765254542161782,0.13605645709997471
exact,pre_advance,A,ar,revision_dfm_kalman_em,2008:Q4,11.530673031859495,11.666729488959469
exact,pre_advance,A,ar,revision_dfm_kalman_em,2009:Q1,9.513794987420187,21.180524476379656
exact,pre_advance,A,ar,revision_dfm_kalman_em,2009:Q2,-29.954227778446946,-8.77370330206729
exact,pre_advance,A,ar,revision_dfm_kalman_em,2009:Q3,7.151543662421162,-1.622159639646128
exact,pre_advance,A,ar,revision_dfm_kalman_em,2009:Q4,4.705359981369221,3.083200341723093
exact,pre_advance,A,ar,revision_dfm_kalman_em,2010:Q1,-8.66926032247795,-5.5860599807548565
exact,pre_advance,A,ar,revision_dfm_kalman_em,2010:Q2,-4.803361164925465,-10.389421145680322
exact,pre_advance,A,ar,revision_dfm_kalman_em,2010:Q3,-1.4872456849735418,-11.876666830653864
exact,pre_advance,A,ar,revision_dfm_kalman_em,2010:Q4,-1.4993196295491362,-13.375986460203
exact,pre_advance,A,ar,revision_dfm_kalman_em,2011:Q1,-16.02581391409507,-29.40180037429807
exact,pre_advance,A,ar,revision_dfm_kalman_em,2011:Q2,0.685630145388833,-28.716170228909238
exact,pre_advance,A,ar,revision_dfm_kalman_em,2011:Q3,-0.09369391207666888,-28.80986414098591
exact,pre_advance,A,ar,revision_dfm_kalman_em,2011:Q4,-0.5961044429605451,-29.405968583946454
exact,pre_advance,A,ar,revision_dfm_kalman_em,2012:Q1,-2.4227480106140193,-31.828716594560472
exact,pre_advance,A,ar,revision_dfm_kalman_em,2012:Q2,0.631756938589929,-31.19695965597054
exact,pre_advance,A,ar,revision_dfm_kalman_em,2012:Q3,-0.18081954816234685,-31.37777920413289
exact,pre_advance,A,ar,revision_dfm_kalman_em,2012:Q4,-3.209265327612732,-34.58704453174562
exact,pre_advance,A,ar,revision_dfm_kalman_em,2013:Q1,1.732802626131886,-32.85424190561373
exact,pre_advance,A,ar,revision_dfm_kalman_em,2013:Q2,0.20720393477434718,-32.647037970839385
exact,pre_advance,A,ar,revision_dfm_kalman_em,2013:Q3,0.21844196453319104,-32.42859600630619
exact,pre_advance,A,ar,revision_dfm_kalman_em,2013:Q4,-0.9225139301445224,-33.35110993645072
exact,pre_advance,A,ar,revision_dfm_kalman_em,2014:Q1,-1.5954066768202981,-34.946516613271015
exact,pre_advance,A,ar,revision_dfm_kalman_em,2014:Q2,6.941050235669314,-28.0054663776017
exact,pre_advance,A,ar,revision_dfm_kalman_em,2014:Q3,-1.1804758938866076,-29.185942271488308
exact,pre_advance,A,ar,revision_dfm_kalman_em,2014:Q4,-0.34575986502195694,-29.531702136510265
exact,pre_advance,A,ar,revision_dfm_kalman_em,2015:Q1,5.35287200708847,-24.178830129421797
exact,pre_advance,A,ar,revision_dfm_kalman_em,2015:Q2,0.5359792803906993,-23.6428508490311
exact,pre_advance,A,ar,revision_dfm_kalman_em,2015:Q3,-0.5769859714503367,-24.219836820481436
exact,pre_advance,A,ar,revision_dfm_kalman_em,2015:Q4,1.4642907954135813,-22.755546025067854
exact,pre_advance,A,ar,revision_dfm_kalman_em,2016:Q1,0.9075257499500649,-21.84802027511779
exact,pre_advance,A,ar,revision_dfm_kalman_em,2016:Q2,-0.33125347623085344,-22.179273751348642
exact,pre_advance,A,ar,revision_dfm_kalman_em,2016:Q3,0.5550826643954538,-21.62419108695319
exact,pre_advance,A,ar,revision_dfm_kalman_em,2016:Q4,-0.1197501921834041,-21.743941279136592
exact,pre_advance,A,ar,revision_dfm_kalman_em,2017:Q1,-0.6307667098385159,-22.374707988975107
exact,pre_advance,A,ar,revision_dfm_kalman_em,2017:Q2,0.8604577340298,-21.514250254945306
exact,pre_advance,A,ar,revision_dfm_kalman_em,2017:Q3,-6.223887848660681,-27.738138103605987
exact,pre_advance,A,ar,revision_dfm_kalman_em,2017:Q4,-11.950529821862895,-39.688667925468884
exact,pre_advance,A,ar,revision_dfm_kalman_em,2018:Q1,-0.8110166991239931,-40.49968462459288
exact,pre_advance,A,ar,revision_dfm_kalman_em,2018:Q2,2.3061598296006105,-38.19352479499227
exact,pre_advance,A,ar,revision_dfm_kalman_em,2018:Q3,0.050356176207824004,-38.14316861878445
exact,pre_advance,A,ar,revision_dfm_kalman_em,2018:Q4,-0.0473002604511088,-38.19046887923556
exact,pre_advance,A,ar,revision_dfm_kalman_em,2019:Q1,-3.9078532662153287,-42.09832214545089
exact,pre_advance,A,ar,revision_dfm_kalman_em,2019:Q2,0.5992548649139017,-41.499067280536984
exact,pre_advance,A,ar,revision_dfm_kalman_em,2019:Q3,-0.2419127643967375,-41.74098004493372
exact,pre_advance,A,ar,revision_dfm_kalman_em,2019:Q4,-0.6495797807549384,-42.39055982568866
exact,pre_advance,A,ar,revision_dfm_kalman_em,2020:Q1,39.836172659241335,-2.554387166447327
exact,pre_advance,A,ar,revision_dfm_kalman_em,2020:Q2,911.3943642914961,908.8399771250488
exact,pre_advance,A,ar,revision_dfm_kalman_em,2020:Q3,2244.5954573634017,3153.4354344884505
exact,pre_advance,A,ar,revision_dfm_kalman_em,2020:Q4,0.10859464672702299,3153.5440291351774
exact,pre_advance,A,ar,revision_dfm_kalman_em,2021:Q1,0.45437948125419503,3153.998408616432
exact,pre_advance,A,ar,revision_dfm_kalman_em,2021:Q2,10.416762194977196,3164.415170811409
exact,pre_advance,A,ar,revision_dfm_kalman_em,2021:Q3,-2.524921730236357,3161.890249081173
exact,pre_advance,A,ar,revision_dfm_kalman_em,2021:Q4,9.475062824218341,3171.365311905391
exact,pre_advance,A,ar,revision_dfm_kalman_em,2022:Q1,-36.106316366932994,3135.2589955384583
exact,pre_advance,A,ar,revision_dfm_kalman_em,2022:Q2,-7.786868520664937,3127.4721270177934
exact,pre_advance,A,ar,revision_dfm_kalman_em,2022:Q3,-0.24831458779103,3127.2238124300025
exact,pre_advance,A,ar,revision_dfm_kalman_em,2022:Q4,-3.960059988777806,3123.263752441225
exact,pre_advance,A,ar,revision_dfm_kalman_em,2023:Q1,0.10373181534920639,3123.3674842565742
exact,pre_advance,A,ar,revision_dfm_kalman_em,2023:Q2,-0.001996773522859686,3123.3654874830513
exact,pre_advance,A,ar,revision_dfm_kalman_em,2023:Q3,0.8042326327314999,3124.1697201157826
exact,pre_advance,A,ar,revision_dfm_kalman_em,2023:Q4,-5.431584754171054,3118.7381353616115
exact,pre_advance,A,ar,revision_dfm_kalman_em,2024:Q1,0.8393886180459265,3119.5775239796576
exact,pre_advance,A,ar,revision_dfm_kalman_em,2024:Q2,-1.6150650597464182,3117.962458919911
exact,pre_advance,A,ar,revision_dfm_kalman_em,2024:Q3,-1.3482225428576484,3116.6142363770537
exact,pre_advance,A,ar,revision_dfm_kalman_em,2024:Q4,-0.03395867980532705,3116.580277697248
exact,pre_advance,A,ar,standard_dfm,2005:Q1,0.005557468690040701,0.005557468690040701
exact,pre_advance,A,ar,standard_dfm,2005:Q2,0.17688600917079522,0.18244347786083592
exact,pre_advance,A,ar,standard_dfm,2005:Q3,-0.5496284026543578,-0.3671849247935218
exact,pre_advance,A,ar,standard_dfm,2005:Q4,-1.598510703674827,-1.9656956284683487
exact,pre_advance,A,ar,standard_dfm,2006:Q1,5.895364834230374,3.9296692057620257
exact,pre_advance,A,ar,standard_dfm,2006:Q2,0.6326591475203756,4.5623283532824015
exact,pre_advance,A,ar,standard_dfm,2006:Q3,-1.1815536331980458,3.3807747200843554
exact,pre_advance,A,ar,standard_dfm,2006:Q4,-0.08961491202374061,3.291159808060615
exact,pre_advance,A,ar,standard_dfm,2007:Q1,2.277615211128804,5.5687750191894185
exact,pre_advance,A,ar,standard_dfm,2007:Q2,1.5721987404672848,7.140973759656704
exact,pre_advance,A,ar,standard_dfm,2007:Q3,-0.9325969815824826,6.208376778074221
exact,pre_advance,A,ar,standard_dfm,2007:Q4,5.619451697130961,11.827828475205182
exact,pre_advance,A,ar,standard_dfm,2008:Q1,0.4071777558322208,12.235006231037403
exact,pre_advance,A,ar,standard_dfm,2008:Q2,-0.1485463181038612,12.086459912933542
exact,pre_advance,A,ar,standard_dfm,2008:Q3,5.4603986995371985,17.54685861247074
exact,pre_advance,A,ar,standard_dfm,2008:Q4,25.320902423246768,42.86776103571751
exact,pre_advance,A,ar,standard_dfm,2009:Q1,26.898920136255693,69.7666811719732
exact,pre_advance,A,ar,standard_dfm,2009:Q2,0.6708675600601806,70.43754873203338
exact,pre_advance,A,ar,standard_dfm,2009:Q3,7.624685900987867,78.06223463302125
exact,pre_advance,A,ar,standard_dfm,2009:Q4,-0.05460311648701044,78.00763151653423
exact,pre_advance,A,ar,standard_dfm,2010:Q1,-1.383510722457672,76.62412079407656
exact,pre_advance,A,ar,standard_dfm,2010:Q2,-0.9692400609140532,75.65488073316251
exact,pre_advance,A,ar,standard_dfm,2010:Q3,-0.16499710555444946,75.48988362760807
exact,pre_advance,A,ar,standard_dfm,2010:Q4,0.42205119712596945,75.91193482473403
exact,pre_advance,A,ar,standard_dfm,2011:Q1,-7.478070769233071,68.43386405550096
exact,pre_advance,A,ar,standard_dfm,2011:Q2,-1.2601790103089012,67.17368504519206
exact,pre_advance,A,ar,standard_dfm,2011:Q3,0.169691482379295,67.34337652757135
exact,pre_advance,A,ar,standard_dfm,2011:Q4,-0.5786066882143093,66.76476983935704
exact,pre_advance,A,ar,standard_dfm,2012:Q1,-2.2457574597114895,64.51901237964556
exact,pre_advance,A,ar,standard_dfm,2012:Q2,-0.29124857939303794,64.22776380025252
exact,pre_advance,A,ar,standard_dfm,2012:Q3,-0.2875970641695967,63.94016673608292
exact,pre_advance,A,ar,standard_dfm,2012:Q4,-7.029358035026668,56.910808701056254
exact,pre_advance,A,ar,standard_dfm,2013:Q1,1.5366394988358547,58.44744819989211
exact,pre_advance,A,ar,standard_dfm,2013:Q2,-0.6193290521110049,57.8281191477811
exact,pre_advance,A,ar,standard_dfm,2013:Q3,0.5116495142349746,58.33976866201608
exact,pre_advance,A,ar,standard_dfm,2013:Q4,0.1881211670679197,58.527889829083996
exact,pre_advance,A,ar,standard_dfm,2014:Q1,2.2611836602781894,60.78907348936219
exact,pre_advance,A,ar,standard_dfm,2014:Q2,6.950285300050513,67.7393587894127
exact,pre_advance,A,ar,standard_dfm,2014:Q3,-0.23970610456213043,67.49965268485057
exact,pre_advance,A,ar,standard_dfm,2014:Q4,0.15993158149245626,67.65958426634303
exact,pre_advance,A,ar,standard_dfm,2015:Q1,3.458441162000213,71.11802542834324
exact,pre_advance,A,ar,standard_dfm,2015:Q2,0.608188766440848,71.72621419478409
exact,pre_advance,A,ar,standard_dfm,2015:Q3,-0.49388308416577154,71.23233111061832
exact,pre_advance,A,ar,standard_dfm,2015:Q4,-0.199694963921353,71.03263614669696
exact,pre_advance,A,ar,standard_dfm,2016:Q1,-1.3432215168252546,69.6894146298717
exact,pre_advance,A,ar,standard_dfm,2016:Q2,-0.9852587561590919,68.70415587371261
exact,pre_advance,A,ar,standard_dfm,2016:Q3,0.8086089264622582,69.51276480017486
exact,pre_advance,A,ar,standard_dfm,2016:Q4,-0.9426756961184087,68.57008910405645
exact,pre_advance,A,ar,standard_dfm,2017:Q1,-2.1563377782168547,66.4137513258396
exact,pre_advance,A,ar,standard_dfm,2017:Q2,0.8839097043219548,67.29766103016155
exact,pre_advance,A,ar,standard_dfm,2017:Q3,-0.4498136888489407,66.84784734131262
exact,pre_advance,A,ar,standard_dfm,2017:Q4,-1.472453224608988,65.37539411670363
exact,pre_advance,A,ar,standard_dfm,2018:Q1,-1.1961916583162755,64.17920245838735
exact,pre_advance,A,ar,standard_dfm,2018:Q2,0.7936938430062765,64.97289630139363
exact,pre_advance,A,ar,standard_dfm,2018:Q3,-0.1781213138623781,64.79477498753126
exact,pre_advance,A,ar,standard_dfm,2018:Q4,0.16398670734271426,64.95876169487397
exact,pre_advance,A,ar,standard_dfm,2019:Q1,-1.3737634057761716,63.5849982890978
exact,pre_advance,A,ar,standard_dfm,2019:Q2,0.5864738210399745,64.17147211013777
exact,pre_advance,A,ar,standard_dfm,2019:Q3,-0.04636784297867397,64.1251042671591
exact,pre_advance,A,ar,standard_dfm,2019:Q4,-0.009652078071393923,64.1154521890877
exact,pre_advance,A,ar,standard_dfm,2020:Q1,20.78770088725128,84.90315307633898
exact,pre_advance,A,ar,standard_dfm,2020:Q2,712.4929959502997,797.3961490266387
exact,pre_advance,A,ar,standard_dfm,2020:Q3,2567.0847497712384,3364.480898797877
exact,pre_advance,A,ar,standard_dfm,2020:Q4,-9.760194583218505,3354.720704214659
exact,pre_advance,A,ar,standard_dfm,2021:Q1,14.717586220885224,3369.438290435544
exact,pre_advance,A,ar,standard_dfm,2021:Q2,11.250739364102031,3380.689029799646
exact,pre_advance,A,ar,standard_dfm,2021:Q3,-1.552906580913287,3379.136123218733
exact,pre_advance,A,ar,standard_dfm,2021:Q4,14.115040173354647,3393.2511633920876
exact,pre_advance,A,ar,standard_dfm,2022:Q1,-52.79943459352654,3340.451728798561
exact,pre_advance,A,ar,standard_dfm,2022:Q2,-12.669399125677783,3327.782329672883
exact,pre_advance,A,ar,standard_dfm,2022:Q3,0.01330019348445774,3327.7956298663676
exact,pre_advance,A,ar,standard_dfm,2022:Q4,-1.3244838241014658,3326.471146042266
exact,pre_advance,A,ar,standard_dfm,2023:Q1,0.6909286887191397,3327.162074730985
exact,pre_advance,A,ar,standard_dfm,2023:Q2,-0.12096587289956348,3327.0411088580854
exact,pre_advance,A,ar,standard_dfm,2023:Q3,-2.313832963877977,3324.7272758942077
exact,pre_advance,A,ar,standard_dfm,2023:Q4,-1.707528374686477,3323.0197475195214
exact,pre_advance,A,ar,standard_dfm,2024:Q1,0.4624004308907374,3323.482147950412
exact,pre_advance,A,ar,standard_dfm,2024:Q2,0.12983346758590594,3323.611981417998
exact,pre_advance,A,ar,standard_dfm,2024:Q3,-0.8060037928736986,3322.8059776251243
exact,pre_advance,A,ar,standard_dfm,2024:Q4,0.033129491051418346,3322.839107116176
exact,pre_advance,A,no_revision,ar,2005:Q1,-0.01829276874886654,-0.01829276874886654
exact,pre_advance,A,no_revision,ar,2005:Q2,0.010434082728868699,-0.00785868601999784
exact,pre_advance,A,no_revision,ar,2005:Q3,-0.04475723724217473,-0.05261592326217257
exact,pre_advance,A,no_revision,ar,2005:Q4,0.005897102113586961,-0.04671882114858561
exact,pre_advance,A,no_revision,ar,2006:Q1,-0.14435758559098844,-0.19107640673957405
exact,pre_advance,A,no_revision,ar,2006:Q2,-0.10645890996238783,-0.29753531670196187
exact,pre_advance,A,no_revision,ar,2006:Q3,0.24152679339726402,-0.056008523304697855
exact,pre_advance,A,no_revision,ar,2006:Q4,0.30824079892148304,0.2522322756167852
exact,pre_advance,A,no_revision,ar,2007:Q1,0.23848279984936216,0.49071507546614734
exact,pre_advance,A,no_revision,ar,2007:Q2,-0.05512019812272051,0.43559487734342683
exact,pre_advance,A,no_revision,ar,2007:Q3,0.19969014430791188,0.6352850216513387
exact,pre_advance,A,no_revision,ar,2007:Q4,0.15567398880635874,0.7909590104576975
exact,pre_advance,A,no_revision,ar,2008:Q1,-0.05559234221203191,0.7353666682456655
exact,pre_advance,A,no_revision,ar,2008:Q2,-0.004622952477093177,0.7307437157685723
exact,pre_advance,A,no_revision,ar,2008:Q3,0.15221627551749783,0.8829599912860702
exact,pre_advance,A,no_revision,ar,2008:Q4,-0.5818162017862143,0.3011437894998559
exact,pre_advance,A,no_revision,ar,2009:Q1,-0.45423321116048854,-0.15308942166063266
exact,pre_advance,A,no_revision,ar,2009:Q2,-0.013307526119774815,-0.16639694778040748
exact,pre_advance,A,no_revision,ar,2009:Q3,1.023992772227114,0.8575958244467066
exact,pre_advance,A,no_revision,ar,2009:Q4,1.4621885824992091,2.3197844069459155
exact,pre_advance,A,no_revision,ar,2010:Q1,-0.5154181563893694,1.804366250556546
exact,pre_advance,A,no_revision,ar,2010:Q2,-0.1815894544157976,1.6227767961407484
exact,pre_advance,A,no_revision,ar,2010:Q3,-0.02901155984276077,1.5937652362979877
exact,pre_advance,A,no_revision,ar,2010:Q4,-0.21335030884274386,1.3804149274552437
exact,pre_advance,A,no_revision,ar,2011:Q1,0.06757887593352563,1.4479938033887694
exact,pre_advance,A,no_revision,ar,2011:Q2,-0.0202217337142232,1.4277720696745462
exact,pre_advance,A,no_revision,ar,2011:Q3,0.052984459561723096,1.4807565292362692
exact,pre_advance,A,no_revision,ar,2011:Q4,-0.01895665554257433,1.4617998736936948
exact,pre_advance,A,no_revision,ar,2012:Q1,-0.02232353618393504,1.4394763375097597
exact,pre_advance,A,no_revision,ar,2012:Q2,-0.11942453052189395,1.3200518069878657
exact,pre_advance,A,no_revision,ar,2012:Q3,-0.0006349170808925357,1.3194168899069731
exact,pre_advance,A,no_revision,ar,2012:Q4,0.06262090931865316,1.3820377992256263
exact,pre_advance,A,no_revision,ar,2013:Q1,0.008932871015000954,1.3909706702406273
exact,pre_advance,A,no_revision,ar,2013:Q2,-0.06324061631598044,1.3277300539246468
exact,pre_advance,A,no_revision,ar,2013:Q3,-0.0315667756852992,1.2961632782393475
exact,pre_advance,A,no_revision,ar,2013:Q4,0.17688786721241778,1.4730511454517652
exact,pre_advance,A,no_revision,ar,2014:Q1,0.02480433967617479,1.49785548512794
exact,pre_advance,A,no_revision,ar,2014:Q2,0.3039643587409291,1.801819843868869
exact,pre_advance,A,no_revision,ar,2014:Q3,0.01009808842494786,1.811917932293817
exact,pre_advance,A,no_revision,ar,2014:Q4,0.053005079780955394,1.8649230120747724
exact,pre_advance,A,no_revision,ar,2015:Q1,-0.67193818782102,1.1929848242537524
exact,pre_advance,A,no_revision,ar,2015:Q2,-0.08197493566980374,1.1110098885839488
exact,pre_advance,A,no_revision,ar,2015:Q3,0.08264742175217066,1.1936573103361194
exact,pre_advance,A,no_revision,ar,2015:Q4,0.12441534043486313,1.3180726507709826
exact,pre_advance,A,no_revision,ar,2016:Q1,-0.2275952927293533,1.0904773580416292
exact,pre_advance,A,no_revision,ar,2016:Q2,0.0046545719231812915,1.0951319299648103
exact,pre_advance,A,no_revision,ar,2016:Q3,0.04584231925914617,1.1409742492239565
exact,pre_advance,A,no_revision,ar,2016:Q4,-0.10114230910276367,1.0398319401211928
exact,pre_advance,A,no_revision,ar,2017:Q1,-0.246574617300388,0.7932573228208049
exact,pre_advance,A,no_revision,ar,2017:Q2,0.15926574147033767,0.9525230642911425
exact,pre_advance,A,no_revision,ar,2017:Q3,-0.022454236955837703,0.9300688273353048
exact,pre_advance,A,no_revision,ar,2017:Q4,-0.004727701091471227,0.9253411262438336
exact,pre_advance,A,no_revision,ar,2018:Q1,-0.03223932073775865,0.8931018055060749
exact,pre_advance,A,no_revision,ar,2018:Q2,0.05012498584200742,0.9432267913480823
exact,pre_advance,A,no_revision,ar,2018:Q3,-0.0040716179457951085,0.9391551734022872
exact,pre_advance,A,no_revision,ar,2018:Q4,-0.0107967518642271,0.92835842153806
exact,pre_advance,A,no_revision,ar,2019:Q1,0.06475700376940074,0.9931154253074608
exact,pre_advance,A,no_revision,ar,2019:Q2,0.08251128198875868,1.0756267072962196
exact,pre_advance,A,no_revision,ar,2019:Q3,0.02873654465966108,1.1043632519558806
exact,pre_advance,A,no_revision,ar,2019:Q4,-0.0032282376299231016,1.1011350143259575
exact,pre_advance,A,no_revision,ar,2020:Q1,0.47755925650978526,1.5786942708357428
exact,pre_advance,A,no_revision,ar,2020:Q2,0.5667662532794111,2.145460524115154
exact,pre_advance,A,no_revision,ar,2020:Q3,57.60016029331837,59.74562081743352
exact,pre_advance,A,no_revision,ar,2020:Q4,40.65854856282156,100.40416938025507
exact,pre_advance,A,no_revision,ar,2021:Q1,27.79553131153419,128.19970069178925
exact,pre_advance,A,no_revision,ar,2021:Q2,24.119251842538425,152.31895253432768
exact,pre_advance,A,no_revision,ar,2021:Q3,0.30877510409469244,152.62772763842236
exact,pre_advance,A,no_revision,ar,2021:Q4,-3.7679008571371924,148.85982678128516
exact,pre_advance,A,no_revision,ar,2022:Q1,0.5234667865097897,149.38329356779496
exact,pre_advance,A,no_revision,ar,2022:Q2,1.9855199282110494,151.36881349600603
exact,pre_advance,A,no_revision,ar,2022:Q3,0.033925124700511525,151.40273862070654
exact,pre_advance,A,no_revision,ar,2022:Q4,0.7384306425890252,152.14116926329558
exact,pre_advance,A,no_revision,ar,2023:Q1,-0.371137610273619,151.77003165302196
exact,pre_advance,A,no_revision,ar,2023:Q2,0.00528125482766627,151.77531290784964
exact,pre_advance,A,no_revision,ar,2023:Q3,0.5551736828791194,152.33048659072875
exact,pre_advance,A,no_revision,ar,2023:Q4,0.20210030709286464,152.53258689782163
exact,pre_advance,A,no_revision,ar,2024:Q1,0.31218151521482485,152.84476841303646
exact,pre_advance,A,no_revision,ar,2024:Q2,-0.0978852185130688,152.7468831945234
exact,pre_advance,A,no_revision,ar,2024:Q3,0.06291573213851451,152.80979892666193
exact,pre_advance,A,no_revision,ar,2024:Q4,-0.026146771737672124,152.78365215492425
exact,pre_advance,A,no_revision,bridge,2005:Q1,0.008215597414184386,0.008215597414184386
exact,pre_advance,A,no_revision,bridge,2005:Q2,0.2664849976095032,0.2747005950236876
exact,pre_advance,A,no_revision,bridge,2005:Q3,-0.15934170783751533,0.11535888718617227
exact,pre_advance,A,no_revision,bridge,2005:Q4,-1.061156314811341,-0.9457974276251687
exact,pre_advance,A,no_revision,bridge,2006:Q1,1.491292540028942,0.5454951124037734
exact,pre_advance,A,no_revision,bridge,2006:Q2,0.6612398447418184,1.2067349571455916
exact,pre_advance,A,no_revision,bridge,2006:Q3,0.12738937442554277,1.3341243315711344
exact,pre_advance,A,no_revision,bridge,2006:Q4,-11.115495185358746,-9.781370853787612
exact,pre_advance,A,no_revision,bridge,2007:Q1,3.1673071315367447,-6.614063722250867
exact,pre_advance,A,no_revision,bridge,2007:Q2,-0.6270010939567126,-7.2410648162075795
exact,pre_advance,A,no_revision,bridge,2007:Q3,-4.222013087742026,-11.463077903949605
exact,pre_advance,A,no_revision,bridge,2007:Q4,7.137280030827965,-4.32579787312164
exact,pre_advance,A,no_revision,bridge,2008:Q1,-0.8984188663524961,-5.224216739474136
exact,pre_advance,A,no_revision,bridge,2008:Q2,-0.5822131332173008,-5.806429872691437
exact,pre_advance,A,no_revision,bridge,2008:Q3,6.39136969126084,0.5849398185694028
exact,pre_advance,A,no_revision,bridge,2008:Q4,18.35320542375238,18.938145242321784
exact,pre_advance,A,no_revision,bridge,2009:Q1,28.522254693917795,47.46039993623958
exact,pre_advance,A,no_revision,bridge,2009:Q2,-1.1106053779094194,46.34979455833016
exact,pre_advance,A,no_revision,bridge,2009:Q3,5.32685235672722,51.67664691505738
exact,pre_advance,A,no_revision,bridge,2009:Q4,2.3027277325741577,53.97937464763154
exact,pre_advance,A,no_revision,bridge,2010:Q1,-8.418305450954193,45.561069196677344
exact,pre_advance,A,no_revision,bridge,2010:Q2,-0.16973114618359475,45.39133805049375
exact,pre_advance,A,no_revision,bridge,2010:Q3,0.1593129872951204,45.550651037788874
exact,pre_advance,A,no_revision,bridge,2010:Q4,0.06317830953073766,45.61382934731961
exact,pre_advance,A,no_revision,bridge,2011:Q1,-2.555993190959713,43.0578361563599
exact,pre_advance,A,no_revision,bridge,2011:Q2,-1.4931237088838087,41.56471244747609
exact,pre_advance,A,no_revision,bridge,2011:Q3,0.05073215179516272,41.61544459927125
exact,pre_advance,A,no_revision,bridge,2011:Q4,-1.1017138183289303,40.51373078094232
exact,pre_advance,A,no_revision,bridge,2012:Q1,-1.0764773078905148,39.437253473051804
exact,pre_advance,A,no_revision,bridge,2012:Q2,-0.603596622947675,38.83365685010413
exact,pre_advance,A,no_revision,bridge,2012:Q3,-0.575208838668224,38.2584480114359
exact,pre_advance,A,no_revision,bridge,2012:Q4,-8.103480051567285,30.154967959868618
exact,pre_advance,A,no_revision,bridge,2013:Q1,0.7950884554726778,30.950056415341294
exact,pre_advance,A,no_revision,bridge,2013:Q2,-0.44570193054532803,30.504354484795964
exact,pre_advance,A,no_revision,bridge,2013:Q3,-0.49834211672689344,30.006012368069072
exact,pre_advance,A,no_revision,bridge,2013:Q4,0.13712245449654337,30.143134822565617
exact,pre_advance,A,no_revision,bridge,2014:Q1,3.9451931802643108,34.088328002829925
exact,pre_advance,A,no_revision,bridge,2014:Q2,4.410158699495562,38.498486702325486
exact,pre_advance,A,no_revision,bridge,2014:Q3,-0.045996355308121864,38.45249034701737
exact,pre_advance,A,no_revision,bridge,2014:Q4,0.2106035962700831,38.66309394328745
exact,pre_advance,A,no_revision,bridge,2015:Q1,2.7117362862474286,41.37483022953488
exact,pre_advance,A,no_revision,bridge,2015:Q2,0.7790793652174874,42.15390959475236
exact,pre_advance,A,no_revision,bridge,2015:Q3,0.6963195488390829,42.85022914359145
exact,pre_advance,A,no_revision,bridge,2015:Q4,0.7760148696761344,43.62624401326758
exact,pre_advance,A,no_revision,bridge,2016:Q1,0.5511528724916305,44.17739688575921
exact,pre_advance,A,no_revision,bridge,2016:Q2,0.06445159121760785,44.24184847697681
exact,pre_advance,A,no_revision,bridge,2016:Q3,0.40961784186630823,44.65146631884312
exact,pre_advance,A,no_revision,bridge,2016:Q4,-0.8386804777801599,43.81278584106296
exact,pre_advance,A,no_revision,bridge,2017:Q1,-0.9106445698930794,42.90214127116988
exact,pre_advance,A,no_revision,bridge,2017:Q2,0.032319961715321144,42.934461232885205
exact,pre_advance,A,no_revision,bridge,2017:Q3,-0.336708786293597,42.597752446591606
exact,pre_advance,A,no_revision,bridge,2017:Q4,-1.154757722775843,41.442994723815765
exact,pre_advance,A,no_revision,bridge,2018:Q1,-0.8916572326445082,40.55133749117126
exact,pre_advance,A,no_revision,bridge,2018:Q2,0.4451149747288108,40.99645246590007
exact,pre_advance,A,no_revision,bridge,2018:Q3,-0.1479305055202646,40.848521960379806
exact,pre_advance,A,no_revision,bridge,2018:Q4,0.07988877975701823,40.928410740136826
exact,pre_advance,A,no_revision,bridge,2019:Q1,-0.042852976479083926,40.885557763657744
exact,pre_advance,A,no_revision,bridge,2019:Q2,0.691477457554207,41.57703522121195
exact,pre_advance,A,no_revision,bridge,2019:Q3,-0.3039817481641791,41.273053473047774
exact,pre_advance,A,no_revision,bridge,2019:Q4,-0.17104382993473424,41.10200964311304
exact,pre_advance,A,no_revision,bridge,2020:Q1,9.580017702547941,50.682027345660984
exact,pre_advance,A,no_revision,bridge,2020:Q2,533.1821380067013,583.8641653523623
exact,pre_advance,A,no_revision,bridge,2020:Q3,1700.4719074888842,2284.3360728412463
exact,pre_advance,A,no_revision,bridge,2020:Q4,15.421963922740805,2299.758036763987
exact,pre_advance,A,no_revision,bridge,2021:Q1,40.78673656791285,2340.5447733319
exact,pre_advance,A,no_revision,bridge,2021:Q2,39.12920568822841,2379.6739790201286
exact,pre_advance,A,no_revision,bridge,2021:Q3,0.003641228353279624,2379.677620248482
exact,pre_advance,A,no_revision,bridge,2021:Q4,-4.309556315401188,2375.368063933081
exact,pre_advance,A,no_revision,bridge,2022:Q1,-26.71709323163733,2348.650970701444
exact,pre_advance,A,no_revision,bridge,2022:Q2,4.3023207619124495,2352.9532914633564
exact,pre_advance,A,no_revision,bridge,2022:Q3,-3.032052127515388,2349.921239335841
exact,pre_advance,A,no_revision,bridge,2022:Q4,-17.62049701398002,2332.300742321861
exact,pre_advance,A,no_revision,bridge,2023:Q1,1.375690866879198,2333.6764331887402
exact,pre_advance,A,no_revision,bridge,2023:Q2,-1.4016490347085397,2332.2747841540317
exact,pre_advance,A,no_revision,bridge,2023:Q3,0.9167463176544608,2333.1915304716863
exact,pre_advance,A,no_revision,bridge,2023:Q4,-6.150838688551266,2327.040691783135
exact,pre_advance,A,no_revision,bridge,2024:Q1,1.0977588391882465,2328.1384506223235
exact,pre_advance,A,no_revision,bridge,2024:Q2,-0.7539944374101349,2327.3844561849132
exact,pre_advance,A,no_revision,bridge,2024:Q3,-0.007619718001530246,2327.3768364669118
exact,pre_advance,A,no_revision,bridge,2024:Q4,-0.026589665500670635,2327.3502468014112
exact,pre_advance,A,no_revision,indicator_revision_only_dfm_kalman_em,2005:Q1,-2.1536952915233436,-2.1536952915233436
exact,pre_advance,A,no_revision,indicator_revision_only_dfm_kalman_em,2005:Q2,-0.49778846500919954,-2.651483756532543
exact,pre_advance,A,no_revision,indicator_revision_only_dfm_kalman_em,2005:Q3,0.4644804748927437,-2.1870032816397993
exact,pre_advance,A,no_revision,indicator_revision_only_dfm_kalman_em,2005:Q4,-24.138831660024664,-26.325834941664464
exact,pre_advance,A,no_revision,indicator_revision_only_dfm_kalman_em,2006:Q1,8.207000230274385,-18.11883471139008
exact,pre_advance,A,no_revision,indicator_revision_only_dfm_kalman_em,2006:Q2,-3.34419423317686,-21.46302894456694
exact,pre_advance,A,no_revision,indicator_revision_only_dfm_kalman_em,2006:Q3,-3.0281938332283995,-24.49122277779534
exact,pre_advance,A,no_revision,indicator_revision_only_dfm_kalman_em,2006:Q4,-20.127404910390037,-44.61862768818538
exact,pre_advance,A,no_revision,indicator_revision_only_dfm_kalman_em,2007:Q1,2.732011713416063,-41.88661597476931
exact,pre_advance,A,no_revision,indicator_revision_only_dfm_kalman_em,2007:Q2,1.8673539055858357,-40.019262069183476
exact,pre_advance,A,no_revision,indicator_revision_only_dfm_kalman_em,2007:Q3,-39.095021863796276,-79.11428393297976
exact,pre_advance,A,no_revision,indicator_revision_only_dfm_kalman_em,2007:Q4,-5.522945672544673,-84.63722960552444
exact,pre_advance,A,no_revision,indicator_revision_only_dfm_kalman_em,2008:Q1,-12.454615640442395,-97.09184524596684
exact,pre_advance,A,no_revision,indicator_revision_only_dfm_kalman_em,2008:Q2,-0.11058699405569458,-97.20243224002253
exact,pre_advance,A,no_revision,indicator_revision_only_dfm_kalman_em,2008:Q3,-4.609088626783881,-101.81152086680642
exact,pre_advance,A,no_revision,indicator_revision_only_dfm_kalman_em,2008:Q4,-30.812331540070062,-132.6238524068765
exact,pre_advance,A,no_revision,indicator_revision_only_dfm_kalman_em,2009:Q1,-2.015421323886404,-134.6392737307629
exact,pre_advance,A,no_revision,indicator_revision_only_dfm_kalman_em,2009:Q2,-5.067669298123512,-139.70694302888643
exact,pre_advance,A,no_revision,indicator_revision_only_dfm_kalman_em,2009:Q3,-0.2187129993913075,-139.92565602827773
exact,pre_advance,A,no_revision,indicator_revision_only_dfm_kalman_em,2009:Q4,3.9673278020918135,-135.95832822618593
exact,pre_advance,A,no_revision,indicator_revision_only_dfm_kalman_em,2010:Q1,-11.693470209440022,-147.65179843562595
exact,pre_advance,A,no_revision,indicator_revision_only_dfm_kalman_em,2010:Q2,-5.453005662637562,-153.10480409826351
exact,pre_advance,A,no_revision,indicator_revision_only_dfm_kalman_em,2010:Q3,-0.014380707339232218,-153.11918480560274
exact,pre_advance,A,no_revision,indicator_revision_only_dfm_kalman_em,2010:Q4,0.4369458468892503,-152.6822389587135
exact,pre_advance,A,no_revision,indicator_revision_only_dfm_kalman_em,2011:Q1,-20.76670992651526,-173.44894888522876
exact,pre_advance,A,no_revision,indicator_revision_only_dfm_kalman_em,2011:Q2,0.4099034865798781,-173.03904539864888
exact,pre_advance,A,no_revision,indicator_revision_only_dfm_kalman_em,2011:Q3,-1.2566541370450413,-174.29569953569393
exact,pre_advance,A,no_revision,indicator_revision_only_dfm_kalman_em,2011:Q4,-3.86737829824609,-178.16307783394
exact,pre_advance,A,no_revision,indicator_revision_only_dfm_kalman_em,2012:Q1,-7.0976887805433835,-185.2607666144834
exact,pre_advance,A,no_revision,indicator_revision_only_dfm_kalman_em,2012:Q2,-1.236184327449417,-186.49695094193282
exact,pre_advance,A,no_revision,indicator_revision_only_dfm_kalman_em,2012:Q3,-0.21254980240459942,-186.70950074433742
exact,pre_advance,A,no_revision,indicator_revision_only_dfm_kalman_em,2012:Q4,-13.394386345545579,-200.103887089883
exact,pre_advance,A,no_revision,indicator_revision_only_dfm_kalman_em,2013:Q1,1.3116496350443378,-198.79223745483864
exact,pre_advance,A,no_revision,indicator_revision_only_dfm_kalman_em,2013:Q2,-0.6039619353403614,-199.396199390179
exact,pre_advance,A,no_revision,indicator_revision_only_dfm_kalman_em,2013:Q3,0.3001183193995013,-199.0960810707795
exact,pre_advance,A,no_revision,indicator_revision_only_dfm_kalman_em,2013:Q4,-2.0532603051115332,-201.14934137589103
exact,pre_advance,A,no_revision,indicator_revision_only_dfm_kalman_em,2014:Q1,2.5898586735644544,-198.55948270232656
exact,pre_advance,A,no_revision,indicator_revision_only_dfm_kalman_em,2014:Q2,5.66805571586893,-192.89142698645765
exact,pre_advance,A,no_revision,indicator_revision_only_dfm_kalman_em,2014:Q3,-0.05643833959182222,-192.94786532604948
exact,pre_advance,A,no_revision,indicator_revision_only_dfm_kalman_em,2014:Q4,0.04577261276978181,-192.9020927132797
exact,pre_advance,A,no_revision,indicator_revision_only_dfm_kalman_em,2015:Q1,4.4269748103401225,-188.4751179029396
exact,pre_advance,A,no_revision,indicator_revision_only_dfm_kalman_em,2015:Q2,0.32155414009731154,-188.15356376284228
exact,pre_advance,A,no_revision,indicator_revision_only_dfm_kalman_em,2015:Q3,-1.8849176165285155,-190.0384813793708
exact,pre_advance,A,no_revision,indicator_revision_only_dfm_kalman_em,2015:Q4,0.930684121380025,-189.1077972579908
exact,pre_advance,A,no_revision,indicator_revision_only_dfm_kalman_em,2016:Q1,-1.3247577980892253,-190.43255505608002
exact,pre_advance,A,no_revision,indicator_revision_only_dfm_kalman_em,2016:Q2,-0.639506857830082,-191.0720619139101
exact,pre_advance,A,no_revision,indicator_revision_only_dfm_kalman_em,2016:Q3,1.1357646261178738,-189.93629728779223
exact,pre_advance,A,no_revision,indicator_revision_only_dfm_kalman_em,2016:Q4,-3.527381178165459,-193.46367846595768
exact,pre_advance,A,no_revision,indicator_revision_only_dfm_kalman_em,2017:Q1,-3.7386614251496164,-197.2023398911073
exact,pre_advance,A,no_revision,indicator_revision_only_dfm_kalman_em,2017:Q2,0.0889655393457307,-197.11337435176156
exact,pre_advance,A,no_revision,indicator_revision_only_dfm_kalman_em,2017:Q3,-1.5994646279084326,-198.71283897967
exact,pre_advance,A,no_revision,indicator_revision_only_dfm_kalman_em,2017:Q4,-10.214476408049652,-208.92731538771966
exact,pre_advance,A,no_revision,indicator_revision_only_dfm_kalman_em,2018:Q1,-1.170797066920335,-210.09811245464
exact,pre_advance,A,no_revision,indicator_revision_only_dfm_kalman_em,2018:Q2,1.339640144911405,-208.75847230972857
exact,pre_advance,A,no_revision,indicator_revision_only_dfm_kalman_em,2018:Q3,0.043602438432123754,-208.71486987129646
exact,pre_advance,A,no_revision,indicator_revision_only_dfm_kalman_em,2018:Q4,0.15663208679714077,-208.5582377844993
exact,pre_advance,A,no_revision,indicator_revision_only_dfm_kalman_em,2019:Q1,-2.840406724264721,-211.39864450876402
exact,pre_advance,A,no_revision,indicator_revision_only_dfm_kalman_em,2019:Q2,0.3061271244135172,-211.09251738435051
exact,pre_advance,A,no_revision,indicator_revision_only_dfm_kalman_em,2019:Q3,-0.2775889773021335,-211.37010636165266
exact,pre_advance,A,no_revision,indicator_revision_only_dfm_kalman_em,2019:Q4,-0.2208549182032427,-211.5909612798559
exact,pre_advance,A,no_revision,indicator_revision_only_dfm_kalman_em,2020:Q1,37.96729072879429,-173.6236705510616
exact,pre_advance,A,no_revision,indicator_revision_only_dfm_kalman_em,2020:Q2,990.8667076152317,817.24303706417
exact,pre_advance,A,no_revision,indicator_revision_only_dfm_kalman_em,2020:Q3,2218.508651850889,3035.751688915059
exact,pre_advance,A,no_revision,indicator_revision_only_dfm_kalman_em,2020:Q4,22.723390640821975,3058.4750795558807
exact,pre_advance,A,no_revision,indicator_revision_only_dfm_kalman_em,2021:Q1,37.29097505297048,3095.7660546088514
exact,pre_advance,A,no_revision,indicator_revision_only_dfm_kalman_em,2021:Q2,30.941697443339066,3126.7077520521902
exact,pre_advance,A,no_revision,indicator_revision_only_dfm_kalman_em,2021:Q3,-5.359749324811627,3121.3480027273786
exact,pre_advance,A,no_revision,indicator_revision_only_dfm_kalman_em,2021:Q4,10.034367162391046,3131.3823698897695
exact,pre_advance,A,no_revision,indicator_revision_only_dfm_kalman_em,2022:Q1,-35.75097611694653,3095.631393772823
exact,pre_advance,A,no_revision,indicator_revision_only_dfm_kalman_em,2022:Q2,-6.90586528968705,3088.725528483136
exact,pre_advance,A,no_revision,indicator_revision_only_dfm_kalman_em,2022:Q3,-0.28742310637600266,3088.4381053767597
exact,pre_advance,A,no_revision,indicator_revision_only_dfm_kalman_em,2022:Q4,-1.4454375933705976,3086.992667783389
exact,pre_advance,A,no_revision,indicator_revision_only_dfm_kalman_em,2023:Q1,-1.4440487534940962,3085.5486190298952
exact,pre_advance,A,no_revision,indicator_revision_only_dfm_kalman_em,2023:Q2,-0.33674599368975855,3085.2118730362054
exact,pre_advance,A,no_revision,indicator_revision_only_dfm_kalman_em,2023:Q3,-1.8580604970540673,3083.3538125391515
exact,pre_advance,A,no_revision,indicator_revision_only_dfm_kalman_em,2023:Q4,-0.9089631589589549,3082.4448493801924
exact,pre_advance,A,no_revision,indicator_revision_only_dfm_kalman_em,2024:Q1,1.1806992892970907,3083.6255486694895
exact,pre_advance,A,no_revision,indicator_revision_only_dfm_kalman_em,2024:Q2,-1.180058409311011,3082.4454902601783
exact,pre_advance,A,no_revision,indicator_revision_only_dfm_kalman_em,2024:Q3,-0.7366799486473532,3081.708810311531
exact,pre_advance,A,no_revision,indicator_revision_only_dfm_kalman_em,2024:Q4,-0.2151127475890276,3081.493697563942
exact,pre_advance,A,no_revision,joint_indicator_revision_dfm_full_kalman_em,2005:Q1,-0.12104904867814023,-0.12104904867814023
exact,pre_advance,A,no_revision,joint_indicator_revision_dfm_full_kalman_em,2005:Q2,-0.0801119645897414,-0.20116101326788163
exact,pre_advance,A,no_revision,joint_indicator_revision_dfm_full_kalman_em,2005:Q3,0.32226758952583323,0.1211065762579516
exact,pre_advance,A,no_revision,joint_indicator_revision_dfm_full_kalman_em,2005:Q4,-18.67695105216343,-18.55584447590548
exact,pre_advance,A,no_revision,joint_indicator_revision_dfm_full_kalman_em,2006:Q1,6.551740261756835,-12.004104214148645
exact,pre_advance,A,no_revision,joint_indicator_revision_dfm_full_kalman_em,2006:Q2,-0.00963860519326265,-12.013742819341909
exact,pre_advance,A,no_revision,joint_indicator_revision_dfm_full_kalman_em,2006:Q3,-4.231003436676108,-16.24474625601802
exact,pre_advance,A,no_revision,joint_indicator_revision_dfm_full_kalman_em,2006:Q4,-20.5771042796216,-36.82185053563962
exact,pre_advance,A,no_revision,joint_indicator_revision_dfm_full_kalman_em,2007:Q1,-0.5413352261758204,-37.36318576181544
exact,pre_advance,A,no_revision,joint_indicator_revision_dfm_full_kalman_em,2007:Q2,1.691916435655642,-35.671269326159795
exact,pre_advance,A,no_revision,joint_indicator_revision_dfm_full_kalman_em,2007:Q3,-35.61826112877091,-71.28953045493071
exact,pre_advance,A,no_revision,joint_indicator_revision_dfm_full_kalman_em,2007:Q4,-2.3258400675580697,-73.61537052248879
exact,pre_advance,A,no_revision,joint_indicator_revision_dfm_full_kalman_em,2008:Q1,-9.085547782701461,-82.70091830519024
exact,pre_advance,A,no_revision,joint_indicator_revision_dfm_full_kalman_em,2008:Q2,0.03236091362095335,-82.6685573915693
exact,pre_advance,A,no_revision,joint_indicator_revision_dfm_full_kalman_em,2008:Q3,-4.251648351235198,-86.9202057428045
exact,pre_advance,A,no_revision,joint_indicator_revision_dfm_full_kalman_em,2008:Q4,-15.315193714514223,-102.23539945731872
exact,pre_advance,A,no_revision,joint_indicator_revision_dfm_full_kalman_em,2009:Q1,-9.603370245640736,-111.83876970295945
exact,pre_advance,A,no_revision,joint_indicator_revision_dfm_full_kalman_em,2009:Q2,-0.49134436008775395,-112.3301140630472
exact,pre_advance,A,no_revision,joint_indicator_revision_dfm_full_kalman_em,2009:Q3,3.1850481373316573,-109.14506592571554
exact,pre_advance,A,no_revision,joint_indicator_revision_dfm_full_kalman_em,2009:Q4,2.7684131999482355,-106.3766527257673
exact,pre_advance,A,no_revision,joint_indicator_revision_dfm_full_kalman_em,2010:Q1,-10.17358407843274,-116.55023680420004
exact,pre_advance,A,no_revision,joint_indicator_revision_dfm_full_kalman_em,2010:Q2,-5.737287667009599,-122.28752447120964
exact,pre_advance,A,no_revision,joint_indicator_revision_dfm_full_kalman_em,2010:Q3,0.050050892699343374,-122.23747357851029
exact,pre_advance,A,no_revision,joint_indicator_revision_dfm_full_kalman_em,2010:Q4,0.11020946835163231,-122.12726411015866
exact,pre_advance,A,no_revision,joint_indicator_revision_dfm_full_kalman_em,2011:Q1,-18.280649398316832,-140.4079135084755
exact,pre_advance,A,no_revision,joint_indicator_revision_dfm_full_kalman_em,2011:Q2,0.6975321417179926,-139.7103813667575
exact,pre_advance,A,no_revision,joint_indicator_revision_dfm_full_kalman_em,2011:Q3,-0.48294309024995896,-140.19332445700746
exact,pre_advance,A,no_revision,joint_indicator_revision_dfm_full_kalman_em,2011:Q4,-3.0500664107660467,-143.2433908677735
exact,pre_advance,A,no_revision,joint_indicator_revision_dfm_full_kalman_em,2012:Q1,-5.537658551587231,-148.78104941936076
exact,pre_advance,A,no_revision,joint_indicator_revision_dfm_full_kalman_em,2012:Q2,-0.8908253567357058,-149.67187477609647
exact,pre_advance,A,no_revision,joint_indicator_revision_dfm_full_kalman_em,2012:Q3,-0.048760328873644856,-149.7206351049701
exact,pre_advance,A,no_revision,joint_indicator_revision_dfm_full_kalman_em,2012:Q4,-9.16658088970517,-158.88721599467527
exact,pre_advance,A,no_revision,joint_indicator_revision_dfm_full_kalman_em,2013:Q1,1.7434277434959022,-157.14378825117936
exact,pre_advance,A,no_revision,joint_indicator_revision_dfm_full_kalman_em,2013:Q2,-0.41025779177565047,-157.554046042955
exact,pre_advance,A,no_revision,joint_indicator_revision_dfm_full_kalman_em,2013:Q3,0.5242635442851638,-157.02978249866985
exact,pre_advance,A,no_revision,joint_indicator_revision_dfm_full_kalman_em,2013:Q4,-0.5773595923779087,-157.60714209104776
exact,pre_advance,A,no_revision,joint_indicator_revision_dfm_full_kalman_em,2014:Q1,1.4434868323946866,-156.16365525865308
exact,pre_advance,A,no_revision,joint_indicator_revision_dfm_full_kalman_em,2014:Q2,6.061087160411047,-150.10256809824205
exact,pre_advance,A,no_revision,joint_indicator_revision_dfm_full_kalman_em,2014:Q3,-0.2712494360244262,-150.37381753426646
exact,pre_advance,A,no_revision,joint_indicator_revision_dfm_full_kalman_em,2014:Q4,0.17500536775578293,-150.1988121665107
exact,pre_advance,A,no_revision,joint_indicator_revision_dfm_full_kalman_em,2015:Q1,4.039880647160937,-146.15893151934975
exact,pre_advance,A,no_revision,joint_indicator_revision_dfm_full_kalman_em,2015:Q2,0.4934446301948066,-145.66548688915495
exact,pre_advance,A,no_revision,joint_indicator_revision_dfm_full_kalman_em,2015:Q3,-0.4308345985634574,-146.0963214877184
exact,pre_advance,A,no_revision,joint_indicator_revision_dfm_full_kalman_em,2015:Q4,1.3604567702034687,-144.73586471751494
exact,pre_advance,A,no_revision,joint_indicator_revision_dfm_full_kalman_em,2016:Q1,-0.4232305777237283,-145.15909529523867
exact,pre_advance,A,no_revision,joint_indicator_revision_dfm_full_kalman_em,2016:Q2,-0.1632527979578999,-145.32234809319658
exact,pre_advance,A,no_revision,joint_indicator_revision_dfm_full_kalman_em,2016:Q3,1.0571905212205661,-144.265157571976
exact,pre_advance,A,no_revision,joint_indicator_revision_dfm_full_kalman_em,2016:Q4,-2.416170980433607,-146.6813285524096
exact,pre_advance,A,no_revision,joint_indicator_revision_dfm_full_kalman_em,2017:Q1,-2.430392413264518,-149.11172096567412
exact,pre_advance,A,no_revision,joint_indicator_revision_dfm_full_kalman_em,2017:Q2,0.9205125339270736,-148.19120843174704
exact,pre_advance,A,no_revision,joint_indicator_revision_dfm_full_kalman_em,2017:Q3,-2.2445063439617536,-150.4357147757088
exact,pre_advance,A,no_revision,joint_indicator_revision_dfm_full_kalman_em,2017:Q4,-7.4438066349951475,-157.87952141070394
exact,pre_advance,A,no_revision,joint_indicator_revision_dfm_full_kalman_em,2018:Q1,-0.5922503573923017,-158.47177176809623
exact,pre_advance,A,no_revision,joint_indicator_revision_dfm_full_kalman_em,2018:Q2,0.9741095138347651,-157.49766225426146
exact,pre_advance,A,no_revision,joint_indicator_revision_dfm_full_kalman_em,2018:Q3,0.04132579837326283,-157.4563364558882
exact,pre_advance,A,no_revision,joint_indicator_revision_dfm_full_kalman_em,2018:Q4,0.15731212274643477,-157.29902433314174
exact,pre_advance,A,no_revision,joint_indicator_revision_dfm_full_kalman_em,2019:Q1,-2.2718245069295335,-159.57084884007128
exact,pre_advance,A,no_revision,joint_indicator_revision_dfm_full_kalman_em,2019:Q2,0.168489998599885,-159.4023588414714
exact,pre_advance,A,no_revision,joint_indicator_revision_dfm_full_kalman_em,2019:Q3,-0.19083881516284076,-159.59319765663423
exact,pre_advance,A,no_revision,joint_indicator_revision_dfm_full_kalman_em,2019:Q4,-0.30693861713849147,-159.90013627377272
exact,pre_advance,A,no_revision,joint_indicator_revision_dfm_full_kalman_em,2020:Q1,36.603967165207855,-123.29616910856487
exact,pre_advance,A,no_revision,joint_indicator_revision_dfm_full_kalman_em,2020:Q2,985.6245363400377,862.3283672314728
exact,pre_advance,A,no_revision,joint_indicator_revision_dfm_full_kalman_em,2020:Q3,2198.1269039934577,3060.4552712249306
exact,pre_advance,A,no_revision,joint_indicator_revision_dfm_full_kalman_em,2020:Q4,27.911973172119552,3088.36724439705
exact,pre_advance,A,no_revision,joint_indicator_revision_dfm_full_kalman_em,2021:Q1,34.73572926709964,3123.1029736641494
exact,pre_advance,A,no_revision,joint_indicator_revision_dfm_full_kalman_em,2021:Q2,30.2233723194063,3153.3263459835557
exact,pre_advance,A,no_revision,joint_indicator_revision_dfm_full_kalman_em,2021:Q3,-5.729426344751182,3147.5969196388046
exact,pre_advance,A,no_revision,joint_indicator_revision_dfm_full_kalman_em,2021:Q4,10.269383699072954,3157.8663033378775
exact,pre_advance,A,no_revision,joint_indicator_revision_dfm_full_kalman_em,2022:Q1,-27.49949705030897,3130.3668062875686
exact,pre_advance,A,no_revision,joint_indicator_revision_dfm_full_kalman_em,2022:Q2,-8.130710635681016,3122.2360956518874
exact,pre_advance,A,no_revision,joint_indicator_revision_dfm_full_kalman_em,2022:Q3,0.04762360102257471,3122.28371925291
exact,pre_advance,A,no_revision,joint_indicator_revision_dfm_full_kalman_em,2022:Q4,-0.8585787036450948,3121.425140549265
exact,pre_advance,A,no_revision,joint_indicator_revision_dfm_full_kalman_em,2023:Q1,-1.568279821956563,3119.8568607273087
exact,pre_advance,A,no_revision,joint_indicator_revision_dfm_full_kalman_em,2023:Q2,-0.09856567447053778,3119.758295052838
exact,pre_advance,A,no_revision,joint_indicator_revision_dfm_full_kalman_em,2023:Q3,-2.136660906011402,3117.6216341468266
exact,pre_advance,A,no_revision,joint_indicator_revision_dfm_full_kalman_em,2023:Q4,-0.5685948892682142,3117.0530392575583
exact,pre_advance,A,no_revision,joint_indicator_revision_dfm_full_kalman_em,2024:Q1,1.1807675321354316,3118.233806789694
exact,pre_advance,A,no_revision,joint_indicator_revision_dfm_full_kalman_em,2024:Q2,-1.4230355791667038,3116.8107712105275
exact,pre_advance,A,no_revision,joint_indicator_revision_dfm_full_kalman_em,2024:Q3,-1.0302366516959163,3115.7805345588317
exact,pre_advance,A,no_revision,joint_indicator_revision_dfm_full_kalman_em,2024:Q4,-0.08602831786610277,3115.6945062409654
exact,pre_advance,A,no_revision,midas_umidas,2005:Q1,-187.63820793526727,-187.63820793526727
exact,pre_advance,A,no_revision,midas_umidas,2005:Q2,-221.3967059367911,-409.0349138720584
exact,pre_advance,A,no_revision,midas_umidas,2005:Q3,-286.19464444164106,-695.2295583136995
exact,pre_advance,A,no_revision,midas_umidas,2005:Q4,-121.09659563240028,-816.3261539460998
exact,pre_advance,A,no_revision,midas_umidas,2006:Q1,-416.8314374485903,-1233.1575913946901
exact,pre_advance,A,no_revision,midas_umidas,2006:Q2,-220.00741552328995,-1453.16500691798
exact,pre_advance,A,no_revision,midas_umidas,2006:Q3,-16.52089655910976,-1469.6859034770898
exact,pre_advance,A,no_revision,midas_umidas,2006:Q4,-19.48961736121295,-1489.1755208383029
exact,pre_advance,A,no_revision,midas_umidas,2007:Q1,-17.969814523486132,-1507.145335361789
exact,pre_advance,A,no_revision,midas_umidas,2007:Q2,-90.5160579781053,-1597.6613933398942
exact,pre_advance,A,no_revision,midas_umidas,2007:Q3,-330.9262202793808,-1928.587613619275
exact,pre_advance,A,no_revision,midas_umidas,2007:Q4,-28.588137230691242,-1957.1757508499663
exact,pre_advance,A,no_revision,midas_umidas,2008:Q1,-109.27173549213006,-2066.4474863420965
exact,pre_advance,A,no_revision,midas_umidas,2008:Q2,-565.4158245617381,-2631.8633109038346
exact,pre_advance,A,no_revision,midas_umidas,2008:Q3,-58.03438079823959,-2689.897691702074
exact,pre_advance,A,no_revision,midas_umidas,2008:Q4,-33.30997956039298,-2723.207671262467
