haminh109/Revision-Aware-DFM/outputs/full_state_space_release_revision_dfm/sensitivity_exclude_covid_max_iter2_journal_evidence/cumulative_loss_revision.csv
timing_mode,checkpoint_id,outcome_id,baseline_model,model_id,target_quarter,loss_diff_baseline_minus_model,cumulative_loss_diff
exact,pre_advance,DELTA_SA,ar,bridge,2024:Q1,0.08308195917709753,0.08308195917709753
exact,pre_advance,DELTA_SA,ar,bridge,2024:Q2,-0.04089950912320479,0.04218245005389274
exact,pre_advance,DELTA_SA,ar,bridge,2024:Q3,0.0020789175935691188,0.04426136764746186
exact,pre_advance,DELTA_SA,ar,bridge,2024:Q4,-0.00014364795373978442,0.04411771969372207
exact,pre_advance,DELTA_SA,ar,indicator_revision_only_dfm_kalman_em,2024:Q1,0.07155817897030346,0.07155817897030346
exact,pre_advance,DELTA_SA,ar,indicator_revision_only_dfm_kalman_em,2024:Q2,-0.009033581491366181,0.06252459747893728
exact,pre_advance,DELTA_SA,ar,indicator_revision_only_dfm_kalman_em,2024:Q3,0.00727617350536104,0.06980077098429832
exact,pre_advance,DELTA_SA,ar,indicator_revision_only_dfm_kalman_em,2024:Q4,-0.008788760628669104,0.06101201035562922
exact,pre_advance,DELTA_SA,ar,joint_indicator_revision_dfm_full_kalman_em,2024:Q1,-0.13748403513110696,-0.13748403513110696
exact,pre_advance,DELTA_SA,ar,joint_indicator_revision_dfm_full_kalman_em,2024:Q2,-0.010691901517826454,-0.14817593664893342
exact,pre_advance,DELTA_SA,ar,joint_indicator_revision_dfm_full_kalman_em,2024:Q3,-0.03457727171034822,-0.18275320835928163
exact,pre_advance,DELTA_SA,ar,joint_indicator_revision_dfm_full_kalman_em,2024:Q4,-0.0034648508035859146,-0.18621805916286754
exact,pre_advance,DELTA_SA,ar,midas_umidas,2024:Q1,0.18674922130366314,0.18674922130366314
exact,pre_advance,DELTA_SA,ar,midas_umidas,2024:Q2,0.002997525708536584,0.18974674701219973
exact,pre_advance,DELTA_SA,ar,midas_umidas,2024:Q3,-0.20633145236124312,-0.016584705349043383
exact,pre_advance,DELTA_SA,ar,midas_umidas,2024:Q4,-1.6360489328221843,-1.6526336381712277
exact,pre_advance,DELTA_SA,ar,monthly_mixed_frequency_kalman_em,2024:Q1,-0.03508126153437549,-0.03508126153437549
exact,pre_advance,DELTA_SA,ar,monthly_mixed_frequency_kalman_em,2024:Q2,-0.0002595858394002942,-0.03534084737377578
exact,pre_advance,DELTA_SA,ar,monthly_mixed_frequency_kalman_em,2024:Q3,0.005243989574997129,-0.030096857798778652
exact,pre_advance,DELTA_SA,ar,monthly_mixed_frequency_kalman_em,2024:Q4,-1.6262164279153108e-06,-0.030098484015206567
exact,pre_advance,DELTA_SA,ar,no_revision,2024:Q1,0.07155817897030346,0.07155817897030346
exact,pre_advance,DELTA_SA,ar,no_revision,2024:Q2,-0.009033581491366181,0.06252459747893728
exact,pre_advance,DELTA_SA,ar,no_revision,2024:Q3,0.00727617350536104,0.06980077098429832
exact,pre_advance,DELTA_SA,ar,no_revision,2024:Q4,-0.008788760628669104,0.06101201035562922
exact,pre_advance,DELTA_SA,ar,release_dfm,2024:Q1,-0.001782041940785073,-0.001782041940785073
exact,pre_advance,DELTA_SA,ar,release_dfm,2024:Q2,0.0030115301445589647,0.0012294882037738918
exact,pre_advance,DELTA_SA,ar,release_dfm,2024:Q3,0.0003461342174390092,0.001575622421212901
exact,pre_advance,DELTA_SA,ar,release_dfm,2024:Q4,2.561095288898528e-05,0.0016012333741018863
exact,pre_advance,DELTA_SA,ar,revision_dfm_kalman_em,2024:Q1,-0.14689787679032634,-0.14689787679032634
exact,pre_advance,DELTA_SA,ar,revision_dfm_kalman_em,2024:Q2,-0.02066372862423778,-0.1675616054145641
exact,pre_advance,DELTA_SA,ar,revision_dfm_kalman_em,2024:Q3,-0.03750142005139364,-0.20506302546595775
exact,pre_advance,DELTA_SA,ar,revision_dfm_kalman_em,2024:Q4,-0.0073921714531055465,-0.2124551969190633
exact,pre_advance,DELTA_SA,ar,spf,2024:Q1,0.07155817897030346,0.07155817897030346
exact,pre_advance,DELTA_SA,ar,spf,2024:Q2,-0.009033581491366181,0.06252459747893728
exact,pre_advance,DELTA_SA,ar,spf,2024:Q3,0.00727617350536104,0.06980077098429832
exact,pre_advance,DELTA_SA,ar,spf,2024:Q4,-0.008788760628669104,0.06101201035562922
exact,pre_advance,DELTA_SA,ar,standard_dfm,2024:Q1,-0.001782041940785073,-0.001782041940785073
exact,pre_advance,DELTA_SA,ar,standard_dfm,2024:Q2,0.0030115301445589647,0.0012294882037738918
exact,pre_advance,DELTA_SA,ar,standard_dfm,2024:Q3,0.0003461342174390092,0.001575622421212901
exact,pre_advance,DELTA_SA,ar,standard_dfm,2024:Q4,2.561095288898528e-05,0.0016012333741018863
exact,pre_advance,DELTA_SA,no_revision,ar,2024:Q1,-0.07155817897030346,-0.07155817897030346
exact,pre_advance,DELTA_SA,no_revision,ar,2024:Q2,0.009033581491366181,-0.06252459747893728
exact,pre_advance,DELTA_SA,no_revision,ar,2024:Q3,-0.00727617350536104,-0.06980077098429832
exact,pre_advance,DELTA_SA,no_revision,ar,2024:Q4,0.008788760628669104,-0.06101201035562922
exact,pre_advance,DELTA_SA,no_revision,bridge,2024:Q1,0.011523780206794065,0.011523780206794065
exact,pre_advance,DELTA_SA,no_revision,bridge,2024:Q2,-0.031865927631838604,-0.02034214742504454
exact,pre_advance,DELTA_SA,no_revision,bridge,2024:Q3,-0.005197255911791921,-0.02553940333683646
exact,pre_advance,DELTA_SA,no_revision,bridge,2024:Q4,0.00864511267492932,-0.01689429066190714
exact,pre_advance,DELTA_SA,no_revision,indicator_revision_only_dfm_kalman_em,2024:Q1,0.0,0.0
exact,pre_advance,DELTA_SA,no_revision,indicator_revision_only_dfm_kalman_em,2024:Q2,0.0,0.0
exact,pre_advance,DELTA_SA,no_revision,indicator_revision_only_dfm_kalman_em,2024:Q3,0.0,0.0
exact,pre_advance,DELTA_SA,no_revision,indicator_revision_only_dfm_kalman_em,2024:Q4,0.0,0.0
exact,pre_advance,DELTA_SA,no_revision,joint_indicator_revision_dfm_full_kalman_em,2024:Q1,-0.20904221410141044,-0.20904221410141044
exact,pre_advance,DELTA_SA,no_revision,joint_indicator_revision_dfm_full_kalman_em,2024:Q2,-0.0016583200264602728,-0.2107005341278707
exact,pre_advance,DELTA_SA,no_revision,joint_indicator_revision_dfm_full_kalman_em,2024:Q3,-0.04185344521570926,-0.25255397934358
exact,pre_advance,DELTA_SA,no_revision,joint_indicator_revision_dfm_full_kalman_em,2024:Q4,0.00532390982508319,-0.2472300695184968
exact,pre_advance,DELTA_SA,no_revision,midas_umidas,2024:Q1,0.11519104233335968,0.11519104233335968
exact,pre_advance,DELTA_SA,no_revision,midas_umidas,2024:Q2,0.012031107199902764,0.12722214953326244
exact,pre_advance,DELTA_SA,no_revision,midas_umidas,2024:Q3,-0.21360762586660414,-0.0863854763333417
exact,pre_advance,DELTA_SA,no_revision,midas_umidas,2024:Q4,-1.6272601721935154,-1.7136456485268572
exact,pre_advance,DELTA_SA,no_revision,monthly_mixed_frequency_kalman_em,2024:Q1,-0.10663944050467895,-0.10663944050467895
exact,pre_advance,DELTA_SA,no_revision,monthly_mixed_frequency_kalman_em,2024:Q2,0.008773995651965887,-0.09786544485271306
exact,pre_advance,DELTA_SA,no_revision,monthly_mixed_frequency_kalman_em,2024:Q3,-0.0020321839303639113,-0.09989762878307698
exact,pre_advance,DELTA_SA,no_revision,monthly_mixed_frequency_kalman_em,2024:Q4,0.00878713441224119,-0.09111049437083579
exact,pre_advance,DELTA_SA,no_revision,release_dfm,2024:Q1,-0.07334022091108854,-0.07334022091108854
exact,pre_advance,DELTA_SA,no_revision,release_dfm,2024:Q2,0.012045111635925145,-0.06129510927516339
exact,pre_advance,DELTA_SA,no_revision,release_dfm,2024:Q3,-0.006930039287922031,-0.06822514856308542
exact,pre_advance,DELTA_SA,no_revision,release_dfm,2024:Q4,0.00881437158155809,-0.05941077698152734
exact,pre_advance,DELTA_SA,no_revision,revision_dfm_kalman_em,2024:Q1,-0.21845605576062982,-0.21845605576062982
exact,pre_advance,DELTA_SA,no_revision,revision_dfm_kalman_em,2024:Q2,-0.011630147132871598,-0.23008620289350143
exact,pre_advance,DELTA_SA,no_revision,revision_dfm_kalman_em,2024:Q3,-0.04477759355675468,-0.2748637964502561
exact,pre_advance,DELTA_SA,no_revision,revision_dfm_kalman_em,2024:Q4,0.0013965891755635578,-0.27346720727469254
exact,pre_advance,DELTA_SA,no_revision,spf,2024:Q1,0.0,0.0
exact,pre_advance,DELTA_SA,no_revision,spf,2024:Q2,0.0,0.0
exact,pre_advance,DELTA_SA,no_revision,spf,2024:Q3,0.0,0.0
exact,pre_advance,DELTA_SA,no_revision,spf,2024:Q4,0.0,0.0
exact,pre_advance,DELTA_SA,no_revision,standard_dfm,2024:Q1,-0.07334022091108854,-0.07334022091108854
exact,pre_advance,DELTA_SA,no_revision,standard_dfm,2024:Q2,0.012045111635925145,-0.06129510927516339
exact,pre_advance,DELTA_SA,no_revision,standard_dfm,2024:Q3,-0.006930039287922031,-0.06822514856308542
exact,pre_advance,DELTA_SA,no_revision,standard_dfm,2024:Q4,0.00881437158155809,-0.05941077698152734
exact,pre_advance,DELTA_SA,bridge,ar,2024:Q1,-0.08308195917709753,-0.08308195917709753
exact,pre_advance,DELTA_SA,bridge,ar,2024:Q2,0.04089950912320479,-0.04218245005389274
exact,pre_advance,DELTA_SA,bridge,ar,2024:Q3,-0.0020789175935691188,-0.04426136764746186
exact,pre_advance,DELTA_SA,bridge,ar,2024:Q4,0.00014364795373978442,-0.04411771969372207
exact,pre_advance,DELTA_SA,bridge,indicator_revision_only_dfm_kalman_em,2024:Q1,-0.011523780206794065,-0.011523780206794065
exact,pre_advance,DELTA_SA,bridge,indicator_revision_only_dfm_kalman_em,2024:Q2,0.031865927631838604,0.02034214742504454
exact,pre_advance,DELTA_SA,bridge,indicator_revision_only_dfm_kalman_em,2024:Q3,0.005197255911791921,0.02553940333683646
exact,pre_advance,DELTA_SA,bridge,indicator_revision_only_dfm_kalman_em,2024:Q4,-0.00864511267492932,0.01689429066190714
exact,pre_advance,DELTA_SA,bridge,joint_indicator_revision_dfm_full_kalman_em,2024:Q1,-0.2205659943082045,-0.2205659943082045
exact,pre_advance,DELTA_SA,bridge,joint_indicator_revision_dfm_full_kalman_em,2024:Q2,0.030207607605378335,-0.19035838670282618
exact,pre_advance,DELTA_SA,bridge,joint_indicator_revision_dfm_full_kalman_em,2024:Q3,-0.03665618930391734,-0.22701457600674352
exact,pre_advance,DELTA_SA,bridge,joint_indicator_revision_dfm_full_kalman_em,2024:Q4,-0.00332120284984613,-0.23033577885658965
exact,pre_advance,DELTA_SA,bridge,midas_umidas,2024:Q1,0.10366726212656562,0.10366726212656562
exact,pre_advance,DELTA_SA,bridge,midas_umidas,2024:Q2,0.04389703483174137,0.14756429695830697
exact,pre_advance,DELTA_SA,bridge,midas_umidas,2024:Q3,-0.20841036995481224,-0.06084607299650527
exact,pre_advance,DELTA_SA,bridge,midas_umidas,2024:Q4,-1.6359052848684446,-1.6967513578649498
exact,pre_advance,DELTA_SA,bridge,monthly_mixed_frequency_kalman_em,2024:Q1,-0.11816322071147302,-0.11816322071147302
exact,pre_advance,DELTA_SA,bridge,monthly_mixed_frequency_kalman_em,2024:Q2,0.040639923283804495,-0.07752329742766853
exact,pre_advance,DELTA_SA,bridge,monthly_mixed_frequency_kalman_em,2024:Q3,0.00316507198142801,-0.07435822544624052
exact,pre_advance,DELTA_SA,bridge,monthly_mixed_frequency_kalman_em,2024:Q4,0.00014202173731186913,-0.07421620370892865
exact,pre_advance,DELTA_SA,bridge,no_revision,2024:Q1,-0.011523780206794065,-0.011523780206794065
exact,pre_advance,DELTA_SA,bridge,no_revision,2024:Q2,0.031865927631838604,0.02034214742504454
exact,pre_advance,DELTA_SA,bridge,no_revision,2024:Q3,0.005197255911791921,0.02553940333683646
exact,pre_advance,DELTA_SA,bridge,no_revision,2024:Q4,-0.00864511267492932,0.01689429066190714
exact,pre_advance,DELTA_SA,bridge,release_dfm,2024:Q1,-0.0848640011178826,-0.0848640011178826
exact,pre_advance,DELTA_SA,bridge,release_dfm,2024:Q2,0.043911039267763755,-0.040952961850118846
exact,pre_advance,DELTA_SA,bridge,release_dfm,2024:Q3,-0.0017327833761301096,-0.042685745226248954
exact,pre_advance,DELTA_SA,bridge,release_dfm,2024:Q4,0.0001692589066287697,-0.042516486319620184
exact,pre_advance,DELTA_SA,bridge,revision_dfm_kalman_em,2024:Q1,-0.22997983596742388,-0.22997983596742388
exact,pre_advance,DELTA_SA,bridge,revision_dfm_kalman_em,2024:Q2,0.02023578049896701,-0.20974405546845687
exact,pre_advance,DELTA_SA,bridge,revision_dfm_kalman_em,2024:Q3,-0.03958033764496276,-0.24932439311341964
exact,pre_advance,DELTA_SA,bridge,revision_dfm_kalman_em,2024:Q4,-0.007248523499365762,-0.2565729166127854
exact,pre_advance,DELTA_SA,bridge,spf,2024:Q1,-0.011523780206794065,-0.011523780206794065
exact,pre_advance,DELTA_SA,bridge,spf,2024:Q2,0.031865927631838604,0.02034214742504454
exact,pre_advance,DELTA_SA,bridge,spf,2024:Q3,0.005197255911791921,0.02553940333683646
exact,pre_advance,DELTA_SA,bridge,spf,2024:Q4,-0.00864511267492932,0.01689429066190714
exact,pre_advance,DELTA_SA,bridge,standard_dfm,2024:Q1,-0.0848640011178826,-0.0848640011178826
exact,pre_advance,DELTA_SA,bridge,standard_dfm,2024:Q2,0.043911039267763755,-0.040952961850118846
exact,pre_advance,DELTA_SA,bridge,standard_dfm,2024:Q3,-0.0017327833761301096,-0.042685745226248954
exact,pre_advance,DELTA_SA,bridge,standard_dfm,2024:Q4,0.0001692589066287697,-0.042516486319620184
exact,pre_advance,DELTA_SA,midas_umidas,ar,2024:Q1,-0.18674922130366314,-0.18674922130366314
exact,pre_advance,DELTA_SA,midas_umidas,ar,2024:Q2,-0.002997525708536584,-0.18974674701219973
exact,pre_advance,DELTA_SA,midas_umidas,ar,2024:Q3,0.20633145236124312,0.016584705349043383
exact,pre_advance,DELTA_SA,midas_umidas,ar,2024:Q4,1.6360489328221843,1.6526336381712277
exact,pre_advance,DELTA_SA,midas_umidas,bridge,2024:Q1,-0.10366726212656562,-0.10366726212656562
exact,pre_advance,DELTA_SA,midas_umidas,bridge,2024:Q2,-0.04389703483174137,-0.14756429695830697
exact,pre_advance,DELTA_SA,midas_umidas,bridge,2024:Q3,0.20841036995481224,0.06084607299650527
exact,pre_advance,DELTA_SA,midas_umidas,bridge,2024:Q4,1.6359052848684446,1.6967513578649498
exact,pre_advance,DELTA_SA,midas_umidas,indicator_revision_only_dfm_kalman_em,2024:Q1,-0.11519104233335968,-0.11519104233335968
exact,pre_advance,DELTA_SA,midas_umidas,indicator_revision_only_dfm_kalman_em,2024:Q2,-0.012031107199902764,-0.12722214953326244
exact,pre_advance,DELTA_SA,midas_umidas,indicator_revision_only_dfm_kalman_em,2024:Q3,0.21360762586660414,0.0863854763333417
exact,pre_advance,DELTA_SA,midas_umidas,indicator_revision_only_dfm_kalman_em,2024:Q4,1.6272601721935154,1.7136456485268572
exact,pre_advance,DELTA_SA,midas_umidas,joint_indicator_revision_dfm_full_kalman_em,2024:Q1,-0.3242332564347701,-0.3242332564347701
exact,pre_advance,DELTA_SA,midas_umidas,joint_indicator_revision_dfm_full_kalman_em,2024:Q2,-0.013689427226363036,-0.3379226836611331
exact,pre_advance,DELTA_SA,midas_umidas,joint_indicator_revision_dfm_full_kalman_em,2024:Q3,0.1717541806508949,-0.1661685030102382
exact,pre_advance,DELTA_SA,midas_umidas,joint_indicator_revision_dfm_full_kalman_em,2024:Q4,1.6325840820185984,1.4664155790083602
exact,pre_advance,DELTA_SA,midas_umidas,monthly_mixed_frequency_kalman_em,2024:Q1,-0.22183048283803863,-0.22183048283803863
exact,pre_advance,DELTA_SA,midas_umidas,monthly_mixed_frequency_kalman_em,2024:Q2,-0.003257111547936878,-0.2250875943859755
exact,pre_advance,DELTA_SA,midas_umidas,monthly_mixed_frequency_kalman_em,2024:Q3,0.21157544193624025,-0.013512152449735249
exact,pre_advance,DELTA_SA,midas_umidas,monthly_mixed_frequency_kalman_em,2024:Q4,1.6360473066057564,1.6225351541560211
exact,pre_advance,DELTA_SA,midas_umidas,no_revision,2024:Q1,-0.11519104233335968,-0.11519104233335968
exact,pre_advance,DELTA_SA,midas_umidas,no_revision,2024:Q2,-0.012031107199902764,-0.12722214953326244
exact,pre_advance,DELTA_SA,midas_umidas,no_revision,2024:Q3,0.21360762586660414,0.0863854763333417
exact,pre_advance,DELTA_SA,midas_umidas,no_revision,2024:Q4,1.6272601721935154,1.7136456485268572
exact,pre_advance,DELTA_SA,midas_umidas,release_dfm,2024:Q1,-0.18853126324444822,-0.18853126324444822
exact,pre_advance,DELTA_SA,midas_umidas,release_dfm,2024:Q2,1.4004436022380605e-05,-0.18851725880842585
exact,pre_advance,DELTA_SA,midas_umidas,release_dfm,2024:Q3,0.20667758657868213,0.01816032777025628
exact,pre_advance,DELTA_SA,midas_umidas,release_dfm,2024:Q4,1.6360745437750734,1.6542348715453297
exact,pre_advance,DELTA_SA,midas_umidas,revision_dfm_kalman_em,2024:Q1,-0.33364709809398946,-0.33364709809398946
exact,pre_advance,DELTA_SA,midas_umidas,revision_dfm_kalman_em,2024:Q2,-0.023661254332774363,-0.35730835242676384
exact,pre_advance,DELTA_SA,midas_umidas,revision_dfm_kalman_em,2024:Q3,0.16883003230984947,-0.18847832011691437
exact,pre_advance,DELTA_SA,midas_umidas,revision_dfm_kalman_em,2024:Q4,1.6286567613690788,1.4401784412521643
exact,pre_advance,DELTA_SA,midas_umidas,spf,2024:Q1,-0.11519104233335968,-0.11519104233335968
exact,pre_advance,DELTA_SA,midas_umidas,spf,2024:Q2,-0.012031107199902764,-0.12722214953326244
exact,pre_advance,DELTA_SA,midas_umidas,spf,2024:Q3,0.21360762586660414,0.0863854763333417
exact,pre_advance,DELTA_SA,midas_umidas,spf,2024:Q4,1.6272601721935154,1.7136456485268572
exact,pre_advance,DELTA_SA,midas_umidas,standard_dfm,2024:Q1,-0.18853126324444822,-0.18853126324444822
exact,pre_advance,DELTA_SA,midas_umidas,standard_dfm,2024:Q2,1.4004436022380605e-05,-0.18851725880842585
exact,pre_advance,DELTA_SA,midas_umidas,standard_dfm,2024:Q3,0.20667758657868213,0.01816032777025628
exact,pre_advance,DELTA_SA,midas_umidas,standard_dfm,2024:Q4,1.6360745437750734,1.6542348715453297
exact,pre_advance,DELTA_SA,spf,ar,2024:Q1,-0.07155817897030346,-0.07155817897030346
exact,pre_advance,DELTA_SA,spf,ar,2024:Q2,0.009033581491366181,-0.06252459747893728
exact,pre_advance,DELTA_SA,spf,ar,2024:Q3,-0.00727617350536104,-0.06980077098429832
exact,pre_advance,DELTA_SA,spf,ar,2024:Q4,0.008788760628669104,-0.06101201035562922
exact,pre_advance,DELTA_SA,spf,bridge,2024:Q1,0.011523780206794065,0.011523780206794065
exact,pre_advance,DELTA_SA,spf,bridge,2024:Q2,-0.031865927631838604,-0.02034214742504454
exact,pre_advance,DELTA_SA,spf,bridge,2024:Q3,-0.005197255911791921,-0.02553940333683646
exact,pre_advance,DELTA_SA,spf,bridge,2024:Q4,0.00864511267492932,-0.01689429066190714
exact,pre_advance,DELTA_SA,spf,indicator_revision_only_dfm_kalman_em,2024:Q1,0.0,0.0
exact,pre_advance,DELTA_SA,spf,indicator_revision_only_dfm_kalman_em,2024:Q2,0.0,0.0
exact,pre_advance,DELTA_SA,spf,indicator_revision_only_dfm_kalman_em,2024:Q3,0.0,0.0
exact,pre_advance,DELTA_SA,spf,indicator_revision_only_dfm_kalman_em,2024:Q4,0.0,0.0
exact,pre_advance,DELTA_SA,spf,joint_indicator_revision_dfm_full_kalman_em,2024:Q1,-0.20904221410141044,-0.20904221410141044
exact,pre_advance,DELTA_SA,spf,joint_indicator_revision_dfm_full_kalman_em,2024:Q2,-0.0016583200264602728,-0.2107005341278707
exact,pre_advance,DELTA_SA,spf,joint_indicator_revision_dfm_full_kalman_em,2024:Q3,-0.04185344521570926,-0.25255397934358
exact,pre_advance,DELTA_SA,spf,joint_indicator_revision_dfm_full_kalman_em,2024:Q4,0.00532390982508319,-0.2472300695184968
exact,pre_advance,DELTA_SA,spf,midas_umidas,2024:Q1,0.11519104233335968,0.11519104233335968
exact,pre_advance,DELTA_SA,spf,midas_umidas,2024:Q2,0.012031107199902764,0.12722214953326244
exact,pre_advance,DELTA_SA,spf,midas_umidas,2024:Q3,-0.21360762586660414,-0.0863854763333417
exact,pre_advance,DELTA_SA,spf,midas_umidas,2024:Q4,-1.6272601721935154,-1.7136456485268572
exact,pre_advance,DELTA_SA,spf,monthly_mixed_frequency_kalman_em,2024:Q1,-0.10663944050467895,-0.10663944050467895
exact,pre_advance,DELTA_SA,spf,monthly_mixed_frequency_kalman_em,2024:Q2,0.008773995651965887,-0.09786544485271306
exact,pre_advance,DELTA_SA,spf,monthly_mixed_frequency_kalman_em,2024:Q3,-0.0020321839303639113,-0.09989762878307698
exact,pre_advance,DELTA_SA,spf,monthly_mixed_frequency_kalman_em,2024:Q4,0.00878713441224119,-0.09111049437083579
exact,pre_advance,DELTA_SA,spf,no_revision,2024:Q1,0.0,0.0
exact,pre_advance,DELTA_SA,spf,no_revision,2024:Q2,0.0,0.0
exact,pre_advance,DELTA_SA,spf,no_revision,2024:Q3,0.0,0.0
exact,pre_advance,DELTA_SA,spf,no_revision,2024:Q4,0.0,0.0
exact,pre_advance,DELTA_SA,spf,release_dfm,2024:Q1,-0.07334022091108854,-0.07334022091108854
exact,pre_advance,DELTA_SA,spf,release_dfm,2024:Q2,0.012045111635925145,-0.06129510927516339
exact,pre_advance,DELTA_SA,spf,release_dfm,2024:Q3,-0.006930039287922031,-0.06822514856308542
exact,pre_advance,DELTA_SA,spf,release_dfm,2024:Q4,0.00881437158155809,-0.05941077698152734
exact,pre_advance,DELTA_SA,spf,revision_dfm_kalman_em,2024:Q1,-0.21845605576062982,-0.21845605576062982
exact,pre_advance,DELTA_SA,spf,revision_dfm_kalman_em,2024:Q2,-0.011630147132871598,-0.23008620289350143
exact,pre_advance,DELTA_SA,spf,revision_dfm_kalman_em,2024:Q3,-0.04477759355675468,-0.2748637964502561
exact,pre_advance,DELTA_SA,spf,revision_dfm_kalman_em,2024:Q4,0.0013965891755635578,-0.27346720727469254
exact,pre_advance,DELTA_SA,spf,standard_dfm,2024:Q1,-0.07334022091108854,-0.07334022091108854
exact,pre_advance,DELTA_SA,spf,standard_dfm,2024:Q2,0.012045111635925145,-0.06129510927516339
exact,pre_advance,DELTA_SA,spf,standard_dfm,2024:Q3,-0.006930039287922031,-0.06822514856308542
exact,pre_advance,DELTA_SA,spf,standard_dfm,2024:Q4,0.00881437158155809,-0.05941077698152734
exact,pre_advance,DELTA_SA,standard_dfm,ar,2024:Q1,0.001782041940785073,0.001782041940785073
exact,pre_advance,DELTA_SA,standard_dfm,ar,2024:Q2,-0.0030115301445589647,-0.0012294882037738918
exact,pre_advance,DELTA_SA,standard_dfm,ar,2024:Q3,-0.0003461342174390092,-0.001575622421212901
exact,pre_advance,DELTA_SA,standard_dfm,ar,2024:Q4,-2.561095288898528e-05,-0.0016012333741018863
exact,pre_advance,DELTA_SA,standard_dfm,bridge,2024:Q1,0.0848640011178826,0.0848640011178826
exact,pre_advance,DELTA_SA,standard_dfm,bridge,2024:Q2,-0.043911039267763755,0.040952961850118846
exact,pre_advance,DELTA_SA,standard_dfm,bridge,2024:Q3,0.0017327833761301096,0.042685745226248954
exact,pre_advance,DELTA_SA,standard_dfm,bridge,2024:Q4,-0.0001692589066287697,0.042516486319620184
exact,pre_advance,DELTA_SA,standard_dfm,indicator_revision_only_dfm_kalman_em,2024:Q1,0.07334022091108854,0.07334022091108854
exact,pre_advance,DELTA_SA,standard_dfm,indicator_revision_only_dfm_kalman_em,2024:Q2,-0.012045111635925145,0.06129510927516339
exact,pre_advance,DELTA_SA,standard_dfm,indicator_revision_only_dfm_kalman_em,2024:Q3,0.006930039287922031,0.06822514856308542
exact,pre_advance,DELTA_SA,standard_dfm,indicator_revision_only_dfm_kalman_em,2024:Q4,-0.00881437158155809,0.05941077698152734
exact,pre_advance,DELTA_SA,standard_dfm,joint_indicator_revision_dfm_full_kalman_em,2024:Q1,-0.1357019931903219,-0.1357019931903219
exact,pre_advance,DELTA_SA,standard_dfm,joint_indicator_revision_dfm_full_kalman_em,2024:Q2,-0.013703431662385418,-0.1494054248527073
exact,pre_advance,DELTA_SA,standard_dfm,joint_indicator_revision_dfm_full_kalman_em,2024:Q3,-0.03492340592778723,-0.18432883078049453
exact,pre_advance,DELTA_SA,standard_dfm,joint_indicator_revision_dfm_full_kalman_em,2024:Q4,-0.0034904617564749,-0.18781929253696944
exact,pre_advance,DELTA_SA,standard_dfm,midas_umidas,2024:Q1,0.18853126324444822,0.18853126324444822
exact,pre_advance,DELTA_SA,standard_dfm,midas_umidas,2024:Q2,-1.4004436022380605e-05,0.18851725880842585
exact,pre_advance,DELTA_SA,standard_dfm,midas_umidas,2024:Q3,-0.20667758657868213,-0.01816032777025628
exact,pre_advance,DELTA_SA,standard_dfm,midas_umidas,2024:Q4,-1.6360745437750734,-1.6542348715453297
exact,pre_advance,DELTA_SA,standard_dfm,monthly_mixed_frequency_kalman_em,2024:Q1,-0.03329921959359042,-0.03329921959359042
exact,pre_advance,DELTA_SA,standard_dfm,monthly_mixed_frequency_kalman_em,2024:Q2,-0.003271115983959259,-0.03657033557754968
exact,pre_advance,DELTA_SA,standard_dfm,monthly_mixed_frequency_kalman_em,2024:Q3,0.00489785535755812,-0.031672480219991556
exact,pre_advance,DELTA_SA,standard_dfm,monthly_mixed_frequency_kalman_em,2024:Q4,-2.723716931690059e-05,-0.031699717389308456
exact,pre_advance,DELTA_SA,standard_dfm,no_revision,2024:Q1,0.07334022091108854,0.07334022091108854
exact,pre_advance,DELTA_SA,standard_dfm,no_revision,2024:Q2,-0.012045111635925145,0.06129510927516339
exact,pre_advance,DELTA_SA,standard_dfm,no_revision,2024:Q3,0.006930039287922031,0.06822514856308542
exact,pre_advance,DELTA_SA,standard_dfm,no_revision,2024:Q4,-0.00881437158155809,0.05941077698152734
exact,pre_advance,DELTA_SA,standard_dfm,release_dfm,2024:Q1,0.0,0.0
exact,pre_advance,DELTA_SA,standard_dfm,release_dfm,2024:Q2,0.0,0.0
exact,pre_advance,DELTA_SA,standard_dfm,release_dfm,2024:Q3,0.0,0.0
exact,pre_advance,DELTA_SA,standard_dfm,release_dfm,2024:Q4,0.0,0.0
exact,pre_advance,DELTA_SA,standard_dfm,revision_dfm_kalman_em,2024:Q1,-0.14511583484954127,-0.14511583484954127
exact,pre_advance,DELTA_SA,standard_dfm,revision_dfm_kalman_em,2024:Q2,-0.023675258768796743,-0.16879109361833802
exact,pre_advance,DELTA_SA,standard_dfm,revision_dfm_kalman_em,2024:Q3,-0.03784755426883265,-0.20663864788717068
exact,pre_advance,DELTA_SA,standard_dfm,revision_dfm_kalman_em,2024:Q4,-0.007417782405994532,-0.2140564302931652
exact,pre_advance,DELTA_SA,standard_dfm,spf,2024:Q1,0.07334022091108854,0.07334022091108854
exact,pre_advance,DELTA_SA,standard_dfm,spf,2024:Q2,-0.012045111635925145,0.06129510927516339
exact,pre_advance,DELTA_SA,standard_dfm,spf,2024:Q3,0.006930039287922031,0.06822514856308542
exact,pre_advance,DELTA_SA,standard_dfm,spf,2024:Q4,-0.00881437158155809,0.05941077698152734
exact,pre_advance,DELTA_SA,release_dfm,ar,2024:Q1,0.001782041940785073,0.001782041940785073
exact,pre_advance,DELTA_SA,release_dfm,ar,2024:Q2,-0.0030115301445589647,-0.0012294882037738918
exact,pre_advance,DELTA_SA,release_dfm,ar,2024:Q3,-0.0003461342174390092,-0.001575622421212901
exact,pre_advance,DELTA_SA,release_dfm,ar,2024:Q4,-2.561095288898528e-05,-0.0016012333741018863
exact,pre_advance,DELTA_SA,release_dfm,bridge,2024:Q1,0.0848640011178826,0.0848640011178826
exact,pre_advance,DELTA_SA,release_dfm,bridge,2024:Q2,-0.043911039267763755,0.040952961850118846
exact,pre_advance,DELTA_SA,release_dfm,bridge,2024:Q3,0.0017327833761301096,0.042685745226248954
exact,pre_advance,DELTA_SA,release_dfm,bridge,2024:Q4,-0.0001692589066287697,0.042516486319620184
exact,pre_advance,DELTA_SA,release_dfm,indicator_revision_only_dfm_kalman_em,2024:Q1,0.07334022091108854,0.07334022091108854
exact,pre_advance,DELTA_SA,release_dfm,indicator_revision_only_dfm_kalman_em,2024:Q2,-0.012045111635925145,0.06129510927516339
exact,pre_advance,DELTA_SA,release_dfm,indicator_revision_only_dfm_kalman_em,2024:Q3,0.006930039287922031,0.06822514856308542
exact,pre_advance,DELTA_SA,release_dfm,indicator_revision_only_dfm_kalman_em,2024:Q4,-0.00881437158155809,0.05941077698152734
exact,pre_advance,DELTA_SA,release_dfm,joint_indicator_revision_dfm_full_kalman_em,2024:Q1,-0.1357019931903219,-0.1357019931903219
exact,pre_advance,DELTA_SA,release_dfm,joint_indicator_revision_dfm_full_kalman_em,2024:Q2,-0.013703431662385418,-0.1494054248527073
exact,pre_advance,DELTA_SA,release_dfm,joint_indicator_revision_dfm_full_kalman_em,2024:Q3,-0.03492340592778723,-0.18432883078049453
exact,pre_advance,DELTA_SA,release_dfm,joint_indicator_revision_dfm_full_kalman_em,2024:Q4,-0.0034904617564749,-0.18781929253696944
exact,pre_advance,DELTA_SA,release_dfm,midas_umidas,2024:Q1,0.18853126324444822,0.18853126324444822
exact,pre_advance,DELTA_SA,release_dfm,midas_umidas,2024:Q2,-1.4004436022380605e-05,0.18851725880842585
exact,pre_advance,DELTA_SA,release_dfm,midas_umidas,2024:Q3,-0.20667758657868213,-0.01816032777025628
exact,pre_advance,DELTA_SA,release_dfm,midas_umidas,2024:Q4,-1.6360745437750734,-1.6542348715453297
exact,pre_advance,DELTA_SA,release_dfm,monthly_mixed_frequency_kalman_em,2024:Q1,-0.03329921959359042,-0.03329921959359042
exact,pre_advance,DELTA_SA,release_dfm,monthly_mixed_frequency_kalman_em,2024:Q2,-0.003271115983959259,-0.03657033557754968
exact,pre_advance,DELTA_SA,release_dfm,monthly_mixed_frequency_kalman_em,2024:Q3,0.00489785535755812,-0.031672480219991556
exact,pre_advance,DELTA_SA,release_dfm,monthly_mixed_frequency_kalman_em,2024:Q4,-2.723716931690059e-05,-0.031699717389308456
exact,pre_advance,DELTA_SA,release_dfm,no_revision,2024:Q1,0.07334022091108854,0.07334022091108854
exact,pre_advance,DELTA_SA,release_dfm,no_revision,2024:Q2,-0.012045111635925145,0.06129510927516339
exact,pre_advance,DELTA_SA,release_dfm,no_revision,2024:Q3,0.006930039287922031,0.06822514856308542
exact,pre_advance,DELTA_SA,release_dfm,no_revision,2024:Q4,-0.00881437158155809,0.05941077698152734
exact,pre_advance,DELTA_SA,release_dfm,revision_dfm_kalman_em,2024:Q1,-0.14511583484954127,-0.14511583484954127
exact,pre_advance,DELTA_SA,release_dfm,revision_dfm_kalman_em,2024:Q2,-0.023675258768796743,-0.16879109361833802
exact,pre_advance,DELTA_SA,release_dfm,revision_dfm_kalman_em,2024:Q3,-0.03784755426883265,-0.20663864788717068
exact,pre_advance,DELTA_SA,release_dfm,revision_dfm_kalman_em,2024:Q4,-0.007417782405994532,-0.2140564302931652
exact,pre_advance,DELTA_SA,release_dfm,spf,2024:Q1,0.07334022091108854,0.07334022091108854
exact,pre_advance,DELTA_SA,release_dfm,spf,2024:Q2,-0.012045111635925145,0.06129510927516339
exact,pre_advance,DELTA_SA,release_dfm,spf,2024:Q3,0.006930039287922031,0.06822514856308542
exact,pre_advance,DELTA_SA,release_dfm,spf,2024:Q4,-0.00881437158155809,0.05941077698152734
exact,pre_advance,DELTA_SA,release_dfm,standard_dfm,2024:Q1,0.0,0.0
exact,pre_advance,DELTA_SA,release_dfm,standard_dfm,2024:Q2,0.0,0.0
exact,pre_advance,DELTA_SA,release_dfm,standard_dfm,2024:Q3,0.0,0.0
exact,pre_advance,DELTA_SA,release_dfm,standard_dfm,2024:Q4,0.0,0.0
exact,pre_second,DELTA_TS,ar,bridge,2024:Q1,-0.04508858395854298,-0.04508858395854298
exact,pre_second,DELTA_TS,ar,bridge,2024:Q2,-0.05541939767023191,-0.10050798162877489
exact,pre_second,DELTA_TS,ar,bridge,2024:Q3,-0.027066730004458073,-0.12757471163323297
exact,pre_second,DELTA_TS,ar,bridge,2024:Q4,-0.0001537222192183915,-0.12772843385245136
exact,pre_second,DELTA_TS,ar,indicator_revision_only_dfm_kalman_em,2024:Q1,-0.018462133497916776,-0.018462133497916776
exact,pre_second,DELTA_TS,ar,indicator_revision_only_dfm_kalman_em,2024:Q2,0.0002043436737962131,-0.018257789824120563
exact,pre_second,DELTA_TS,ar,indicator_revision_only_dfm_kalman_em,2024:Q3,-0.028095128887836867,-0.04635291871195743
exact,pre_second,DELTA_TS,ar,indicator_revision_only_dfm_kalman_em,2024:Q4,-0.010286115580971903,-0.05663903429292933
exact,pre_second,DELTA_TS,ar,joint_indicator_revision_dfm_full_kalman_em,2024:Q1,-0.017953679997858858,-0.017953679997858858
exact,pre_second,DELTA_TS,ar,joint_indicator_revision_dfm_full_kalman_em,2024:Q2,0.00021436646337527642,-0.017739313534483582
exact,pre_second,DELTA_TS,ar,joint_indicator_revision_dfm_full_kalman_em,2024:Q3,-0.027947102917548716,-0.045686416452032294
exact,pre_second,DELTA_TS,ar,joint_indicator_revision_dfm_full_kalman_em,2024:Q4,-0.01009079511600087,-0.05577721156803316
exact,pre_second,DELTA_TS,ar,midas_umidas,2024:Q1,-0.0652275098722603,-0.0652275098722603
exact,pre_second,DELTA_TS,ar,midas_umidas,2024:Q2,0.0014799650418325376,-0.06374754483042776
exact,pre_second,DELTA_TS,ar,midas_umidas,2024:Q3,-0.02735334704076973,-0.09110089187119749
exact,pre_second,DELTA_TS,ar,midas_umidas,2024:Q4,-0.7575861942660828,-0.8486870861372803
exact,pre_second,DELTA_TS,ar,monthly_mixed_frequency_kalman_em,2024:Q1,0.0028592047441574264,0.0028592047441574264
exact,pre_second,DELTA_TS,ar,monthly_mixed_frequency_kalman_em,2024:Q2,-0.004596546571834903,-0.0017373418276774768
exact,pre_second,DELTA_TS,ar,monthly_mixed_frequency_kalman_em,2024:Q3,-0.04793705511954492,-0.0496743969472224
exact,pre_second,DELTA_TS,ar,monthly_mixed_frequency_kalman_em,2024:Q4,-0.0019734002328077706,-0.051647797180030174
exact,pre_second,DELTA_TS,ar,no_revision,2024:Q1,-0.018462133497916776,-0.018462133497916776
exact,pre_second,DELTA_TS,ar,no_revision,2024:Q2,0.0002043436737962131,-0.018257789824120563
exact,pre_second,DELTA_TS,ar,no_revision,2024:Q3,-0.028095128887836867,-0.04635291871195743
exact,pre_second,DELTA_TS,ar,no_revision,2024:Q4,-0.010286115580971903,-0.05663903429292933
exact,pre_second,DELTA_TS,ar,release_dfm,2024:Q1,-0.0051303795703036715,-0.0051303795703036715
exact,pre_second,DELTA_TS,ar,release_dfm,2024:Q2,0.001486085664581769,-0.0036442939057219027
exact,pre_second,DELTA_TS,ar,release_dfm,2024:Q3,-0.0060797583482813285,-0.009724052254003232
exact,pre_second,DELTA_TS,ar,release_dfm,2024:Q4,-0.002303353562840215,-0.012027405816843447
exact,pre_second,DELTA_TS,ar,revision_dfm_kalman_em,2024:Q1,-0.017972620825128426,-0.017972620825128426
exact,pre_second,DELTA_TS,ar,revision_dfm_kalman_em,2024:Q2,0.00022741445131485745,-0.01774520637381357
exact,pre_second,DELTA_TS,ar,revision_dfm_kalman_em,2024:Q3,-0.027908579810237578,-0.04565378618405115
exact,pre_second,DELTA_TS,ar,revision_dfm_kalman_em,2024:Q4,-0.010086646160958087,-0.055740432345009236
exact,pre_second,DELTA_TS,ar,spf,2024:Q1,-0.018462133497916776,-0.018462133497916776
exact,pre_second,DELTA_TS,ar,spf,2024:Q2,0.0002043436737962131,-0.018257789824120563
exact,pre_second,DELTA_TS,ar,spf,2024:Q3,-0.028095128887836867,-0.04635291871195743
exact,pre_second,DELTA_TS,ar,spf,2024:Q4,-0.010286115580971903,-0.05663903429292933
exact,pre_second,DELTA_TS,ar,standard_dfm,2024:Q1,-0.0024668469197966832,-0.0024668469197966832
exact,pre_second,DELTA_TS,ar,standard_dfm,2024:Q2,0.0008066622194018307,-0.0016601847003948527
exact,pre_second,DELTA_TS,ar,standard_dfm,2024:Q3,-0.0008496616901237479,-0.0025098463905186006
exact,pre_second,DELTA_TS,ar,standard_dfm,2024:Q4,-0.0007618480090728004,-0.003271694399591401
exact,pre_second,DELTA_TS,no_revision,ar,2024:Q1,0.018462133497916776,0.018462133497916776
exact,pre_second,DELTA_TS,no_revision,ar,2024:Q2,-0.0002043436737962131,0.018257789824120563
exact,pre_second,DELTA_TS,no_revision,ar,2024:Q3,0.028095128887836867,0.04635291871195743
exact,pre_second,DELTA_TS,no_revision,ar,2024:Q4,0.010286115580971903,0.05663903429292933
exact,pre_second,DELTA_TS,no_revision,bridge,2024:Q1,-0.026626450460626207,-0.026626450460626207
exact,pre_second,DELTA_TS,no_revision,bridge,2024:Q2,-0.05562374134402812,-0.08225019180465433
exact,pre_second,DELTA_TS,no_revision,bridge,2024:Q3,0.0010283988833787935,-0.08122179292127554
exact,pre_second,DELTA_TS,no_revision,bridge,2024:Q4,0.01013239336175351,-0.07108939955952204
exact,pre_second,DELTA_TS,no_revision,indicator_revision_only_dfm_kalman_em,2024:Q1,0.0,0.0
exact,pre_second,DELTA_TS,no_revision,indicator_revision_only_dfm_kalman_em,2024:Q2,0.0,0.0
exact,pre_second,DELTA_TS,no_revision,indicator_revision_only_dfm_kalman_em,2024:Q3,0.0,0.0
exact,pre_second,DELTA_TS,no_revision,indicator_revision_only_dfm_kalman_em,2024:Q4,0.0,0.0
exact,pre_second,DELTA_TS,no_revision,joint_indicator_revision_dfm_full_kalman_em,2024:Q1,0.0005084535000579177,0.0005084535000579177
exact,pre_second,DELTA_TS,no_revision,joint_indicator_revision_dfm_full_kalman_em,2024:Q2,1.0022789579063312e-05,0.000518476289636981
exact,pre_second,DELTA_TS,no_revision,joint_indicator_revision_dfm_full_kalman_em,2024:Q3,0.00014802597028815145,0.0006665022599251324
exact,pre_second,DELTA_TS,no_revision,joint_indicator_revision_dfm_full_kalman_em,2024:Q4,0.00019532046497103273,0.0008618227248961652
exact,pre_second,DELTA_TS,no_revision,midas_umidas,2024:Q1,-0.04676537637434351,-0.04676537637434351
exact,pre_second,DELTA_TS,no_revision,midas_umidas,2024:Q2,0.0012756213680363247,-0.045489755006307184
exact,pre_second,DELTA_TS,no_revision,midas_umidas,2024:Q3,0.0007417818470671356,-0.04474797315924005
exact,pre_second,DELTA_TS,no_revision,midas_umidas,2024:Q4,-0.7473000786851108,-0.7920480518443509
exact,pre_second,DELTA_TS,no_revision,monthly_mixed_frequency_kalman_em,2024:Q1,0.021321338242074203,0.021321338242074203
exact,pre_second,DELTA_TS,no_revision,monthly_mixed_frequency_kalman_em,2024:Q2,-0.0048008902456311165,0.01652044799644309
exact,pre_second,DELTA_TS,no_revision,monthly_mixed_frequency_kalman_em,2024:Q3,-0.01984192623170805,-0.003321478235264963
exact,pre_second,DELTA_TS,no_revision,monthly_mixed_frequency_kalman_em,2024:Q4,0.008312715348164131,0.004991237112899168
exact,pre_second,DELTA_TS,no_revision,release_dfm,2024:Q1,0.013331753927613106,0.013331753927613106
exact,pre_second,DELTA_TS,no_revision,release_dfm,2024:Q2,0.001281741990785556,0.014613495918398662
exact,pre_second,DELTA_TS,no_revision,release_dfm,2024:Q3,0.02201537053955554,0.0366288664579542
exact,pre_second,DELTA_TS,no_revision,release_dfm,2024:Q4,0.007982762018131686,0.044611628476085886
exact,pre_second,DELTA_TS,no_revision,revision_dfm_kalman_em,2024:Q1,0.0004895126727883538,0.0004895126727883538
exact,pre_second,DELTA_TS,no_revision,revision_dfm_kalman_em,2024:Q2,2.3070777518644338e-05,0.0005125834503069981
exact,pre_second,DELTA_TS,no_revision,revision_dfm_kalman_em,2024:Q3,0.00018654907759928924,0.0006991325279062874
exact,pre_second,DELTA_TS,no_revision,revision_dfm_kalman_em,2024:Q4,0.00019946942001381612,0.0008986019479201035
exact,pre_second,DELTA_TS,no_revision,spf,2024:Q1,0.0,0.0
exact,pre_second,DELTA_TS,no_revision,spf,2024:Q2,0.0,0.0
exact,pre_second,DELTA_TS,no_revision,spf,2024:Q3,0.0,0.0
exact,pre_second,DELTA_TS,no_revision,spf,2024:Q4,0.0,0.0
exact,pre_second,DELTA_TS,no_revision,standard_dfm,2024:Q1,0.015995286578120094,0.015995286578120094
exact,pre_second,DELTA_TS,no_revision,standard_dfm,2024:Q2,0.0006023185456056176,0.01659760512372571
exact,pre_second,DELTA_TS,no_revision,standard_dfm,2024:Q3,0.02724546719771312,0.04384307232143883
exact,pre_second,DELTA_TS,no_revision,standard_dfm,2024:Q4,0.009524267571899102,0.05336733989333793
exact,pre_second,DELTA_TS,bridge,ar,2024:Q1,0.04508858395854298,0.04508858395854298
exact,pre_second,DELTA_TS,bridge,ar,2024:Q2,0.05541939767023191,0.10050798162877489
exact,pre_second,DELTA_TS,bridge,ar,2024:Q3,0.027066730004458073,0.12757471163323297
exact,pre_second,DELTA_TS,bridge,ar,2024:Q4,0.0001537222192183915,0.12772843385245136
exact,pre_second,DELTA_TS,bridge,indicator_revision_only_dfm_kalman_em,2024:Q1,0.026626450460626207,0.026626450460626207
exact,pre_second,DELTA_TS,bridge,indicator_revision_only_dfm_kalman_em,2024:Q2,0.05562374134402812,0.08225019180465433
exact,pre_second,DELTA_TS,bridge,indicator_revision_only_dfm_kalman_em,2024:Q3,-0.0010283988833787935,0.08122179292127554
exact,pre_second,DELTA_TS,bridge,indicator_revision_only_dfm_kalman_em,2024:Q4,-0.01013239336175351,0.07108939955952204
exact,pre_second,DELTA_TS,bridge,joint_indicator_revision_dfm_full_kalman_em,2024:Q1,0.027134903960684124,0.027134903960684124
exact,pre_second,DELTA_TS,bridge,joint_indicator_revision_dfm_full_kalman_em,2024:Q2,0.05563376413360718,0.08276866809429131
exact,pre_second,DELTA_TS,bridge,joint_indicator_revision_dfm_full_kalman_em,2024:Q3,-0.0008803729130906421,0.08188829518120067
exact,pre_second,DELTA_TS,bridge,joint_indicator_revision_dfm_full_kalman_em,2024:Q4,-0.009937072896782478,0.07195122228441819
exact,pre_second,DELTA_TS,bridge,midas_umidas,2024:Q1,-0.020138925913717305,-0.020138925913717305
exact,pre_second,DELTA_TS,bridge,midas_umidas,2024:Q2,0.056899362712064444,0.03676043679834714
exact,pre_second,DELTA_TS,bridge,midas_umidas,2024:Q3,-0.00028661703631165797,0.03647381976203548
exact,pre_second,DELTA_TS,bridge,midas_umidas,2024:Q4,-0.7574324720468644,-0.7209586522848289
exact,pre_second,DELTA_TS,bridge,monthly_mixed_frequency_kalman_em,2024:Q1,0.04794778870270041,0.04794778870270041
exact,pre_second,DELTA_TS,bridge,monthly_mixed_frequency_kalman_em,2024:Q2,0.05082285109839701,0.09877063980109742
exact,pre_second,DELTA_TS,bridge,monthly_mixed_frequency_kalman_em,2024:Q3,-0.020870325115086845,0.07790031468601058
exact,pre_second,DELTA_TS,bridge,monthly_mixed_frequency_kalman_em,2024:Q4,-0.0018196780135893791,0.0760806366724212
exact,pre_second,DELTA_TS,bridge,no_revision,2024:Q1,0.026626450460626207,0.026626450460626207
exact,pre_second,DELTA_TS,bridge,no_revision,2024:Q2,0.05562374134402812,0.08225019180465433
exact,pre_second,DELTA_TS,bridge,no_revision,2024:Q3,-0.0010283988833787935,0.08122179292127554
exact,pre_second,DELTA_TS,bridge,no_revision,2024:Q4,-0.01013239336175351,0.07108939955952204
exact,pre_second,DELTA_TS,bridge,release_dfm,2024:Q1,0.03995820438823931,0.03995820438823931
exact,pre_second,DELTA_TS,bridge,release_dfm,2024:Q2,0.05690548333481368,0.09686368772305298
exact,pre_second,DELTA_TS,bridge,release_dfm,2024:Q3,0.020986971656176745,0.11785065937922973
exact,pre_second,DELTA_TS,bridge,release_dfm,2024:Q4,-0.0021496313436218236,0.1157010280356079
exact,pre_second,DELTA_TS,bridge,revision_dfm_kalman_em,2024:Q1,0.02711596313341456,0.02711596313341456
exact,pre_second,DELTA_TS,bridge,revision_dfm_kalman_em,2024:Q2,0.05564681212154676,0.08276277525496133
exact,pre_second,DELTA_TS,bridge,revision_dfm_kalman_em,2024:Q3,-0.0008418498057795043,0.08192092544918182
exact,pre_second,DELTA_TS,bridge,revision_dfm_kalman_em,2024:Q4,-0.009932923941739695,0.07198800150744213
exact,pre_second,DELTA_TS,bridge,spf,2024:Q1,0.026626450460626207,0.026626450460626207
exact,pre_second,DELTA_TS,bridge,spf,2024:Q2,0.05562374134402812,0.08225019180465433
exact,pre_second,DELTA_TS,bridge,spf,2024:Q3,-0.0010283988833787935,0.08122179292127554
exact,pre_second,DELTA_TS,bridge,spf,2024:Q4,-0.01013239336175351,0.07108939955952204
exact,pre_second,DELTA_TS,bridge,standard_dfm,2024:Q1,0.042621737038746305,0.042621737038746305
exact,pre_second,DELTA_TS,bridge,standard_dfm,2024:Q2,0.05622605988963374,0.09884779692838004
exact,pre_second,DELTA_TS,bridge,standard_dfm,2024:Q3,0.026217068314334326,0.12506486524271437
exact,pre_second,DELTA_TS,bridge,standard_dfm,2024:Q4,-0.0006081257898544089,0.12445673945285997
exact,pre_second,DELTA_TS,midas_umidas,ar,2024:Q1,0.0652275098722603,0.0652275098722603
exact,pre_second,DELTA_TS,midas_umidas,ar,2024:Q2,-0.0014799650418325376,0.06374754483042776
exact,pre_second,DELTA_TS,midas_umidas,ar,2024:Q3,0.02735334704076973,0.09110089187119749
exact,pre_second,DELTA_TS,midas_umidas,ar,2024:Q4,0.7575861942660828,0.8486870861372803
exact,pre_second,DELTA_TS,midas_umidas,bridge,2024:Q1,0.020138925913717305,0.020138925913717305
exact,pre_second,DELTA_TS,midas_umidas,bridge,2024:Q2,-0.056899362712064444,-0.03676043679834714
exact,pre_second,DELTA_TS,midas_umidas,bridge,2024:Q3,0.00028661703631165797,-0.03647381976203548
exact,pre_second,DELTA_TS,midas_umidas,bridge,2024:Q4,0.7574324720468644,0.7209586522848289
exact,pre_second,DELTA_TS,midas_umidas,indicator_revision_only_dfm_kalman_em,2024:Q1,0.04676537637434351,0.04676537637434351
exact,pre_second,DELTA_TS,midas_umidas,indicator_revision_only_dfm_kalman_em,2024:Q2,-0.0012756213680363247,0.045489755006307184
exact,pre_second,DELTA_TS,midas_umidas,indicator_revision_only_dfm_kalman_em,2024:Q3,-0.0007417818470671356,0.04474797315924005
exact,pre_second,DELTA_TS,midas_umidas,indicator_revision_only_dfm_kalman_em,2024:Q4,0.7473000786851108,0.7920480518443509
exact,pre_second,DELTA_TS,midas_umidas,joint_indicator_revision_dfm_full_kalman_em,2024:Q1,0.04727382987440143,0.04727382987440143
exact,pre_second,DELTA_TS,midas_umidas,joint_indicator_revision_dfm_full_kalman_em,2024:Q2,-0.0012655985784572614,0.04600823129594417
exact,pre_second,DELTA_TS,midas_umidas,joint_indicator_revision_dfm_full_kalman_em,2024:Q3,-0.0005937558767789841,0.045414475419165184
exact,pre_second,DELTA_TS,midas_umidas,joint_indicator_revision_dfm_full_kalman_em,2024:Q4,0.7474953991500819,0.7929098745692471
exact,pre_second,DELTA_TS,midas_umidas,monthly_mixed_frequency_kalman_em,2024:Q1,0.06808671461641772,0.06808671461641772
exact,pre_second,DELTA_TS,midas_umidas,monthly_mixed_frequency_kalman_em,2024:Q2,-0.006076511613667441,0.06201020300275027
exact,pre_second,DELTA_TS,midas_umidas,monthly_mixed_frequency_kalman_em,2024:Q3,-0.020583708078775187,0.041426494923975085
exact,pre_second,DELTA_TS,midas_umidas,monthly_mixed_frequency_kalman_em,2024:Q4,0.755612794033275,0.7970392889572501
exact,pre_second,DELTA_TS,midas_umidas,no_revision,2024:Q1,0.04676537637434351,0.04676537637434351
exact,pre_second,DELTA_TS,midas_umidas,no_revision,2024:Q2,-0.0012756213680363247,0.045489755006307184
exact,pre_second,DELTA_TS,midas_umidas,no_revision,2024:Q3,-0.0007417818470671356,0.04474797315924005
exact,pre_second,DELTA_TS,midas_umidas,no_revision,2024:Q4,0.7473000786851108,0.7920480518443509
exact,pre_second,DELTA_TS,midas_umidas,release_dfm,2024:Q1,0.06009713030195662,0.06009713030195662
exact,pre_second,DELTA_TS,midas_umidas,release_dfm,2024:Q2,6.120622749231308e-06,0.06010325092470585
exact,pre_second,DELTA_TS,midas_umidas,release_dfm,2024:Q3,0.021273588692488403,0.08137683961719425
exact,pre_second,DELTA_TS,midas_umidas,release_dfm,2024:Q4,0.7552828407032426,0.8366596803204368
exact,pre_second,DELTA_TS,midas_umidas,revision_dfm_kalman_em,2024:Q1,0.04725488904713186,0.04725488904713186
exact,pre_second,DELTA_TS,midas_umidas,revision_dfm_kalman_em,2024:Q2,-0.0012525505905176802,0.04600233845661418
exact,pre_second,DELTA_TS,midas_umidas,revision_dfm_kalman_em,2024:Q3,-0.0005552327694678463,0.045447105687146334
exact,pre_second,DELTA_TS,midas_umidas,revision_dfm_kalman_em,2024:Q4,0.7474995481051246,0.792946653792271
exact,pre_second,DELTA_TS,midas_umidas,spf,2024:Q1,0.04676537637434351,0.04676537637434351
exact,pre_second,DELTA_TS,midas_umidas,spf,2024:Q2,-0.0012756213680363247,0.045489755006307184
exact,pre_second,DELTA_TS,midas_umidas,spf,2024:Q3,-0.0007417818470671356,0.04474797315924005
exact,pre_second,DELTA_TS,midas_umidas,spf,2024:Q4,0.7473000786851108,0.7920480518443509
exact,pre_second,DELTA_TS,midas_umidas,standard_dfm,2024:Q1,0.0627606629524636,0.0627606629524636
exact,pre_second,DELTA_TS,midas_umidas,standard_dfm,2024:Q2,-0.0006733028224307071,0.062087360130032895
exact,pre_second,DELTA_TS,midas_umidas,standard_dfm,2024:Q3,0.026503685350645984,0.08859104548067888
exact,pre_second,DELTA_TS,midas_umidas,standard_dfm,2024:Q4,0.75682434625701,0.8454153917376889
exact,pre_second,DELTA_TS,spf,ar,2024:Q1,0.018462133497916776,0.018462133497916776
exact,pre_second,DELTA_TS,spf,ar,2024:Q2,-0.0002043436737962131,0.018257789824120563
exact,pre_second,DELTA_TS,spf,ar,2024:Q3,0.028095128887836867,0.04635291871195743
exact,pre_second,DELTA_TS,spf,ar,2024:Q4,0.010286115580971903,0.05663903429292933
exact,pre_second,DELTA_TS,spf,bridge,2024:Q1,-0.026626450460626207,-0.026626450460626207
exact,pre_second,DELTA_TS,spf,bridge,2024:Q2,-0.05562374134402812,-0.08225019180465433
exact,pre_second,DELTA_TS,spf,bridge,2024:Q3,0.0010283988833787935,-0.08122179292127554
exact,pre_second,DELTA_TS,spf,bridge,2024:Q4,0.01013239336175351,-0.07108939955952204
exact,pre_second,DELTA_TS,spf,indicator_revision_only_dfm_kalman_em,2024:Q1,0.0,0.0
exact,pre_second,DELTA_TS,spf,indicator_revision_only_dfm_kalman_em,2024:Q2,0.0,0.0
exact,pre_second,DELTA_TS,spf,indicator_revision_only_dfm_kalman_em,2024:Q3,0.0,0.0
exact,pre_second,DELTA_TS,spf,indicator_revision_only_dfm_kalman_em,2024:Q4,0.0,0.0
exact,pre_second,DELTA_TS,spf,joint_indicator_revision_dfm_full_kalman_em,2024:Q1,0.0005084535000579177,0.0005084535000579177
exact,pre_second,DELTA_TS,spf,joint_indicator_revision_dfm_full_kalman_em,2024:Q2,1.0022789579063312e-05,0.000518476289636981
exact,pre_second,DELTA_TS,spf,joint_indicator_revision_dfm_full_kalman_em,2024:Q3,0.00014802597028815145,0.0006665022599251324
exact,pre_second,DELTA_TS,spf,joint_indicator_revision_dfm_full_kalman_em,2024:Q4,0.00019532046497103273,0.0008618227248961652
exact,pre_second,DELTA_TS,spf,midas_umidas,2024:Q1,-0.04676537637434351,-0.04676537637434351
exact,pre_second,DELTA_TS,spf,midas_umidas,2024:Q2,0.0012756213680363247,-0.045489755006307184
exact,pre_second,DELTA_TS,spf,midas_umidas,2024:Q3,0.0007417818470671356,-0.04474797315924005
exact,pre_second,DELTA_TS,spf,midas_umidas,2024:Q4,-0.7473000786851108,-0.7920480518443509
exact,pre_second,DELTA_TS,spf,monthly_mixed_frequency_kalman_em,2024:Q1,0.021321338242074203,0.021321338242074203
exact,pre_second,DELTA_TS,spf,monthly_mixed_frequency_kalman_em,2024:Q2,-0.0048008902456311165,0.01652044799644309
exact,pre_second,DELTA_TS,spf,monthly_mixed_frequency_kalman_em,2024:Q3,-0.01984192623170805,-0.003321478235264963
exact,pre_second,DELTA_TS,spf,monthly_mixed_frequency_kalman_em,2024:Q4,0.008312715348164131,0.004991237112899168
exact,pre_second,DELTA_TS,spf,no_revision,2024:Q1,0.0,0.0
exact,pre_second,DELTA_TS,spf,no_revision,2024:Q2,0.0,0.0
exact,pre_second,DELTA_TS,spf,no_revision,2024:Q3,0.0,0.0
exact,pre_second,DELTA_TS,spf,no_revision,2024:Q4,0.0,0.0
exact,pre_second,DELTA_TS,spf,release_dfm,2024:Q1,0.013331753927613106,0.013331753927613106
exact,pre_second,DELTA_TS,spf,release_dfm,2024:Q2,0.001281741990785556,0.014613495918398662
exact,pre_second,DELTA_TS,spf,release_dfm,2024:Q3,0.02201537053955554,0.0366288664579542
exact,pre_second,DELTA_TS,spf,release_dfm,2024:Q4,0.007982762018131686,0.044611628476085886
exact,pre_second,DELTA_TS,spf,revision_dfm_kalman_em,2024:Q1,0.0004895126727883538,0.0004895126727883538
exact,pre_second,DELTA_TS,spf,revision_dfm_kalman_em,2024:Q2,2.3070777518644338e-05,0.0005125834503069981
exact,pre_second,DELTA_TS,spf,revision_dfm_kalman_em,2024:Q3,0.00018654907759928924,0.0006991325279062874
exact,pre_second,DELTA_TS,spf,revision_dfm_kalman_em,2024:Q4,0.00019946942001381612,0.0008986019479201035
exact,pre_second,DELTA_TS,spf,standard_dfm,2024:Q1,0.015995286578120094,0.015995286578120094
exact,pre_second,DELTA_TS,spf,standard_dfm,2024:Q2,0.0006023185456056176,0.01659760512372571
exact,pre_second,DELTA_TS,spf,standard_dfm,2024:Q3,0.02724546719771312,0.04384307232143883
exact,pre_second,DELTA_TS,spf,standard_dfm,2024:Q4,0.009524267571899102,0.05336733989333793
exact,pre_second,DELTA_TS,standard_dfm,ar,2024:Q1,0.0024668469197966832,0.0024668469197966832
exact,pre_second,DELTA_TS,standard_dfm,ar,2024:Q2,-0.0008066622194018307,0.0016601847003948527
exact,pre_second,DELTA_TS,standard_dfm,ar,2024:Q3,0.0008496616901237479,0.0025098463905186006
exact,pre_second,DELTA_TS,standard_dfm,ar,2024:Q4,0.0007618480090728004,0.003271694399591401
exact,pre_second,DELTA_TS,standard_dfm,bridge,2024:Q1,-0.042621737038746305,-0.042621737038746305
exact,pre_second,DELTA_TS,standard_dfm,bridge,2024:Q2,-0.05622605988963374,-0.09884779692838004
exact,pre_second,DELTA_TS,standard_dfm,bridge,2024:Q3,-0.026217068314334326,-0.12506486524271437
exact,pre_second,DELTA_TS,standard_dfm,bridge,2024:Q4,0.0006081257898544089,-0.12445673945285997
exact,pre_second,DELTA_TS,standard_dfm,indicator_revision_only_dfm_kalman_em,2024:Q1,-0.015995286578120094,-0.015995286578120094
exact,pre_second,DELTA_TS,standard_dfm,indicator_revision_only_dfm_kalman_em,2024:Q2,-0.0006023185456056176,-0.01659760512372571
exact,pre_second,DELTA_TS,standard_dfm,indicator_revision_only_dfm_kalman_em,2024:Q3,-0.02724546719771312,-0.04384307232143883
exact,pre_second,DELTA_TS,standard_dfm,indicator_revision_only_dfm_kalman_em,2024:Q4,-0.009524267571899102,-0.05336733989333793
exact,pre_second,DELTA_TS,standard_dfm,joint_indicator_revision_dfm_full_kalman_em,2024:Q1,-0.015486833078062177,-0.015486833078062177
exact,pre_second,DELTA_TS,standard_dfm,joint_indicator_revision_dfm_full_kalman_em,2024:Q2,-0.0005922957560265542,-0.01607912883408873
exact,pre_second,DELTA_TS,standard_dfm,joint_indicator_revision_dfm_full_kalman_em,2024:Q3,-0.027097441227424968,-0.043176570061513694
exact,pre_second,DELTA_TS,standard_dfm,joint_indicator_revision_dfm_full_kalman_em,2024:Q4,-0.00932894710692807,-0.05250551716844176
exact,pre_second,DELTA_TS,standard_dfm,midas_umidas,2024:Q1,-0.0627606629524636,-0.0627606629524636
exact,pre_second,DELTA_TS,standard_dfm,midas_umidas,2024:Q2,0.0006733028224307071,-0.062087360130032895
exact,pre_second,DELTA_TS,standard_dfm,midas_umidas,2024:Q3,-0.026503685350645984,-0.08859104548067888
exact,pre_second,DELTA_TS,standard_dfm,midas_umidas,2024:Q4,-0.75682434625701,-0.8454153917376889
exact,pre_second,DELTA_TS,standard_dfm,monthly_mixed_frequency_kalman_em,2024:Q1,0.00532605166395411,0.00532605166395411
exact,pre_second,DELTA_TS,standard_dfm,monthly_mixed_frequency_kalman_em,2024:Q2,-0.005403208791236734,-7.715712728262412e-05
exact,pre_second,DELTA_TS,standard_dfm,monthly_mixed_frequency_kalman_em,2024:Q3,-0.04708739342942117,-0.047164550556703794
exact,pre_second,DELTA_TS,standard_dfm,monthly_mixed_frequency_kalman_em,2024:Q4,-0.0012115522237349703,-0.048376102780438766
exact,pre_second,DELTA_TS,standard_dfm,no_revision,2024:Q1,-0.015995286578120094,-0.015995286578120094
exact,pre_second,DELTA_TS,standard_dfm,no_revision,2024:Q2,-0.0006023185456056176,-0.01659760512372571
exact,pre_second,DELTA_TS,standard_dfm,no_revision,2024:Q3,-0.02724546719771312,-0.04384307232143883
exact,pre_second,DELTA_TS,standard_dfm,no_revision,2024:Q4,-0.009524267571899102,-0.05336733989333793
exact,pre_second,DELTA_TS,standard_dfm,release_dfm,2024:Q1,-0.0026635326505069883,-0.0026635326505069883
exact,pre_second,DELTA_TS,standard_dfm,release_dfm,2024:Q2,0.0006794234451799383,-0.00198410920532705
exact,pre_second,DELTA_TS,standard_dfm,release_dfm,2024:Q3,-0.005230096658157581,-0.007214205863484631
exact,pre_second,DELTA_TS,standard_dfm,release_dfm,2024:Q4,-0.0015415055537674148,-0.008755711417252045
exact,pre_second,DELTA_TS,standard_dfm,revision_dfm_kalman_em,2024:Q1,-0.01550577390533174,-0.01550577390533174
exact,pre_second,DELTA_TS,standard_dfm,revision_dfm_kalman_em,2024:Q2,-0.0005792477680869732,-0.016085021673418715
exact,pre_second,DELTA_TS,standard_dfm,revision_dfm_kalman_em,2024:Q3,-0.02705891812011383,-0.043143939793532544
exact,pre_second,DELTA_TS,standard_dfm,revision_dfm_kalman_em,2024:Q4,-0.009324798151885286,-0.05246873794541783
exact,pre_second,DELTA_TS,standard_dfm,spf,2024:Q1,-0.015995286578120094,-0.015995286578120094
exact,pre_second,DELTA_TS,standard_dfm,spf,2024:Q2,-0.0006023185456056176,-0.01659760512372571
exact,pre_second,DELTA_TS,standard_dfm,spf,2024:Q3,-0.02724546719771312,-0.04384307232143883
exact,pre_second,DELTA_TS,standard_dfm,spf,2024:Q4,-0.009524267571899102,-0.05336733989333793
exact,pre_second,DELTA_TS,release_dfm,ar,2024:Q1,0.0051303795703036715,0.0051303795703036715
exact,pre_second,DELTA_TS,release_dfm,ar,2024:Q2,-0.001486085664581769,0.0036442939057219027
exact,pre_second,DELTA_TS,release_dfm,ar,2024:Q3,0.0060797583482813285,0.009724052254003232
exact,pre_second,DELTA_TS,release_dfm,ar,2024:Q4,0.002303353562840215,0.012027405816843447
exact,pre_second,DELTA_TS,release_dfm,bridge,2024:Q1,-0.03995820438823931,-0.03995820438823931
exact,pre_second,DELTA_TS,release_dfm,bridge,2024:Q2,-0.05690548333481368,-0.09686368772305298
exact,pre_second,DELTA_TS,release_dfm,bridge,2024:Q3,-0.020986971656176745,-0.11785065937922973
exact,pre_second,DELTA_TS,release_dfm,bridge,2024:Q4,0.0021496313436218236,-0.1157010280356079
exact,pre_second,DELTA_TS,release_dfm,indicator_revision_only_dfm_kalman_em,2024:Q1,-0.013331753927613106,-0.013331753927613106
exact,pre_second,DELTA_TS,release_dfm,indicator_revision_only_dfm_kalman_em,2024:Q2,-0.001281741990785556,-0.014613495918398662
exact,pre_second,DELTA_TS,release_dfm,indicator_revision_only_dfm_kalman_em,2024:Q3,-0.02201537053955554,-0.0366288664579542
exact,pre_second,DELTA_TS,release_dfm,indicator_revision_only_dfm_kalman_em,2024:Q4,-0.007982762018131686,-0.044611628476085886
exact,pre_second,DELTA_TS,release_dfm,joint_indicator_revision_dfm_full_kalman_em,2024:Q1,-0.012823300427555188,-0.012823300427555188
exact,pre_second,DELTA_TS,release_dfm,joint_indicator_revision_dfm_full_kalman_em,2024:Q2,-0.0012717192012064926,-0.014095019628761682
exact,pre_second,DELTA_TS,release_dfm,joint_indicator_revision_dfm_full_kalman_em,2024:Q3,-0.021867344569267387,-0.03596236419802907
exact,pre_second,DELTA_TS,release_dfm,joint_indicator_revision_dfm_full_kalman_em,2024:Q4,-0.0077874415531606535,-0.043749805751189724
exact,pre_second,DELTA_TS,release_dfm,midas_umidas,2024:Q1,-0.06009713030195662,-0.06009713030195662
exact,pre_second,DELTA_TS,release_dfm,midas_umidas,2024:Q2,-6.120622749231308e-06,-0.06010325092470585
exact,pre_second,DELTA_TS,release_dfm,midas_umidas,2024:Q3,-0.021273588692488403,-0.08137683961719425
exact,pre_second,DELTA_TS,release_dfm,midas_umidas,2024:Q4,-0.7552828407032426,-0.8366596803204368
exact,pre_second,DELTA_TS,release_dfm,monthly_mixed_frequency_kalman_em,2024:Q1,0.007989584314461097,0.007989584314461097
exact,pre_second,DELTA_TS,release_dfm,monthly_mixed_frequency_kalman_em,2024:Q2,-0.006082632236416672,0.001906952078044425
exact,pre_second,DELTA_TS,release_dfm,monthly_mixed_frequency_kalman_em,2024:Q3,-0.04185729677126359,-0.03995034469321916
exact,pre_second,DELTA_TS,release_dfm,monthly_mixed_frequency_kalman_em,2024:Q4,0.00032995333003244453,-0.039620391363186715
exact,pre_second,DELTA_TS,release_dfm,no_revision,2024:Q1,-0.013331753927613106,-0.013331753927613106
exact,pre_second,DELTA_TS,release_dfm,no_revision,2024:Q2,-0.001281741990785556,-0.014613495918398662
exact,pre_second,DELTA_TS,release_dfm,no_revision,2024:Q3,-0.02201537053955554,-0.0366288664579542
exact,pre_second,DELTA_TS,release_dfm,no_revision,2024:Q4,-0.007982762018131686,-0.044611628476085886
exact,pre_second,DELTA_TS,release_dfm,revision_dfm_kalman_em,2024:Q1,-0.012842241254824752,-0.012842241254824752
exact,pre_second,DELTA_TS,release_dfm,revision_dfm_kalman_em,2024:Q2,-0.0012586712132669116,-0.014100912468091665
exact,pre_second,DELTA_TS,release_dfm,revision_dfm_kalman_em,2024:Q3,-0.02182882146195625,-0.03592973393004791
exact,pre_second,DELTA_TS,release_dfm,revision_dfm_kalman_em,2024:Q4,-0.00778329259811787,-0.043713026528165784
exact,pre_second,DELTA_TS,release_dfm,spf,2024:Q1,-0.013331753927613106,-0.013331753927613106
exact,pre_second,DELTA_TS,release_dfm,spf,2024:Q2,-0.001281741990785556,-0.014613495918398662
exact,pre_second,DELTA_TS,release_dfm,spf,2024:Q3,-0.02201537053955554,-0.0366288664579542
exact,pre_second,DELTA_TS,release_dfm,spf,2024:Q4,-0.007982762018131686,-0.044611628476085886
exact,pre_second,DELTA_TS,release_dfm,standard_dfm,2024:Q1,0.0026635326505069883,0.0026635326505069883
exact,pre_second,DELTA_TS,release_dfm,standard_dfm,2024:Q2,-0.0006794234451799383,0.00198410920532705
exact,pre_second,DELTA_TS,release_dfm,standard_dfm,2024:Q3,0.005230096658157581,0.007214205863484631
exact,pre_second,DELTA_TS,release_dfm,standard_dfm,2024:Q4,0.0015415055537674148,0.008755711417252045
exact,pre_third,DELTA_MT,ar,bridge,2024:Q1,0.1651125497409911,0.1651125497409911
exact,pre_third,DELTA_MT,ar,bridge,2024:Q2,-0.15607512412767835,0.00903742561331275
exact,pre_third,DELTA_MT,ar,bridge,2024:Q3,-0.0010959098341619066,0.007941515779150842
exact,pre_third,DELTA_MT,ar,bridge,2024:Q4,0.3443120613585847,0.3522535771377356
exact,pre_third,DELTA_MT,ar,indicator_revision_only_dfm_kalman_em,2024:Q1,0.3494184656292672,0.3494184656292672
exact,pre_third,DELTA_MT,ar,indicator_revision_only_dfm_kalman_em,2024:Q2,-0.32015692474829915,0.02926154088096805
exact,pre_third,DELTA_MT,ar,indicator_revision_only_dfm_kalman_em,2024:Q3,-0.071701877719381,-0.042440336838412945
exact,pre_third,DELTA_MT,ar,indicator_revision_only_dfm_kalman_em,2024:Q4,0.5153626623391176,0.4729223255007047
exact,pre_third,DELTA_MT,ar,joint_indicator_revision_dfm_full_kalman_em,2024:Q1,0.20502214353928733,0.20502214353928733
exact,pre_third,DELTA_MT,ar,joint_indicator_revision_dfm_full_kalman_em,2024:Q2,-0.2908890528959738,-0.08586690935668645
exact,pre_third,DELTA_MT,ar,joint_indicator_revision_dfm_full_kalman_em,2024:Q3,-0.05338467750481683,-0.1392515868615033
exact,pre_third,DELTA_MT,ar,joint_indicator_revision_dfm_full_kalman_em,2024:Q4,0.4132207757102479,0.2739691888487446
exact,pre_third,DELTA_MT,ar,midas_umidas,2024:Q1,-1.9164082086430483,-1.9164082086430483
exact,pre_third,DELTA_MT,ar,midas_umidas,2024:Q2,-0.9265096677998026,-2.8429178764428507
exact,pre_third,DELTA_MT,ar,midas_umidas,2024:Q3,-4.411056265868147,-7.253974142310998
exact,pre_third,DELTA_MT,ar,midas_umidas,2024:Q4,-34.46152982298783,-41.71550396529882
exact,pre_third,DELTA_MT,ar,monthly_mixed_frequency_kalman_em,2024:Q1,0.22202595682357107,0.22202595682357107
exact,pre_third,DELTA_MT,ar,monthly_mixed_frequency_kalman_em,2024:Q2,-0.372340815164925,-0.15031485834135394
exact,pre_third,DELTA_MT,ar,monthly_mixed_frequency_kalman_em,2024:Q3,-0.09232946083477844,-0.24264431917613238
exact,pre_third,DELTA_MT,ar,monthly_mixed_frequency_kalman_em,2024:Q4,0.4249479401027139,0.18230362092658153
exact,pre_third,DELTA_MT,ar,no_revision,2024:Q1,0.3494184656292672,0.3494184656292672
exact,pre_third,DELTA_MT,ar,no_revision,2024:Q2,-0.32015692474829915,0.02926154088096805
exact,pre_third,DELTA_MT,ar,no_revision,2024:Q3,-0.071701877719381,-0.042440336838412945
exact,pre_third,DELTA_MT,ar,no_revision,2024:Q4,0.5153626623391176,0.4729223255007047
exact,pre_third,DELTA_MT,ar,release_dfm,2024:Q1,-0.02062358088544569,-0.02062358088544569
exact,pre_third,DELTA_MT,ar,release_dfm,2024:Q2,-0.11454694625901807,-0.13517052714446376
exact,pre_third,DELTA_MT,ar,release_dfm,2024:Q3,-0.0100992168808627,-0.14526974402532647
exact,pre_third,DELTA_MT,ar,release_dfm,2024:Q4,0.05294935046113103,-0.09232039356419544
exact,pre_third,DELTA_MT,ar,revision_dfm_kalman_em,2024:Q1,0.20554847565139772,0.20554847565139772
exact,pre_third,DELTA_MT,ar,revision_dfm_kalman_em,2024:Q2,-0.2891342652742872,-0.08358578962288948
exact,pre_third,DELTA_MT,ar,revision_dfm_kalman_em,2024:Q3,-0.05314220113254162,-0.1367279907554311
exact,pre_third,DELTA_MT,ar,revision_dfm_kalman_em,2024:Q4,0.4037453951346676,0.2670174043792365
exact,pre_third,DELTA_MT,ar,spf,2024:Q1,0.3494184656292672,0.3494184656292672
exact,pre_third,DELTA_MT,ar,spf,2024:Q2,-0.32015692474829915,0.02926154088096805
exact,pre_third,DELTA_MT,ar,spf,2024:Q3,-0.071701877719381,-0.042440336838412945
exact,pre_third,DELTA_MT,ar,spf,2024:Q4,0.5153626623391176,0.4729223255007047
exact,pre_third,DELTA_MT,ar,standard_dfm,2024:Q1,-0.12895558175582877,-0.12895558175582877
exact,pre_third,DELTA_MT,ar,standard_dfm,2024:Q2,-0.03838066911004698,-0.16733625086587575
exact,pre_third,DELTA_MT,ar,standard_dfm,2024:Q3,-0.0025492977696162725,-0.16988554863549202
exact,pre_third,DELTA_MT,ar,standard_dfm,2024:Q4,0.03983778621670675,-0.13004776241878527
exact,pre_third,DELTA_MT,no_revision,ar,2024:Q1,-0.3494184656292672,-0.3494184656292672
exact,pre_third,DELTA_MT,no_revision,ar,2024:Q2,0.32015692474829915,-0.02926154088096805
exact,pre_third,DELTA_MT,no_revision,ar,2024:Q3,0.071701877719381,0.042440336838412945
exact,pre_third,DELTA_MT,no_revision,ar,2024:Q4,-0.5153626623391176,-0.4729223255007047
exact,pre_third,DELTA_MT,no_revision,bridge,2024:Q1,-0.1843059158882761,-0.1843059158882761
exact,pre_third,DELTA_MT,no_revision,bridge,2024:Q2,0.16408180062062083,-0.020224115267655274
exact,pre_third,DELTA_MT,no_revision,bridge,2024:Q3,0.0706059678852191,0.050381852617563824
exact,pre_third,DELTA_MT,no_revision,bridge,2024:Q4,-0.17105060098053293,-0.1206687483629691
exact,pre_third,DELTA_MT,no_revision,indicator_revision_only_dfm_kalman_em,2024:Q1,0.0,0.0
exact,pre_third,DELTA_MT,no_revision,indicator_revision_only_dfm_kalman_em,2024:Q2,0.0,0.0
exact,pre_third,DELTA_MT,no_revision,indicator_revision_only_dfm_kalman_em,2024:Q3,0.0,0.0
exact,pre_third,DELTA_MT,no_revision,indicator_revision_only_dfm_kalman_em,2024:Q4,0.0,0.0
exact,pre_third,DELTA_MT,no_revision,joint_indicator_revision_dfm_full_kalman_em,2024:Q1,-0.14439632208997988,-0.14439632208997988
exact,pre_third,DELTA_MT,no_revision,joint_indicator_revision_dfm_full_kalman_em,2024:Q2,0.029267871852325378,-0.1151284502376545
exact,pre_third,DELTA_MT,no_revision,joint_indicator_revision_dfm_full_kalman_em,2024:Q3,0.01831720021456417,-0.09681125002309032
exact,pre_third,DELTA_MT,no_revision,joint_indicator_revision_dfm_full_kalman_em,2024:Q4,-0.10214188662886975,-0.19895313665196007
exact,pre_third,DELTA_MT,no_revision,midas_umidas,2024:Q1,-2.2658266742723154,-2.2658266742723154
exact,pre_third,DELTA_MT,no_revision,midas_umidas,2024:Q2,-0.6063527430515034,-2.872179417323819
exact,pre_third,DELTA_MT,no_revision,midas_umidas,2024:Q3,-4.339354388148767,-7.211533805472586
exact,pre_third,DELTA_MT,no_revision,midas_umidas,2024:Q4,-34.97689248532695,-42.18842629079953
exact,pre_third,DELTA_MT,no_revision,monthly_mixed_frequency_kalman_em,2024:Q1,-0.12739250880569614,-0.12739250880569614
exact,pre_third,DELTA_MT,no_revision,monthly_mixed_frequency_kalman_em,2024:Q2,-0.052183890416625855,-0.179576399222322
exact,pre_third,DELTA_MT,no_revision,monthly_mixed_frequency_kalman_em,2024:Q3,-0.020627583115397446,-0.20020398233771944
exact,pre_third,DELTA_MT,no_revision,monthly_mixed_frequency_kalman_em,2024:Q4,-0.09041472223640373,-0.2906187045741232
exact,pre_third,DELTA_MT,no_revision,release_dfm,2024:Q1,-0.3700420465147129,-0.3700420465147129
exact,pre_third,DELTA_MT,no_revision,release_dfm,2024:Q2,0.20560997848928111,-0.16443206802543178
exact,pre_third,DELTA_MT,no_revision,release_dfm,2024:Q3,0.0616026608385183,-0.10282940718691348
exact,pre_third,DELTA_MT,no_revision,release_dfm,2024:Q4,-0.4624133118779866,-0.5652427190649001
exact,pre_third,DELTA_MT,no_revision,revision_dfm_kalman_em,2024:Q1,-0.14386998997786948,-0.14386998997786948
exact,pre_third,DELTA_MT,no_revision,revision_dfm_kalman_em,2024:Q2,0.031022659474012004,-0.11284733050385748
exact,pre_third,DELTA_MT,no_revision,revision_dfm_kalman_em,2024:Q3,0.018559676586839387,-0.0942876539170181
exact,pre_third,DELTA_MT,no_revision,revision_dfm_kalman_em,2024:Q4,-0.11161726720445003,-0.20590492112146813
exact,pre_third,DELTA_MT,no_revision,spf,2024:Q1,0.0,0.0
exact,pre_third,DELTA_MT,no_revision,spf,2024:Q2,0.0,0.0
exact,pre_third,DELTA_MT,no_revision,spf,2024:Q3,0.0,0.0
exact,pre_third,DELTA_MT,no_revision,spf,2024:Q4,0.0,0.0
exact,pre_third,DELTA_MT,no_revision,standard_dfm,2024:Q1,-0.478374047385096,-0.478374047385096
exact,pre_third,DELTA_MT,no_revision,standard_dfm,2024:Q2,0.2817762556382522,-0.19659779174684378
exact,pre_third,DELTA_MT,no_revision,standard_dfm,2024:Q3,0.06915257994976473,-0.12744521179707904
exact,pre_third,DELTA_MT,no_revision,standard_dfm,2024:Q4,-0.4755248761224109,-0.6029700879194899
exact,pre_third,DELTA_MT,bridge,ar,2024:Q1,-0.1651125497409911,-0.1651125497409911
exact,pre_third,DELTA_MT,bridge,ar,2024:Q2,0.15607512412767835,-0.00903742561331275
exact,pre_third,DELTA_MT,bridge,ar,2024:Q3,0.0010959098341619066,-0.007941515779150842
exact,pre_third,DELTA_MT,bridge,ar,2024:Q4,-0.3443120613585847,-0.3522535771377356
exact,pre_third,DELTA_MT,bridge,indicator_revision_only_dfm_kalman_em,2024:Q1,0.1843059158882761,0.1843059158882761
exact,pre_third,DELTA_MT,bridge,indicator_revision_only_dfm_kalman_em,2024:Q2,-0.16408180062062083,0.020224115267655274
exact,pre_third,DELTA_MT,bridge,indicator_revision_only_dfm_kalman_em,2024:Q3,-0.0706059678852191,-0.050381852617563824
exact,pre_third,DELTA_MT,bridge,indicator_revision_only_dfm_kalman_em,2024:Q4,0.17105060098053293,0.1206687483629691
exact,pre_third,DELTA_MT,bridge,joint_indicator_revision_dfm_full_kalman_em,2024:Q1,0.03990959379829623,0.03990959379829623
exact,pre_third,DELTA_MT,bridge,joint_indicator_revision_dfm_full_kalman_em,2024:Q2,-0.13481392876829545,-0.09490433496999923
exact,pre_third,DELTA_MT,bridge,joint_indicator_revision_dfm_full_kalman_em,2024:Q3,-0.05228876767065492,-0.14719310264065416
exact,pre_third,DELTA_MT,bridge,joint_indicator_revision_dfm_full_kalman_em,2024:Q4,0.06890871435166318,-0.07828438828899098
exact,pre_third,DELTA_MT,bridge,midas_umidas,2024:Q1,-2.0815207583840394,-2.0815207583840394
exact,pre_third,DELTA_MT,bridge,midas_umidas,2024:Q2,-0.7704345436721243,-2.8519553020561634
exact,pre_third,DELTA_MT,bridge,midas_umidas,2024:Q3,-4.409960356033985,-7.261915658090149
exact,pre_third,DELTA_MT,bridge,midas_umidas,2024:Q4,-34.805841884346414,-42.06775754243656
exact,pre_third,DELTA_MT,bridge,monthly_mixed_frequency_kalman_em,2024:Q1,0.05691340708257997,0.05691340708257997
exact,pre_third,DELTA_MT,bridge,monthly_mixed_frequency_kalman_em,2024:Q2,-0.2162656910372467,-0.15935228395466672
exact,pre_third,DELTA_MT,bridge,monthly_mixed_frequency_kalman_em,2024:Q3,-0.09123355100061654,-0.25058583495528325
exact,pre_third,DELTA_MT,bridge,monthly_mixed_frequency_kalman_em,2024:Q4,0.0806358787441292,-0.16994995621115405
exact,pre_third,DELTA_MT,bridge,no_revision,2024:Q1,0.1843059158882761,0.1843059158882761
exact,pre_third,DELTA_MT,bridge,no_revision,2024:Q2,-0.16408180062062083,0.020224115267655274
exact,pre_third,DELTA_MT,bridge,no_revision,2024:Q3,-0.0706059678852191,-0.050381852617563824
exact,pre_third,DELTA_MT,bridge,no_revision,2024:Q4,0.17105060098053293,0.1206687483629691
exact,pre_third,DELTA_MT,bridge,release_dfm,2024:Q1,-0.1857361306264368,-0.1857361306264368
exact,pre_third,DELTA_MT,bridge,release_dfm,2024:Q2,0.04152817786866028,-0.1442079527577765
exact,pre_third,DELTA_MT,bridge,release_dfm,2024:Q3,-0.009003307046700793,-0.1532112598044773
exact,pre_third,DELTA_MT,bridge,release_dfm,2024:Q4,-0.2913627108974537,-0.444573970701931
exact,pre_third,DELTA_MT,bridge,revision_dfm_kalman_em,2024:Q1,0.04043592591040662,0.04043592591040662
exact,pre_third,DELTA_MT,bridge,revision_dfm_kalman_em,2024:Q2,-0.13305914114660883,-0.0926232152362022
exact,pre_third,DELTA_MT,bridge,revision_dfm_kalman_em,2024:Q3,-0.052046291298379704,-0.1446695065345819
exact,pre_third,DELTA_MT,bridge,revision_dfm_kalman_em,2024:Q4,0.0594333337760829,-0.08523617275849901
exact,pre_third,DELTA_MT,bridge,spf,2024:Q1,0.1843059158882761,0.1843059158882761
exact,pre_third,DELTA_MT,bridge,spf,2024:Q2,-0.16408180062062083,0.020224115267655274
exact,pre_third,DELTA_MT,bridge,spf,2024:Q3,-0.0706059678852191,-0.050381852617563824
exact,pre_third,DELTA_MT,bridge,spf,2024:Q4,0.17105060098053293,0.1206687483629691
exact,pre_third,DELTA_MT,bridge,standard_dfm,2024:Q1,-0.2940681314968199,-0.2940681314968199
exact,pre_third,DELTA_MT,bridge,standard_dfm,2024:Q2,0.11769445501763137,-0.1763736764791885
exact,pre_third,DELTA_MT,bridge,standard_dfm,2024:Q3,-0.001453387935454366,-0.17782706441464285
exact,pre_third,DELTA_MT,bridge,standard_dfm,2024:Q4,-0.30447427514187797,-0.4823013395565208
exact,pre_third,DELTA_MT,midas_umidas,ar,2024:Q1,1.9164082086430483,1.9164082086430483
exact,pre_third,DELTA_MT,midas_umidas,ar,2024:Q2,0.9265096677998026,2.8429178764428507
exact,pre_third,DELTA_MT,midas_umidas,ar,2024:Q3,4.411056265868147,7.253974142310998
exact,pre_third,DELTA_MT,midas_umidas,ar,2024:Q4,34.46152982298783,41.71550396529882
exact,pre_third,DELTA_MT,midas_umidas,bridge,2024:Q1,2.0815207583840394,2.0815207583840394
exact,pre_third,DELTA_MT,midas_umidas,bridge,2024:Q2,0.7704345436721243,2.8519553020561634
exact,pre_third,DELTA_MT,midas_umidas,bridge,2024:Q3,4.409960356033985,7.261915658090149
exact,pre_third,DELTA_MT,midas_umidas,bridge,2024:Q4,34.805841884346414,42.06775754243656
exact,pre_third,DELTA_MT,midas_umidas,indicator_revision_only_dfm_kalman_em,2024:Q1,2.2658266742723154,2.2658266742723154
exact,pre_third,DELTA_MT,midas_umidas,indicator_revision_only_dfm_kalman_em,2024:Q2,0.6063527430515034,2.872179417323819
exact,pre_third,DELTA_MT,midas_umidas,indicator_revision_only_dfm_kalman_em,2024:Q3,4.339354388148767,7.211533805472586
exact,pre_third,DELTA_MT,midas_umidas,indicator_revision_only_dfm_kalman_em,2024:Q4,34.97689248532695,42.18842629079953
exact,pre_third,DELTA_MT,midas_umidas,joint_indicator_revision_dfm_full_kalman_em,2024:Q1,2.1214303521823354,2.1214303521823354
exact,pre_third,DELTA_MT,midas_umidas,joint_indicator_revision_dfm_full_kalman_em,2024:Q2,0.6356206149038288,2.7570509670861645
exact,pre_third,DELTA_MT,midas_umidas,joint_indicator_revision_dfm_full_kalman_em,2024:Q3,4.35767158836333,7.114722555449495
exact,pre_third,DELTA_MT,midas_umidas,joint_indicator_revision_dfm_full_kalman_em,2024:Q4,34.87475059869808,41.989473154147575
exact,pre_third,DELTA_MT,midas_umidas,monthly_mixed_frequency_kalman_em,2024:Q1,2.1384341654666192,2.1384341654666192
exact,pre_third,DELTA_MT,midas_umidas,monthly_mixed_frequency_kalman_em,2024:Q2,0.5541688526348776,2.692603018101497
exact,pre_third,DELTA_MT,midas_umidas,monthly_mixed_frequency_kalman_em,2024:Q3,4.318726805033369,7.011329823134865
exact,pre_third,DELTA_MT,midas_umidas,monthly_mixed_frequency_kalman_em,2024:Q4,34.88647776309055,41.89780758622541
exact,pre_third,DELTA_MT,midas_umidas,no_revision,2024:Q1,2.2658266742723154,2.2658266742723154
exact,pre_third,DELTA_MT,midas_umidas,no_revision,2024:Q2,0.6063527430515034,2.872179417323819
exact,pre_third,DELTA_MT,midas_umidas,no_revision,2024:Q3,4.339354388148767,7.211533805472586
exact,pre_third,DELTA_MT,midas_umidas,no_revision,2024:Q4,34.97689248532695,42.18842629079953
exact,pre_third,DELTA_MT,midas_umidas,release_dfm,2024:Q1,1.8957846277576025,1.8957846277576025
exact,pre_third,DELTA_MT,midas_umidas,release_dfm,2024:Q2,0.8119627215407845,2.707747349298387
exact,pre_third,DELTA_MT,midas_umidas,release_dfm,2024:Q3,4.4009570489872845,7.1087043982856715
exact,pre_third,DELTA_MT,midas_umidas,release_dfm,2024:Q4,34.51447917344896,41.623183571734636
exact,pre_third,DELTA_MT,midas_umidas,revision_dfm_kalman_em,2024:Q1,2.121956684294446,2.121956684294446
exact,pre_third,DELTA_MT,midas_umidas,revision_dfm_kalman_em,2024:Q2,0.6373754025255154,2.7593320868199616
exact,pre_third,DELTA_MT,midas_umidas,revision_dfm_kalman_em,2024:Q3,4.357914064735605,7.117246151555567
exact,pre_third,DELTA_MT,midas_umidas,revision_dfm_kalman_em,2024:Q4,34.8652752181225,41.98252136967807
exact,pre_third,DELTA_MT,midas_umidas,spf,2024:Q1,2.2658266742723154,2.2658266742723154
exact,pre_third,DELTA_MT,midas_umidas,spf,2024:Q2,0.6063527430515034,2.872179417323819
exact,pre_third,DELTA_MT,midas_umidas,spf,2024:Q3,4.339354388148767,7.211533805472586
exact,pre_third,DELTA_MT,midas_umidas,spf,2024:Q4,34.97689248532695,42.18842629079953
exact,pre_third,DELTA_MT,midas_umidas,standard_dfm,2024:Q1,1.7874526268872195,1.7874526268872195
exact,pre_third,DELTA_MT,midas_umidas,standard_dfm,2024:Q2,0.8881289986897556,2.6755816255769753
exact,pre_third,DELTA_MT,midas_umidas,standard_dfm,2024:Q3,4.408506968098531,7.0840885936755065
exact,pre_third,DELTA_MT,midas_umidas,standard_dfm,2024:Q4,34.501367609204536,41.58545620288004
exact,pre_third,DELTA_MT,spf,ar,2024:Q1,-0.3494184656292672,-0.3494184656292672
exact,pre_third,DELTA_MT,spf,ar,2024:Q2,0.32015692474829915,-0.02926154088096805
exact,pre_third,DELTA_MT,spf,ar,2024:Q3,0.071701877719381,0.042440336838412945
exact,pre_third,DELTA_MT,spf,ar,2024:Q4,-0.5153626623391176,-0.4729223255007047
exact,pre_third,DELTA_MT,spf,bridge,2024:Q1,-0.1843059158882761,-0.1843059158882761
exact,pre_third,DELTA_MT,spf,bridge,2024:Q2,0.16408180062062083,-0.020224115267655274
exact,pre_third,DELTA_MT,spf,bridge,2024:Q3,0.0706059678852191,0.050381852617563824
exact,pre_third,DELTA_MT,spf,bridge,2024:Q4,-0.17105060098053293,-0.1206687483629691
exact,pre_third,DELTA_MT,spf,indicator_revision_only_dfm_kalman_em,2024:Q1,0.0,0.0
exact,pre_third,DELTA_MT,spf,indicator_revision_only_dfm_kalman_em,2024:Q2,0.0,0.0
exact,pre_third,DELTA_MT,spf,indicator_revision_only_dfm_kalman_em,2024:Q3,0.0,0.0
exact,pre_third,DELTA_MT,spf,indicator_revision_only_dfm_kalman_em,2024:Q4,0.0,0.0
exact,pre_third,DELTA_MT,spf,joint_indicator_revision_dfm_full_kalman_em,2024:Q1,-0.14439632208997988,-0.14439632208997988
exact,pre_third,DELTA_MT,spf,joint_indicator_revision_dfm_full_kalman_em,2024:Q2,0.029267871852325378,-0.1151284502376545
exact,pre_third,DELTA_MT,spf,joint_indicator_revision_dfm_full_kalman_em,2024:Q3,0.01831720021456417,-0.09681125002309032
exact,pre_third,DELTA_MT,spf,joint_indicator_revision_dfm_full_kalman_em,2024:Q4,-0.10214188662886975,-0.19895313665196007
exact,pre_third,DELTA_MT,spf,midas_umidas,2024:Q1,-2.2658266742723154,-2.2658266742723154
exact,pre_third,DELTA_MT,spf,midas_umidas,2024:Q2,-0.6063527430515034,-2.872179417323819
exact,pre_third,DELTA_MT,spf,midas_umidas,2024:Q3,-4.339354388148767,-7.211533805472586
exact,pre_third,DELTA_MT,spf,midas_umidas,2024:Q4,-34.97689248532695,-42.18842629079953
exact,pre_third,DELTA_MT,spf,monthly_mixed_frequency_kalman_em,2024:Q1,-0.12739250880569614,-0.12739250880569614
exact,pre_third,DELTA_MT,spf,monthly_mixed_frequency_kalman_em,2024:Q2,-0.052183890416625855,-0.179576399222322
exact,pre_third,DELTA_MT,spf,monthly_mixed_frequency_kalman_em,2024:Q3,-0.020627583115397446,-0.20020398233771944
exact,pre_third,DELTA_MT,spf,monthly_mixed_frequency_kalman_em,2024:Q4,-0.09041472223640373,-0.2906187045741232
exact,pre_third,DELTA_MT,spf,no_revision,2024:Q1,0.0,0.0
exact,pre_third,DELTA_MT,spf,no_revision,2024:Q2,0.0,0.0
exact,pre_third,DELTA_MT,spf,no_revision,2024:Q3,0.0,0.0
exact,pre_third,DELTA_MT,spf,no_revision,2024:Q4,0.0,0.0
exact,pre_third,DELTA_MT,spf,release_dfm,2024:Q1,-0.3700420465147129,-0.3700420465147129
exact,pre_third,DELTA_MT,spf,release_dfm,2024:Q2,0.20560997848928111,-0.16443206802543178
exact,pre_third,DELTA_MT,spf,release_dfm,2024:Q3,0.0616026608385183,-0.10282940718691348
exact,pre_third,DELTA_MT,spf,release_dfm,2024:Q4,-0.4624133118779866,-0.5652427190649001
exact,pre_third,DELTA_MT,spf,revision_dfm_kalman_em,2024:Q1,-0.14386998997786948,-0.14386998997786948
exact,pre_third,DELTA_MT,spf,revision_dfm_kalman_em,2024:Q2,0.031022659474012004,-0.11284733050385748
exact,pre_third,DELTA_MT,spf,revision_dfm_kalman_em,2024:Q3,0.018559676586839387,-0.0942876539170181
exact,pre_third,DELTA_MT,spf,revision_dfm_kalman_em,2024:Q4,-0.11161726720445003,-0.20590492112146813
exact,pre_third,DELTA_MT,spf,standard_dfm,2024:Q1,-0.478374047385096,-0.478374047385096
exact,pre_third,DELTA_MT,spf,standard_dfm,2024:Q2,0.2817762556382522,-0.19659779174684378
exact,pre_third,DELTA_MT,spf,standard_dfm,2024:Q3,0.06915257994976473,-0.12744521179707904
exact,pre_third,DELTA_MT,spf,standard_dfm,2024:Q4,-0.4755248761224109,-0.6029700879194899
exact,pre_third,DELTA_MT,standard_dfm,ar,2024:Q1,0.12895558175582877,0.12895558175582877
exact,pre_third,DELTA_MT,standard_dfm,ar,2024:Q2,0.03838066911004698,0.16733625086587575
exact,pre_third,DELTA_MT,standard_dfm,ar,2024:Q3,0.0025492977696162725,0.16988554863549202
exact,pre_third,DELTA_MT,standard_dfm,ar,2024:Q4,-0.03983778621670675,0.13004776241878527
exact,pre_third,DELTA_MT,standard_dfm,bridge,2024:Q1,0.2940681314968199,0.2940681314968199
exact,pre_third,DELTA_MT,standard_dfm,bridge,2024:Q2,-0.11769445501763137,0.1763736764791885
exact,pre_third,DELTA_MT,standard_dfm,bridge,2024:Q3,0.001453387935454366,0.17782706441464285
exact,pre_third,DELTA_MT,standard_dfm,bridge,2024:Q4,0.30447427514187797,0.4823013395565208
exact,pre_third,DELTA_MT,standard_dfm,indicator_revision_only_dfm_kalman_em,2024:Q1,0.478374047385096,0.478374047385096
exact,pre_third,DELTA_MT,standard_dfm,indicator_revision_only_dfm_kalman_em,2024:Q2,-0.2817762556382522,0.19659779174684378
exact,pre_third,DELTA_MT,standard_dfm,indicator_revision_only_dfm_kalman_em,2024:Q3,-0.06915257994976473,0.12744521179707904
exact,pre_third,DELTA_MT,standard_dfm,indicator_revision_only_dfm_kalman_em,2024:Q4,0.4755248761224109,0.6029700879194899
exact,pre_third,DELTA_MT,standard_dfm,joint_indicator_revision_dfm_full_kalman_em,2024:Q1,0.3339777252951161,0.3339777252951161
exact,pre_third,DELTA_MT,standard_dfm,joint_indicator_revision_dfm_full_kalman_em,2024:Q2,-0.2525083837859268,0.08146934150918927
exact,pre_third,DELTA_MT,standard_dfm,joint_indicator_revision_dfm_full_kalman_em,2024:Q3,-0.05083537973520055,0.03063396177398872
exact,pre_third,DELTA_MT,standard_dfm,joint_indicator_revision_dfm_full_kalman_em,2024:Q4,0.37338298949354115,0.4040169512675299
exact,pre_third,DELTA_MT,standard_dfm,midas_umidas,2024:Q1,-1.7874526268872195,-1.7874526268872195
exact,pre_third,DELTA_MT,standard_dfm,midas_umidas,2024:Q2,-0.8881289986897556,-2.6755816255769753
exact,pre_third,DELTA_MT,standard_dfm,midas_umidas,2024:Q3,-4.408506968098531,-7.0840885936755065
exact,pre_third,DELTA_MT,standard_dfm,midas_umidas,2024:Q4,-34.501367609204536,-41.58545620288004
exact,pre_third,DELTA_MT,standard_dfm,monthly_mixed_frequency_kalman_em,2024:Q1,0.35098153857939984,0.35098153857939984
exact,pre_third,DELTA_MT,standard_dfm,monthly_mixed_frequency_kalman_em,2024:Q2,-0.33396014605487806,0.017021392524521783
exact,pre_third,DELTA_MT,standard_dfm,monthly_mixed_frequency_kalman_em,2024:Q3,-0.08978016306516218,-0.0727587705406404
exact,pre_third,DELTA_MT,standard_dfm,monthly_mixed_frequency_kalman_em,2024:Q4,0.38511015388600717,0.3123513833453668
exact,pre_third,DELTA_MT,standard_dfm,no_revision,2024:Q1,0.478374047385096,0.478374047385096
exact,pre_third,DELTA_MT,standard_dfm,no_revision,2024:Q2,-0.2817762556382522,0.19659779174684378
exact,pre_third,DELTA_MT,standard_dfm,no_revision,2024:Q3,-0.06915257994976473,0.12744521179707904
exact,pre_third,DELTA_MT,standard_dfm,no_revision,2024:Q4,0.4755248761224109,0.6029700879194899
exact,pre_third,DELTA_MT,standard_dfm,release_dfm,2024:Q1,0.10833200087038308,0.10833200087038308
exact,pre_third,DELTA_MT,standard_dfm,release_dfm,2024:Q2,-0.07616627714897109,0.03216572372141199
exact,pre_third,DELTA_MT,standard_dfm,release_dfm,2024:Q3,-0.007549919111246427,0.024615804610165565
exact,pre_third,DELTA_MT,standard_dfm,release_dfm,2024:Q4,0.013111564244424279,0.03772736885458984
exact,pre_third,DELTA_MT,standard_dfm,revision_dfm_kalman_em,2024:Q1,0.3345040574072265,0.3345040574072265
exact,pre_third,DELTA_MT,standard_dfm,revision_dfm_kalman_em,2024:Q2,-0.2507535961642402,0.0837504612429863
exact,pre_third,DELTA_MT,standard_dfm,revision_dfm_kalman_em,2024:Q3,-0.05059290336292534,0.03315755788006096
exact,pre_third,DELTA_MT,standard_dfm,revision_dfm_kalman_em,2024:Q4,0.36390760891796087,0.39706516679802184
exact,pre_third,DELTA_MT,standard_dfm,spf,2024:Q1,0.478374047385096,0.478374047385096
exact,pre_third,DELTA_MT,standard_dfm,spf,2024:Q2,-0.2817762556382522,0.19659779174684378
exact,pre_third,DELTA_MT,standard_dfm,spf,2024:Q3,-0.06915257994976473,0.12744521179707904
exact,pre_third,DELTA_MT,standard_dfm,spf,2024:Q4,0.4755248761224109,0.6029700879194899
exact,pre_third,DELTA_MT,release_dfm,ar,2024:Q1,0.02062358088544569,0.02062358088544569
exact,pre_third,DELTA_MT,release_dfm,ar,2024:Q2,0.11454694625901807,0.13517052714446376
exact,pre_third,DELTA_MT,release_dfm,ar,2024:Q3,0.0100992168808627,0.14526974402532647
exact,pre_third,DELTA_MT,release_dfm,ar,2024:Q4,-0.05294935046113103,0.09232039356419544
exact,pre_third,DELTA_MT,release_dfm,bridge,2024:Q1,0.1857361306264368,0.1857361306264368
exact,pre_third,DELTA_MT,release_dfm,bridge,2024:Q2,-0.04152817786866028,0.1442079527577765
exact,pre_third,DELTA_MT,release_dfm,bridge,2024:Q3,0.009003307046700793,0.1532112598044773
exact,pre_third,DELTA_MT,release_dfm,bridge,2024:Q4,0.2913627108974537,0.444573970701931
exact,pre_third,DELTA_MT,release_dfm,indicator_revision_only_dfm_kalman_em,2024:Q1,0.3700420465147129,0.3700420465147129
exact,pre_third,DELTA_MT,release_dfm,indicator_revision_only_dfm_kalman_em,2024:Q2,-0.20560997848928111,0.16443206802543178
exact,pre_third,DELTA_MT,release_dfm,indicator_revision_only_dfm_kalman_em,2024:Q3,-0.0616026608385183,0.10282940718691348
exact,pre_third,DELTA_MT,release_dfm,indicator_revision_only_dfm_kalman_em,2024:Q4,0.4624133118779866,0.5652427190649001
exact,pre_third,DELTA_MT,release_dfm,joint_indicator_revision_dfm_full_kalman_em,2024:Q1,0.22564572442473302,0.22564572442473302
exact,pre_third,DELTA_MT,release_dfm,joint_indicator_revision_dfm_full_kalman_em,2024:Q2,-0.17634210663695574,0.04930361778777728
exact,pre_third,DELTA_MT,release_dfm,joint_indicator_revision_dfm_full_kalman_em,2024:Q3,-0.04328546062395413,0.006018157163823153
exact,pre_third,DELTA_MT,release_dfm,joint_indicator_revision_dfm_full_kalman_em,2024:Q4,0.3602714252491169,0.36628958241294
exact,pre_third,DELTA_MT,release_dfm,midas_umidas,2024:Q1,-1.8957846277576025,-1.8957846277576025
exact,pre_third,DELTA_MT,release_dfm,midas_umidas,2024:Q2,-0.8119627215407845,-2.707747349298387
exact,pre_third,DELTA_MT,release_dfm,midas_umidas,2024:Q3,-4.4009570489872845,-7.1087043982856715
exact,pre_third,DELTA_MT,release_dfm,midas_umidas,2024:Q4,-34.51447917344896,-41.623183571734636
exact,pre_third,DELTA_MT,release_dfm,monthly_mixed_frequency_kalman_em,2024:Q1,0.24264953770901676,0.24264953770901676
exact,pre_third,DELTA_MT,release_dfm,monthly_mixed_frequency_kalman_em,2024:Q2,-0.25779386890590694,-0.015144331196890182
exact,pre_third,DELTA_MT,release_dfm,monthly_mixed_frequency_kalman_em,2024:Q3,-0.08223024395391575,-0.09737457515080593
exact,pre_third,DELTA_MT,release_dfm,monthly_mixed_frequency_kalman_em,2024:Q4,0.3719985896415829,0.27462401449077695
exact,pre_third,DELTA_MT,release_dfm,no_revision,2024:Q1,0.3700420465147129,0.3700420465147129
exact,pre_third,DELTA_MT,release_dfm,no_revision,2024:Q2,-0.20560997848928111,0.16443206802543178
exact,pre_third,DELTA_MT,release_dfm,no_revision,2024:Q3,-0.0616026608385183,0.10282940718691348
exact,pre_third,DELTA_MT,release_dfm,no_revision,2024:Q4,0.4624133118779866,0.5652427190649001
exact,pre_third,DELTA_MT,release_dfm,revision_dfm_kalman_em,2024:Q1,0.2261720565368434,0.2261720565368434
exact,pre_third,DELTA_MT,release_dfm,revision_dfm_kalman_em,2024:Q2,-0.1745873190152691,0.0515847375215743
exact,pre_third,DELTA_MT,release_dfm,revision_dfm_kalman_em,2024:Q3,-0.04304298425167891,0.00854175326989539
exact,pre_third,DELTA_MT,release_dfm,revision_dfm_kalman_em,2024:Q4,0.3507960446735366,0.35933779794343196
exact,pre_third,DELTA_MT,release_dfm,spf,2024:Q1,0.3700420465147129,0.3700420465147129
exact,pre_third,DELTA_MT,release_dfm,spf,2024:Q2,-0.20560997848928111,0.16443206802543178
exact,pre_third,DELTA_MT,release_dfm,spf,2024:Q3,-0.0616026608385183,0.10282940718691348
exact,pre_third,DELTA_MT,release_dfm,spf,2024:Q4,0.4624133118779866,0.5652427190649001
exact,pre_third,DELTA_MT,release_dfm,standard_dfm,2024:Q1,-0.10833200087038308,-0.10833200087038308
exact,pre_third,DELTA_MT,release_dfm,standard_dfm,2024:Q2,0.07616627714897109,-0.03216572372141199
exact,pre_third,DELTA_MT,release_dfm,standard_dfm,2024:Q3,0.007549919111246427,-0.024615804610165565
exact,pre_third,DELTA_MT,release_dfm,standard_dfm,2024:Q4,-0.013111564244424279,-0.03772736885458984
pseudo,pre_advance,DELTA_SA,ar,bridge,2024:Q1,0.08483666595244525,0.08483666595244525
pseudo,pre_advance,DELTA_SA,ar,bridge,2024:Q2,-0.05427654395419505,0.0305601219982502
pseudo,pre_advance,DELTA_SA,ar,bridge,2024:Q3,0.002237871350112824,0.03279799334836302
pseudo,pre_advance,DELTA_SA,ar,bridge,2024:Q4,-0.00023957724300643142,0.03255841610535659
pseudo,pre_advance,DELTA_SA,ar,indicator_revision_only_dfm_kalman_em,2024:Q1,0.07155817897030346,0.07155817897030346
pseudo,pre_advance,DELTA_SA,ar,indicator_revision_only_dfm_kalman_em,2024:Q2,-0.009033581491366181,0.06252459747893728
pseudo,pre_advance,DELTA_SA,ar,indicator_revision_only_dfm_kalman_em,2024:Q3,0.00727617350536104,0.06980077098429832
pseudo,pre_advance,DELTA_SA,ar,indicator_revision_only_dfm_kalman_em,2024:Q4,-0.008788760628669104,0.06101201035562922
pseudo,pre_advance,DELTA_SA,ar,joint_indicator_revision_dfm_full_kalman_em,2024:Q1,-0.13640421576140466,-0.13640421576140466
pseudo,pre_advance,DELTA_SA,ar,joint_indicator_revision_dfm_full_kalman_em,2024:Q2,-0.0062398717461506995,-0.14264408750755536
pseudo,pre_advance,DELTA_SA,ar,joint_indicator_revision_dfm_full_kalman_em,2024:Q3,-0.03382029101646681,-0.17646437852402216
pseudo,pre_advance,DELTA_SA,ar,joint_indicator_revision_dfm_full_kalman_em,2024:Q4,-0.0033381907115533674,-0.17980256923557553
pseudo,pre_advance,DELTA_SA,ar,midas_umidas,2024:Q1,0.18690612493005285,0.18690612493005285
pseudo,pre_advance,DELTA_SA,ar,midas_umidas,2024:Q2,0.0021276311396385833,0.18903375606969142
pseudo,pre_advance,DELTA_SA,ar,midas_umidas,2024:Q3,-0.19885316012832618,-0.009819404058634768
pseudo,pre_advance,DELTA_SA,ar,midas_umidas,2024:Q4,-1.646237413060059,-1.6560568171186938
pseudo,pre_advance,DELTA_SA,ar,monthly_mixed_frequency_kalman_em,2024:Q1,-0.03458109649188673,-0.03458109649188673
pseudo,pre_advance,DELTA_SA,ar,monthly_mixed_frequency_kalman_em,2024:Q2,-0.00034779221552788935,-0.03492888870741462
pseudo,pre_advance,DELTA_SA,ar,monthly_mixed_frequency_kalman_em,2024:Q3,0.005228201780987643,-0.029700686926426974
pseudo,pre_advance,DELTA_SA,ar,monthly_mixed_frequency_kalman_em,2024:Q4,-6.585866747170339e-06,-0.029707272793174144
pseudo,pre_advance,DELTA_SA,ar,no_revision,2024:Q1,0.07155817897030346,0.07155817897030346
pseudo,pre_advance,DELTA_SA,ar,no_revision,2024:Q2,-0.009033581491366181,0.06252459747893728
pseudo,pre_advance,DELTA_SA,ar,no_revision,2024:Q3,0.00727617350536104,0.06980077098429832
pseudo,pre_advance,DELTA_SA,ar,no_revision,2024:Q4,-0.008788760628669104,0.06101201035562922
pseudo,pre_advance,DELTA_SA,ar,release_dfm,2024:Q1,-0.001782589561202086,-0.001782589561202086
pseudo,pre_advance,DELTA_SA,ar,release_dfm,2024:Q2,0.0030086460827121538,0.0012260565215100679
pseudo,pre_advance,DELTA_SA,ar,release_dfm,2024:Q3,0.0003456828551621832,0.001571739376672251
pseudo,pre_advance,DELTA_SA,ar,release_dfm,2024:Q4,2.563535762145349e-05,0.0015973747342937045
pseudo,pre_advance,DELTA_SA,ar,revision_dfm_kalman_em,2024:Q1,-0.1452410749468785,-0.1452410749468785
pseudo,pre_advance,DELTA_SA,ar,revision_dfm_kalman_em,2024:Q2,-0.01538625974293675,-0.16062733468981524
pseudo,pre_advance,DELTA_SA,ar,revision_dfm_kalman_em,2024:Q3,-0.037282726128849704,-0.19791006081866494
pseudo,pre_advance,DELTA_SA,ar,revision_dfm_kalman_em,2024:Q4,-0.007136708198067313,-0.20504676901673224
pseudo,pre_advance,DELTA_SA,ar,spf,2024:Q1,0.07155817897030346,0.07155817897030346
pseudo,pre_advance,DELTA_SA,ar,spf,2024:Q2,-0.009033581491366181,0.06252459747893728
pseudo,pre_advance,DELTA_SA,ar,spf,2024:Q3,0.00727617350536104,0.06980077098429832
pseudo,pre_advance,DELTA_SA,ar,spf,2024:Q4,-0.008788760628669104,0.06101201035562922
pseudo,pre_advance,DELTA_SA,ar,standard_dfm,2024:Q1,-0.001782589561202086,-0.001782589561202086
pseudo,pre_advance,DELTA_SA,ar,standard_dfm,2024:Q2,0.0030086460827121538,0.0012260565215100679
pseudo,pre_advance,DELTA_SA,ar,standard_dfm,2024:Q3,0.0003456828551621832,0.001571739376672251
pseudo,pre_advance,DELTA_SA,ar,standard_dfm,2024:Q4,2.563535762145349e-05,0.0015973747342937045
pseudo,pre_advance,DELTA_SA,no_revision,ar,2024:Q1,-0.07155817897030346,-0.07155817897030346
pseudo,pre_advance,DELTA_SA,no_revision,ar,2024:Q2,0.009033581491366181,-0.06252459747893728
pseudo,pre_advance,DELTA_SA,no_revision,ar,2024:Q3,-0.00727617350536104,-0.06980077098429832
pseudo,pre_advance,DELTA_SA,no_revision,ar,2024:Q4,0.008788760628669104,-0.06101201035562922
pseudo,pre_advance,DELTA_SA,no_revision,bridge,2024:Q1,0.01327848698214179,0.01327848698214179
pseudo,pre_advance,DELTA_SA,no_revision,bridge,2024:Q2,-0.04524296246282887,-0.03196447548068708
pseudo,pre_advance,DELTA_SA,no_revision,bridge,2024:Q3,-0.005038302155248216,-0.0370027776359353
pseudo,pre_advance,DELTA_SA,no_revision,bridge,2024:Q4,0.008549183385662674,-0.028453594250272624
pseudo,pre_advance,DELTA_SA,no_revision,indicator_revision_only_dfm_kalman_em,2024:Q1,0.0,0.0
pseudo,pre_advance,DELTA_SA,no_revision,indicator_revision_only_dfm_kalman_em,2024:Q2,0.0,0.0
pseudo,pre_advance,DELTA_SA,no_revision,indicator_revision_only_dfm_kalman_em,2024:Q3,0.0,0.0
pseudo,pre_advance,DELTA_SA,no_revision,indicator_revision_only_dfm_kalman_em,2024:Q4,0.0,0.0
pseudo,pre_advance,DELTA_SA,no_revision,joint_indicator_revision_dfm_full_kalman_em,2024:Q1,-0.20796239473170813,-0.20796239473170813
pseudo,pre_advance,DELTA_SA,no_revision,joint_indicator_revision_dfm_full_kalman_em,2024:Q2,0.0027937097452154815,-0.20516868498649266
pseudo,pre_advance,DELTA_SA,no_revision,joint_indicator_revision_dfm_full_kalman_em,2024:Q3,-0.04109646452182785,-0.2462651495083205
pseudo,pre_advance,DELTA_SA,no_revision,joint_indicator_revision_dfm_full_kalman_em,2024:Q4,0.005450569917115737,-0.24081457959120478
pseudo,pre_advance,DELTA_SA,no_revision,midas_umidas,2024:Q1,0.11534794595974937,0.11534794595974937
pseudo,pre_advance,DELTA_SA,no_revision,midas_umidas,2024:Q2,0.011161212631004764,0.12650915859075412
pseudo,pre_advance,DELTA_SA,no_revision,midas_umidas,2024:Q3,-0.2061293336336872,-0.07962017504293309
pseudo,pre_advance,DELTA_SA,no_revision,midas_umidas,2024:Q4,-1.63744865243139,-1.717068827474323
pseudo,pre_advance,DELTA_SA,no_revision,monthly_mixed_frequency_kalman_em,2024:Q1,-0.1061392754621902,-0.1061392754621902
pseudo,pre_advance,DELTA_SA,no_revision,monthly_mixed_frequency_kalman_em,2024:Q2,0.00868578927583829,-0.0974534861863519
pseudo,pre_advance,DELTA_SA,no_revision,monthly_mixed_frequency_kalman_em,2024:Q3,-0.0020479717243733968,-0.09950145791072529
pseudo,pre_advance,DELTA_SA,no_revision,monthly_mixed_frequency_kalman_em,2024:Q4,0.008782174761921934,-0.09071928314880336
pseudo,pre_advance,DELTA_SA,no_revision,release_dfm,2024:Q1,-0.07334076853150555,-0.07334076853150555
pseudo,pre_advance,DELTA_SA,no_revision,release_dfm,2024:Q2,0.012042227574078334,-0.06129854095742721
pseudo,pre_advance,DELTA_SA,no_revision,release_dfm,2024:Q3,-0.006930490650198857,-0.06822903160762607
pseudo,pre_advance,DELTA_SA,no_revision,release_dfm,2024:Q4,0.008814395986290559,-0.05941463562133551
pseudo,pre_advance,DELTA_SA,no_revision,revision_dfm_kalman_em,2024:Q1,-0.21679925391718197,-0.21679925391718197
pseudo,pre_advance,DELTA_SA,no_revision,revision_dfm_kalman_em,2024:Q2,-0.006352678251570569,-0.22315193216875254
pseudo,pre_advance,DELTA_SA,no_revision,revision_dfm_kalman_em,2024:Q3,-0.044558899634210745,-0.2677108318029633
pseudo,pre_advance,DELTA_SA,no_revision,revision_dfm_kalman_em,2024:Q4,0.0016520524306017914,-0.2660587793723615
pseudo,pre_advance,DELTA_SA,no_revision,spf,2024:Q1,0.0,0.0
pseudo,pre_advance,DELTA_SA,no_revision,spf,2024:Q2,0.0,0.0
pseudo,pre_advance,DELTA_SA,no_revision,spf,2024:Q3,0.0,0.0
pseudo,pre_advance,DELTA_SA,no_revision,spf,2024:Q4,0.0,0.0
pseudo,pre_advance,DELTA_SA,no_revision,standard_dfm,2024:Q1,-0.07334076853150555,-0.07334076853150555
pseudo,pre_advance,DELTA_SA,no_revision,standard_dfm,2024:Q2,0.012042227574078334,-0.06129854095742721
pseudo,pre_advance,DELTA_SA,no_revision,standard_dfm,2024:Q3,-0.006930490650198857,-0.06822903160762607
pseudo,pre_advance,DELTA_SA,no_revision,standard_dfm,2024:Q4,0.008814395986290559,-0.05941463562133551
pseudo,pre_advance,DELTA_SA,bridge,ar,2024:Q1,-0.08483666595244525,-0.08483666595244525
pseudo,pre_advance,DELTA_SA,bridge,ar,2024:Q2,0.05427654395419505,-0.0305601219982502
pseudo,pre_advance,DELTA_SA,bridge,ar,2024:Q3,-0.002237871350112824,-0.03279799334836302
pseudo,pre_advance,DELTA_SA,bridge,ar,2024:Q4,0.00023957724300643142,-0.03255841610535659
pseudo,pre_advance,DELTA_SA,bridge,indicator_revision_only_dfm_kalman_em,2024:Q1,-0.01327848698214179,-0.01327848698214179
pseudo,pre_advance,DELTA_SA,bridge,indicator_revision_only_dfm_kalman_em,2024:Q2,0.04524296246282887,0.03196447548068708
pseudo,pre_advance,DELTA_SA,bridge,indicator_revision_only_dfm_kalman_em,2024:Q3,0.005038302155248216,0.0370027776359353
pseudo,pre_advance,DELTA_SA,bridge,indicator_revision_only_dfm_kalman_em,2024:Q4,-0.008549183385662674,0.028453594250272624
pseudo,pre_advance,DELTA_SA,bridge,joint_indicator_revision_dfm_full_kalman_em,2024:Q1,-0.22124088171384992,-0.22124088171384992
pseudo,pre_advance,DELTA_SA,bridge,joint_indicator_revision_dfm_full_kalman_em,2024:Q2,0.048036672208044355,-0.17320420950580556
pseudo,pre_advance,DELTA_SA,bridge,joint_indicator_revision_dfm_full_kalman_em,2024:Q3,-0.03605816236657963,-0.2092623718723852
pseudo,pre_advance,DELTA_SA,bridge,joint_indicator_revision_dfm_full_kalman_em,2024:Q4,-0.0030986134685469357,-0.21236098534093212
pseudo,pre_advance,DELTA_SA,bridge,midas_umidas,2024:Q1,0.10206945897760758,0.10206945897760758
pseudo,pre_advance,DELTA_SA,bridge,midas_umidas,2024:Q2,0.056404175093833636,0.15847363407144122
pseudo,pre_advance,DELTA_SA,bridge,midas_umidas,2024:Q3,-0.20109103147843901,-0.0426173974069978
pseudo,pre_advance,DELTA_SA,bridge,midas_umidas,2024:Q4,-1.6459978358170526,-1.6886152332240505
pseudo,pre_advance,DELTA_SA,bridge,monthly_mixed_frequency_kalman_em,2024:Q1,-0.11941776244433198,-0.11941776244433198
pseudo,pre_advance,DELTA_SA,bridge,monthly_mixed_frequency_kalman_em,2024:Q2,0.053928751738667166,-0.06548901070566482
pseudo,pre_advance,DELTA_SA,bridge,monthly_mixed_frequency_kalman_em,2024:Q3,0.002990330430874819,-0.06249868027479
pseudo,pre_advance,DELTA_SA,bridge,monthly_mixed_frequency_kalman_em,2024:Q4,0.0002329913762592611,-0.062265688898530736
pseudo,pre_advance,DELTA_SA,bridge,no_revision,2024:Q1,-0.01327848698214179,-0.01327848698214179
pseudo,pre_advance,DELTA_SA,bridge,no_revision,2024:Q2,0.04524296246282887,0.03196447548068708
pseudo,pre_advance,DELTA_SA,bridge,no_revision,2024:Q3,0.005038302155248216,0.0370027776359353
pseudo,pre_advance,DELTA_SA,bridge,no_revision,2024:Q4,-0.008549183385662674,0.028453594250272624
pseudo,pre_advance,DELTA_SA,bridge,release_dfm,2024:Q1,-0.08661925551364734,-0.08661925551364734
pseudo,pre_advance,DELTA_SA,bridge,release_dfm,2024:Q2,0.057285190036907206,-0.029334065476740133
pseudo,pre_advance,DELTA_SA,bridge,release_dfm,2024:Q3,-0.0018921884949506407,-0.031226253971690772
pseudo,pre_advance,DELTA_SA,bridge,release_dfm,2024:Q4,0.0002652126006278849,-0.030961041371062887
pseudo,pre_advance,DELTA_SA,bridge,revision_dfm_kalman_em,2024:Q1,-0.23007774089932376,-0.23007774089932376
pseudo,pre_advance,DELTA_SA,bridge,revision_dfm_kalman_em,2024:Q2,0.0388902842112583,-0.19118745668806547
pseudo,pre_advance,DELTA_SA,bridge,revision_dfm_kalman_em,2024:Q3,-0.03952059747896253,-0.230708054167028
pseudo,pre_advance,DELTA_SA,bridge,revision_dfm_kalman_em,2024:Q4,-0.0068971309550608815,-0.2376051851220889
pseudo,pre_advance,DELTA_SA,bridge,spf,2024:Q1,-0.01327848698214179,-0.01327848698214179
pseudo,pre_advance,DELTA_SA,bridge,spf,2024:Q2,0.04524296246282887,0.03196447548068708
pseudo,pre_advance,DELTA_SA,bridge,spf,2024:Q3,0.005038302155248216,0.0370027776359353
pseudo,pre_advance,DELTA_SA,bridge,spf,2024:Q4,-0.008549183385662674,0.028453594250272624
pseudo,pre_advance,DELTA_SA,bridge,standard_dfm,2024:Q1,-0.08661925551364734,-0.08661925551364734
pseudo,pre_advance,DELTA_SA,bridge,standard_dfm,2024:Q2,0.057285190036907206,-0.029334065476740133
pseudo,pre_advance,DELTA_SA,bridge,standard_dfm,2024:Q3,-0.0018921884949506407,-0.031226253971690772
pseudo,pre_advance,DELTA_SA,bridge,standard_dfm,2024:Q4,0.0002652126006278849,-0.030961041371062887
pseudo,pre_advance,DELTA_SA,midas_umidas,ar,2024:Q1,-0.18690612493005285,-0.18690612493005285
pseudo,pre_advance,DELTA_SA,midas_umidas,ar,2024:Q2,-0.0021276311396385833,-0.18903375606969142
pseudo,pre_advance,DELTA_SA,midas_umidas,ar,2024:Q3,0.19885316012832618,0.009819404058634768
pseudo,pre_advance,DELTA_SA,midas_umidas,ar,2024:Q4,1.646237413060059,1.6560568171186938
pseudo,pre_advance,DELTA_SA,midas_umidas,bridge,2024:Q1,-0.10206945897760758,-0.10206945897760758
pseudo,pre_advance,DELTA_SA,midas_umidas,bridge,2024:Q2,-0.056404175093833636,-0.15847363407144122
pseudo,pre_advance,DELTA_SA,midas_umidas,bridge,2024:Q3,0.20109103147843901,0.0426173974069978
pseudo,pre_advance,DELTA_SA,midas_umidas,bridge,2024:Q4,1.6459978358170526,1.6886152332240505
pseudo,pre_advance,DELTA_SA,midas_umidas,indicator_revision_only_dfm_kalman_em,2024:Q1,-0.11534794595974937,-0.11534794595974937
pseudo,pre_advance,DELTA_SA,midas_umidas,indicator_revision_only_dfm_kalman_em,2024:Q2,-0.011161212631004764,-0.12650915859075412
pseudo,pre_advance,DELTA_SA,midas_umidas,indicator_revision_only_dfm_kalman_em,2024:Q3,0.2061293336336872,0.07962017504293309
pseudo,pre_advance,DELTA_SA,midas_umidas,indicator_revision_only_dfm_kalman_em,2024:Q4,1.63744865243139,1.717068827474323
pseudo,pre_advance,DELTA_SA,midas_umidas,joint_indicator_revision_dfm_full_kalman_em,2024:Q1,-0.3233103406914575,-0.3233103406914575
pseudo,pre_advance,DELTA_SA,midas_umidas,joint_indicator_revision_dfm_full_kalman_em,2024:Q2,-0.008367502885789283,-0.3316778435772468
pseudo,pre_advance,DELTA_SA,midas_umidas,joint_indicator_revision_dfm_full_kalman_em,2024:Q3,0.16503286911185938,-0.1666449744653874
pseudo,pre_advance,DELTA_SA,midas_umidas,joint_indicator_revision_dfm_full_kalman_em,2024:Q4,1.6428992223485057,1.4762542478831184
pseudo,pre_advance,DELTA_SA,midas_umidas,monthly_mixed_frequency_kalman_em,2024:Q1,-0.22148722142193958,-0.22148722142193958
pseudo,pre_advance,DELTA_SA,midas_umidas,monthly_mixed_frequency_kalman_em,2024:Q2,-0.0024754233551664727,-0.22396264477710606
pseudo,pre_advance,DELTA_SA,midas_umidas,monthly_mixed_frequency_kalman_em,2024:Q3,0.20408136190931384,-0.019881282867792227
