haminh109/Revision-Aware-DFM/outputs/full_state_space_release_revision_dfm/frozen/q2_manuscript_best_v1/initialization_audit/seed_5/forecast_results.csv
model_id,timing_mode,forecast_origin,forecast_origin_date,checkpoint_id,target_id,target_quarter,forecast_value,forecast_variance,forecast_sd,density_source,realized_value,forecast_error,revision_target_flag,converged,n_iter,loglikelihood,llf_initial,llf_final,llf_last_improvement,llf_relative_last_improvement,llf_history_length,n_indicators,initialization_seed,initialization_jitter
ar,exact,2019:Q1:pre_advance:exact,2019-04-25,pre_advance,A,2019:Q1,2.544004133182678,,,not_available,3.1705,-0.6264958668173222,False,True,0,,,,,,,14,5,0.02
no_revision,exact,2019:Q1:pre_advance:exact,2019-04-25,pre_advance,A,2019:Q1,2.494294354572081,,,not_available,3.1705,-0.676205645427919,False,True,0,,,,,,,14,5,0.02
bridge,exact,2019:Q1:pre_advance:exact,2019-04-25,pre_advance,A,2019:Q1,2.463317526102582,,,not_available,3.1705,-0.7071824738974182,False,True,0,,,,,,,14,5,0.02
midas_umidas,exact,2019:Q1:pre_advance:exact,2019-04-25,pre_advance,A,2019:Q1,4.853686202530027,,,not_available,3.1705,1.683186202530027,False,True,0,,,,,,,14,5,0.02
monthly_mixed_frequency_kalman_em,exact,2019:Q1:pre_advance:exact,2019-04-25,pre_advance,A,2019:Q1,1.6706465197439566,3.1904042636923116,1.7861702784707598,model_implied_state_space,3.1705,-1.4998534802560435,False,True,54,-6285.22325928218,-7334.434583170255,-6285.22325928218,0.6243558635778754,9.931143584166545e-05,54.0,14,5,0.02
standard_dfm,exact,2019:Q1:pre_advance:exact,2019-04-25,pre_advance,A,2019:Q1,1.8414926723620524,,,not_available,3.1705,-1.3290073276379477,False,True,0,,,,,,,14,5,0.02
release_dfm,exact,2019:Q1:pre_advance:exact,2019-04-25,pre_advance,A,2019:Q1,1.8414926723620524,,,not_available,3.1705,-1.3290073276379477,False,True,0,,,,,,,14,5,0.02
revision_dfm_kalman_em,exact,2019:Q1:pre_advance:exact,2019-04-25,pre_advance,A,2019:Q1,1.4811862887086003,3.2283231355687794,1.7967534988330423,model_implied_state_space,3.1705,-1.6893137112913998,False,True,21,-1989.6344290343695,-2953.855540004051,-1989.6344290343695,0.1804770149281012,9.065484409409588e-05,21.0,14,5,0.02
indicator_revision_only_dfm_kalman_em,exact,2019:Q1:pre_advance:exact,2019-04-25,pre_advance,A,2019:Q1,1.475468027356839,3.7168041845856328,1.9279014976356112,model_implied_state_space,3.1705,-1.695031972643161,False,True,25,-3681.7310777286248,-4858.276252384413,-3681.7310777286248,0.3535016179653212,9.597977194106016e-05,25.0,14,5,0.02
joint_indicator_revision_dfm_full_kalman_em,exact,2019:Q1:pre_advance:exact,2019-04-25,pre_advance,A,2019:Q1,1.5344045701140365,2.654813511019725,1.629359847001185,model_implied_state_space,3.1705,-1.6360954298859636,False,True,26,-3646.423432035819,-4873.158856064188,-3646.423432035819,0.33848741808606064,9.279317717553632e-05,26.0,14,5,0.02
ar,exact,2019:Q1:pre_second:exact,2019-05-29,pre_second,S,2019:Q1,3.0088930533858775,,,not_available,3.0658,-0.05690694661412232,False,True,0,,,,,,,14,5,0.02
no_revision,exact,2019:Q1:pre_second:exact,2019-05-29,pre_second,S,2019:Q1,3.1705,,,not_available,3.0658,0.10470000000000024,False,True,0,,,,,,,14,5,0.02
bridge,exact,2019:Q1:pre_second:exact,2019-05-29,pre_second,S,2019:Q1,1.421798536985786,,,not_available,3.0658,-1.644001463014214,False,True,0,,,,,,,14,5,0.02
midas_umidas,exact,2019:Q1:pre_second:exact,2019-05-29,pre_second,S,2019:Q1,3.776783996287483,,,not_available,3.0658,0.7109839962874833,False,True,0,,,,,,,14,5,0.02
monthly_mixed_frequency_kalman_em,exact,2019:Q1:pre_second:exact,2019-05-29,pre_second,S,2019:Q1,3.3924495359859783,0.35099787842523383,0.5924507392393344,model_implied_state_space,3.0658,0.32664953598597846,False,True,50,-6312.701696013429,-7328.980019682591,-6312.701696013429,0.6195132228340299,9.811240231615679e-05,50.0,14,5,0.02
standard_dfm,exact,2019:Q1:pre_second:exact,2019-05-29,pre_second,S,2019:Q1,1.741965267784774,,,not_available,3.0658,-1.323834732215226,False,True,0,,,,,,,14,5,0.02
release_dfm,exact,2019:Q1:pre_second:exact,2019-05-29,pre_second,S,2019:Q1,3.258302538296523,,,not_available,3.0658,0.19250253829652308,False,True,0,,,,,,,14,5,0.02
revision_dfm_kalman_em,exact,2019:Q1:pre_second:exact,2019-05-29,pre_second,S,2019:Q1,3.339345150090752,0.4020147742222187,0.6340463502159907,model_implied_state_space,3.0658,0.2735451500907522,False,True,21,-1990.4443760057181,-2954.9939778330117,-1990.4443760057181,0.18524556936995396,9.301205774568254e-05,21.0,14,5,0.02
indicator_revision_only_dfm_kalman_em,exact,2019:Q1:pre_second:exact,2019-05-29,pre_second,S,2019:Q1,2.966476353606118,0.39291755176427623,0.6268313583128051,model_implied_state_space,3.0658,-0.09932364639388203,False,True,25,-3682.9310890931524,-4859.486560366629,-3682.9310890931524,0.3549275542786745,9.63355050815642e-05,25.0,14,5,0.02
joint_indicator_revision_dfm_full_kalman_em,exact,2019:Q1:pre_second:exact,2019-05-29,pre_second,S,2019:Q1,3.2836851882191778,0.3901719966198908,0.6246374921663691,model_implied_state_space,3.0658,0.2178851882191779,False,True,26,-3647.59396748943,-4874.472930068859,-3647.59396748943,0.3393285362053575,9.299389949795717e-05,26.0,14,5,0.02
ar,exact,2019:Q1:pre_third:exact,2019-06-26,pre_third,T,2019:Q1,2.445392866771208,,,not_available,3.1268,-0.6814071332287917,False,True,0,,,,,,,14,5,0.02
no_revision,exact,2019:Q1:pre_third:exact,2019-06-26,pre_third,T,2019:Q1,3.0658,,,not_available,3.1268,-0.06099999999999994,False,True,0,,,,,,,14,5,0.02
bridge,exact,2019:Q1:pre_third:exact,2019-06-26,pre_third,T,2019:Q1,2.2734338386671746,,,not_available,3.1268,-0.8533661613328252,False,True,0,,,,,,,14,5,0.02
midas_umidas,exact,2019:Q1:pre_third:exact,2019-06-26,pre_third,T,2019:Q1,4.146205141121396,,,not_available,3.1268,1.0194051411213958,False,True,0,,,,,,,14,5,0.02
monthly_mixed_frequency_kalman_em,exact,2019:Q1:pre_third:exact,2019-06-26,pre_third,T,2019:Q1,3.3103944704163646,0.14291941677752384,0.3780468446866391,model_implied_state_space,3.1268,0.18359447041636479,False,True,52,-6328.886922084899,-7349.5487198973715,-6328.886922084899,0.6279233508239486,9.918993417678798e-05,52.0,14,5,0.02
standard_dfm,exact,2019:Q1:pre_third:exact,2019-06-26,pre_third,T,2019:Q1,1.7778168513068795,,,not_available,3.1268,-1.3489831486931203,False,True,0,,,,,,,14,5,0.02
release_dfm,exact,2019:Q1:pre_third:exact,2019-06-26,pre_third,T,2019:Q1,3.178066193022631,,,not_available,3.1268,0.051266193022631246,False,True,0,,,,,,,14,5,0.02
revision_dfm_kalman_em,exact,2019:Q1:pre_third:exact,2019-06-26,pre_third,T,2019:Q1,3.090653373589496,0.14774435301678432,0.38437527628189655,model_implied_state_space,3.1268,-0.036146626410503924,False,True,22,-1989.5400212663299,-2966.79962832891,-1989.5400212663299,0.19873689190467303,9.983072419232839e-05,22.0,14,5,0.02
indicator_revision_only_dfm_kalman_em,exact,2019:Q1:pre_third:exact,2019-06-26,pre_third,T,2019:Q1,3.0588076362528542,0.15212904040198202,0.3900372295076228,model_implied_state_space,3.1268,-0.06799236374714557,False,True,25,-3681.6335451364903,-4860.129039942082,-3681.6335451364903,0.35637204260501676,9.676161233641716e-05,25.0,14,5,0.02
joint_indicator_revision_dfm_full_kalman_em,exact,2019:Q1:pre_third:exact,2019-06-26,pre_third,T,2019:Q1,3.0842059773761417,0.14738500498080465,0.38390754743923,model_implied_state_space,3.1268,-0.04259402262385814,False,True,26,-3646.3487095198,-4875.086259165315,-3646.3487095198,0.3419652686156951,9.37484285548776e-05,26.0,14,5,0.02
ar,pseudo,2019:Q1:pre_advance:pseudo,2019-04-30,pre_advance,A,2019:Q1,2.544004133182678,,,not_available,3.1705,-0.6264958668173222,False,True,0,,,,,,,14,5,0.02
no_revision,pseudo,2019:Q1:pre_advance:pseudo,2019-04-30,pre_advance,A,2019:Q1,2.494294354572081,,,not_available,3.1705,-0.676205645427919,False,True,0,,,,,,,14,5,0.02
bridge,pseudo,2019:Q1:pre_advance:pseudo,2019-04-30,pre_advance,A,2019:Q1,2.4633884141498354,,,not_available,3.1705,-0.7071115858501646,False,True,0,,,,,,,14,5,0.02
midas_umidas,pseudo,2019:Q1:pre_advance:pseudo,2019-04-30,pre_advance,A,2019:Q1,4.923193803822225,,,not_available,3.1705,1.752693803822225,False,True,0,,,,,,,14,5,0.02
monthly_mixed_frequency_kalman_em,pseudo,2019:Q1:pre_advance:pseudo,2019-04-30,pre_advance,A,2019:Q1,1.6594276342989491,3.188071753329054,1.785517222915829,model_implied_state_space,3.1705,-1.511072365701051,False,True,54,-6287.947680874189,-7337.221342752908,-6287.947680874189,0.6241217620436146,9.923120072848489e-05,54.0,14,5,0.02
standard_dfm,pseudo,2019:Q1:pre_advance:pseudo,2019-04-30,pre_advance,A,2019:Q1,1.8406746253161013,,,not_available,3.1705,-1.3298253746838988,False,True,0,,,,,,,14,5,0.02
release_dfm,pseudo,2019:Q1:pre_advance:pseudo,2019-04-30,pre_advance,A,2019:Q1,1.8406746253161013,,,not_available,3.1705,-1.3298253746838988,False,True,0,,,,,,,14,5,0.02
revision_dfm_kalman_em,pseudo,2019:Q1:pre_advance:pseudo,2019-04-30,pre_advance,A,2019:Q1,1.480699922706516,3.228310052427926,1.7967498580570211,model_implied_state_space,3.1705,-1.689800077293484,False,True,21,-1989.633406606206,-2953.8555838607945,-1989.633406606206,0.1804759712165378,9.065436643574294e-05,21.0,14,5,0.02
indicator_revision_only_dfm_kalman_em,pseudo,2019:Q1:pre_advance:pseudo,2019-04-30,pre_advance,A,2019:Q1,1.4750539513712801,3.7167868222857563,1.9278969947291678,model_implied_state_space,3.1705,-1.69544604862872,False,True,25,-3681.73122412339,-4858.2753932032665,-3681.73122412339,0.35349723071158223,9.59785770503855e-05,25.0,14,5,0.02
joint_indicator_revision_dfm_full_kalman_em,pseudo,2019:Q1:pre_advance:pseudo,2019-04-30,pre_advance,A,2019:Q1,1.5339326546812477,2.654805736926437,1.6293574613713335,model_implied_state_space,3.1705,-1.6365673453187524,False,True,26,-3646.4234468012414,-4873.157991197262,-3646.4234468012414,0.338487170487042,9.279310892925871e-05,26.0,14,5,0.02
ar,pseudo,2019:Q1:pre_second:pseudo,2019-05-31,pre_second,S,2019:Q1,3.0088930533858775,,,not_available,3.0658,-0.05690694661412232,False,True,0,,,,,,,14,5,0.02
no_revision,pseudo,2019:Q1:pre_second:pseudo,2019-05-31,pre_second,S,2019:Q1,3.1705,,,not_available,3.0658,0.10470000000000024,False,True,0,,,,,,,14,5,0.02
bridge,pseudo,2019:Q1:pre_second:pseudo,2019-05-31,pre_second,S,2019:Q1,1.4218172198520036,,,not_available,3.0658,-1.6439827801479963,False,True,0,,,,,,,14,5,0.02
midas_umidas,pseudo,2019:Q1:pre_second:pseudo,2019-05-31,pre_second,S,2019:Q1,3.7955827815763,,,not_available,3.0658,0.7297827815763003,False,True,0,,,,,,,14,5,0.02
monthly_mixed_frequency_kalman_em,pseudo,2019:Q1:pre_second:pseudo,2019-05-31,pre_second,S,2019:Q1,3.3919479549178164,0.35098859636512447,0.5924429055741359,model_implied_state_space,3.0658,0.32614795491781656,False,True,50,-6314.183496918036,-7330.413930259353,-6314.183496918036,0.6163609765144429,9.759032749335954e-05,50.0,14,5,0.02
standard_dfm,pseudo,2019:Q1:pre_second:pseudo,2019-05-31,pre_second,S,2019:Q1,1.7397240301912387,,,not_available,3.0658,-1.3260759698087612,False,True,0,,,,,,,14,5,0.02
release_dfm,pseudo,2019:Q1:pre_second:pseudo,2019-05-31,pre_second,S,2019:Q1,3.2581766904090235,,,not_available,3.0658,0.1923766904090236,False,True,0,,,,,,,14,5,0.02
revision_dfm_kalman_em,pseudo,2019:Q1:pre_second:pseudo,2019-05-31,pre_second,S,2019:Q1,3.3389361546903746,0.40201392747858256,0.6340456824855624,model_implied_state_space,3.0658,0.2731361546903748,False,True,21,-1990.4530103503212,-2954.987111252447,-1990.4530103503212,0.1852112831031718,9.299444100408579e-05,21.0,14,5,0.02
indicator_revision_only_dfm_kalman_em,pseudo,2019:Q1:pre_second:pseudo,2019-05-31,pre_second,S,2019:Q1,2.966971621326252,0.3929125748286814,0.6268273883842995,model_implied_state_space,3.0658,-0.09882837867374805,False,True,25,-3682.934012363027,-4859.473255534153,-3682.934012363027,0.3550372429831441,9.636519779063237e-05,25.0,14,5,0.02
joint_indicator_revision_dfm_full_kalman_em,pseudo,2019:Q1:pre_second:pseudo,2019-05-31,pre_second,S,2019:Q1,3.2832805474757927,0.39017121489700807,0.6246368664248118,model_implied_state_space,3.0658,0.21748054747579282,False,True,26,-3647.5974854417614,-4874.459581313432,-3647.5974854417614,0.3394210192927858,9.30191526994572e-05,26.0,14,5,0.02
ar,pseudo,2019:Q1:pre_third:pseudo,2019-06-30,pre_third,T,2019:Q1,2.445392866771208,,,not_available,3.1268,-0.6814071332287917,False,True,0,,,,,,,14,5,0.02
no_revision,pseudo,2019:Q1:pre_third:pseudo,2019-06-30,pre_third,T,2019:Q1,3.0658,,,not_available,3.1268,-0.06099999999999994,False,True,0,,,,,,,14,5,0.02
bridge,pseudo,2019:Q1:pre_third:pseudo,2019-06-30,pre_third,T,2019:Q1,2.2684052100145555,,,not_available,3.1268,-0.8583947899854443,False,True,0,,,,,,,14,5,0.02
midas_umidas,pseudo,2019:Q1:pre_third:pseudo,2019-06-30,pre_third,T,2019:Q1,4.13209857753133,,,not_available,3.1268,1.0052985775313306,False,True,0,,,,,,,14,5,0.02
monthly_mixed_frequency_kalman_em,pseudo,2019:Q1:pre_third:pseudo,2019-06-30,pre_third,T,2019:Q1,3.310186438213462,0.14291480612390647,0.37804074664499654,model_implied_state_space,3.1268,0.183386438213462,False,True,52,-6330.262917367987,-7350.951155117272,-6330.262917367987,0.6282721687175581,9.922346261347043e-05,52.0,14,5,0.02
standard_dfm,pseudo,2019:Q1:pre_third:pseudo,2019-06-30,pre_third,T,2019:Q1,1.7705413071187412,,,not_available,3.1268,-1.3562586928812586,False,True,0,,,,,,,14,5,0.02
release_dfm,pseudo,2019:Q1:pre_third:pseudo,2019-06-30,pre_third,T,2019:Q1,3.177975883912608,,,not_available,3.1268,0.05117588391260819,False,True,0,,,,,,,14,5,0.02
revision_dfm_kalman_em,pseudo,2019:Q1:pre_third:pseudo,2019-06-30,pre_third,T,2019:Q1,3.0906525501124897,0.14774419593134616,0.3843750719432078,model_implied_state_space,3.1268,-0.036147449887510064,False,True,22,-1989.525550335496,-2966.7988128756465,-1989.525550335496,0.19871669440112782,9.982130508591597e-05,22.0,14,5,0.02
indicator_revision_only_dfm_kalman_em,pseudo,2019:Q1:pre_third:pseudo,2019-06-30,pre_third,T,2019:Q1,3.0587838447658675,0.15212900236891,0.3900371807519252,model_implied_state_space,3.1268,-0.06801615523413229,False,True,25,-3681.639941424731,-4860.140714876354,-3681.639941424731,0.3564091392622686,9.677151572732079e-05,25.0,14,5,0.02
joint_indicator_revision_dfm_full_kalman_em,pseudo,2019:Q1:pre_third:pseudo,2019-06-30,pre_third,T,2019:Q1,3.0842094330753174,0.14738494854183498,0.3839074739332838,model_implied_state_space,3.1268,-0.04259056692468244,False,True,26,-3646.355349419511,-4875.097885117261,-3646.355349419511,0.3420047414269902,9.375907818582166e-05,26.0,14,5,0.02
ar,exact,2019:Q2:pre_advance:exact,2019-07-25,pre_advance,A,2019:Q2,2.835856491574643,,,not_available,2.055,0.7808564915746428,False,True,0,,,,,,,14,5,0.02
no_revision,exact,2019:Q2:pre_advance:exact,2019-07-25,pre_advance,A,2019:Q2,2.8870145085411787,,,not_available,2.055,0.8320145085411785,False,True,0,,,,,,,14,5,0.02
bridge,exact,2019:Q2:pre_advance:exact,2019-07-25,pre_advance,A,2019:Q2,2.0272387884123937,,,not_available,2.055,-0.02776121158760647,False,True,0,,,,,,,14,5,0.02
midas_umidas,exact,2019:Q2:pre_advance:exact,2019-07-25,pre_advance,A,2019:Q2,1.095853544431865,,,not_available,2.055,-0.9591464555681353,False,True,0,,,,,,,14,5,0.02
monthly_mixed_frequency_kalman_em,exact,2019:Q2:pre_advance:exact,2019-07-25,pre_advance,A,2019:Q2,1.9529338367558156,3.214129048734322,1.792799221534392,model_implied_state_space,2.055,-0.1020661632441846,False,True,50,-6350.581332858644,-7371.17664482267,-6350.581332858644,0.6185725957329851,9.737927095175985e-05,50.0,14,5,0.02
standard_dfm,exact,2019:Q2:pre_advance:exact,2019-07-25,pre_advance,A,2019:Q2,2.2075222586847105,,,not_available,2.055,0.15252225868471037,False,True,0,,,,,,,14,5,0.02
release_dfm,exact,2019:Q2:pre_advance:exact,2019-07-25,pre_advance,A,2019:Q2,2.2075222586847105,,,not_available,2.055,0.15252225868471037,False,True,0,,,,,,,14,5,0.02
revision_dfm_kalman_em,exact,2019:Q2:pre_advance:exact,2019-07-25,pre_advance,A,2019:Q2,1.9957376746983744,3.2735460293946574,1.8092943457035005,model_implied_state_space,2.055,-0.059262325301625784,False,True,21,-2007.8524193494602,-2976.440900123039,-2007.8524193494602,0.18362592480434614,9.140001506507484e-05,21.0,14,5,0.02
indicator_revision_only_dfm_kalman_em,exact,2019:Q2:pre_advance:exact,2019-07-25,pre_advance,A,2019:Q2,2.567113532835787,3.7414222680305826,1.9342756442737377,model_implied_state_space,2.055,0.5121135328357869,False,True,25,-3718.243612681752,-4899.316034280593,-3718.243612681752,0.3597237807007332,9.671025326126583e-05,25.0,14,5,0.02
joint_indicator_revision_dfm_full_kalman_em,exact,2019:Q2:pre_advance:exact,2019-07-25,pre_advance,A,2019:Q2,2.5434881660973283,2.6809270406651886,1.6373536700008304,model_implied_state_space,2.055,0.48848816609732815,False,True,26,-3683.083539508309,-4914.274407689544,-3683.083539508309,0.34228298044581607,9.289995156276776e-05,26.0,14,5,0.02
ar,exact,2019:Q2:pre_second:exact,2019-08-28,pre_second,S,2019:Q2,2.809602293515929,,,not_available,2.0379,0.7717022935159288,False,True,0,,,,,,,14,5,0.02
no_revision,exact,2019:Q2:pre_second:exact,2019-08-28,pre_second,S,2019:Q2,2.055,,,not_available,2.0379,0.017100000000000115,False,True,0,,,,,,,14,5,0.02
bridge,exact,2019:Q2:pre_second:exact,2019-08-28,pre_second,S,2019:Q2,1.7903441270878622,,,not_available,2.0379,-0.24755587291213788,False,True,0,,,,,,,14,5,0.02
midas_umidas,exact,2019:Q2:pre_second:exact,2019-08-28,pre_second,S,2019:Q2,2.1500769988566333,,,not_available,2.0379,0.11217699885663324,False,True,0,,,,,,,14,5,0.02
monthly_mixed_frequency_kalman_em,exact,2019:Q2:pre_second:exact,2019-08-28,pre_second,S,2019:Q2,2.0583690569770954,0.348651806292067,0.5904674472755183,model_implied_state_space,2.0379,0.020469056977095335,False,True,52,-6368.1541381053285,-7418.865479658013,-6368.1541381053285,0.635894770505729,9.982978516147965e-05,52.0,14,5,0.02
standard_dfm,exact,2019:Q2:pre_second:exact,2019-08-28,pre_second,S,2019:Q2,2.249521942147944,,,not_available,2.0379,0.21162194214794416,False,True,0,,,,,,,14,5,0.02
release_dfm,exact,2019:Q2:pre_second:exact,2019-08-28,pre_second,S,2019:Q2,2.130270211283246,,,not_available,2.0379,0.09237021128324585,False,True,0,,,,,,,14,5,0.02
revision_dfm_kalman_em,exact,2019:Q2:pre_second:exact,2019-08-28,pre_second,S,2019:Q2,2.1061856474143097,0.4004151075885006,0.6327836182997317,model_implied_state_space,2.0379,0.06828564741430965,False,True,21,-2009.0694260071923,-2977.601823182167,-2009.0694260071923,0.1859739245126093,9.251258547492397e-05,21.0,14,5,0.02
indicator_revision_only_dfm_kalman_em,exact,2019:Q2:pre_second:exact,2019-08-28,pre_second,S,2019:Q2,2.1035620039916654,0.39095016883018385,0.6252600809504665,model_implied_state_space,2.0379,0.06566200399166533,False,True,25,-3719.5819823128627,-4900.5801090792365,-3719.5819823128627,0.35959813429008136,9.664170385788959e-05,25.0,14,5,0.02
joint_indicator_revision_dfm_full_kalman_em,exact,2019:Q2:pre_second:exact,2019-08-28,pre_second,S,2019:Q2,2.1020205265486434,0.38849768381055155,0.6232958236748836,model_implied_state_space,2.0379,0.06412052654864331,False,True,26,-3684.264621543714,-4915.646647969091,-3684.264621543714,0.3417391388111355,9.272263648575047e-05,26.0,14,5,0.02
ar,exact,2019:Q2:pre_third:exact,2019-09-25,pre_third,T,2019:Q2,2.86498901665629,,,not_available,2.0143,0.8506890166562902,False,True,0,,,,,,,14,5,0.02
no_revision,exact,2019:Q2:pre_third:exact,2019-09-25,pre_third,T,2019:Q2,2.0379,,,not_available,2.0143,0.023600000000000065,False,True,0,,,,,,,14,5,0.02
bridge,exact,2019:Q2:pre_third:exact,2019-09-25,pre_third,T,2019:Q2,2.0335288624287204,,,not_available,2.0143,0.01922886242872046,False,True,0,,,,,,,14,5,0.02
midas_umidas,exact,2019:Q2:pre_third:exact,2019-09-25,pre_third,T,2019:Q2,1.7094667106387418,,,not_available,2.0143,-0.3048332893612582,False,True,0,,,,,,,14,5,0.02
monthly_mixed_frequency_kalman_em,exact,2019:Q2:pre_third:exact,2019-09-25,pre_third,T,2019:Q2,2.0327701108691314,0.14315155390113643,0.3783537417564896,model_implied_state_space,2.0143,0.018470110869131418,False,True,54,-6383.975003426527,-7438.317659323553,-6383.975003426527,0.6276238260634273,9.828732896482518e-05,54.0,14,5,0.02
standard_dfm,exact,2019:Q2:pre_third:exact,2019-09-25,pre_third,T,2019:Q2,2.3153784836701568,,,not_available,2.0143,0.30107848367015677,False,True,0,,,,,,,14,5,0.02
release_dfm,exact,2019:Q2:pre_third:exact,2019-09-25,pre_third,T,2019:Q2,2.1127219183232313,,,not_available,2.0143,0.09842191832323133,False,True,0,,,,,,,14,5,0.02
revision_dfm_kalman_em,exact,2019:Q2:pre_third:exact,2019-09-25,pre_third,T,2019:Q2,2.0453831353503364,0.1470515470533733,0.3834730069423053,model_implied_state_space,2.0143,0.031083135350336466,False,True,23,-2008.925454655861,-2989.824358000019,-2008.925454655861,0.17502631742445374,8.707341701630083e-05,23.0,14,5,0.02
indicator_revision_only_dfm_kalman_em,exact,2019:Q2:pre_third:exact,2019-09-25,pre_third,T,2019:Q2,2.0423605533970233,0.15144315354946786,0.38915697803003335,model_implied_state_space,2.0143,0.02806055339702329,False,True,25,-3719.117153511071,-4901.631819794272,-3719.117153511071,0.3603680667433764,9.686070259888257e-05,25.0,14,5,0.02
joint_indicator_revision_dfm_full_kalman_em,exact,2019:Q2:pre_third:exact,2019-09-25,pre_third,T,2019:Q2,2.042299331105248,0.14670785437961575,0.383024613281726,model_implied_state_space,2.0143,0.027999331105247993,False,True,26,-3683.7839946535655,-4916.671239447685,-3683.7839946535655,0.3425975901795937,9.296765839759062e-05,26.0,14,5,0.02
ar,pseudo,2019:Q2:pre_advance:pseudo,2019-07-31,pre_advance,A,2019:Q2,2.835856491574643,,,not_available,2.055,0.7808564915746428,False,True,0,,,,,,,14,5,0.02
no_revision,pseudo,2019:Q2:pre_advance:pseudo,2019-07-31,pre_advance,A,2019:Q2,2.8870145085411787,,,not_available,2.055,0.8320145085411785,False,True,0,,,,,,,14,5,0.02
bridge,pseudo,2019:Q2:pre_advance:pseudo,2019-07-31,pre_advance,A,2019:Q2,2.0262506423041557,,,not_available,2.055,-0.028749357695844413,False,True,0,,,,,,,14,5,0.02
midas_umidas,pseudo,2019:Q2:pre_advance:pseudo,2019-07-31,pre_advance,A,2019:Q2,1.2162629624178303,,,not_available,2.055,-0.8387370375821699,False,True,0,,,,,,,14,5,0.02
monthly_mixed_frequency_kalman_em,pseudo,2019:Q2:pre_advance:pseudo,2019-07-31,pre_advance,A,2019:Q2,1.9854003780147371,3.2156528952706047,1.793224162025095,model_implied_state_space,2.055,-0.06959962198526304,False,True,49,-6352.49700138712,-7372.402001919866,-6352.49700138712,0.6272247180922932,9.871143461681316e-05,49.0,14,5,0.02
standard_dfm,pseudo,2019:Q2:pre_advance:pseudo,2019-07-31,pre_advance,A,2019:Q2,2.258550549919068,,,not_available,2.055,0.20355054991906796,False,True,0,,,,,,,14,5,0.02
release_dfm,pseudo,2019:Q2:pre_advance:pseudo,2019-07-31,pre_advance,A,2019:Q2,2.258550549919068,,,not_available,2.055,0.20355054991906796,False,True,0,,,,,,,14,5,0.02
revision_dfm_kalman_em,pseudo,2019:Q2:pre_advance:pseudo,2019-07-31,pre_advance,A,2019:Q2,2.0206458083980783,3.2728707190052764,1.8091077134889664,model_implied_state_space,2.055,-0.03435419160192188,False,True,21,-2007.5910712623452,-2976.1451244402024,-2007.5910712623452,0.18348722112114046,9.134286390985806e-05,21.0,14,5,0.02
indicator_revision_only_dfm_kalman_em,pseudo,2019:Q2:pre_advance:pseudo,2019-07-31,pre_advance,A,2019:Q2,2.581106626694679,3.7400028328253896,1.9339086929908014,model_implied_state_space,2.055,0.5261066266946788,False,True,25,-3717.7034990108064,-4899.033124691386,-3717.7034990108064,0.35930116639792686,9.661067470568311e-05,25.0,14,5,0.02
joint_indicator_revision_dfm_full_kalman_em,pseudo,2019:Q2:pre_advance:pseudo,2019-07-31,pre_advance,A,2019:Q2,2.5631742296872937,2.6789420224227647,1.6367473911458557,model_implied_state_space,2.055,0.5081742296872935,False,True,26,-3682.5422965127373,-4913.991808155048,-3682.5422965127373,0.34149133981600244,9.269872761514771e-05,26.0,14,5,0.02
ar,pseudo,2019:Q2:pre_second:pseudo,2019-08-31,pre_second,S,2019:Q2,2.809602293515929,,,not_available,2.0379,0.7717022935159288,False,True,0,,,,,,,14,5,0.02
no_revision,pseudo,2019:Q2:pre_second:pseudo,2019-08-31,pre_second,S,2019:Q2,2.055,,,not_available,2.0379,0.017100000000000115,False,True,0,,,,,,,14,5,0.02
bridge,pseudo,2019:Q2:pre_second:pseudo,2019-08-31,pre_second,S,2019:Q2,1.7904080390729669,,,not_available,2.0379,-0.24749196092703318,False,True,0,,,,,,,14,5,0.02
midas_umidas,pseudo,2019:Q2:pre_second:pseudo,2019-08-31,pre_second,S,2019:Q2,2.146409259715819,,,not_available,2.0379,0.10850925971581882,False,True,0,,,,,,,14,5,0.02
monthly_mixed_frequency_kalman_em,pseudo,2019:Q2:pre_second:pseudo,2019-08-31,pre_second,S,2019:Q2,2.0577822748534356,0.34864346061422136,0.5904603802239583,model_implied_state_space,2.0379,0.019882274853435522,False,True,52,-6369.468280958436,-7420.230284323025,-6369.468280958436,0.6364165223421878,9.989107895116457e-05,52.0,14,5,0.02
standard_dfm,pseudo,2019:Q2:pre_second:pseudo,2019-08-31,pre_second,S,2019:Q2,2.248397659127057,,,not_available,2.0379,0.2104976591270571,False,True,0,,,,,,,14,5,0.02
release_dfm,pseudo,2019:Q2:pre_second:pseudo,2019-08-31,pre_second,S,2019:Q2,2.1302045363490407,,,not_available,2.0379,0.09230453634904068,False,True,0,,,,,,,14,5,0.02
revision_dfm_kalman_em,pseudo,2019:Q2:pre_second:pseudo,2019-08-31,pre_second,S,2019:Q2,2.1061866906354494,0.4004150551995036,0.6327835769040657,model_implied_state_space,2.0379,0.06828669063544934,False,True,21,-2009.0750952473613,-2977.6040376458755,-2009.0750952473613,0.1859793679370796,9.251503214460354e-05,21.0,14,5,0.02
indicator_revision_only_dfm_kalman_em,pseudo,2019:Q2:pre_second:pseudo,2019-08-31,pre_second,S,2019:Q2,2.1034725190830112,0.3909493922948402,0.6252594599802871,model_implied_state_space,2.0379,0.0655725190830112,False,True,25,-3719.588730952989,-4900.584378817342,-3719.588730952989,0.3595956018366451,9.664084805219255e-05,25.0,14,5,0.02
joint_indicator_revision_dfm_full_kalman_em,pseudo,2019:Q2:pre_second:pseudo,2019-08-31,pre_second,S,2019:Q2,2.1020363993057556,0.3884979226755139,0.6232960152892957,model_implied_state_space,2.0379,0.06413639930575554,False,True,26,-3684.2712027366306,-4915.65094258787,-3684.2712027366306,0.3417338852982539,9.272104563738377e-05,26.0,14,5,0.02
ar,pseudo,2019:Q2:pre_third:pseudo,2019-09-30,pre_third,T,2019:Q2,2.86498901665629,,,not_available,2.0143,0.8506890166562902,False,True,0,,,,,,,14,5,0.02
no_revision,pseudo,2019:Q2:pre_third:pseudo,2019-09-30,pre_third,T,2019:Q2,2.0379,,,not_available,2.0143,0.023600000000000065,False,True,0,,,,,,,14,5,0.02
bridge,pseudo,2019:Q2:pre_third:pseudo,2019-09-30,pre_third,T,2019:Q2,2.0315149833894925,,,not_available,2.0143,0.017214983389492566,False,True,0,,,,,,,14,5,0.02
midas_umidas,pseudo,2019:Q2:pre_third:pseudo,2019-09-30,pre_third,T,2019:Q2,1.7001949812298822,,,not_available,2.0143,-0.31410501877011776,False,True,0,,,,,,,14,5,0.02
monthly_mixed_frequency_kalman_em,pseudo,2019:Q2:pre_third:pseudo,2019-09-30,pre_third,T,2019:Q2,2.0330119011251235,0.14313265104427197,0.3783287605301399,model_implied_state_space,2.0143,0.018711901125123553,False,True,54,-6386.717266298226,-7441.16270349829,-6386.717266298226,0.6266257989755104,9.808892720235168e-05,54.0,14,5,0.02
standard_dfm,pseudo,2019:Q2:pre_third:pseudo,2019-09-30,pre_third,T,2019:Q2,2.3122326767126324,,,not_available,2.0143,0.29793267671263246,False,True,0,,,,,,,14,5,0.02
release_dfm,pseudo,2019:Q2:pre_third:pseudo,2019-09-30,pre_third,T,2019:Q2,2.112680858792247,,,not_available,2.0143,0.09838085879224723,False,True,0,,,,,,,14,5,0.02
revision_dfm_kalman_em,pseudo,2019:Q2:pre_third:pseudo,2019-09-30,pre_third,T,2019:Q2,2.045381947569317,0.14705149738399656,0.3834729421797535,model_implied_state_space,2.0143,0.031081947569317148,False,True,23,-2008.9149214608208,-2989.820515883739,-2008.9149214608208,0.1750166463145888,8.70690624318028e-05,23.0,14,5,0.02
indicator_revision_only_dfm_kalman_em,pseudo,2019:Q2:pre_third:pseudo,2019-09-30,pre_third,T,2019:Q2,2.0423493326944544,0.15144316416024659,0.38915699166306467,model_implied_state_space,2.0143,0.02804933269445442,False,True,25,-3719.112429241893,-4901.629397583983,-3719.112429241893,0.3603795564745269,9.686391353869933e-05,25.0,14,5,0.02
joint_indicator_revision_dfm_full_kalman_em,pseudo,2019:Q2:pre_third:pseudo,2019-09-30,pre_third,T,2019:Q2,2.042300719074091,0.14670786047588086,0.38302462123978515,model_implied_state_space,2.0143,0.028000719074090963,False,True,26,-3683.779179470107,-4916.668821491486,-3683.779179470107,0.3426071530857371,9.297037463711073e-05,26.0,14,5,0.02
ar,exact,2019:Q3:pre_advance:exact,2019-10-29,pre_advance,A,2019:Q3,2.279256097331871,,,not_available,1.9188,0.3604560973318711,False,True,0,,,,,,,14,5,0.02
no_revision,exact,2019:Q3:pre_advance:exact,2019-10-29,pre_advance,A,2019:Q3,2.317127933697079,,,not_available,1.9188,0.39832793369707886,False,True,0,,,,,,,14,5,0.02
bridge,exact,2019:Q3:pre_advance:exact,2019-10-29,pre_advance,A,2019:Q3,2.5989815132209673,,,not_available,1.9188,0.6801815132209672,False,True,0,,,,,,,14,5,0.02
midas_umidas,exact,2019:Q3:pre_advance:exact,2019-10-29,pre_advance,A,2019:Q3,2.7556857521246303,,,not_available,1.9188,0.8368857521246302,False,True,0,,,,,,,14,5,0.02
monthly_mixed_frequency_kalman_em,exact,2019:Q3:pre_advance:exact,2019-10-29,pre_advance,A,2019:Q3,2.539287744378626,3.0673289327178286,1.751379151616756,model_implied_state_space,1.9188,0.6204877443786261,False,True,88,-6364.134759274062,-7462.623169084342,-6364.134759274062,0.6169100469369369,9.691079372606745e-05,88.0,14,5,0.02
standard_dfm,exact,2019:Q3:pre_advance:exact,2019-10-29,pre_advance,A,2019:Q3,2.3386766974748623,,,not_available,1.9188,0.4198766974748622,False,True,0,,,,,,,14,5,0.02
release_dfm,exact,2019:Q3:pre_advance:exact,2019-10-29,pre_advance,A,2019:Q3,2.3386766974748623,,,not_available,1.9188,0.4198766974748622,False,True,0,,,,,,,14,5,0.02
revision_dfm_kalman_em,exact,2019:Q3:pre_advance:exact,2019-10-29,pre_advance,A,2019:Q3,2.458320757264438,3.2515294724314243,1.8031997871648677,model_implied_state_space,1.9188,0.5395207572644378,False,True,21,-2026.2728803883613,-2999.22234143075,-2026.2728803883613,0.18370126555964816,9.060675687061656e-05,21.0,14,5,0.02
indicator_revision_only_dfm_kalman_em,exact,2019:Q3:pre_advance:exact,2019-10-29,pre_advance,A,2019:Q3,2.5427221981679313,3.714174988179301,1.927219496627019,model_implied_state_space,1.9188,0.6239221981679313,False,True,28,-3754.265672106787,-4930.100086714202,-3754.265672106787,0.37506798969161537,9.986790953864779e-05,28.0,14,5,0.02
joint_indicator_revision_dfm_full_kalman_em,exact,2019:Q3:pre_advance:exact,2019-10-29,pre_advance,A,2019:Q3,2.44931288564717,2.5929906338520374,1.6102765706089242,model_implied_state_space,1.9188,0.5305128856471701,False,True,28,-3718.8580557853547,-4945.208590112195,-3718.8580557853547,0.3702337329373222,9.951908972372803e-05,28.0,14,5,0.02
ar,exact,2019:Q3:pre_second:exact,2019-11-26,pre_second,S,2019:Q3,2.3385524286308836,,,not_available,2.1238,0.2147524286308835,False,True,0,,,,,,,14,5,0.02
no_revision,exact,2019:Q3:pre_second:exact,2019-11-26,pre_second,S,2019:Q3,1.9188,,,not_available,2.1238,-0.20500000000000007,False,True,0,,,,,,,14,5,0.02
bridge,exact,2019:Q3:pre_second:exact,2019-11-26,pre_second,S,2019:Q3,2.759703662352096,,,not_available,2.1238,0.6359036623520957,False,True,0,,,,,,,14,5,0.02
midas_umidas,exact,2019:Q3:pre_second:exact,2019-11-26,pre_second,S,2019:Q3,1.8640393070936114,,,not_available,2.1238,-0.2597606929063887,False,True,0,,,,,,,14,5,0.02
monthly_mixed_frequency_kalman_em,exact,2019:Q3:pre_second:exact,2019-11-26,pre_second,S,2019:Q3,1.6805457182703787,0.34079438783074206,0.5837759740095014,model_implied_state_space,2.1238,-0.44325428172962145,False,True,86,-6380.071972056759,-7481.016055452483,-6380.071972056759,0.6095312175175422,9.551263522079682e-05,86.0,14,5,0.02
standard_dfm,exact,2019:Q3:pre_second:exact,2019-11-26,pre_second,S,2019:Q3,2.4213444454816266,,,not_available,2.1238,0.2975444454816265,False,True,0,,,,,,,14,5,0.02
release_dfm,exact,2019:Q3:pre_second:exact,2019-11-26,pre_second,S,2019:Q3,1.9988734990510797,,,not_available,2.1238,-0.12492650094892044,False,True,0,,,,,,,14,5,0.02
revision_dfm_kalman_em,exact,2019:Q3:pre_second:exact,2019-11-26,pre_second,S,2019:Q3,2.034640362736833,0.39848337748452545,0.6312553979844652,model_implied_state_space,2.1238,-0.08915963726316711,False,True,21,-2027.168488559021,-3000.4960243543783,-2027.168488559021,0.18569225563669534,9.154824014123356e-05,21.0,14,5,0.02
indicator_revision_only_dfm_kalman_em,exact,2019:Q3:pre_second:exact,2019-11-26,pre_second,S,2019:Q3,1.9877331747343983,0.389166286268774,0.6238319375190516,model_implied_state_space,2.1238,-0.13606682526560188,False,True,25,-3753.982150317622,-4941.529277114863,-3753.982150317622,0.3625900983561223,9.65530792563024e-05,25.0,14,5,0.02
joint_indicator_revision_dfm_full_kalman_em,exact,2019:Q3:pre_second:exact,2019-11-26,pre_second,S,2019:Q3,2.043301542106109,0.3867275432141641,0.6218742181616504,model_implied_state_space,2.1238,-0.0804984578938912,False,True,26,-3718.472047003709,-4956.657325515032,-3718.472047003709,0.3429027583874813,9.218274645877529e-05,26.0,14,5,0.02
ar,exact,2019:Q3:pre_third:exact,2019-12-19,pre_third,T,2019:Q3,2.3786343473599274,,,not_available,2.1024,0.2762343473599276,False,True,0,,,,,,,14,5,0.02
no_revision,exact,2019:Q3:pre_third:exact,2019-12-19,pre_third,T,2019:Q3,2.1238,,,not_available,2.1024,0.021400000000000308,False,True,0,,,,,,,14,5,0.02
bridge,exact,2019:Q3:pre_third:exact,2019-12-19,pre_third,T,2019:Q3,2.7361020837181926,,,not_available,2.1024,0.6337020837181928,False,True,0,,,,,,,14,5,0.02
midas_umidas,exact,2019:Q3:pre_third:exact,2019-12-19,pre_third,T,2019:Q3,3.214676894078797,,,not_available,2.1024,1.1122768940787973,False,True,0,,,,,,,14,5,0.02
monthly_mixed_frequency_kalman_em,exact,2019:Q3:pre_third:exact,2019-12-19,pre_third,T,2019:Q3,1.9273133671702225,0.13462476869731857,0.3669124809778465,model_implied_state_space,2.1024,-0.17508663282977732,False,True,84,-6397.344570870017,-7475.925544386487,-6397.344570870017,0.5613095619301021,8.771961526213476e-05,84.0,14,5,0.02
standard_dfm,exact,2019:Q3:pre_third:exact,2019-12-19,pre_third,T,2019:Q3,2.4553317270171258,,,not_available,2.1024,0.35293172701712594,False,True,0,,,,,,,14,5,0.02
release_dfm,exact,2019:Q3:pre_third:exact,2019-12-19,pre_third,T,2019:Q3,2.1495184018457247,,,not_available,2.1024,0.04711840184572491,False,True,0,,,,,,,14,5,0.02
revision_dfm_kalman_em,exact,2019:Q3:pre_third:exact,2019-12-19,pre_third,T,2019:Q3,2.1218016456583393,0.14639092479065563,0.3826106699905997,model_implied_state_space,2.1024,0.01940164565833946,False,True,22,-2026.7657808926929,-3012.7114876997325,-2026.7657808926929,0.20162401826996756,9.942172531062933e-05,22.0,14,5,0.02
indicator_revision_only_dfm_kalman_em,exact,2019:Q3:pre_third:exact,2019-12-19,pre_third,T,2019:Q3,2.115000956967451,0.15048846092357487,0.3879284224229708,model_implied_state_space,2.1024,0.012600956967451005,False,True,28,-3754.7274027030935,-4932.3527631801,-3754.7274027030935,0.3736916518560065,9.948924229372535e-05,28.0,14,5,0.02
joint_indicator_revision_dfm_full_kalman_em,exact,2019:Q3:pre_third:exact,2019-12-19,pre_third,T,2019:Q3,2.1219027916933197,0.14590296831837826,0.3819724706289424,model_implied_state_space,2.1024,0.01950279169331992,False,True,28,-3719.123878550268,-4947.538229004374,-3719.123878550268,0.36934719661621784,9.927371835009104e-05,28.0,14,5,0.02
ar,pseudo,2019:Q3:pre_advance:pseudo,2019-10-31,pre_advance,A,2019:Q3,2.279256097331871,,,not_available,1.9188,0.3604560973318711,False,True,0,,,,,,,14,5,0.02
no_revision,pseudo,2019:Q3:pre_advance:pseudo,2019-10-31,pre_advance,A,2019:Q3,2.317127933697079,,,not_available,1.9188,0.39832793369707886,False,True,0,,,,,,,14,5,0.02
bridge,pseudo,2019:Q3:pre_advance:pseudo,2019-10-31,pre_advance,A,2019:Q3,2.5967493981997967,,,not_available,1.9188,0.6779493981997966,False,True,0,,,,,,,14,5,0.02
midas_umidas,pseudo,2019:Q3:pre_advance:pseudo,2019-10-31,pre_advance,A,2019:Q3,2.6690577042540142,,,not_available,1.9188,0.7502577042540142,False,True,0,,,,,,,14,5,0.02
monthly_mixed_frequency_kalman_em,pseudo,2019:Q3:pre_advance:pseudo,2019-10-31,pre_advance,A,2019:Q3,2.585880304249913,3.179203707597051,1.7830321667308897,model_implied_state_space,1.9188,0.6670803042499132,False,True,56,-6405.025629257409,-7464.052371991779,-6405.025629257409,0.6391214492350628,9.975884084844128e-05,56.0,14,5,0.02
standard_dfm,pseudo,2019:Q3:pre_advance:pseudo,2019-10-31,pre_advance,A,2019:Q3,2.3597547953357836,,,not_available,1.9188,0.4409547953357835,False,True,0,,,,,,,14,5,0.02
release_dfm,pseudo,2019:Q3:pre_advance:pseudo,2019-10-31,pre_advance,A,2019:Q3,2.3597547953357836,,,not_available,1.9188,0.4409547953357835,False,True,0,,,,,,,14,5,0.02
revision_dfm_kalman_em,pseudo,2019:Q3:pre_advance:pseudo,2019-10-31,pre_advance,A,2019:Q3,2.4707547278142643,3.2513873564799414,1.8031603801325997,model_implied_state_space,1.9188,0.5519547278142642,False,True,21,-2026.2766876836477,-2999.2256488039475,-2026.2766876836477,0.18367954648488194,9.059587524061963e-05,21.0,14,5,0.02
indicator_revision_only_dfm_kalman_em,pseudo,2019:Q3:pre_advance:pseudo,2019-10-31,pre_advance,A,2019:Q3,2.556287707794949,3.713986359471937,1.9271705579610583,model_implied_state_space,1.9188,0.637487707794949,False,True,29,-3753.8932207713306,-4930.058567145434,-3753.8932207713306,0.35411105797993514,9.429766582310183e-05,29.0,14,5,0.02
joint_indicator_revision_dfm_full_kalman_em,pseudo,2019:Q3:pre_advance:pseudo,2019-10-31,pre_advance,A,2019:Q3,2.462691558748735,2.592874531228062,1.6102405196827156,model_implied_state_space,1.9188,0.5438915587487347,False,True,28,-3718.8401127032334,-4945.167009253002,-3718.8401127032334,0.37085657610896305,9.96869745214485e-05,28.0,14,5,0.02
ar,pseudo,2019:Q3:pre_second:pseudo,2019-11-30,pre_second,S,2019:Q3,2.3385524286308836,,,not_available,2.1238,0.2147524286308835,False,True,0,,,,,,,14,5,0.02
no_revision,pseudo,2019:Q3:pre_second:pseudo,2019-11-30,pre_second,S,2019:Q3,1.9188,,,not_available,2.1238,-0.20500000000000007,False,True,0,,,,,,,14,5,0.02
bridge,pseudo,2019:Q3:pre_second:pseudo,2019-11-30,pre_second,S,2019:Q3,2.755757569281757,,,not_available,2.1238,0.6319575692817567,False,True,0,,,,,,,14,5,0.02
midas_umidas,pseudo,2019:Q3:pre_second:pseudo,2019-11-30,pre_second,S,2019:Q3,1.8794035051159255,,,not_available,2.1238,-0.24439649488407467,False,True,0,,,,,,,14,5,0.02
monthly_mixed_frequency_kalman_em,pseudo,2019:Q3:pre_second:pseudo,2019-11-30,pre_second,S,2019:Q3,1.6809960704656808,0.3407958181701062,0.5837771990837824,model_implied_state_space,2.1238,-0.44280392953431935,False,True,86,-6382.861424006063,-7483.761482383472,-6382.861424006063,0.603163747941835,9.447366175368237e-05,86.0,14,5,0.02
standard_dfm,pseudo,2019:Q3:pre_second:pseudo,2019-11-30,pre_second,S,2019:Q3,2.415863334629673,,,not_available,2.1238,0.29206333462967304,False,True,0,,,,,,,14,5,0.02
release_dfm,pseudo,2019:Q3:pre_second:pseudo,2019-11-30,pre_second,S,2019:Q3,1.9985507776579652,,,not_available,2.1238,-0.12524922234203495,False,True,0,,,,,,,14,5,0.02
revision_dfm_kalman_em,pseudo,2019:Q3:pre_second:pseudo,2019-11-30,pre_second,S,2019:Q3,2.034314498191571,0.39848816861423897,0.6312591928948353,model_implied_state_space,2.1238,-0.08948550180842929,False,True,21,-2027.0516691443493,-3000.4615679396916,-2027.0516691443493,0.18571131685143882,9.156291006194253e-05,21.0,14,5,0.02
indicator_revision_only_dfm_kalman_em,pseudo,2019:Q3:pre_second:pseudo,2019-11-30,pre_second,S,2019:Q3,1.9880001815415587,0.3891634422717953,0.6238296580572258,model_implied_state_space,2.1238,-0.13579981845844147,False,True,25,-3753.9554873665516,-4941.532041926364,-3753.9554873665516,0.3627616113467411,9.659943240375847e-05,25.0,14,5,0.02
joint_indicator_revision_dfm_full_kalman_em,pseudo,2019:Q3:pre_second:pseudo,2019-11-30,pre_second,S,2019:Q3,2.0430067004439714,0.38673586291456535,0.6218809073404371,model_implied_state_space,2.1238,-0.08079329955602876,False,True,26,-3718.4455464983103,-4956.660107495271,-3718.4455464983103,0.34309163583702684,9.223417489901314e-05,26.0,14,5,0.02
ar,pseudo,2019:Q3:pre_third:pseudo,2019-12-31,pre_third,T,2019:Q3,2.3786343473599274,,,not_available,2.1024,0.2762343473599276,False,True,0,,,,,,,14,5,0.02
no_revision,pseudo,2019:Q3:pre_third:pseudo,2019-12-31,pre_third,T,2019:Q3,2.1238,,,not_available,2.1024,0.021400000000000308,False,True,0,,,,,,,14,5,0.02
bridge,pseudo,2019:Q3:pre_third:pseudo,2019-12-31,pre_third,T,2019:Q3,2.7336186979777626,,,not_available,2.1024,0.6312186979777628,False,True,0,,,,,,,14,5,0.02
midas_umidas,pseudo,2019:Q3:pre_third:pseudo,2019-12-31,pre_third,T,2019:Q3,3.204672467793214,,,not_available,2.1024,1.102272467793214,False,True,0,,,,,,,14,5,0.02
monthly_mixed_frequency_kalman_em,pseudo,2019:Q3:pre_third:pseudo,2019-12-31,pre_third,T,2019:Q3,1.926586040179088,0.13462632467763821,0.3669146013415632,model_implied_state_space,2.1024,-0.17581395982091186,False,True,85,-6400.655898089368,-7478.681402652314,-6400.655898089368,0.5302225945315513,8.281899097224487e-05,85.0,14,5,0.02
standard_dfm,pseudo,2019:Q3:pre_third:pseudo,2019-12-31,pre_third,T,2019:Q3,2.451380048869966,,,not_available,2.1024,0.34898004886996636,False,True,0,,,,,,,14,5,0.02
release_dfm,pseudo,2019:Q3:pre_third:pseudo,2019-12-31,pre_third,T,2019:Q3,2.149466156677759,,,not_available,2.1024,0.04706615667775926,False,True,0,,,,,,,14,5,0.02
revision_dfm_kalman_em,pseudo,2019:Q3:pre_third:pseudo,2019-12-31,pre_third,T,2019:Q3,2.121800077355015,0.14639090320722517,0.3826106417851249,model_implied_state_space,2.1024,0.019400077355015366,False,True,22,-2026.7639469979956,-3012.709876766834,-2026.7639469979956,0.20161769282231035,9.941869641807691e-05,22.0,14,5,0.02
indicator_revision_only_dfm_kalman_em,pseudo,2019:Q3:pre_third:pseudo,2019-12-31,pre_third,T,2019:Q3,2.114987899714849,0.1504884695117572,0.387928433492258,model_implied_state_space,2.1024,0.012587899714849193,False,True,28,-3754.7286387312606,-4932.354917789324,-3754.7286387312606,0.37367337488831254,9.948434409891878e-05,28.0,14,5,0.02
joint_indicator_revision_dfm_full_kalman_em,pseudo,2019:Q3:pre_third:pseudo,2019-12-31,pre_third,T,2019:Q3,2.1219037492598605,0.1459029675315384,0.3819724695989731,model_implied_state_space,2.1024,0.019503749259860648,False,True,28,-3719.125084066101,-4947.540389012807,-3719.125084066101,0.3693245381800807,9.926759661994234e-05,28.0,14,5,0.02
ar,exact,2019:Q4:pre_advance:exact,2020-01-29,pre_advance,A,2019:Q4,2.2100311607376257,,,not_available,2.0808,0.12923116073762575,False,True,0,,,,,,,14,5,0.02
no_revision,exact,2019:Q4:pre_advance:exact,2020-01-29,pre_advance,A,2019:Q4,2.1968709062412755,,,not_available,2.0808,0.11607090624127547,False,True,0,,,,,,,14,5,0.02
bridge,exact,2019:Q4:pre_advance:exact,2020-01-29,pre_advance,A,2019:Q4,2.510353588287196,,,not_available,2.0808,0.42955358828719614,False,True,0,,,,,,,14,5,0.02
midas_umidas,exact,2019:Q4:pre_advance:exact,2020-01-29,pre_advance,A,2019:Q4,0.14334577927015535,,,not_available,2.0808,-1.9374542207298446,False,True,0,,,,,,,14,5,0.02
monthly_mixed_frequency_kalman_em,exact,2019:Q4:pre_advance:exact,2020-01-29,pre_advance,A,2019:Q4,2.321376306824769,3.1804824465352883,1.783390716173909,model_implied_state_space,2.0808,0.24057630682476905,False,True,50,-6469.2853342069075,-7498.543314628145,-6469.2853342069075,0.6272767151895096,9.693790550203759e-05,50.0,14,5,0.02
standard_dfm,exact,2019:Q4:pre_advance:exact,2020-01-29,pre_advance,A,2019:Q4,1.9184646342382905,,,not_available,2.0808,-0.16233536576170948,False,True,0,,,,,,,14,5,0.02
release_dfm,exact,2019:Q4:pre_advance:exact,2020-01-29,pre_advance,A,2019:Q4,1.9184646342382905,,,not_available,2.0808,-0.16233536576170948,False,True,0,,,,,,,14,5,0.02
revision_dfm_kalman_em,exact,2019:Q4:pre_advance:exact,2020-01-29,pre_advance,A,2019:Q4,1.4363714849012852,3.177608605068293,1.7825848100632669,model_implied_state_space,2.0808,-0.6444285150987148,False,True,22,-2045.506871580419,-3034.156554402775,-2045.506871580419,0.2013965346909572,9.840021552091094e-05,22.0,14,5,0.02
indicator_revision_only_dfm_kalman_em,exact,2019:Q4:pre_advance:exact,2020-01-29,pre_advance,A,2019:Q4,1.630251098949979,3.6979122504057105,1.9229956449263503,model_implied_state_space,2.0808,-0.450548901050021,False,True,25,-3790.936210047085,-4983.035545540191,-3790.936210047085,0.37543599214723145,9.899924562880914e-05,25.0,14,5,0.02
joint_indicator_revision_dfm_full_kalman_em,exact,2019:Q4:pre_advance:exact,2020-01-29,pre_advance,A,2019:Q4,1.5811017271118746,2.6421402382201205,1.62546616028145,model_implied_state_space,2.0808,-0.4996982728881254,False,True,26,-3755.4550489466437,-4998.127308346953,-3755.4550489466437,0.3518573223063868,9.365861250926834e-05,26.0,14,5,0.02
ar,exact,2019:Q4:pre_second:exact,2020-02-26,pre_second,S,2019:Q4,2.3765756189143223,,,not_available,2.0956,0.2809756189143222,False,True,0,,,,,,,14,5,0.02
no_revision,exact,2019:Q4:pre_second:exact,2020-02-26,pre_second,S,2019:Q4,2.0808,,,not_available,2.0956,-0.014800000000000146,False,True,0,,,,,,,14,5,0.02
bridge,exact,2019:Q4:pre_second:exact,2020-02-26,pre_second,S,2019:Q4,2.8435719314230106,,,not_available,2.0956,0.7479719314230104,False,True,0,,,,,,,14,5,0.02
midas_umidas,exact,2019:Q4:pre_second:exact,2020-02-26,pre_second,S,2019:Q4,2.407347471050032,,,not_available,2.0956,0.31174747105003187,False,True,0,,,,,,,14,5,0.02
monthly_mixed_frequency_kalman_em,exact,2019:Q4:pre_second:exact,2020-02-26,pre_second,S,2019:Q4,1.8308919516610667,0.3409102591919393,0.5838752085779454,model_implied_state_space,2.0956,-0.26470804833893347,False,True,87,-6438.970241778739,-7517.704691580865,-6438.970241778739,0.5797461170295719,9.00150015323434e-05,87.0,14,5,0.02
standard_dfm,exact,2019:Q4:pre_second:exact,2020-02-26,pre_second,S,2019:Q4,2.072184393236813,,,not_available,2.0956,-0.023415606763187213,False,True,0,,,,,,,14,5,0.02
release_dfm,exact,2019:Q4:pre_second:exact,2020-02-26,pre_second,S,2019:Q4,2.146839918234161,,,not_available,2.0956,0.051239918234160964,False,True,0,,,,,,,14,5,0.02
revision_dfm_kalman_em,exact,2019:Q4:pre_second:exact,2020-02-26,pre_second,S,2019:Q4,2.203825773781973,0.39674596358982817,0.6298777370171359,model_implied_state_space,2.0956,0.10822577378197273,False,True,21,-2045.6376608984879,-3024.0291849585483,-2045.6376608984879,0.1871316240133183,9.142532604498004e-05,21.0,14,5,0.02
indicator_revision_only_dfm_kalman_em,exact,2019:Q4:pre_second:exact,2020-02-26,pre_second,S,2019:Q4,2.045926857709376,0.38742964632151233,0.6224384678998498,model_implied_state_space,2.0956,-0.04967314229062403,False,True,25,-3791.364656944164,-4984.026243667886,-3791.364656944164,0.3751159421508419,9.890368562390841e-05,25.0,14,5,0.02
joint_indicator_revision_dfm_full_kalman_em,exact,2019:Q4:pre_second:exact,2020-02-26,pre_second,S,2019:Q4,2.1610716907246292,0.3852622687933469,0.6206949885357114,model_implied_state_space,2.0956,0.0654716907246291,False,True,26,-3755.749069653072,-4999.222744649749,-3755.749069653072,0.3508992301717626,9.339629849563558e-05,26.0,14,5,0.02
ar,exact,2019:Q4:pre_third:exact,2020-03-25,pre_third,T,2019:Q4,2.41550164741769,,,not_available,2.1275,0.2880016474176901,False,True,0,,,,,,,14,5,0.02
no_revision,exact,2019:Q4:pre_third:exact,2020-03-25,pre_third,T,2019:Q4,2.0956,,,not_available,2.1275,-0.03189999999999982,False,True,0,,,,,,,14,5,0.02
bridge,exact,2019:Q4:pre_third:exact,2020-03-25,pre_third,T,2019:Q4,2.864398639107203,,,not_available,2.1275,0.7368986391072032,False,True,0,,,,,,,14,5,0.02
midas_umidas,exact,2019:Q4:pre_third:exact,2020-03-25,pre_third,T,2019:Q4,2.010628492430776,,,not_available,2.1275,-0.11687150756922415,False,True,0,,,,,,,14,5,0.02
monthly_mixed_frequency_kalman_em,exact,2019:Q4:pre_third:exact,2020-03-25,pre_third,T,2019:Q4,1.9491936121009557,0.14080023833339672,0.3752335783660582,model_implied_state_space,2.1275,-0.1783063878990443,False,True,53,-6506.291415830412,-7539.787496723451,-6506.291415830412,0.6501470142229664,9.990056117510461e-05,53.0,14,5,0.02
standard_dfm,exact,2019:Q4:pre_third:exact,2020-03-25,pre_third,T,2019:Q4,2.132247901709427,,,not_available,2.1275,0.0047479017094271825,False,True,0,,,,,,,14,5,0.02
release_dfm,exact,2019:Q4:pre_third:exact,2020-03-25,pre_third,T,2019:Q4,2.161040249378947,,,not_available,2.1275,0.03354024937894717,False,True,0,,,,,,,14,5,0.02
revision_dfm_kalman_em,exact,2019:Q4:pre_third:exact,2020-03-25,pre_third,T,2019:Q4,2.1067282158603104,0.14571194732102122,0.3817223432300253,model_implied_state_space,2.1275,-0.020771784139689498,False,True,22,-2045.736870491317,-3036.424136231777,-2045.736870491317,0.2033975484284838,9.936662618067877e-05,22.0,14,5,0.02
indicator_revision_only_dfm_kalman_em,exact,2019:Q4:pre_third:exact,2020-03-25,pre_third,T,2019:Q4,2.0928503165824925,0.14970406130689834,0.3869160907831288,model_implied_state_space,2.1275,-0.034649683417507404,False,True,29,-3792.1054302596067,-4974.862873763641,-3792.1054302596067,0.36104639287441387,9.51758490806585e-05,29.0,14,5,0.02
joint_indicator_revision_dfm_full_kalman_em,exact,2019:Q4:pre_third:exact,2020-03-25,pre_third,T,2019:Q4,2.100079476871097,0.14523936083689698,0.3811028218695015,model_implied_state_space,2.1275,-0.027420523128903085,False,True,28,-3756.757764626973,-4990.117659912273,-3756.757764626973,0.37549048218352254,9.991409476315024e-05,28.0,14,5,0.02
ar,pseudo,2019:Q4:pre_advance:pseudo,2020-01-31,pre_advance,A,2019:Q4,2.2100311607376257,,,not_available,2.0808,0.12923116073762575,False,True,0,,,,,,,14,5,0.02
no_revision,pseudo,2019:Q4:pre_advance:pseudo,2020-01-31,pre_advance,A,2019:Q4,2.1968709062412755,,,not_available,2.0808,0.11607090624127547,False,True,0,,,,,,,14,5,0.02
bridge,pseudo,2019:Q4:pre_advance:pseudo,2020-01-31,pre_advance,A,2019:Q4,2.5104803906747097,,,not_available,2.0808,0.42968039067470976,False,True,0,,,,,,,14,5,0.02
midas_umidas,pseudo,2019:Q4:pre_advance:pseudo,2020-01-31,pre_advance,A,2019:Q4,0.1263758571926259,,,not_available,2.0808,-1.954424142807374,False,True,0,,,,,,,14,5,0.02
monthly_mixed_frequency_kalman_em,pseudo,2019:Q4:pre_advance:pseudo,2020-01-31,pre_advance,A,2019:Q4,2.312207659190274,3.1802250645765655,1.7833185538698815,model_implied_state_space,2.0808,0.23140765919027384,False,True,50,-6470.62796759433,-7499.925111035035,-6470.62796759433,0.6268550275635789,9.685264946191373e-05,50.0,14,5,0.02
standard_dfm,pseudo,2019:Q4:pre_advance:pseudo,2020-01-31,pre_advance,A,2019:Q4,1.9173075948074958,,,not_available,2.0808,-0.1634924051925042,False,True,0,,,,,,,14,5,0.02
release_dfm,pseudo,2019:Q4:pre_advance:pseudo,2020-01-31,pre_advance,A,2019:Q4,1.9173075948074958,,,not_available,2.0808,-0.1634924051925042,False,True,0,,,,,,,14,5,0.02
revision_dfm_kalman_em,pseudo,2019:Q4:pre_advance:pseudo,2020-01-31,pre_advance,A,2019:Q4,1.4356263407339769,3.1775984378162816,1.782581958232575,model_implied_state_space,2.0808,-0.6451736592660231,False,True,22,-2045.5041709594925,-3034.1551848826516,-2045.5041709594925,0.20139094122919232,9.839761271873705e-05,22.0,14,5,0.02
indicator_revision_only_dfm_kalman_em,pseudo,2019:Q4:pre_advance:pseudo,2020-01-31,pre_advance,A,2019:Q4,1.6296658141154703,3.6978960364096607,1.9229914291045762,model_implied_state_space,2.0808,-0.4511341858845297,False,True,25,-3790.9426760290107,-4983.041497477234,-3790.9426760290107,0.37548584218302494,9.90122205352501e-05,25.0,14,5,0.02
joint_indicator_revision_dfm_full_kalman_em,pseudo,2019:Q4:pre_advance:pseudo,2020-01-31,pre_advance,A,2019:Q4,1.5807691393672516,2.642146053874025,1.625467949199253,model_implied_state_space,2.0808,-0.5000308606327484,False,True,26,-3755.4616292841247,-4998.13326163433,-3755.4616292841247,0.3519191874320313,9.367491436331945e-05,26.0,14,5,0.02
ar,pseudo,2019:Q4:pre_second:pseudo,2020-02-29,pre_second,S,2019:Q4,2.3765756189143223,,,not_available,2.0956,0.2809756189143222,False,True,0,,,,,,,14,5,0.02
no_revision,pseudo,2019:Q4:pre_second:pseudo,2020-02-29,pre_second,S,2019:Q4,2.0808,,,not_available,2.0956,-0.014800000000000146,False,True,0,,,,,,,14,5,0.02
bridge,pseudo,2019:Q4:pre_second:pseudo,2020-02-29,pre_second,S,2019:Q4,2.8529123584527927,,,not_available,2.0956,0.7573123584527925,False,True,0,,,,,,,14,5,0.02
midas_umidas,pseudo,2019:Q4:pre_second:pseudo,2020-02-29,pre_second,S,2019:Q4,2.4205851823166946,,,not_available,2.0956,0.3249851823166945,False,True,0,,,,,,,14,5,0.02
monthly_mixed_frequency_kalman_em,pseudo,2019:Q4:pre_second:pseudo,2020-02-29,pre_second,S,2019:Q4,1.9220105592565297,0.3477306015605787,0.5896868673801196,model_implied_state_space,2.0956,-0.17358944074347038,False,True,53,-6488.448639322011,-7520.511986458246,-6488.448639322011,0.6459187049040338,9.952377413440994e-05,53.0,14,5,0.02
standard_dfm,pseudo,2019:Q4:pre_second:pseudo,2020-02-29,pre_second,S,2019:Q4,2.0812869841245267,,,not_available,2.0956,-0.0143130158754734,False,True,0,,,,,,,14,5,0.02
release_dfm,pseudo,2019:Q4:pre_second:pseudo,2020-02-29,pre_second,S,2019:Q4,2.1473853057521275,,,not_available,2.0956,0.051785305752127364,False,True,0,,,,,,,14,5,0.02
revision_dfm_kalman_em,pseudo,2019:Q4:pre_second:pseudo,2020-02-29,pre_second,S,2019:Q4,2.2038082919707707,0.3967471904832858,0.6298787109303551,model_implied_state_space,2.0956,0.10820829197077053,False,True,21,-2045.6274825128417,-3024.017805460742,-2045.6274825128417,0.1871405706308451,9.143015128010115e-05,21.0,14,5,0.02
indicator_revision_only_dfm_kalman_em,pseudo,2019:Q4:pre_second:pseudo,2020-02-29,pre_second,S,2019:Q4,2.047123399885011,0.387427152415145,0.6224364645609582,model_implied_state_space,2.0956,-0.04847660011498922,False,True,25,-3791.402862119737,-4984.056246900486,-3791.402862119737,0.3751994106728489,9.892469440235413e-05,25.0,14,5,0.02
joint_indicator_revision_dfm_full_kalman_em,pseudo,2019:Q4:pre_second:pseudo,2020-02-29,pre_second,S,2019:Q4,2.160992494642689,0.38526568510358083,0.620697740533652,model_implied_state_space,2.0956,0.0653924946426887,False,True,26,-3755.7859754867814,-4999.2529098601535,-3755.7859754867814,0.3510051772468614,9.342357732850761e-05,26.0,14,5,0.02
ar,pseudo,2019:Q4:pre_third:pseudo,2020-03-31,pre_third,T,2019:Q4,2.41550164741769,,,not_available,2.1275,0.2880016474176901,False,True,0,,,,,,,14,5,0.02
no_revision,pseudo,2019:Q4:pre_third:pseudo,2020-03-31,pre_third,T,2019:Q4,2.0956,,,not_available,2.1275,-0.03189999999999982,False,True,0,,,,,,,14,5,0.02
bridge,pseudo,2019:Q4:pre_third:pseudo,2020-03-31,pre_third,T,2019:Q4,2.8646820537455304,,,not_available,2.1275,0.7371820537455305,False,True,0,,,,,,,14,5,0.02
midas_umidas,pseudo,2019:Q4:pre_third:pseudo,2020-03-31,pre_third,T,2019:Q4,2.0064379187967267,,,not_available,2.1275,-0.12106208120327322,False,True,0,,,,,,,14,5,0.02
monthly_mixed_frequency_kalman_em,pseudo,2019:Q4:pre_third:pseudo,2020-03-31,pre_third,T,2019:Q4,1.8967459996732918,0.13417929717566401,0.3663049237666128,model_implied_state_space,2.1275,-0.23075400032670812,False,True,87,-6459.905496539938,-7541.2159128546655,-6459.905496539938,0.5675317894992986,8.783319020462265e-05,87.0,14,5,0.02
standard_dfm,pseudo,2019:Q4:pre_third:pseudo,2020-03-31,pre_third,T,2019:Q4,2.132690978022118,,,not_available,2.1275,0.005190978022118209,False,True,0,,,,,,,14,5,0.02
release_dfm,pseudo,2019:Q4:pre_third:pseudo,2020-03-31,pre_third,T,2019:Q4,2.1610461765746436,,,not_available,2.1275,0.03354617657464365,False,True,0,,,,,,,14,5,0.02
revision_dfm_kalman_em,pseudo,2019:Q4:pre_third:pseudo,2020-03-31,pre_third,T,2019:Q4,2.10672836476452,0.14571194815007305,0.38172234431596097,model_implied_state_space,2.1275,-0.02077163523548009,False,True,22,-2045.737507831816,-3036.424519852304,-2045.737507831816,0.20339905926039137,9.936733326088872e-05,22.0,14,5,0.02
indicator_revision_only_dfm_kalman_em,pseudo,2019:Q4:pre_third:pseudo,2020-03-31,pre_third,T,2019:Q4,2.0928517837460983,0.14970406012305157,0.38691608925327925,model_implied_state_space,2.1275,-0.03464821625390169,False,True,29,-3792.105728771213,-4974.863005782955,-3792.105728771213,0.3610475038281038,9.517613442304377e-05,29.0,14,5,0.02
joint_indicator_revision_dfm_full_kalman_em,pseudo,2019:Q4:pre_third:pseudo,2020-03-31,pre_third,T,2019:Q4,2.1000793199518517,0.14523935786070596,0.3811028179647928,model_implied_state_space,2.1275,-0.027420680048148238,False,True,28,-3756.75803831883,-4990.117792603473,-3756.75803831883,0.3754915249619444,9.991436493145356e-05,28.0,14,5,0.02
ar,exact,2020:Q1:pre_advance:exact,2020-04-28,pre_advance,A,2020:Q1,2.2897072387924506,,,not_available,-4.7832,7.0729072387924505,False,True,0,,,,,,,14,5,0.02
no_revision,exact,2020:Q1:pre_advance:exact,2020-04-28,pre_advance,A,2020:Q1,2.323386808382237,,,not_available,-4.7832,7.106586808382237,False,True,0,,,,,,,14,5,0.02
bridge,exact,2020:Q1:pre_advance:exact,2020-04-28,pre_advance,A,2020:Q1,1.6139523635539974,,,not_available,-4.7832,6.397152363553998,False,True,0,,,,,,,14,5,0.02
midas_umidas,exact,2020:Q1:pre_advance:exact,2020-04-28,pre_advance,A,2020:Q1,6.983423304700622,,,not_available,-4.7832,11.766623304700623,False,True,0,,,,,,,14,5,0.02
monthly_mixed_frequency_kalman_em,exact,2020:Q1:pre_advance:exact,2020-04-28,pre_advance,A,2020:Q1,-0.435795227697092,2.8147618221056883,1.6777251926658574,model_implied_state_space,-4.7832,4.347404772302908,False,True,40,-6365.157784502217,-7570.539615772524,-6365.157784502217,0.5121276228919669,8.04388526436147e-05,40.0,14,5,0.02
standard_dfm,exact,2020:Q1:pre_advance:exact,2020-04-28,pre_advance,A,2020:Q1,0.6240466118451982,,,not_available,-4.7832,5.407246611845198,False,True,0,,,,,,,14,5,0.02
release_dfm,exact,2020:Q1:pre_advance:exact,2020-04-28,pre_advance,A,2020:Q1,0.6240466118451982,,,not_available,-4.7832,5.407246611845198,False,True,0,,,,,,,14,5,0.02
revision_dfm_kalman_em,exact,2020:Q1:pre_advance:exact,2020-04-28,pre_advance,A,2020:Q1,-0.8893503901356024,3.141328759532033,1.7723794062028686,model_implied_state_space,-4.7832,3.8938496098643975,False,True,21,-2059.887976511969,-3045.2464494549654,-2059.887976511969,0.1897375401863428,9.205744106238078e-05,21.0,14,5,0.02
indicator_revision_only_dfm_kalman_em,exact,2020:Q1:pre_advance:exact,2020-04-28,pre_advance,A,2020:Q1,-0.8886669924943371,3.635303736774938,1.9066472502209049,model_implied_state_space,-4.7832,3.894533007505663,False,True,28,-3819.887275772837,-5011.7901732833225,-3819.887275772837,0.36213971621555174,9.476997621449535e-05,28.0,14,5,0.02
joint_indicator_revision_dfm_full_kalman_em,exact,2020:Q1:pre_advance:exact,2020-04-28,pre_advance,A,2020:Q1,-0.7431141080257553,2.533791042650117,1.5917886300165978,model_implied_state_space,-4.7832,4.040085891974245,False,True,28,-3784.0207878032556,-5027.031737933861,-3784.0207878032556,0.3577825501647567,9.451697987801322e-05,28.0,14,5,0.02
ar,exact,2020:Q1:pre_second:exact,2020-05-27,pre_second,S,2020:Q1,2.362411208093053,,,not_available,-5.0477,7.410111208093053,False,True,0,,,,,,,14,5,0.02
no_revision,exact,2020:Q1:pre_second:exact,2020-05-27,pre_second,S,2020:Q1,-4.7832,,,not_available,-5.0477,0.26449999999999996,False,True,0,,,,,,,14,5,0.02
bridge,exact,2020:Q1:pre_second:exact,2020-05-27,pre_second,S,2020:Q1,1.5192628497722622,,,not_available,-5.0477,6.566962849772262,False,True,0,,,,,,,14,5,0.02
midas_umidas,exact,2020:Q1:pre_second:exact,2020-05-27,pre_second,S,2020:Q1,-5.0219408204296805,,,not_available,-5.0477,0.025759179570319368,False,True,0,,,,,,,14,5,0.02
monthly_mixed_frequency_kalman_em,exact,2020:Q1:pre_second:exact,2020-05-27,pre_second,S,2020:Q1,-4.457447833958721,0.3389045054750804,0.5821550527781069,model_implied_state_space,-5.0477,0.590252166041279,False,True,38,-5904.76722749727,-7387.481874880861,-5904.76722749727,0.5293239996499324,8.962028828636753e-05,38.0,14,5,0.02
standard_dfm,exact,2020:Q1:pre_second:exact,2020-05-27,pre_second,S,2020:Q1,0.4106136891548773,,,not_available,-5.0477,5.458313689154878,False,True,0,,,,,,,14,5,0.02
release_dfm,exact,2020:Q1:pre_second:exact,2020-05-27,pre_second,S,2020:Q1,-5.062017677057046,,,not_available,-5.0477,-0.014317677057046119,False,True,0,,,,,,,14,5,0.02
revision_dfm_kalman_em,exact,2020:Q1:pre_second:exact,2020-05-27,pre_second,S,2020:Q1,-5.093483795443759,0.39615456722057363,0.6294081086390401,model_implied_state_space,-5.0477,-0.04578379544375899,False,True,20,-2059.2136467106907,-3046.4090124943195,-2059.2136467106907,0.20271518621757423,9.838554476967261e-05,20.0,14,5,0.02
indicator_revision_only_dfm_kalman_em,exact,2020:Q1:pre_second:exact,2020-05-27,pre_second,S,2020:Q1,-4.378650025137537,0.38616271225025334,0.6214199162001918,model_implied_state_space,-5.0477,0.669049974862463,False,True,27,-3818.59059146851,-5012.877077480699,-3818.59059146851,0.37359871959324664,9.780162875685226e-05,27.0,14,5,0.02
joint_indicator_revision_dfm_full_kalman_em,exact,2020:Q1:pre_second:exact,2020-05-27,pre_second,S,2020:Q1,-5.04415225358612,0.3843926322123579,0.6199940582073008,model_implied_state_space,-5.0477,0.003547746413880226,False,True,28,-3782.9680866161425,-5027.754707137882,-3782.9680866161425,0.356347353536421,9.416406012594959e-05,28.0,14,5,0.02
ar,exact,2020:Q1:pre_third:exact,2020-06-24,pre_third,T,2020:Q1,2.4250162204474304,,,not_available,-4.9937,7.41871622044743,False,True,0,,,,,,,14,5,0.02
no_revision,exact,2020:Q1:pre_third:exact,2020-06-24,pre_third,T,2020:Q1,-5.0477,,,not_available,-4.9937,-0.05400000000000027,False,True,0,,,,,,,14,5,0.02
bridge,exact,2020:Q1:pre_third:exact,2020-06-24,pre_third,T,2020:Q1,1.2725491109883,,,not_available,-4.9937,6.2662491109883,False,True,0,,,,,,,14,5,0.02
midas_umidas,exact,2020:Q1:pre_third:exact,2020-06-24,pre_third,T,2020:Q1,-4.6542372064798965,,,not_available,-4.9937,0.3394627935201031,False,True,0,,,,,,,14,5,0.02
monthly_mixed_frequency_kalman_em,exact,2020:Q1:pre_third:exact,2020-06-24,pre_third,T,2020:Q1,-5.349545992541492,0.15257514584676934,0.39060868634321144,model_implied_state_space,-4.9937,-0.3558459925414921,False,True,30,-5842.564757670993,-7569.414509506856,-5842.564757670993,0.568459167846413,9.727005644027727e-05,30.0,14,5,0.02
standard_dfm,exact,2020:Q1:pre_third:exact,2020-06-24,pre_third,T,2020:Q1,0.40658589299139214,,,not_available,-4.9937,5.400285892991391,False,True,0,,,,,,,14,5,0.02
release_dfm,exact,2020:Q1:pre_third:exact,2020-06-24,pre_third,T,2020:Q1,-5.096306401636982,,,not_available,-4.9937,-0.10260640163698209,False,True,0,,,,,,,14,5,0.02
revision_dfm_kalman_em,exact,2020:Q1:pre_third:exact,2020-06-24,pre_third,T,2020:Q1,-5.065801748118112,0.1449265925609584,0.3806922544010561,model_implied_state_space,-4.9937,-0.07210174811811232,False,True,21,-2056.724726181542,-3047.8690724583685,-2056.724726181542,0.17456145921141797,8.482507392844343e-05,21.0,14,5,0.02
indicator_revision_only_dfm_kalman_em,exact,2020:Q1:pre_third:exact,2020-06-24,pre_third,T,2020:Q1,-5.001510532509569,0.14932322149327346,0.38642362957416754,model_implied_state_space,-4.9937,-0.007810532509568979,False,True,25,-3815.174479253683,-5025.124780667336,-3815.174479253683,0.37250920063343074,9.760372445572725e-05,25.0,14,5,0.02
joint_indicator_revision_dfm_full_kalman_em,exact,2020:Q1:pre_third:exact,2020-06-24,pre_third,T,2020:Q1,-5.0575710355721775,0.14465437367135628,0.38033455492678586,model_implied_state_space,-4.9937,-0.06387103557217788,False,True,26,-3779.394383266016,-5039.9802849760335,-3779.394383266016,0.3549438252789514,9.388187223510691e-05,26.0,14,5,0.02
ar,pseudo,2020:Q1:pre_advance:pseudo,2020-04-30,pre_advance,A,2020:Q1,2.2897072387924506,,,not_available,-4.7832,7.0729072387924505,False,True,0,,,,,,,14,5,0.02
no_revision,pseudo,2020:Q1:pre_advance:pseudo,2020-04-30,pre_advance,A,2020:Q1,2.323386808382237,,,not_available,-4.7832,7.106586808382237,False,True,0,,,,,,,14,5,0.02
bridge,pseudo,2020:Q1:pre_advance:pseudo,2020-04-30,pre_advance,A,2020:Q1,1.6186201510230136,,,not_available,-4.7832,6.4018201510230135,False,True,0,,,,,,,14,5,0.02
midas_umidas,pseudo,2020:Q1:pre_advance:pseudo,2020-04-30,pre_advance,A,2020:Q1,6.412402070448358,,,not_available,-4.7832,11.19560207044836,False,True,0,,,,,,,14,5,0.02
monthly_mixed_frequency_kalman_em,pseudo,2020:Q1:pre_advance:pseudo,2020-04-30,pre_advance,A,2020:Q1,-0.43496932211960404,2.812883517601773,1.6771653220841924,model_implied_state_space,-4.7832,4.348230677880396,False,True,40,-6365.75857504451,-7568.960720705711,-6365.75857504451,0.5585125763955148,8.771552738929141e-05,40.0,14,5,0.02
standard_dfm,pseudo,2020:Q1:pre_advance:pseudo,2020-04-30,pre_advance,A,2020:Q1,0.5327006664243215,,,not_available,-4.7832,5.315900666424321,False,True,0,,,,,,,14,5,0.02
release_dfm,pseudo,2020:Q1:pre_advance:pseudo,2020-04-30,pre_advance,A,2020:Q1,0.5327006664243215,,,not_available,-4.7832,5.315900666424321,False,True,0,,,,,,,14,5,0.02
revision_dfm_kalman_em,pseudo,2020:Q1:pre_advance:pseudo,2020-04-30,pre_advance,A,2020:Q1,-0.9389534671302653,3.138736069558217,1.7716478401641274,model_implied_state_space,-4.7832,3.8442465328697346,False,True,21,-2059.057891911424,-3044.853184125418,-2059.057891911424,0.18951380504540793,9.198594524112643e-05,21.0,14,5,0.02
indicator_revision_only_dfm_kalman_em,pseudo,2020:Q1:pre_advance:pseudo,2020-04-30,pre_advance,A,2020:Q1,-0.9495266907029642,3.6334656609225258,1.9061651714692842,model_implied_state_space,-4.7832,3.8336733092970356,False,True,28,-3818.9415126398035,-5011.098158346933,-3818.9415126398035,0.3648062504507834,9.54913611630898e-05,28.0,14,5,0.02
joint_indicator_revision_dfm_full_kalman_em,pseudo,2020:Q1:pre_advance:pseudo,2020-04-30,pre_advance,A,2020:Q1,-0.8038394288319175,2.531641200440611,1.591113195357455,model_implied_state_space,-4.7832,3.9793605711680824,False,True,28,-3783.0595687540545,-5026.339076954508,-3783.0595687540545,0.3609123788146462,9.536793826530788e-05,28.0,14,5,0.02
ar,pseudo,2020:Q1:pre_second:pseudo,2020-05-31,pre_second,S,2020:Q1,2.362411208093053,,,not_available,-5.0477,7.410111208093053,False,True,0,,,,,,,14,5,0.02
no_revision,pseudo,2020:Q1:pre_second:pseudo,2020-05-31,pre_second,S,2020:Q1,-4.7832,,,not_available,-5.0477,0.26449999999999996,False,True,0,,,,,,,14,5,0.02
bridge,pseudo,2020:Q1:pre_second:pseudo,2020-05-31,pre_second,S,2020:Q1,1.51011815047926,,,not_available,-5.0477,6.55781815047926,False,True,0,,,,,,,14,5,0.02
midas_umidas,pseudo,2020:Q1:pre_second:pseudo,2020-05-31,pre_second,S,2020:Q1,-5.297727048454643,,,not_available,-5.0477,-0.2500270484546432,False,True,0,,,,,,,14,5,0.02
monthly_mixed_frequency_kalman_em,pseudo,2020:Q1:pre_second:pseudo,2020-05-31,pre_second,S,2020:Q1,-4.534396625304282,0.33888374801190985,0.5821372243826277,model_implied_state_space,-5.0477,0.5133033746957176,False,True,44,-5864.340540144614,-7345.674777637329,-5864.340540144614,0.547686764674836,9.3368087404456e-05,44.0,14,5,0.02
standard_dfm,pseudo,2020:Q1:pre_second:pseudo,2020-05-31,pre_second,S,2020:Q1,0.400962282321097,,,not_available,-5.0477,5.448662282321097,False,True,0,,,,,,,14,5,0.02
release_dfm,pseudo,2020:Q1:pre_second:pseudo,2020-05-31,pre_second,S,2020:Q1,-5.062788567388224,,,not_available,-5.0477,-0.01508856738822395,False,True,0,,,,,,,14,5,0.02
revision_dfm_kalman_em,pseudo,2020:Q1:pre_second:pseudo,2020-05-31,pre_second,S,2020:Q1,-5.092834665669697,0.39610263259968653,0.6293668505726104,model_implied_state_space,-5.0477,-0.04513466566969715,False,True,20,-2060.1523648985667,-3046.7795478652133,-2060.1523648985667,0.20340917956445992,9.867737637644212e-05,20.0,14,5,0.02
indicator_revision_only_dfm_kalman_em,pseudo,2020:Q1:pre_second:pseudo,2020-05-31,pre_second,S,2020:Q1,-4.380622025251892,0.38610669610263754,0.621374843474241,model_implied_state_space,-5.0477,0.6670779747481079,False,True,27,-3819.465147047992,-5013.248986742446,-3819.465147047992,0.37583318064616833,9.836399436431886e-05,27.0,14,5,0.02
joint_indicator_revision_dfm_full_kalman_em,pseudo,2020:Q1:pre_second:pseudo,2020-05-31,pre_second,S,2020:Q1,-5.044172499687361,0.3843961036646035,0.6199968577860725,model_implied_state_space,-5.0477,0.0035275003126384874,False,True,28,-3783.8362200173165,-5028.126971034792,-3783.8362200173165,0.35811626917939066,9.460974453711255e-05,28.0,14,5,0.02
ar,pseudo,2020:Q1:pre_third:pseudo,2020-06-30,pre_third,T,2020:Q1,2.4250162204474304,,,not_available,-4.9937,7.41871622044743,False,True,0,,,,,,,14,5,0.02
no_revision,pseudo,2020:Q1:pre_third:pseudo,2020-06-30,pre_third,T,2020:Q1,-5.0477,,,not_available,-4.9937,-0.05400000000000027,False,True,0,,,,,,,14,5,0.02
bridge,pseudo,2020:Q1:pre_third:pseudo,2020-06-30,pre_third,T,2020:Q1,1.2646961124291711,,,not_available,-4.9937,6.258396112429171,False,True,0,,,,,,,14,5,0.02
midas_umidas,pseudo,2020:Q1:pre_third:pseudo,2020-06-30,pre_third,T,2020:Q1,-4.652482852347865,,,not_available,-4.9937,0.3412171476521344,False,True,0,,,,,,,14,5,0.02
monthly_mixed_frequency_kalman_em,pseudo,2020:Q1:pre_third:pseudo,2020-06-30,pre_third,T,2020:Q1,-5.348879665225306,0.1525827713012122,0.39061844721058964,model_implied_state_space,-4.9937,-0.35517966522530653,False,True,30,-5848.09797214537,-7570.982370400096,-5848.09797214537,0.5808403497094332,9.929440031284142e-05,30.0,14,5,0.02
standard_dfm,pseudo,2020:Q1:pre_third:pseudo,2020-06-30,pre_third,T,2020:Q1,0.3938563920230176,,,not_available,-4.9937,5.387556392023017,False,True,0,,,,,,,14,5,0.02
release_dfm,pseudo,2020:Q1:pre_third:pseudo,2020-06-30,pre_third,T,2020:Q1,-5.096460939848946,,,not_available,-4.9937,-0.10276093984894619,False,True,0,,,,,,,14,5,0.02
revision_dfm_kalman_em,pseudo,2020:Q1:pre_third:pseudo,2020-06-30,pre_third,T,2020:Q1,-5.065888992266455,0.1449028487376743,0.38066106806143746,model_implied_state_space,-4.9937,-0.07218899226645537,False,True,20,-2056.8046373345205,-3047.8277928181064,-2056.8046373345205,0.20579654771108835,9.999781552267142e-05,20.0,14,5,0.02
indicator_revision_only_dfm_kalman_em,pseudo,2020:Q1:pre_third:pseudo,2020-06-30,pre_third,T,2020:Q1,-5.001548275224826,0.14932341267780783,0.3864238769509563,model_implied_state_space,-4.9937,-0.007848275224826118,False,True,25,-3815.1169497642613,-5025.107256549124,-3815.1169497642613,0.37259727959735756,9.762827200351184e-05,25.0,14,5,0.02
joint_indicator_revision_dfm_full_kalman_em,pseudo,2020:Q1:pre_third:pseudo,2020-06-30,pre_third,T,2020:Q1,-5.05756649125003,0.14465435943031435,0.3803345362050551,model_implied_state_space,-4.9937,-0.06386649125003085,False,True,26,-3779.3353767487815,-5039.962716167363,-3779.3353767487815,0.3550458427207559,9.391031876061068e-05,26.0,14,5,0.02
ar,exact,2020:Q2:pre_advance:exact,2020-07-29,pre_advance,A,2020:Q2,-1.1573964624978355,,,not_available,-32.9038,31.74640353750216,False,True,0,,,,,,,14,5,0.02
no_revision,exact,2020:Q2:pre_advance:exact,2020-07-29,pre_advance,A,2020:Q2,-1.1484712531706052,,,not_available,-32.9038,31.75532874682939,False,True,0,,,,,,,14,5,0.02
bridge,exact,2020:Q2:pre_advance:exact,2020-07-29,pre_advance,A,2020:Q2,-11.104287028089175,,,not_available,-32.9038,21.799512971910822,False,True,0,,,,,,,14,5,0.02
midas_umidas,exact,2020:Q2:pre_advance:exact,2020-07-29,pre_advance,A,2020:Q2,30.848015896470223,,,not_available,-32.9038,63.75181589647022,False,True,0,,,,,,,14,5,0.02
monthly_mixed_frequency_kalman_em,exact,2020:Q2:pre_advance:exact,2020-07-29,pre_advance,A,2020:Q2,-17.29279099840882,2.7860907616824515,1.6691586987708662,model_implied_state_space,-32.9038,15.611009001591178,False,True,30,-5800.950420662696,-7576.408237289621,-5800.950420662696,0.543709375088838,9.370270144250838e-05,30.0,14,5,0.02
standard_dfm,exact,2020:Q2:pre_advance:exact,2020-07-29,pre_advance,A,2020:Q2,-15.718307815729272,,,not_available,-32.9038,17.185492184270725,False,True,0,,,,,,,14,5,0.02
release_dfm,exact,2020:Q2:pre_advance:exact,2020-07-29,pre_advance,A,2020:Q2,-15.718307815729272,,,not_available,-32.9038,17.185492184270725,False,True,0,,,,,,,14,5,0.02
revision_dfm_kalman_em,exact,2020:Q2:pre_advance:exact,2020-07-29,pre_advance,A,2020:Q2,-20.524988558214844,2.135543896404957,1.4613500252865352,model_implied_state_space,-32.9038,12.378811441785153,False,True,29,-1891.851125589318,-3069.387912349364,-1891.851125589318,0.16657981915682285,8.799696837535828e-05,29.0,14,5,0.02
indicator_revision_only_dfm_kalman_em,exact,2020:Q2:pre_advance:exact,2020-07-29,pre_advance,A,2020:Q2,-25.43291635401195,2.8231615055418495,1.6802266232689713,model_implied_state_space,-32.9038,7.470883645988046,False,True,36,-3399.108269419196,-5013.9063084873,-3399.108269419196,0.2850956652923742,8.384196611479111e-05,36.0,14,5,0.02
joint_indicator_revision_dfm_full_kalman_em,exact,2020:Q2:pre_advance:exact,2020-07-29,pre_advance,A,2020:Q2,-25.839205249393856,1.868857749984546,1.3670617213515073,model_implied_state_space,-32.9038,7.06459475060614,False,True,37,-3358.030529116918,-5028.769549213028,-3358.030529116918,0.2943491953187731,8.76215328916498e-05,37.0,14,5,0.02
ar,exact,2020:Q2:pre_second:exact,2020-08-26,pre_second,S,2020:Q2,-0.9346260921233107,,,not_available,-31.7041,30.76947390787669,False,True,0,,,,,,,14,5,0.02
no_revision,exact,2020:Q2:pre_second:exact,2020-08-26,pre_second,S,2020:Q2,-32.9038,,,not_available,-31.7041,-1.1996999999999964,False,True,0,,,,,,,14,5,0.02
bridge,exact,2020:Q2:pre_second:exact,2020-08-26,pre_second,S,2020:Q2,-11.728274633025507,,,not_available,-31.7041,19.975825366974494,False,True,0,,,,,,,14,5,0.02
midas_umidas,exact,2020:Q2:pre_second:exact,2020-08-26,pre_second,S,2020:Q2,-3.540074893379682,,,not_available,-31.7041,28.16402510662032,False,True,0,,,,,,,14,5,0.02
monthly_mixed_frequency_kalman_em,exact,2020:Q2:pre_second:exact,2020-08-26,pre_second,S,2020:Q2,-33.66595335826234,0.3429319133219236,0.5856038877278084,model_implied_state_space,-31.7041,-1.961853358262342,False,True,30,-5790.936824378299,-7593.671304928383,-5790.936824378299,0.5359329527009322,9.252230871913056e-05,30.0,14,5,0.02
standard_dfm,exact,2020:Q2:pre_second:exact,2020-08-26,pre_second,S,2020:Q2,-17.217326420438106,,,not_available,-31.7041,14.486773579561895,False,True,0,,,,,,,14,5,0.02
release_dfm,exact,2020:Q2:pre_second:exact,2020-08-26,pre_second,S,2020:Q2,-35.1656335115921,,,not_available,-31.7041,-3.4615335115920978,False,True,0,,,,,,,14,5,0.02
revision_dfm_kalman_em,exact,2020:Q2:pre_second:exact,2020-08-26,pre_second,S,2020:Q2,-34.71086611820115,0.3876252321082315,0.6225955606236134,model_implied_state_space,-31.7041,-3.0067661182011527,False,True,24,-1847.8379170726112,-3080.5536770625677,-1847.8379170726112,0.1789742623143411,9.679428195224758e-05,24.0,14,5,0.02
indicator_revision_only_dfm_kalman_em,exact,2020:Q2:pre_second:exact,2020-08-26,pre_second,S,2020:Q2,-32.777553394443856,0.3657676180544009,0.6047872502412736,model_implied_state_space,-31.7041,-1.073453394443856,False,True,42,-3345.173763553609,-5014.503265091498,-3345.173763553609,0.3046951834844549,9.104949792488486e-05,42.0,14,5,0.02
joint_indicator_revision_dfm_full_kalman_em,exact,2020:Q2:pre_second:exact,2020-08-26,pre_second,S,2020:Q2,-33.37991057952095,0.35290489850744144,0.5940579925457122,model_implied_state_space,-31.7041,-1.6758105795209524,False,True,43,-3306.1937171382415,-5023.084919022854,-3306.1937171382415,0.2844919614644823,8.601476517117278e-05,43.0,14,5,0.02
ar,exact,2020:Q2:pre_third:exact,2020-09-29,pre_third,T,2020:Q2,-0.7119618796649088,,,not_available,-31.3827,30.67073812033509,False,True,0,,,,,,,14,5,0.02
no_revision,exact,2020:Q2:pre_third:exact,2020-09-29,pre_third,T,2020:Q2,-31.7041,,,not_available,-31.3827,-0.3214000000000006,False,True,0,,,,,,,14,5,0.02
bridge,exact,2020:Q2:pre_third:exact,2020-09-29,pre_third,T,2020:Q2,-11.706443047869818,,,not_available,-31.3827,19.67625695213018,False,True,0,,,,,,,14,5,0.02
midas_umidas,exact,2020:Q2:pre_third:exact,2020-09-29,pre_third,T,2020:Q2,-62.55032037882182,,,not_available,-31.3827,-31.167620378821823,False,True,0,,,,,,,14,5,0.02
monthly_mixed_frequency_kalman_em,exact,2020:Q2:pre_third:exact,2020-09-29,pre_third,T,2020:Q2,-31.98292276889753,0.14698826089382985,0.3833904809640295,model_implied_state_space,-31.3827,-0.600222768897531,False,True,30,-5763.283163787264,-7611.521640025797,-5763.283163787264,0.5381468727000538,9.335013935383299e-05,30.0,14,5,0.02
standard_dfm,exact,2020:Q2:pre_third:exact,2020-09-29,pre_third,T,2020:Q2,-17.276938736761693,,,not_available,-31.3827,14.105761263238307,False,True,0,,,,,,,14,5,0.02
release_dfm,exact,2020:Q2:pre_third:exact,2020-09-29,pre_third,T,2020:Q2,-32.88490959470745,,,not_available,-31.3827,-1.5022095947074519,False,True,0,,,,,,,14,5,0.02
revision_dfm_kalman_em,exact,2020:Q2:pre_third:exact,2020-09-29,pre_third,T,2020:Q2,-31.829461864867937,0.14440957240913274,0.38001259506644347,model_implied_state_space,-31.3827,-0.4467618648679377,False,True,24,-1808.8204999211987,-3085.5103096659586,-1808.8204999211987,0.17094960674830872,9.444774271883608e-05,24.0,14,5,0.02
indicator_revision_only_dfm_kalman_em,exact,2020:Q2:pre_third:exact,2020-09-29,pre_third,T,2020:Q2,-31.755433545622147,0.14805220581702533,0.38477552653076225,model_implied_state_space,-31.3827,-0.3727335456221468,False,True,38,-3301.711997914387,-5032.976656048883,-3301.711997914387,0.31834240276020864,9.637889149078853e-05,38.0,14,5,0.02
joint_indicator_revision_dfm_full_kalman_em,exact,2020:Q2:pre_third:exact,2020-09-29,pre_third,T,2020:Q2,-31.721845991338135,0.14410134784003348,0.37960683323674965,model_implied_state_space,-31.3827,-0.3391459913381354,False,True,40,-3261.788874420308,-5042.172946669239,-3261.788874420308,0.27470806938799797,8.418716413070859e-05,40.0,14,5,0.02
ar,pseudo,2020:Q2:pre_advance:pseudo,2020-07-31,pre_advance,A,2020:Q2,-1.1573964624978355,,,not_available,-32.9038,31.74640353750216,False,True,0,,,,,,,14,5,0.02
no_revision,pseudo,2020:Q2:pre_advance:pseudo,2020-07-31,pre_advance,A,2020:Q2,-1.1484712531706052,,,not_available,-32.9038,31.75532874682939,False,True,0,,,,,,,14,5,0.02
bridge,pseudo,2020:Q2:pre_advance:pseudo,2020-07-31,pre_advance,A,2020:Q2,-10.908992164679558,,,not_available,-32.9038,21.994807835320437,False,True,0,,,,,,,14,5,0.02
midas_umidas,pseudo,2020:Q2:pre_advance:pseudo,2020-07-31,pre_advance,A,2020:Q2,33.13857262025131,,,not_available,-32.9038,66.04237262025131,False,True,0,,,,,,,14,5,0.02
monthly_mixed_frequency_kalman_em,pseudo,2020:Q2:pre_advance:pseudo,2020-07-31,pre_advance,A,2020:Q2,-17.306620998822268,2.789537862087015,1.6701909657542202,model_implied_state_space,-32.9038,15.597179001177729,False,True,30,-5805.174913630151,-7577.424273802538,-5805.174913630151,0.5482355668964374,9.441393240389759e-05,30.0,14,5,0.02
standard_dfm,pseudo,2020:Q2:pre_advance:pseudo,2020-07-31,pre_advance,A,2020:Q2,-15.575879759710256,,,not_available,-32.9038,17.327920240289743,False,True,0,,,,,,,14,5,0.02
release_dfm,pseudo,2020:Q2:pre_advance:pseudo,2020-07-31,pre_advance,A,2020:Q2,-15.575879759710256,,,not_available,-32.9038,17.327920240289743,False,True,0,,,,,,,14,5,0.02
revision_dfm_kalman_em,pseudo,2020:Q2:pre_advance:pseudo,2020-07-31,pre_advance,A,2020:Q2,-20.420556451850352,2.149210250522813,1.4660185027900612,model_implied_state_space,-32.9038,12.483243548149645,False,True,28,-1897.4304554452524,-3071.9092908013413,-1897.4304554452524,0.18262006814666165,9.618603732478763e-05,28.0,14,5,0.02
indicator_revision_only_dfm_kalman_em,pseudo,2020:Q2:pre_advance:pseudo,2020-07-31,pre_advance,A,2020:Q2,-25.610591845958616,2.8205016700467436,1.6794349258148538,model_implied_state_space,-32.9038,7.2932081540413805,False,True,36,-3409.374270386097,-5017.836502160775,-3409.374270386097,0.3410116549071063,9.998244553061658e-05,36.0,14,5,0.02
joint_indicator_revision_dfm_full_kalman_em,pseudo,2020:Q2:pre_advance:pseudo,2020-07-31,pre_advance,A,2020:Q2,-25.934076618489797,1.8670551088363856,1.3664022500114619,model_implied_state_space,-32.9038,6.9697233815101995,False,True,38,-3367.9766507793847,-5032.689486270528,-3367.9766507793847,0.2809303566609742,8.338049255535107e-05,38.0,14,5,0.02
ar,pseudo,2020:Q2:pre_second:pseudo,2020-08-31,pre_second,S,2020:Q2,-0.9346260921233107,,,not_available,-31.7041,30.76947390787669,False,True,0,,,,,,,14,5,0.02
no_revision,pseudo,2020:Q2:pre_second:pseudo,2020-08-31,pre_second,S,2020:Q2,-32.9038,,,not_available,-31.7041,-1.1996999999999964,False,True,0,,,,,,,14,5,0.02
bridge,pseudo,2020:Q2:pre_second:pseudo,2020-08-31,pre_second,S,2020:Q2,-11.717629878838661,,,not_available,-31.7041,19.98647012116134,False,True,0,,,,,,,14,5,0.02
midas_umidas,pseudo,2020:Q2:pre_second:pseudo,2020-08-31,pre_second,S,2020:Q2,-3.5709717284978524,,,not_available,-31.7041,28.133128271502148,False,True,0,,,,,,,14,5,0.02
monthly_mixed_frequency_kalman_em,pseudo,2020:Q2:pre_second:pseudo,2020-08-31,pre_second,S,2020:Q2,-33.665856850705055,0.34295872981940945,0.5856267837278358,model_implied_state_space,-31.7041,-1.9617568507050542,False,True,30,-5794.179609483348,-7595.112622176762,-5794.179609483348,0.5378628933985965,9.280350465013715e-05,30.0,14,5,0.02
standard_dfm,pseudo,2020:Q2:pre_second:pseudo,2020-08-31,pre_second,S,2020:Q2,-17.193668211540995,,,not_available,-31.7041,14.510431788459005,False,True,0,,,,,,,14,5,0.02
release_dfm,pseudo,2020:Q2:pre_second:pseudo,2020-08-31,pre_second,S,2020:Q2,-35.16420465364802,,,not_available,-31.7041,-3.4601046536480204,False,True,0,,,,,,,14,5,0.02
revision_dfm_kalman_em,pseudo,2020:Q2:pre_second:pseudo,2020-08-31,pre_second,S,2020:Q2,-34.711170889369924,0.387634583066431,0.6226030702353073,model_implied_state_space,-31.7041,-3.007070889369924,False,True,24,-1848.700761627302,-3080.784225679075,-1848.700761627302,0.17864534779891983,9.657134790804467e-05,24.0,14,5,0.02
indicator_revision_only_dfm_kalman_em,pseudo,2020:Q2:pre_second:pseudo,2020-08-31,pre_second,S,2020:Q2,-32.778166430065454,0.3657679801781994,0.6047875496223442,model_implied_state_space,-31.7041,-1.0740664300654537,False,True,42,-3346.1449027104077,-5014.559281517239,-3346.1449027104077,0.3141173326498574,9.383754387105746e-05,42.0,14,5,0.02
joint_indicator_revision_dfm_full_kalman_em,pseudo,2020:Q2:pre_second:pseudo,2020-08-31,pre_second,S,2020:Q2,-33.383728366876426,0.3529920839847537,0.5941313692987046,model_implied_state_space,-31.7041,-1.6796283668764254,False,True,43,-3307.1860025341193,-5023.14130185671,-3307.1860025341193,0.2927513770596306,8.848519178596785e-05,43.0,14,5,0.02
ar,pseudo,2020:Q2:pre_third:pseudo,2020-09-30,pre_third,T,2020:Q2,-0.7119618796649088,,,not_available,-31.3827,30.67073812033509,False,True,0,,,,,,,14,5,0.02
no_revision,pseudo,2020:Q2:pre_third:pseudo,2020-09-30,pre_third,T,2020:Q2,-31.7041,,,not_available,-31.3827,-0.3214000000000006,False,True,0,,,,,,,14,5,0.02
bridge,pseudo,2020:Q2:pre_third:pseudo,2020-09-30,pre_third,T,2020:Q2,-11.706443047869818,,,not_available,-31.3827,19.67625695213018,False,True,0,,,,,,,14,5,0.02
midas_umidas,pseudo,2020:Q2:pre_third:pseudo,2020-09-30,pre_third,T,2020:Q2,-62.55032037882182,,,not_available,-31.3827,-31.167620378821823,False,True,0,,,,,,,14,5,0.02
monthly_mixed_frequency_kalman_em,pseudo,2020:Q2:pre_third:pseudo,2020-09-30,pre_third,T,2020:Q2,-31.98292276889753,0.14698826089382985,0.3833904809640295,model_implied_state_space,-31.3827,-0.600222768897531,False,True,30,-5763.283163787264,-7611.521640025797,-5763.283163787264,0.5381468727000538,9.335013935383299e-05,30.0,14,5,0.02
standard_dfm,pseudo,2020:Q2:pre_third:pseudo,2020-09-30,pre_third,T,2020:Q2,-17.276938736761693,,,not_available,-31.3827,14.105761263238307,False,True,0,,,,,,,14,5,0.02
release_dfm,pseudo,2020:Q2:pre_third:pseudo,2020-09-30,pre_third,T,2020:Q2,-32.88490959470745,,,not_available,-31.3827,-1.5022095947074519,False,True,0,,,,,,,14,5,0.02
revision_dfm_kalman_em,pseudo,2020:Q2:pre_third:pseudo,2020-09-30,pre_third,T,2020:Q2,-31.829461864867937,0.14440957240913274,0.38001259506644347,model_implied_state_space,-31.3827,-0.4467618648679377,False,True,24,-1808.8204999211987,-3085.5103096659586,-1808.8204999211987,0.17094960674830872,9.444774271883608e-05,24.0,14,5,0.02
indicator_revision_only_dfm_kalman_em,pseudo,2020:Q2:pre_third:pseudo,2020-09-30,pre_third,T,2020:Q2,-31.755433545622147,0.14805220581702533,0.38477552653076225,model_implied_state_space,-31.3827,-0.3727335456221468,False,True,38,-3301.711997914387,-5032.976656048883,-3301.711997914387,0.31834240276020864,9.637889149078853e-05,38.0,14,5,0.02
joint_indicator_revision_dfm_full_kalman_em,pseudo,2020:Q2:pre_third:pseudo,2020-09-30,pre_third,T,2020:Q2,-31.721845991338135,0.14410134784003348,0.37960683323674965,model_implied_state_space,-31.3827,-0.3391459913381354,False,True,40,-3261.788874420308,-5042.172946669239,-3261.788874420308,0.27470806938799797,8.418716413070859e-05,40.0,14,5,0.02
ar,exact,2020:Q3:pre_advance:exact,2020-10-28,pre_advance,A,2020:Q3,-19.53626137751003,,,not_available,33.0826,-52.61886137751003,False,True,0,,,,,,,14,5,0.02
no_revision,exact,2020:Q3:pre_advance:exact,2020-10-28,pre_advance,A,2020:Q3,-20.080777742191426,,,not_available,33.0826,-53.16337774219143,False,True,0,,,,,,,14,5,0.02
bridge,exact,2020:Q3:pre_advance:exact,2020-10-28,pre_advance,A,2020:Q3,-0.47142845367528485,,,not_available,33.0826,-33.554028453675286,False,True,0,,,,,,,14,5,0.02
midas_umidas,exact,2020:Q3:pre_advance:exact,2020-10-28,pre_advance,A,2020:Q3,-29.778597368800916,,,not_available,33.0826,-62.861197368800916,False,True,0,,,,,,,14,5,0.02
monthly_mixed_frequency_kalman_em,exact,2020:Q3:pre_advance:exact,2020-10-28,pre_advance,A,2020:Q3,10.815794329781165,3.639724791901018,1.907806277351298,model_implied_state_space,33.0826,-22.266805670218837,False,True,30,-5768.034541426863,-7659.023192441736,-5768.034541426863,0.5548614852687024,9.617001254693144e-05,30.0,14,5,0.02
standard_dfm,exact,2020:Q3:pre_advance:exact,2020-10-28,pre_advance,A,2020:Q3,18.88190202791502,,,not_available,33.0826,-14.200697972084978,False,True,0,,,,,,,14,5,0.02
release_dfm,exact,2020:Q3:pre_advance:exact,2020-10-28,pre_advance,A,2020:Q3,18.88190202791502,,,not_available,33.0826,-14.200697972084978,False,True,0,,,,,,,14,5,0.02
revision_dfm_kalman_em,exact,2020:Q3:pre_advance:exact,2020-10-28,pre_advance,A,2020:Q3,10.299177382977946,2.745055391121441,1.6568208687487735,model_implied_state_space,33.0826,-22.783422617022055,False,True,26,-1758.0781637650718,-3157.6816619177607,-1758.0781637650718,0.1549405320142796,8.807276968346225e-05,26.0,14,5,0.02
indicator_revision_only_dfm_kalman_em,exact,2020:Q3:pre_advance:exact,2020-10-28,pre_advance,A,2020:Q3,9.8693581257078,2.995025096013662,1.7306140806123305,model_implied_state_space,33.0826,-23.2132418742922,False,True,39,-3199.4194297924055,-5127.78144161457,-3199.4194297924055,0.2862703959372084,8.94397744598521e-05,39.0,14,5,0.02
joint_indicator_revision_dfm_full_kalman_em,exact,2020:Q3:pre_advance:exact,2020-10-28,pre_advance,A,2020:Q3,7.976144587291618,2.263586383256523,1.504521978322857,model_implied_state_space,33.0826,-25.10645541270838,False,True,39,-3168.766228813134,-5138.787307048757,-3168.766228813134,0.3037698375769651,9.58243312312535e-05,39.0,14,5,0.02
ar,exact,2020:Q3:pre_second:exact,2020-11-24,pre_second,S,2020:Q3,-16.980873036800336,,,not_available,33.0683,-50.04917303680034,False,True,0,,,,,,,14,5,0.02
no_revision,exact,2020:Q3:pre_second:exact,2020-11-24,pre_second,S,2020:Q3,33.0826,,,not_available,33.0683,0.014299999999998647,False,True,0,,,,,,,14,5,0.02
bridge,exact,2020:Q3:pre_second:exact,2020-11-24,pre_second,S,2020:Q3,2.7510477231713444,,,not_available,33.0683,-30.317252276828658,False,True,0,,,,,,,14,5,0.02
midas_umidas,exact,2020:Q3:pre_second:exact,2020-11-24,pre_second,S,2020:Q3,8.800212665578378,,,not_available,33.0683,-24.268087334421622,False,True,0,,,,,,,14,5,0.02
monthly_mixed_frequency_kalman_em,exact,2020:Q3:pre_second:exact,2020-11-24,pre_second,S,2020:Q3,33.550250756515915,0.35793197322276527,0.5982741622557047,model_implied_state_space,33.0683,0.48195075651591424,False,True,37,-5751.403105536458,-7656.96332378251,-5751.403105536458,0.5543315071199686,9.635592009608843e-05,37.0,14,5,0.02
standard_dfm,exact,2020:Q3:pre_second:exact,2020-11-24,pre_second,S,2020:Q3,19.833129890307784,,,not_available,33.0683,-13.235170109692216,False,True,0,,,,,,,14,5,0.02
release_dfm,exact,2020:Q3:pre_second:exact,2020-11-24,pre_second,S,2020:Q3,33.5551410655814,,,not_available,33.0683,0.4868410655814017,False,True,0,,,,,,,14,5,0.02
revision_dfm_kalman_em,exact,2020:Q3:pre_second:exact,2020-11-24,pre_second,S,2020:Q3,34.53695541887392,0.400449513762717,0.6328108040818495,model_implied_state_space,33.0683,1.4686554188739223,False,True,26,-1735.1373202278485,-3171.6230069519975,-1735.1373202278485,0.16401517288318246,9.446238941314204e-05,26.0,14,5,0.02
indicator_revision_only_dfm_kalman_em,exact,2020:Q3:pre_second:exact,2020-11-24,pre_second,S,2020:Q3,32.83086325654616,0.36846346831424676,0.6070119177695333,model_implied_state_space,33.0683,-0.23743674345384136,False,True,40,-3169.5265110215687,-5146.883346062738,-3169.5265110215687,0.24589703140554775,7.755114519762767e-05,40.0,14,5,0.02
joint_indicator_revision_dfm_full_kalman_em,exact,2020:Q3:pre_second:exact,2020-11-24,pre_second,S,2020:Q3,34.088653269343304,0.3481346232841095,0.5900293410366212,model_implied_state_space,33.0683,1.0203532693433033,False,True,41,-3135.5627157516847,-5158.916454815696,-3135.5627157516847,0.2567091502974108,8.183740136888254e-05,41.0,14,5,0.02
ar,exact,2020:Q3:pre_third:exact,2020-12-21,pre_third,T,2020:Q3,-15.911115669469648,,,not_available,33.441,-49.352115669469654,False,True,0,,,,,,,14,5,0.02
no_revision,exact,2020:Q3:pre_third:exact,2020-12-21,pre_third,T,2020:Q3,33.0683,,,not_available,33.441,-0.3727000000000018,False,True,0,,,,,,,14,5,0.02
bridge,exact,2020:Q3:pre_third:exact,2020-12-21,pre_third,T,2020:Q3,4.160750997856098,,,not_available,33.441,-29.280249002143904,False,True,0,,,,,,,14,5,0.02
midas_umidas,exact,2020:Q3:pre_third:exact,2020-12-21,pre_third,T,2020:Q3,74.0258756987586,,,not_available,33.441,40.584875698758594,False,True,0,,,,,,,14,5,0.02
monthly_mixed_frequency_kalman_em,exact,2020:Q3:pre_third:exact,2020-12-21,pre_third,T,2020:Q3,33.53328153227935,0.14540948018133482,0.3813259500497374,model_implied_state_space,33.441,0.09228153227934399,False,True,33,-5738.80839494275,-7680.297825146089,-5738.80839494275,0.5482886126919766,9.551472894753632e-05,33.0,14,5,0.02
standard_dfm,exact,2020:Q3:pre_third:exact,2020-12-21,pre_third,T,2020:Q3,20.128692846342442,,,not_available,33.441,-13.31230715365756,False,True,0,,,,,,,14,5,0.02
release_dfm,exact,2020:Q3:pre_third:exact,2020-12-21,pre_third,T,2020:Q3,33.381430367698066,,,not_available,33.441,-0.05956963230193679,False,True,0,,,,,,,14,5,0.02
revision_dfm_kalman_em,exact,2020:Q3:pre_third:exact,2020-12-21,pre_third,T,2020:Q3,33.12819193798525,0.14527088748603734,0.3811441820178256,model_implied_state_space,33.441,-0.31280806201475286,False,True,25,-1705.8833656718125,-3196.8261498278257,-1705.8833656718125,0.15422758360955413,9.034808853590212e-05,25.0,14,5,0.02
indicator_revision_only_dfm_kalman_em,exact,2020:Q3:pre_third:exact,2020-12-21,pre_third,T,2020:Q3,33.05748699459859,0.14762492949570974,0.38421989731885275,model_implied_state_space,33.441,-0.38351300540141153,False,True,38,-3141.1674704775287,-5143.253933255221,-3141.1674704775287,0.3135333839941268,9.977256301910903e-05,38.0,14,5,0.02
joint_indicator_revision_dfm_full_kalman_em,exact,2020:Q3:pre_third:exact,2020-12-21,pre_third,T,2020:Q3,33.08722865780842,0.1437408051471048,0.3791316461957572,model_implied_state_space,33.441,-0.35377134219158535,False,True,40,-3107.507260719709,-5151.700150099885,-3107.507260719709,0.2590161673656439,8.331799315097005e-05,40.0,14,5,0.02
ar,pseudo,2020:Q3:pre_advance:pseudo,2020-10-31,pre_advance,A,2020:Q3,-19.53626137751003,,,not_available,33.0826,-52.61886137751003,False,True,0,,,,,,,14,5,0.02
no_revision,pseudo,2020:Q3:pre_advance:pseudo,2020-10-31,pre_advance,A,2020:Q3,-20.080777742191426,,,not_available,33.0826,-53.16337774219143,False,True,0,,,,,,,14,5,0.02
bridge,pseudo,2020:Q3:pre_advance:pseudo,2020-10-31,pre_advance,A,2020:Q3,-0.16082314518756657,,,not_available,33.0826,-33.24342314518756,False,True,0,,,,,,,14,5,0.02
midas_umidas,pseudo,2020:Q3:pre_advance:pseudo,2020-10-31,pre_advance,A,2020:Q3,-29.6874130831427,,,not_available,33.0826,-62.7700130831427,False,True,0,,,,,,,14,5,0.02
monthly_mixed_frequency_kalman_em,pseudo,2020:Q3:pre_advance:pseudo,2020-10-31,pre_advance,A,2020:Q3,10.809311286514113,3.642176955793251,1.9084488349948632,model_implied_state_space,33.0826,-22.273288713485886,False,True,30,-5768.210513924089,-7659.314173156125,-5768.210513924089,0.5545354391269939,9.611057545370856e-05,30.0,14,5,0.02
standard_dfm,pseudo,2020:Q3:pre_advance:pseudo,2020-10-31,pre_advance,A,2020:Q3,19.28951008955901,,,not_available,33.0826,-13.79308991044099,False,True,0,,,,,,,14,5,0.02
release_dfm,pseudo,2020:Q3:pre_advance:pseudo,2020-10-31,pre_advance,A,2020:Q3,19.28951008955901,,,not_available,33.0826,-13.79308991044099,False,True,0,,,,,,,14,5,0.02
revision_dfm_kalman_em,pseudo,2020:Q3:pre_advance:pseudo,2020-10-31,pre_advance,A,2020:Q3,10.37152009288865,2.7439545057859798,1.6564886072007798,model_implied_state_space,33.0826,-22.711079907111348,False,True,26,-1753.675016403636,-3155.95348202449,-1753.675016403636,0.157981211174274,9.00263508772652e-05,26.0,14,5,0.02
indicator_revision_only_dfm_kalman_em,pseudo,2020:Q3:pre_advance:pseudo,2020-10-31,pre_advance,A,2020:Q3,9.826491772237842,2.9922310843775146,1.7298066609819476,model_implied_state_space,33.0826,-23.256108227762155,False,True,39,-3194.0447132372415,-5124.835568691308,-3194.0447132372415,0.28085121748654274,8.789439818301241e-05,39.0,14,5,0.02
joint_indicator_revision_dfm_full_kalman_em,pseudo,2020:Q3:pre_advance:pseudo,2020-10-31,pre_advance,A,2020:Q3,7.90629996560069,2.264255451557155,1.5047443143461798,model_implied_state_space,33.0826,-25.17630003439931,False,True,39,-3163.386278347858,-5135.836223378242,-3163.386278347858,0.2979661595077232,9.415351943084814e-05,39.0,14,5,0.02
ar,pseudo,2020:Q3:pre_second:pseudo,2020-11-30,pre_second,S,2020:Q3,-16.980873036800336,,,not_available,33.0683,-50.04917303680034,False,True,0,,,,,,,14,5,0.02
no_revision,pseudo,2020:Q3:pre_second:pseudo,2020-11-30,pre_second,S,2020:Q3,33.0826,,,not_available,33.0683,0.014299999999998647,False,True,0,,,,,,,14,5,0.02
bridge,pseudo,2020:Q3:pre_second:pseudo,2020-11-30,pre_second,S,2020:Q3,2.6749579371403445,,,not_available,33.0683,-30.393342062859656,False,True,0,,,,,,,14,5,0.02
midas_umidas,pseudo,2020:Q3:pre_second:pseudo,2020-11-30,pre_second,S,2020:Q3,8.75957808006508,,,not_available,33.0683,-24.30872191993492,False,True,0,,,,,,,14,5,0.02
monthly_mixed_frequency_kalman_em,pseudo,2020:Q3:pre_second:pseudo,2020-11-30,pre_second,S,2020:Q3,33.549794256355,0.35792817807266797,0.5982709904990112,model_implied_state_space,33.0683,0.4814942563549991,False,True,37,-5754.894766050502,-7659.926374435473,-5754.894766050502,0.5539771611884134,9.623592355298789e-05,37.0,14,5,0.02
standard_dfm,pseudo,2020:Q3:pre_second:pseudo,2020-11-30,pre_second,S,2020:Q3,19.937054667069408,,,not_available,33.0683,-13.131245332930593,False,True,0,,,,,,,14,5,0.02
release_dfm,pseudo,2020:Q3:pre_second:pseudo,2020-11-30,pre_second,S,2020:Q3,33.55458278971348,,,not_available,33.0683,0.4862827897134778,False,True,0,,,,,,,14,5,0.02
revision_dfm_kalman_em,pseudo,2020:Q3:pre_second:pseudo,2020-11-30,pre_second,S,2020:Q3,34.539517810173585,0.40040783373077926,0.632777870765705,model_implied_state_space,33.0683,1.4712178101735844,False,True,26,-1736.1670361304346,-3171.9194064122325,-1736.1670361304346,0.16335948365076547,9.402902525804462e-05,26.0,14,5,0.02
indicator_revision_only_dfm_kalman_em,pseudo,2020:Q3:pre_second:pseudo,2020-11-30,pre_second,S,2020:Q3,32.831626285323594,0.36846871115717417,0.6070162363208864,model_implied_state_space,33.0683,-0.23667371467640663,False,True,40,-3171.1959967806124,-5146.854955430872,-3171.1959967806124,0.28730971023287566,9.05630329543563e-05,40.0,14,5,0.02
joint_indicator_revision_dfm_full_kalman_em,pseudo,2020:Q3:pre_second:pseudo,2020-11-30,pre_second,S,2020:Q3,34.11020645432112,0.34863709614653443,0.5904549907880654,model_implied_state_space,33.0683,1.041906454321122,False,True,41,-3137.276589211741,-5158.883718067199,-3137.276589211741,0.3029329018409044,9.651910990514057e-05,41.0,14,5,0.02
ar,pseudo,2020:Q3:pre_third:pseudo,2020-12-31,pre_third,T,2020:Q3,-15.911115669469648,,,not_available,33.441,-49.352115669469654,False,True,0,,,,,,,14,5,0.02
no_revision,pseudo,2020:Q3:pre_third:pseudo,2020-12-31,pre_third,T,2020:Q3,33.0683,,,not_available,33.441,-0.3727000000000018,False,True,0,,,,,,,14,5,0.02
bridge,pseudo,2020:Q3:pre_third:pseudo,2020-12-31,pre_third,T,2020:Q3,4.14745085722406,,,not_available,33.441,-29.293549142775944,False,True,0,,,,,,,14,5,0.02
midas_umidas,pseudo,2020:Q3:pre_third:pseudo,2020-12-31,pre_third,T,2020:Q3,74.01504204633113,,,not_available,33.441,40.57404204633113,False,True,0,,,,,,,14,5,0.02
monthly_mixed_frequency_kalman_em,pseudo,2020:Q3:pre_third:pseudo,2020-12-31,pre_third,T,2020:Q3,33.533204972727944,0.14540422258922267,0.38131905615799305,model_implied_state_space,33.441,0.09220497272794148,False,True,33,-5741.948543437359,-7683.204442651881,-5741.948543437359,0.5491872741831685,9.56189590267552e-05,33.0,14,5,0.02
standard_dfm,pseudo,2020:Q3:pre_third:pseudo,2020-12-31,pre_third,T,2020:Q3,20.115730575511265,,,not_available,33.441,-13.325269424488738,False,True,0,,,,,,,14,5,0.02
release_dfm,pseudo,2020:Q3:pre_third:pseudo,2020-12-31,pre_third,T,2020:Q3,33.381575730604204,,,not_available,33.441,-0.059424269395798035,False,True,0,,,,,,,14,5,0.02
revision_dfm_kalman_em,pseudo,2020:Q3:pre_third:pseudo,2020-12-31,pre_third,T,2020:Q3,33.1281953329209,0.14527085889956323,0.38114414451695733,model_implied_state_space,33.441,-0.3128046670790994,False,True,25,-1706.0138276763876,-3196.8692609386594,-1706.0138276763876,0.15421854830378834,9.033589203173889e-05,25.0,14,5,0.02
indicator_revision_only_dfm_kalman_em,pseudo,2020:Q3:pre_third:pseudo,2020-12-31,pre_third,T,2020:Q3,33.057487789328235,0.147624900554392,0.3842198596564108,model_implied_state_space,33.441,-0.38351221067176766,False,True,38,-3141.2520197648437,-5143.295428174927,-3141.2520197648437,0.31327923799926793,9.96890146081208e-05,38.0,14,5,0.02
joint_indicator_revision_dfm_full_kalman_em,pseudo,2020:Q3:pre_third:pseudo,2020-12-31,pre_third,T,2020:Q3,33.087227146080394,0.14374081265819805,0.3791316561014103,model_implied_state_space,33.441,-0.3537728539196081,False,True,40,-3107.5920240015184,-5151.741790598434,-3107.5920240015184,0.25887191813308164,8.326932580550888e-05,40.0,14,5,0.02
ar,exact,2020:Q4:pre_advance:exact,2021-01-27,pre_advance,A,2020:Q4,3.457490434452062,,,not_available,4.0124,-0.5549095655479386,False,True,0,,,,,,,14,5,0.02
no_revision,exact,2020:Q4:pre_advance:exact,2021-01-27,pre_advance,A,2020:Q4,-2.3881056978927964,,,not_available,4.0124,-6.400505697892797,False,True,0,,,,,,,14,5,0.02
bridge,exact,2020:Q4:pre_advance:exact,2021-01-27,pre_advance,A,2020:Q4,9.066557621801813,,,not_available,4.0124,5.054157621801813,False,True,0,,,,,,,14,5,0.02
midas_umidas,exact,2020:Q4:pre_advance:exact,2021-01-27,pre_advance,A,2020:Q4,0.8259064302255368,,,not_available,4.0124,-3.1864935697744636,False,True,0,,,,,,,14,5,0.02
monthly_mixed_frequency_kalman_em,exact,2020:Q4:pre_advance:exact,2021-01-27,pre_advance,A,2020:Q4,1.6030423056758234,3.5461121443761545,1.8831123557494265,model_implied_state_space,4.0124,-2.409357694324177,False,True,32,-5735.998194739421,-7705.548388301524,-5735.998194739421,0.5496989707180546,9.580729972130939e-05,32.0,14,5,0.02
standard_dfm,exact,2020:Q4:pre_advance:exact,2021-01-27,pre_advance,A,2020:Q4,7.1854299729367686,,,not_available,4.0124,3.173029972936768,False,True,0,,,,,,,14,5,0.02
release_dfm,exact,2020:Q4:pre_advance:exact,2021-01-27,pre_advance,A,2020:Q4,7.1854299729367686,,,not_available,4.0124,3.173029972936768,False,True,0,,,,,,,14,5,0.02
revision_dfm_kalman_em,exact,2020:Q4:pre_advance:exact,2021-01-27,pre_advance,A,2020:Q4,2.6324128299347955,2.582186906778898,1.6069184505689447,model_implied_state_space,4.0124,-1.3799871700652049,False,True,28,-1693.8087762529426,-3197.3069428937647,-1693.8087762529426,0.16722892931602473,9.86615319654881e-05,28.0,14,5,0.02
