haminh109/Revision-Aware-DFM/outputs/full_state_space_release_revision_dfm/frozen/q2_manuscript_best_v1/initialization_audit/seed_5/revision_forecast_results.csv
model_id,timing_mode,forecast_origin,forecast_origin_date,checkpoint_id,target_id,revision_target_id,target_quarter,forecast_value,forecast_variance,forecast_sd,density_source,realized_value,forecast_error,revision_target_flag,converged,n_iter,loglikelihood,llf_initial,llf_final,llf_last_improvement,llf_relative_last_improvement,llf_history_length,n_indicators,initialization_seed,initialization_jitter
ar,exact,2019:Q1:pre_advance:exact,2019-04-25,pre_advance,DELTA_SA,DELTA_SA,2019:Q1,0.4648889202031996,,,not_available,-0.10470000000000024,0.5695889202031998,True,True,0,,,,,,,14,5,0.02
no_revision,exact,2019:Q1:pre_advance:exact,2019-04-25,pre_advance,DELTA_SA,DELTA_SA,2019:Q1,0.0,,,not_available,-0.10470000000000024,0.10470000000000024,True,True,0,,,,,,,14,5,0.02
bridge,exact,2019:Q1:pre_advance:exact,2019-04-25,pre_advance,DELTA_SA,DELTA_SA,2019:Q1,-0.8963490410084507,,,not_available,-0.10470000000000024,-0.7916490410084505,True,True,0,,,,,,,14,5,0.02
midas_umidas,exact,2019:Q1:pre_advance:exact,2019-04-25,pre_advance,DELTA_SA,DELTA_SA,2019:Q1,-0.277062365539126,,,not_available,-0.10470000000000024,-0.17236236553912576,True,True,0,,,,,,,14,5,0.02
monthly_mixed_frequency_kalman_em,exact,2019:Q1:pre_advance:exact,2019-04-25,pre_advance,DELTA_SA,DELTA_SA,2019:Q1,0.0722382020011556,0.3496579782164604,0.5913188464918571,model_implied_state_space,-0.10470000000000024,0.17693820200115584,True,True,54,-6285.22325928218,-7334.434583170255,-6285.22325928218,0.6243558635778754,9.931143584166545e-05,54.0,14,5,0.02
standard_dfm,exact,2019:Q1:pre_advance:exact,2019-04-25,pre_advance,DELTA_SA,DELTA_SA,2019:Q1,0.03229029921893689,,,not_available,-0.10470000000000024,0.13699029921893713,True,True,0,,,,,,,14,5,0.02
release_dfm,exact,2019:Q1:pre_advance:exact,2019-04-25,pre_advance,DELTA_SA,DELTA_SA,2019:Q1,0.03229029921893689,,,not_available,-0.10470000000000024,0.13699029921893713,True,True,0,,,,,,,14,5,0.02
revision_dfm_kalman_em,exact,2019:Q1:pre_advance:exact,2019-04-25,pre_advance,DELTA_SA,DELTA_SA,2019:Q1,0.07920545522268463,0.4118784871463186,0.6417775994426096,model_implied_state_space,-0.10470000000000024,0.18390545522268487,True,True,21,-1989.6344290343695,-2953.855540004051,-1989.6344290343695,0.1804770149281012,9.065484409409588e-05,21.0,14,5,0.02
indicator_revision_only_dfm_kalman_em,exact,2019:Q1:pre_advance:exact,2019-04-25,pre_advance,DELTA_SA,DELTA_SA,2019:Q1,0.0,0.43838531444906614,0.6621067243647856,model_implied_state_space,-0.10470000000000024,0.10470000000000024,True,True,25,-3681.7310777286248,-4858.276252384413,-3681.7310777286248,0.3535016179653212,9.597977194106016e-05,25.0,14,5,0.02
joint_indicator_revision_dfm_full_kalman_em,exact,2019:Q1:pre_advance:exact,2019-04-25,pre_advance,DELTA_SA,DELTA_SA,2019:Q1,0.037641271348461736,0.3958419012594341,0.629159678666262,model_implied_state_space,-0.10470000000000024,0.14234127134846197,True,True,26,-3646.423432035819,-4873.158856064188,-3646.423432035819,0.33848741808606064,9.279317717553632e-05,26.0,14,5,0.02
ar,exact,2019:Q1:pre_second:exact,2019-05-29,pre_second,DELTA_TS,DELTA_TS,2019:Q1,-0.5635001866146694,,,not_available,0.06099999999999994,-0.6245001866146693,True,True,0,,,,,,,14,5,0.02
no_revision,exact,2019:Q1:pre_second:exact,2019-05-29,pre_second,DELTA_TS,DELTA_TS,2019:Q1,0.0,,,not_available,0.06099999999999994,-0.06099999999999994,True,True,0,,,,,,,14,5,0.02
bridge,exact,2019:Q1:pre_second:exact,2019-05-29,pre_second,DELTA_TS,DELTA_TS,2019:Q1,0.8923743808409088,,,not_available,0.06099999999999994,0.8313743808409089,True,True,0,,,,,,,14,5,0.02
midas_umidas,exact,2019:Q1:pre_second:exact,2019-05-29,pre_second,DELTA_TS,DELTA_TS,2019:Q1,0.1692563726873546,,,not_available,0.06099999999999994,0.10825637268735466,True,True,0,,,,,,,14,5,0.02
monthly_mixed_frequency_kalman_em,exact,2019:Q1:pre_second:exact,2019-05-29,pre_second,DELTA_TS,DELTA_TS,2019:Q1,0.22826322812823108,0.1448815061963019,0.38063303350642325,model_implied_state_space,0.06099999999999994,0.16726322812823113,True,True,50,-6312.701696013429,-7328.980019682591,-6312.701696013429,0.6195132228340299,9.811240231615679e-05,50.0,14,5,0.02
standard_dfm,exact,2019:Q1:pre_second:exact,2019-05-29,pre_second,DELTA_TS,DELTA_TS,2019:Q1,0.05165552868850387,,,not_available,0.06099999999999994,-0.009344471311496072,True,True,0,,,,,,,14,5,0.02
release_dfm,exact,2019:Q1:pre_second:exact,2019-05-29,pre_second,DELTA_TS,DELTA_TS,2019:Q1,0.04575425000561806,,,not_available,0.06099999999999994,-0.015245749994381885,True,True,0,,,,,,,14,5,0.02
revision_dfm_kalman_em,exact,2019:Q1:pre_second:exact,2019-05-29,pre_second,DELTA_TS,DELTA_TS,2019:Q1,0.008343045454570763,0.14951984806065977,0.38667796428120876,model_implied_state_space,0.06099999999999994,-0.05265695454542918,True,True,21,-1990.4443760057181,-2954.9939778330117,-1990.4443760057181,0.18524556936995396,9.301205774568254e-05,21.0,14,5,0.02
indicator_revision_only_dfm_kalman_em,exact,2019:Q1:pre_second:exact,2019-05-29,pre_second,DELTA_TS,DELTA_TS,2019:Q1,0.0,0.15395958578166324,0.3923768415460617,model_implied_state_space,0.06099999999999994,-0.06099999999999994,True,True,25,-3682.9310890931524,-4859.486560366629,-3682.9310890931524,0.3549275542786745,9.63355050815642e-05,25.0,14,5,0.02
joint_indicator_revision_dfm_full_kalman_em,exact,2019:Q1:pre_second:exact,2019-05-29,pre_second,DELTA_TS,DELTA_TS,2019:Q1,0.006231050094842594,0.14865107097318198,0.38555294185517763,model_implied_state_space,0.06099999999999994,-0.05476894990515735,True,True,26,-3647.59396748943,-4874.472930068859,-3647.59396748943,0.3393285362053575,9.299389949795717e-05,26.0,14,5,0.02
ar,exact,2019:Q1:pre_third:exact,2019-06-26,pre_third,DELTA_MT,DELTA_MT,2019:Q1,0.29507328704170277,,,not_available,-0.6073999999999997,0.9024732870417025,True,True,0,,,,,,,14,5,0.02
no_revision,exact,2019:Q1:pre_third:exact,2019-06-26,pre_third,DELTA_MT,DELTA_MT,2019:Q1,0.0,,,not_available,-0.6073999999999997,0.6073999999999997,True,True,0,,,,,,,14,5,0.02
bridge,exact,2019:Q1:pre_third:exact,2019-06-26,pre_third,DELTA_MT,DELTA_MT,2019:Q1,-0.2460835305255178,,,not_available,-0.6073999999999997,0.3613164694744819,True,True,0,,,,,,,14,5,0.02
midas_umidas,exact,2019:Q1:pre_third:exact,2019-06-26,pre_third,DELTA_MT,DELTA_MT,2019:Q1,-0.12965189226681062,,,not_available,-0.6073999999999997,0.4777481077331891,True,True,0,,,,,,,14,5,0.02
monthly_mixed_frequency_kalman_em,exact,2019:Q1:pre_third:exact,2019-06-26,pre_third,DELTA_MT,DELTA_MT,2019:Q1,0.14522074281064423,4.4784901265845125,2.1162443447259376,model_implied_state_space,-0.6073999999999997,0.752620742810644,True,True,52,-6328.886922084899,-7349.5487198973715,-6328.886922084899,0.6279233508239486,9.918993417678798e-05,52.0,14,5,0.02
standard_dfm,exact,2019:Q1:pre_third:exact,2019-06-26,pre_third,DELTA_MT,DELTA_MT,2019:Q1,0.2069325298377389,,,not_available,-0.6073999999999997,0.8143325298377386,True,True,0,,,,,,,14,5,0.02
release_dfm,exact,2019:Q1:pre_third:exact,2019-06-26,pre_third,DELTA_MT,DELTA_MT,2019:Q1,-0.05832211075326654,,,not_available,-0.6073999999999997,0.5490778892467332,True,True,0,,,,,,,14,5,0.02
revision_dfm_kalman_em,exact,2019:Q1:pre_third:exact,2019-06-26,pre_third,DELTA_MT,DELTA_MT,2019:Q1,0.0024303861608783173,4.3621128543896095,2.0885671773705554,model_implied_state_space,-0.6073999999999997,0.609830386160878,True,True,22,-1989.5400212663299,-2966.79962832891,-1989.5400212663299,0.19873689190467303,9.983072419232839e-05,22.0,14,5,0.02
indicator_revision_only_dfm_kalman_em,exact,2019:Q1:pre_third:exact,2019-06-26,pre_third,DELTA_MT,DELTA_MT,2019:Q1,0.0,4.360955385023149,2.0882900624729195,model_implied_state_space,-0.6073999999999997,0.6073999999999997,True,True,25,-3681.6335451364903,-4860.129039942082,-3681.6335451364903,0.35637204260501676,9.676161233641716e-05,25.0,14,5,0.02
joint_indicator_revision_dfm_full_kalman_em,exact,2019:Q1:pre_third:exact,2019-06-26,pre_third,DELTA_MT,DELTA_MT,2019:Q1,0.0014674734962860647,4.372436036219608,2.0910370719381346,model_implied_state_space,-0.6073999999999997,0.6088674734962858,True,True,26,-3646.3487095198,-4875.086259165315,-3646.3487095198,0.3419652686156951,9.37484285548776e-05,26.0,14,5,0.02
ar,pseudo,2019:Q1:pre_advance:pseudo,2019-04-30,pre_advance,DELTA_SA,DELTA_SA,2019:Q1,0.4648889202031996,,,not_available,-0.10470000000000024,0.5695889202031998,True,True,0,,,,,,,14,5,0.02
no_revision,pseudo,2019:Q1:pre_advance:pseudo,2019-04-30,pre_advance,DELTA_SA,DELTA_SA,2019:Q1,0.0,,,not_available,-0.10470000000000024,0.10470000000000024,True,True,0,,,,,,,14,5,0.02
bridge,pseudo,2019:Q1:pre_advance:pseudo,2019-04-30,pre_advance,DELTA_SA,DELTA_SA,2019:Q1,-0.8963928945664441,,,not_available,-0.10470000000000024,-0.7916928945664439,True,True,0,,,,,,,14,5,0.02
midas_umidas,pseudo,2019:Q1:pre_advance:pseudo,2019-04-30,pre_advance,DELTA_SA,DELTA_SA,2019:Q1,-0.3550490427156605,,,not_available,-0.10470000000000024,-0.2503490427156603,True,True,0,,,,,,,14,5,0.02
monthly_mixed_frequency_kalman_em,pseudo,2019:Q1:pre_advance:pseudo,2019-04-30,pre_advance,DELTA_SA,DELTA_SA,2019:Q1,0.07017223175006237,0.3495530576467809,0.5912301224115538,model_implied_state_space,-0.10470000000000024,0.1748722317500626,True,True,54,-6287.947680874189,-7337.221342752908,-6287.947680874189,0.6241217620436146,9.923120072848489e-05,54.0,14,5,0.02
standard_dfm,pseudo,2019:Q1:pre_advance:pseudo,2019-04-30,pre_advance,DELTA_SA,DELTA_SA,2019:Q1,0.032216263021888736,,,not_available,-0.10470000000000024,0.13691626302188897,True,True,0,,,,,,,14,5,0.02
release_dfm,pseudo,2019:Q1:pre_advance:pseudo,2019-04-30,pre_advance,DELTA_SA,DELTA_SA,2019:Q1,0.032216263021888736,,,not_available,-0.10470000000000024,0.13691626302188897,True,True,0,,,,,,,14,5,0.02
revision_dfm_kalman_em,pseudo,2019:Q1:pre_advance:pseudo,2019-04-30,pre_advance,DELTA_SA,DELTA_SA,2019:Q1,0.07917111638769558,0.41187863327238095,0.6417777132873819,model_implied_state_space,-0.10470000000000024,0.18387111638769582,True,True,21,-1989.633406606206,-2953.8555838607945,-1989.633406606206,0.1804759712165378,9.065436643574294e-05,21.0,14,5,0.02
indicator_revision_only_dfm_kalman_em,pseudo,2019:Q1:pre_advance:pseudo,2019-04-30,pre_advance,DELTA_SA,DELTA_SA,2019:Q1,0.0,0.43838538371891733,0.6621067766749691,model_implied_state_space,-0.10470000000000024,0.10470000000000024,True,True,25,-3681.73122412339,-4858.2753932032665,-3681.73122412339,0.35349723071158223,9.59785770503855e-05,25.0,14,5,0.02
joint_indicator_revision_dfm_full_kalman_em,pseudo,2019:Q1:pre_advance:pseudo,2019-04-30,pre_advance,DELTA_SA,DELTA_SA,2019:Q1,0.03771854769061833,0.39584144350048955,0.6291593148801737,model_implied_state_space,-0.10470000000000024,0.14241854769061857,True,True,26,-3646.4234468012414,-4873.157991197262,-3646.4234468012414,0.338487170487042,9.279310892925871e-05,26.0,14,5,0.02
ar,pseudo,2019:Q1:pre_second:pseudo,2019-05-31,pre_second,DELTA_TS,DELTA_TS,2019:Q1,-0.5635001866146694,,,not_available,0.06099999999999994,-0.6245001866146693,True,True,0,,,,,,,14,5,0.02
no_revision,pseudo,2019:Q1:pre_second:pseudo,2019-05-31,pre_second,DELTA_TS,DELTA_TS,2019:Q1,0.0,,,not_available,0.06099999999999994,-0.06099999999999994,True,True,0,,,,,,,14,5,0.02
bridge,pseudo,2019:Q1:pre_second:pseudo,2019-05-31,pre_second,DELTA_TS,DELTA_TS,2019:Q1,0.8891871677354084,,,not_available,0.06099999999999994,0.8281871677354085,True,True,0,,,,,,,14,5,0.02
midas_umidas,pseudo,2019:Q1:pre_second:pseudo,2019-05-31,pre_second,DELTA_TS,DELTA_TS,2019:Q1,0.15850275294399863,,,not_available,0.06099999999999994,0.09750275294399868,True,True,0,,,,,,,14,5,0.02
monthly_mixed_frequency_kalman_em,pseudo,2019:Q1:pre_second:pseudo,2019-05-31,pre_second,DELTA_TS,DELTA_TS,2019:Q1,0.22777825448362732,0.14489493338300918,0.38065067106601713,model_implied_state_space,0.06099999999999994,0.16677825448362738,True,True,50,-6314.183496918036,-7330.413930259353,-6314.183496918036,0.6163609765144429,9.759032749335954e-05,50.0,14,5,0.02
standard_dfm,pseudo,2019:Q1:pre_second:pseudo,2019-05-31,pre_second,DELTA_TS,DELTA_TS,2019:Q1,0.05169863222872828,,,not_available,0.06099999999999994,-0.009301367771271662,True,True,0,,,,,,,14,5,0.02
release_dfm,pseudo,2019:Q1:pre_second:pseudo,2019-05-31,pre_second,DELTA_TS,DELTA_TS,2019:Q1,0.045647170481801336,,,not_available,0.06099999999999994,-0.015352829518198607,True,True,0,,,,,,,14,5,0.02
revision_dfm_kalman_em,pseudo,2019:Q1:pre_second:pseudo,2019-05-31,pre_second,DELTA_TS,DELTA_TS,2019:Q1,0.008325638010501457,0.14952007561063796,0.3866782585181613,model_implied_state_space,0.06099999999999994,-0.052674361989498486,True,True,21,-1990.4530103503212,-2954.987111252447,-1990.4530103503212,0.1852112831031718,9.299444100408579e-05,21.0,14,5,0.02
indicator_revision_only_dfm_kalman_em,pseudo,2019:Q1:pre_second:pseudo,2019-05-31,pre_second,DELTA_TS,DELTA_TS,2019:Q1,0.0,0.15395903896829777,0.3923761447492671,model_implied_state_space,0.06099999999999994,-0.06099999999999994,True,True,25,-3682.934012363027,-4859.473255534153,-3682.934012363027,0.3550372429831441,9.636519779063237e-05,25.0,14,5,0.02
joint_indicator_revision_dfm_full_kalman_em,pseudo,2019:Q1:pre_second:pseudo,2019-05-31,pre_second,DELTA_TS,DELTA_TS,2019:Q1,0.0062116187712795146,0.1486513325411074,0.38555328106645315,model_implied_state_space,0.06099999999999994,-0.05478838122872043,True,True,26,-3647.5974854417614,-4874.459581313432,-3647.5974854417614,0.3394210192927858,9.30191526994572e-05,26.0,14,5,0.02
ar,pseudo,2019:Q1:pre_third:pseudo,2019-06-30,pre_third,DELTA_MT,DELTA_MT,2019:Q1,0.29507328704170277,,,not_available,-0.6073999999999997,0.9024732870417025,True,True,0,,,,,,,14,5,0.02
no_revision,pseudo,2019:Q1:pre_third:pseudo,2019-06-30,pre_third,DELTA_MT,DELTA_MT,2019:Q1,0.0,,,not_available,-0.6073999999999997,0.6073999999999997,True,True,0,,,,,,,14,5,0.02
bridge,pseudo,2019:Q1:pre_third:pseudo,2019-06-30,pre_third,DELTA_MT,DELTA_MT,2019:Q1,-0.24458762674535617,,,not_available,-0.6073999999999997,0.36281237325464355,True,True,0,,,,,,,14,5,0.02
midas_umidas,pseudo,2019:Q1:pre_third:pseudo,2019-06-30,pre_third,DELTA_MT,DELTA_MT,2019:Q1,-0.10219946807304581,,,not_available,-0.6073999999999997,0.5052005319269539,True,True,0,,,,,,,14,5,0.02
monthly_mixed_frequency_kalman_em,pseudo,2019:Q1:pre_third:pseudo,2019-06-30,pre_third,DELTA_MT,DELTA_MT,2019:Q1,0.14510499833795176,4.478492055124484,2.1162448003774244,model_implied_state_space,-0.6073999999999997,0.7525049983379515,True,True,52,-6330.262917367987,-7350.951155117272,-6330.262917367987,0.6282721687175581,9.922346261347043e-05,52.0,14,5,0.02
standard_dfm,pseudo,2019:Q1:pre_third:pseudo,2019-06-30,pre_third,DELTA_MT,DELTA_MT,2019:Q1,0.20610842776374927,,,not_available,-0.6073999999999997,0.813508427763749,True,True,0,,,,,,,14,5,0.02
release_dfm,pseudo,2019:Q1:pre_third:pseudo,2019-06-30,pre_third,DELTA_MT,DELTA_MT,2019:Q1,-0.06045295100080228,,,not_available,-0.6073999999999997,0.5469470489991974,True,True,0,,,,,,,14,5,0.02
revision_dfm_kalman_em,pseudo,2019:Q1:pre_third:pseudo,2019-06-30,pre_third,DELTA_MT,DELTA_MT,2019:Q1,0.002433544700446877,4.362111811121417,2.0885669276136247,model_implied_state_space,-0.6073999999999997,0.6098335447004466,True,True,22,-1989.525550335496,-2966.7988128756465,-1989.525550335496,0.19871669440112782,9.982130508591597e-05,22.0,14,5,0.02
indicator_revision_only_dfm_kalman_em,pseudo,2019:Q1:pre_third:pseudo,2019-06-30,pre_third,DELTA_MT,DELTA_MT,2019:Q1,0.0,4.36095563559141,2.0882901224665624,model_implied_state_space,-0.6073999999999997,0.6073999999999997,True,True,25,-3681.639941424731,-4860.140714876354,-3681.639941424731,0.3564091392622686,9.677151572732079e-05,25.0,14,5,0.02
joint_indicator_revision_dfm_full_kalman_em,pseudo,2019:Q1:pre_third:pseudo,2019-06-30,pre_third,DELTA_MT,DELTA_MT,2019:Q1,0.0014702749338835197,4.372435309191019,2.0910368980941056,model_implied_state_space,-0.6073999999999997,0.6088702749338832,True,True,26,-3646.355349419511,-4875.097885117261,-3646.355349419511,0.3420047414269902,9.375907818582166e-05,26.0,14,5,0.02
ar,exact,2019:Q2:pre_advance:exact,2019-07-25,pre_advance,DELTA_SA,DELTA_SA,2019:Q2,-0.026254198058714096,,,not_available,-0.017100000000000115,-0.00915419805871398,True,True,0,,,,,,,14,5,0.02
no_revision,exact,2019:Q2:pre_advance:exact,2019-07-25,pre_advance,DELTA_SA,DELTA_SA,2019:Q2,0.0,,,not_available,-0.017100000000000115,0.017100000000000115,True,True,0,,,,,,,14,5,0.02
bridge,exact,2019:Q2:pre_advance:exact,2019-07-25,pre_advance,DELTA_SA,DELTA_SA,2019:Q2,-0.08652409669299166,,,not_available,-0.017100000000000115,-0.06942409669299154,True,True,0,,,,,,,14,5,0.02
midas_umidas,exact,2019:Q2:pre_advance:exact,2019-07-25,pre_advance,DELTA_SA,DELTA_SA,2019:Q2,0.6439951021716461,,,not_available,-0.017100000000000115,0.6610951021716462,True,True,0,,,,,,,14,5,0.02
monthly_mixed_frequency_kalman_em,exact,2019:Q2:pre_advance:exact,2019-07-25,pre_advance,DELTA_SA,DELTA_SA,2019:Q2,-0.03954711119215437,0.350678416996292,0.5921810677455773,model_implied_state_space,-0.017100000000000115,-0.022447111192154257,True,True,50,-6350.581332858644,-7371.17664482267,-6350.581332858644,0.6185725957329851,9.737927095175985e-05,50.0,14,5,0.02
standard_dfm,exact,2019:Q2:pre_advance:exact,2019-07-25,pre_advance,DELTA_SA,DELTA_SA,2019:Q2,0.06429942451968351,,,not_available,-0.017100000000000115,0.08139942451968363,True,True,0,,,,,,,14,5,0.02
release_dfm,exact,2019:Q2:pre_advance:exact,2019-07-25,pre_advance,DELTA_SA,DELTA_SA,2019:Q2,0.06429942451968351,,,not_available,-0.017100000000000115,0.08139942451968363,True,True,0,,,,,,,14,5,0.02
revision_dfm_kalman_em,exact,2019:Q2:pre_advance:exact,2019-07-25,pre_advance,DELTA_SA,DELTA_SA,2019:Q2,0.05065297800455526,0.41049899962284986,0.6407019584977479,model_implied_state_space,-0.017100000000000115,0.06775297800455538,True,True,21,-2007.8524193494602,-2976.440900123039,-2007.8524193494602,0.18362592480434614,9.140001506507484e-05,21.0,14,5,0.02
indicator_revision_only_dfm_kalman_em,exact,2019:Q2:pre_advance:exact,2019-07-25,pre_advance,DELTA_SA,DELTA_SA,2019:Q2,0.0,0.436424211720726,0.6606241077350462,model_implied_state_space,-0.017100000000000115,0.017100000000000115,True,True,25,-3718.243612681752,-4899.316034280593,-3718.243612681752,0.3597237807007332,9.671025326126583e-05,25.0,14,5,0.02
joint_indicator_revision_dfm_full_kalman_em,exact,2019:Q2:pre_advance:exact,2019-07-25,pre_advance,DELTA_SA,DELTA_SA,2019:Q2,0.07363701541341561,0.39396161565612076,0.6276636166420042,model_implied_state_space,-0.017100000000000115,0.09073701541341572,True,True,26,-3683.083539508309,-4914.274407689544,-3683.083539508309,0.34228298044581607,9.289995156276776e-05,26.0,14,5,0.02
ar,exact,2019:Q2:pre_second:exact,2019-08-28,pre_second,DELTA_TS,DELTA_TS,2019:Q2,0.055386723140361305,,,not_available,-0.023600000000000065,0.07898672314036137,True,True,0,,,,,,,14,5,0.02
no_revision,exact,2019:Q2:pre_second:exact,2019-08-28,pre_second,DELTA_TS,DELTA_TS,2019:Q2,0.0,,,not_available,-0.023600000000000065,0.023600000000000065,True,True,0,,,,,,,14,5,0.02
bridge,exact,2019:Q2:pre_second:exact,2019-08-28,pre_second,DELTA_TS,DELTA_TS,2019:Q2,0.23410885204244902,,,not_available,-0.023600000000000065,0.2577088520424491,True,True,0,,,,,,,14,5,0.02
midas_umidas,exact,2019:Q2:pre_second:exact,2019-08-28,pre_second,DELTA_TS,DELTA_TS,2019:Q2,-0.29173799287155333,,,not_available,-0.023600000000000065,-0.26813799287155327,True,True,0,,,,,,,14,5,0.02
monthly_mixed_frequency_kalman_em,exact,2019:Q2:pre_second:exact,2019-08-28,pre_second,DELTA_TS,DELTA_TS,2019:Q2,0.01683106127437206,0.14467528830341836,0.3803620489788885,model_implied_state_space,-0.023600000000000065,0.040431061274372126,True,True,52,-6368.1541381053285,-7418.865479658013,-6368.1541381053285,0.635894770505729,9.982978516147965e-05,52.0,14,5,0.02
standard_dfm,exact,2019:Q2:pre_second:exact,2019-08-28,pre_second,DELTA_TS,DELTA_TS,2019:Q2,0.05877272252036114,,,not_available,-0.023600000000000065,0.08237272252036121,True,True,0,,,,,,,14,5,0.02
release_dfm,exact,2019:Q2:pre_second:exact,2019-08-28,pre_second,DELTA_TS,DELTA_TS,2019:Q2,0.040997546223894066,,,not_available,-0.023600000000000065,0.06459754622389413,True,True,0,,,,,,,14,5,0.02
revision_dfm_kalman_em,exact,2019:Q2:pre_second:exact,2019-08-28,pre_second,DELTA_TS,DELTA_TS,2019:Q2,0.002033066740947387,0.14883901475435035,0.38579659764486046,model_implied_state_space,-0.023600000000000065,0.025633066740947452,True,True,21,-2009.0694260071923,-2977.601823182167,-2009.0694260071923,0.1859739245126093,9.251258547492397e-05,21.0,14,5,0.02
indicator_revision_only_dfm_kalman_em,exact,2019:Q2:pre_second:exact,2019-08-28,pre_second,DELTA_TS,DELTA_TS,2019:Q2,0.0,0.15326798081080883,0.3914945476131294,model_implied_state_space,-0.023600000000000065,0.023600000000000065,True,True,25,-3719.5819823128627,-4900.5801090792365,-3719.5819823128627,0.35959813429008136,9.664170385788959e-05,25.0,14,5,0.02
joint_indicator_revision_dfm_full_kalman_em,exact,2019:Q2:pre_second:exact,2019-08-28,pre_second,DELTA_TS,DELTA_TS,2019:Q2,0.0008443695266775464,0.14798445989775522,0.3846874834170657,model_implied_state_space,-0.023600000000000065,0.024444369526677612,True,True,26,-3684.264621543714,-4915.646647969091,-3684.264621543714,0.3417391388111355,9.272263648575047e-05,26.0,14,5,0.02
ar,exact,2019:Q2:pre_third:exact,2019-09-25,pre_third,DELTA_MT,DELTA_MT,2019:Q2,-0.46237987223397825,,,not_available,1.3697,-1.8320798722339782,True,True,0,,,,,,,14,5,0.02
no_revision,exact,2019:Q2:pre_third:exact,2019-09-25,pre_third,DELTA_MT,DELTA_MT,2019:Q2,0.0,,,not_available,1.3697,-1.3697,True,True,0,,,,,,,14,5,0.02
bridge,exact,2019:Q2:pre_third:exact,2019-09-25,pre_third,DELTA_MT,DELTA_MT,2019:Q2,-1.1014609870404506,,,not_available,1.3697,-2.4711609870404505,True,True,0,,,,,,,14,5,0.02
midas_umidas,exact,2019:Q2:pre_third:exact,2019-09-25,pre_third,DELTA_MT,DELTA_MT,2019:Q2,-2.7795466199430354,,,not_available,1.3697,-4.149246619943035,True,True,0,,,,,,,14,5,0.02
monthly_mixed_frequency_kalman_em,exact,2019:Q2:pre_third:exact,2019-09-25,pre_third,DELTA_MT,DELTA_MT,2019:Q2,-0.00410915759849706,4.457429140538674,2.1112624518374483,model_implied_state_space,1.3697,-1.373809157598497,True,True,54,-6383.975003426527,-7438.317659323553,-6383.975003426527,0.6276238260634273,9.828732896482518e-05,54.0,14,5,0.02
standard_dfm,exact,2019:Q2:pre_third:exact,2019-09-25,pre_third,DELTA_MT,DELTA_MT,2019:Q2,0.2538501440217149,,,not_available,1.3697,-1.115849855978285,True,True,0,,,,,,,14,5,0.02
release_dfm,exact,2019:Q2:pre_third:exact,2019-09-25,pre_third,DELTA_MT,DELTA_MT,2019:Q2,0.29477225106409,,,not_available,1.3697,-1.07492774893591,True,True,0,,,,,,,14,5,0.02
revision_dfm_kalman_em,exact,2019:Q2:pre_third:exact,2019-09-25,pre_third,DELTA_MT,DELTA_MT,2019:Q2,0.0006390225373085201,4.342968108455402,2.0839789126705197,model_implied_state_space,1.3697,-1.3690609774626914,True,True,23,-2008.925454655861,-2989.824358000019,-2008.925454655861,0.17502631742445374,8.707341701630083e-05,23.0,14,5,0.02
indicator_revision_only_dfm_kalman_em,exact,2019:Q2:pre_third:exact,2019-09-25,pre_third,DELTA_MT,DELTA_MT,2019:Q2,0.0,4.339624629858388,2.0831765719348874,model_implied_state_space,1.3697,-1.3697,True,True,25,-3719.117153511071,-4901.631819794272,-3719.117153511071,0.3603680667433764,9.686070259888257e-05,25.0,14,5,0.02
joint_indicator_revision_dfm_full_kalman_em,exact,2019:Q2:pre_third:exact,2019-09-25,pre_third,DELTA_MT,DELTA_MT,2019:Q2,-0.00023017160667926362,4.351020262993272,2.085909936452979,model_implied_state_space,1.3697,-1.3699301716066792,True,True,26,-3683.7839946535655,-4916.671239447685,-3683.7839946535655,0.3425975901795937,9.296765839759062e-05,26.0,14,5,0.02
ar,pseudo,2019:Q2:pre_advance:pseudo,2019-07-31,pre_advance,DELTA_SA,DELTA_SA,2019:Q2,-0.026254198058714096,,,not_available,-0.017100000000000115,-0.00915419805871398,True,True,0,,,,,,,14,5,0.02
no_revision,pseudo,2019:Q2:pre_advance:pseudo,2019-07-31,pre_advance,DELTA_SA,DELTA_SA,2019:Q2,0.0,,,not_available,-0.017100000000000115,0.017100000000000115,True,True,0,,,,,,,14,5,0.02
bridge,pseudo,2019:Q2:pre_advance:pseudo,2019-07-31,pre_advance,DELTA_SA,DELTA_SA,2019:Q2,-0.08882651376427209,,,not_available,-0.017100000000000115,-0.07172651376427197,True,True,0,,,,,,,14,5,0.02
midas_umidas,pseudo,2019:Q2:pre_advance:pseudo,2019-07-31,pre_advance,DELTA_SA,DELTA_SA,2019:Q2,0.0825776765362578,,,not_available,-0.017100000000000115,0.09967767653625792,True,True,0,,,,,,,14,5,0.02
monthly_mixed_frequency_kalman_em,pseudo,2019:Q2:pre_advance:pseudo,2019-07-31,pre_advance,DELTA_SA,DELTA_SA,2019:Q2,-0.032333698315883064,0.3504926899935672,0.5920242309175927,model_implied_state_space,-0.017100000000000115,-0.015233698315882949,True,True,49,-6352.49700138712,-7372.402001919866,-6352.49700138712,0.6272247180922932,9.871143461681316e-05,49.0,14,5,0.02
standard_dfm,pseudo,2019:Q2:pre_advance:pseudo,2019-07-31,pre_advance,DELTA_SA,DELTA_SA,2019:Q2,0.06890437481270517,,,not_available,-0.017100000000000115,0.08600437481270529,True,True,0,,,,,,,14,5,0.02
release_dfm,pseudo,2019:Q2:pre_advance:pseudo,2019-07-31,pre_advance,DELTA_SA,DELTA_SA,2019:Q2,0.06890437481270517,,,not_available,-0.017100000000000115,0.08600437481270529,True,True,0,,,,,,,14,5,0.02
revision_dfm_kalman_em,pseudo,2019:Q2:pre_advance:pseudo,2019-07-31,pre_advance,DELTA_SA,DELTA_SA,2019:Q2,0.05344942275881026,0.4104377195010205,0.6406541340700304,model_implied_state_space,-0.017100000000000115,0.07054942275881038,True,True,21,-2007.5910712623452,-2976.1451244402024,-2007.5910712623452,0.18348722112114046,9.134286390985806e-05,21.0,14,5,0.02
indicator_revision_only_dfm_kalman_em,pseudo,2019:Q2:pre_advance:pseudo,2019-07-31,pre_advance,DELTA_SA,DELTA_SA,2019:Q2,0.0,0.4364239771934324,0.6606239302306816,model_implied_state_space,-0.017100000000000115,0.017100000000000115,True,True,25,-3717.7034990108064,-4899.033124691386,-3717.7034990108064,0.35930116639792686,9.661067470568311e-05,25.0,14,5,0.02
joint_indicator_revision_dfm_full_kalman_em,pseudo,2019:Q2:pre_advance:pseudo,2019-07-31,pre_advance,DELTA_SA,DELTA_SA,2019:Q2,0.0685924404884739,0.39395185735899574,0.6276558430852021,model_implied_state_space,-0.017100000000000115,0.08569244048847402,True,True,26,-3682.5422965127373,-4913.991808155048,-3682.5422965127373,0.34149133981600244,9.269872761514771e-05,26.0,14,5,0.02
ar,pseudo,2019:Q2:pre_second:pseudo,2019-08-31,pre_second,DELTA_TS,DELTA_TS,2019:Q2,0.055386723140361305,,,not_available,-0.023600000000000065,0.07898672314036137,True,True,0,,,,,,,14,5,0.02
no_revision,pseudo,2019:Q2:pre_second:pseudo,2019-08-31,pre_second,DELTA_TS,DELTA_TS,2019:Q2,0.0,,,not_available,-0.023600000000000065,0.023600000000000065,True,True,0,,,,,,,14,5,0.02
bridge,pseudo,2019:Q2:pre_second:pseudo,2019-08-31,pre_second,DELTA_TS,DELTA_TS,2019:Q2,0.23350068936004886,,,not_available,-0.023600000000000065,0.25710068936004893,True,True,0,,,,,,,14,5,0.02
midas_umidas,pseudo,2019:Q2:pre_second:pseudo,2019-08-31,pre_second,DELTA_TS,DELTA_TS,2019:Q2,-0.2911198224050162,,,not_available,-0.023600000000000065,-0.26751982240501615,True,True,0,,,,,,,14,5,0.02
monthly_mixed_frequency_kalman_em,pseudo,2019:Q2:pre_second:pseudo,2019-08-31,pre_second,DELTA_TS,DELTA_TS,2019:Q2,0.016644376134210326,0.14466854149366493,0.3803531799441999,model_implied_state_space,-0.023600000000000065,0.04024437613421039,True,True,52,-6369.468280958436,-7420.230284323025,-6369.468280958436,0.6364165223421878,9.989107895116457e-05,52.0,14,5,0.02
standard_dfm,pseudo,2019:Q2:pre_second:pseudo,2019-08-31,pre_second,DELTA_TS,DELTA_TS,2019:Q2,0.058756074050508644,,,not_available,-0.023600000000000065,0.08235607405050871,True,True,0,,,,,,,14,5,0.02
release_dfm,pseudo,2019:Q2:pre_second:pseudo,2019-08-31,pre_second,DELTA_TS,DELTA_TS,2019:Q2,0.04099531098372022,,,not_available,-0.023600000000000065,0.06459531098372029,True,True,0,,,,,,,14,5,0.02
revision_dfm_kalman_em,pseudo,2019:Q2:pre_second:pseudo,2019-08-31,pre_second,DELTA_TS,DELTA_TS,2019:Q2,0.0020342911267783315,0.14883901974672553,0.3857966041150771,model_implied_state_space,-0.023600000000000065,0.025634291126778397,True,True,21,-2009.0750952473613,-2977.6040376458755,-2009.0750952473613,0.1859793679370796,9.251503214460354e-05,21.0,14,5,0.02
indicator_revision_only_dfm_kalman_em,pseudo,2019:Q2:pre_second:pseudo,2019-08-31,pre_second,DELTA_TS,DELTA_TS,2019:Q2,0.0,0.15326801364315124,0.3914945895451829,model_implied_state_space,-0.023600000000000065,0.023600000000000065,True,True,25,-3719.588730952989,-4900.584378817342,-3719.588730952989,0.3595956018366451,9.664084805219255e-05,25.0,14,5,0.02
joint_indicator_revision_dfm_full_kalman_em,pseudo,2019:Q2:pre_second:pseudo,2019-08-31,pre_second,DELTA_TS,DELTA_TS,2019:Q2,0.0008460260544844722,0.14798448018949717,0.38468750979138533,model_implied_state_space,-0.023600000000000065,0.024446026054484538,True,True,26,-3684.2712027366306,-4915.65094258787,-3684.2712027366306,0.3417338852982539,9.272104563738377e-05,26.0,14,5,0.02
ar,pseudo,2019:Q2:pre_third:pseudo,2019-09-30,pre_third,DELTA_MT,DELTA_MT,2019:Q2,-0.46237987223397825,,,not_available,1.3697,-1.8320798722339782,True,True,0,,,,,,,14,5,0.02
no_revision,pseudo,2019:Q2:pre_third:pseudo,2019-09-30,pre_third,DELTA_MT,DELTA_MT,2019:Q2,0.0,,,not_available,1.3697,-1.3697,True,True,0,,,,,,,14,5,0.02
bridge,pseudo,2019:Q2:pre_third:pseudo,2019-09-30,pre_third,DELTA_MT,DELTA_MT,2019:Q2,-1.101354405618797,,,not_available,1.3697,-2.471054405618797,True,True,0,,,,,,,14,5,0.02
midas_umidas,pseudo,2019:Q2:pre_third:pseudo,2019-09-30,pre_third,DELTA_MT,DELTA_MT,2019:Q2,-2.7666666149646053,,,not_available,1.3697,-4.136366614964605,True,True,0,,,,,,,14,5,0.02
monthly_mixed_frequency_kalman_em,pseudo,2019:Q2:pre_third:pseudo,2019-09-30,pre_third,DELTA_MT,DELTA_MT,2019:Q2,-0.003925680525870057,4.45743928540231,2.1112648543947086,model_implied_state_space,1.3697,-1.37362568052587,True,True,54,-6386.717266298226,-7441.16270349829,-6386.717266298226,0.6266257989755104,9.808892720235168e-05,54.0,14,5,0.02
standard_dfm,pseudo,2019:Q2:pre_third:pseudo,2019-09-30,pre_third,DELTA_MT,DELTA_MT,2019:Q2,0.25346771696324044,,,not_available,1.3697,-1.1162322830367595,True,True,0,,,,,,,14,5,0.02
release_dfm,pseudo,2019:Q2:pre_third:pseudo,2019-09-30,pre_third,DELTA_MT,DELTA_MT,2019:Q2,0.29384601405375,,,not_available,1.3697,-1.07585398594625,True,True,0,,,,,,,14,5,0.02
revision_dfm_kalman_em,pseudo,2019:Q2:pre_third:pseudo,2019-09-30,pre_third,DELTA_MT,DELTA_MT,2019:Q2,0.000640447879281858,4.342968149927965,2.0839789226208514,model_implied_state_space,1.3697,-1.369059552120718,True,True,23,-2008.9149214608208,-2989.820515883739,-2008.9149214608208,0.1750166463145888,8.70690624318028e-05,23.0,14,5,0.02
indicator_revision_only_dfm_kalman_em,pseudo,2019:Q2:pre_third:pseudo,2019-09-30,pre_third,DELTA_MT,DELTA_MT,2019:Q2,0.0,4.33962451264787,2.083176543802246,model_implied_state_space,1.3697,-1.3697,True,True,25,-3719.112429241893,-4901.629397583983,-3719.112429241893,0.3603795564745269,9.686391353869933e-05,25.0,14,5,0.02
joint_indicator_revision_dfm_full_kalman_em,pseudo,2019:Q2:pre_third:pseudo,2019-09-30,pre_third,DELTA_MT,DELTA_MT,2019:Q2,-0.00022885190344146267,4.351020049635199,2.085909885310293,model_implied_state_space,1.3697,-1.3699288519034414,True,True,26,-3683.779179470107,-4916.668821491486,-3683.779179470107,0.3426071530857371,9.297037463711073e-05,26.0,14,5,0.02
ar,exact,2019:Q3:pre_advance:exact,2019-10-29,pre_advance,DELTA_SA,DELTA_SA,2019:Q3,0.05929633129901246,,,not_available,0.20500000000000007,-0.1457036687009876,True,True,0,,,,,,,14,5,0.02
no_revision,exact,2019:Q3:pre_advance:exact,2019-10-29,pre_advance,DELTA_SA,DELTA_SA,2019:Q3,0.0,,,not_available,0.20500000000000007,-0.20500000000000007,True,True,0,,,,,,,14,5,0.02
bridge,exact,2019:Q3:pre_advance:exact,2019-10-29,pre_advance,DELTA_SA,DELTA_SA,2019:Q3,0.12826412666737008,,,not_available,0.20500000000000007,-0.07673587333262999,True,True,0,,,,,,,14,5,0.02
midas_umidas,exact,2019:Q3:pre_advance:exact,2019-10-29,pre_advance,DELTA_SA,DELTA_SA,2019:Q3,-0.8415004723431267,,,not_available,0.20500000000000007,-1.0465004723431268,True,True,0,,,,,,,14,5,0.02
monthly_mixed_frequency_kalman_em,exact,2019:Q3:pre_advance:exact,2019-10-29,pre_advance,DELTA_SA,DELTA_SA,2019:Q3,-0.15387602072336293,0.3444452894331924,0.586894615270231,model_implied_state_space,0.20500000000000007,-0.358876020723363,True,True,88,-6364.134759274062,-7462.623169084342,-6364.134759274062,0.6169100469369369,9.691079372606745e-05,88.0,14,5,0.02
standard_dfm,exact,2019:Q3:pre_advance:exact,2019-10-29,pre_advance,DELTA_SA,DELTA_SA,2019:Q3,0.07588607489593979,,,not_available,0.20500000000000007,-0.12911392510406028,True,True,0,,,,,,,14,5,0.02
release_dfm,exact,2019:Q3:pre_advance:exact,2019-10-29,pre_advance,DELTA_SA,DELTA_SA,2019:Q3,0.07588607489593979,,,not_available,0.20500000000000007,-0.12911392510406028,True,True,0,,,,,,,14,5,0.02
revision_dfm_kalman_em,exact,2019:Q3:pre_advance:exact,2019-10-29,pre_advance,DELTA_SA,DELTA_SA,2019:Q3,0.14523707083676696,0.40834960420920297,0.6390223816183616,model_implied_state_space,0.20500000000000007,-0.059762929163233114,True,True,21,-2026.2728803883613,-2999.22234143075,-2026.2728803883613,0.18370126555964816,9.060675687061656e-05,21.0,14,5,0.02
indicator_revision_only_dfm_kalman_em,exact,2019:Q3:pre_advance:exact,2019-10-29,pre_advance,DELTA_SA,DELTA_SA,2019:Q3,0.0,0.43299328455702035,0.658022252326637,model_implied_state_space,0.20500000000000007,-0.20500000000000007,True,True,28,-3754.265672106787,-4930.100086714202,-3754.265672106787,0.37506798969161537,9.986790953864779e-05,28.0,14,5,0.02
joint_indicator_revision_dfm_full_kalman_em,exact,2019:Q3:pre_advance:exact,2019-10-29,pre_advance,DELTA_SA,DELTA_SA,2019:Q3,0.14769985899428129,0.3935002264556342,0.6272959640039415,model_implied_state_space,0.20500000000000007,-0.057300141005718785,True,True,28,-3718.8580557853547,-4945.208590112195,-3718.8580557853547,0.3702337329373222,9.951908972372803e-05,28.0,14,5,0.02
ar,exact,2019:Q3:pre_second:exact,2019-11-26,pre_second,DELTA_TS,DELTA_TS,2019:Q3,0.040081918729043764,,,not_available,-0.021400000000000308,0.06148191872904407,True,True,0,,,,,,,14,5,0.02
no_revision,exact,2019:Q3:pre_second:exact,2019-11-26,pre_second,DELTA_TS,DELTA_TS,2019:Q3,0.0,,,not_available,-0.021400000000000308,0.021400000000000308,True,True,0,,,,,,,14,5,0.02
bridge,exact,2019:Q3:pre_second:exact,2019-11-26,pre_second,DELTA_TS,DELTA_TS,2019:Q3,0.0008234501869393007,,,not_available,-0.021400000000000308,0.02222345018693961,True,True,0,,,,,,,14,5,0.02
midas_umidas,exact,2019:Q3:pre_second:exact,2019-11-26,pre_second,DELTA_TS,DELTA_TS,2019:Q3,0.36563147681554975,,,not_available,-0.021400000000000308,0.38703147681555006,True,True,0,,,,,,,14,5,0.02
monthly_mixed_frequency_kalman_em,exact,2019:Q3:pre_second:exact,2019-11-26,pre_second,DELTA_TS,DELTA_TS,2019:Q3,-0.1870544448725615,0.13618451899718864,0.36903186718383635,model_implied_state_space,-0.021400000000000308,-0.1656544448725612,True,True,86,-6380.071972056759,-7481.016055452483,-6380.071972056759,0.6095312175175422,9.551263522079682e-05,86.0,14,5,0.02
standard_dfm,exact,2019:Q3:pre_second:exact,2019-11-26,pre_second,DELTA_TS,DELTA_TS,2019:Q3,0.060954373232045,,,not_available,-0.021400000000000308,0.08235437323204531,True,True,0,,,,,,,14,5,0.02
release_dfm,exact,2019:Q3:pre_second:exact,2019-11-26,pre_second,DELTA_TS,DELTA_TS,2019:Q3,0.04036250402543873,,,not_available,-0.021400000000000308,0.061762504025439036,True,True,0,,,,,,,14,5,0.02
revision_dfm_kalman_em,exact,2019:Q3:pre_second:exact,2019-11-26,pre_second,DELTA_TS,DELTA_TS,2019:Q3,0.002819732608027703,0.1481622883759406,0.38491854771618966,model_implied_state_space,-0.021400000000000308,0.02421973260802801,True,True,21,-2027.168488559021,-3000.4960243543783,-2027.168488559021,0.18569225563669534,9.154824014123356e-05,21.0,14,5,0.02
indicator_revision_only_dfm_kalman_em,exact,2019:Q3:pre_second:exact,2019-11-26,pre_second,DELTA_TS,DELTA_TS,2019:Q3,0.0,0.15256565040713588,0.39059653148374973,model_implied_state_space,-0.021400000000000308,0.021400000000000308,True,True,25,-3753.982150317622,-4941.529277114863,-3753.982150317622,0.3625900983561223,9.65530792563024e-05,25.0,14,5,0.02
joint_indicator_revision_dfm_full_kalman_em,exact,2019:Q3:pre_second:exact,2019-11-26,pre_second,DELTA_TS,DELTA_TS,2019:Q3,0.003155263312603296,0.14729832097922402,0.38379463385933893,model_implied_state_space,-0.021400000000000308,0.024555263312603604,True,True,26,-3718.472047003709,-4956.657325515032,-3718.472047003709,0.3429027583874813,9.218274645877529e-05,26.0,14,5,0.02
ar,exact,2019:Q3:pre_third:exact,2019-12-19,pre_third,DELTA_MT,DELTA_MT,2019:Q3,0.5233605281748179,,,not_available,2.6594,-2.1360394718251823,True,True,0,,,,,,,14,5,0.02
no_revision,exact,2019:Q3:pre_third:exact,2019-12-19,pre_third,DELTA_MT,DELTA_MT,2019:Q3,0.0,,,not_available,2.6594,-2.6594,True,True,0,,,,,,,14,5,0.02
bridge,exact,2019:Q3:pre_third:exact,2019-12-19,pre_third,DELTA_MT,DELTA_MT,2019:Q3,-0.5005867649503339,,,not_available,2.6594,-3.159986764950334,True,True,0,,,,,,,14,5,0.02
midas_umidas,exact,2019:Q3:pre_third:exact,2019-12-19,pre_third,DELTA_MT,DELTA_MT,2019:Q3,-3.418106266556611,,,not_available,2.6594,-6.077506266556611,True,True,0,,,,,,,14,5,0.02
monthly_mixed_frequency_kalman_em,exact,2019:Q3:pre_third:exact,2019-12-19,pre_third,DELTA_MT,DELTA_MT,2019:Q3,-0.09403960276818202,4.43398933542303,2.105703999954179,model_implied_state_space,2.6594,-2.7534396027681822,True,True,84,-6397.344570870017,-7475.925544386487,-6397.344570870017,0.5613095619301021,8.771961526213476e-05,84.0,14,5,0.02
standard_dfm,exact,2019:Q3:pre_third:exact,2019-12-19,pre_third,DELTA_MT,DELTA_MT,2019:Q3,0.27145584172888215,,,not_available,2.6594,-2.387944158271118,True,True,0,,,,,,,14,5,0.02
release_dfm,exact,2019:Q3:pre_third:exact,2019-12-19,pre_third,DELTA_MT,DELTA_MT,2019:Q3,0.3141445144366579,,,not_available,2.6594,-2.3452554855633423,True,True,0,,,,,,,14,5,0.02
revision_dfm_kalman_em,exact,2019:Q3:pre_third:exact,2019-12-19,pre_third,DELTA_MT,DELTA_MT,2019:Q3,0.002960998224752931,4.320375353280125,2.0785512630868945,model_implied_state_space,2.6594,-2.6564390017752473,True,True,22,-2026.7657808926929,-3012.7114876997325,-2026.7657808926929,0.20162401826996756,9.942172531062933e-05,22.0,14,5,0.02
indicator_revision_only_dfm_kalman_em,exact,2019:Q3:pre_third:exact,2019-12-19,pre_third,DELTA_MT,DELTA_MT,2019:Q3,0.0,4.322952234064263,2.0791710449273437,model_implied_state_space,2.6594,-2.6594,True,True,28,-3754.7274027030935,-4932.3527631801,-3754.7274027030935,0.3736916518560065,9.948924229372535e-05,28.0,14,5,0.02
joint_indicator_revision_dfm_full_kalman_em,exact,2019:Q3:pre_third:exact,2019-12-19,pre_third,DELTA_MT,DELTA_MT,2019:Q3,0.0030174983552151424,4.333434707351627,2.0816903485753175,model_implied_state_space,2.6594,-2.656382501644785,True,True,28,-3719.123878550268,-4947.538229004374,-3719.123878550268,0.36934719661621784,9.927371835009104e-05,28.0,14,5,0.02
ar,pseudo,2019:Q3:pre_advance:pseudo,2019-10-31,pre_advance,DELTA_SA,DELTA_SA,2019:Q3,0.05929633129901246,,,not_available,0.20500000000000007,-0.1457036687009876,True,True,0,,,,,,,14,5,0.02
no_revision,pseudo,2019:Q3:pre_advance:pseudo,2019-10-31,pre_advance,DELTA_SA,DELTA_SA,2019:Q3,0.0,,,not_available,0.20500000000000007,-0.20500000000000007,True,True,0,,,,,,,14,5,0.02
bridge,pseudo,2019:Q3:pre_advance:pseudo,2019-10-31,pre_advance,DELTA_SA,DELTA_SA,2019:Q3,0.1296675890855088,,,not_available,0.20500000000000007,-0.07533241091449128,True,True,0,,,,,,,14,5,0.02
midas_umidas,pseudo,2019:Q3:pre_advance:pseudo,2019-10-31,pre_advance,DELTA_SA,DELTA_SA,2019:Q3,-0.8759867655145306,,,not_available,0.20500000000000007,-1.0809867655145307,True,True,0,,,,,,,14,5,0.02
monthly_mixed_frequency_kalman_em,pseudo,2019:Q3:pre_advance:pseudo,2019-10-31,pre_advance,DELTA_SA,DELTA_SA,2019:Q3,-0.13300595179307928,0.34711205551882784,0.5891621640251755,model_implied_state_space,0.20500000000000007,-0.33800595179307935,True,True,56,-6405.025629257409,-7464.052371991779,-6405.025629257409,0.6391214492350628,9.975884084844128e-05,56.0,14,5,0.02
standard_dfm,pseudo,2019:Q3:pre_advance:pseudo,2019-10-31,pre_advance,DELTA_SA,DELTA_SA,2019:Q3,0.07779904361249201,,,not_available,0.20500000000000007,-0.12720095638750806,True,True,0,,,,,,,14,5,0.02
release_dfm,pseudo,2019:Q3:pre_advance:pseudo,2019-10-31,pre_advance,DELTA_SA,DELTA_SA,2019:Q3,0.07779904361249201,,,not_available,0.20500000000000007,-0.12720095638750806,True,True,0,,,,,,,14,5,0.02
revision_dfm_kalman_em,pseudo,2019:Q3:pre_advance:pseudo,2019-10-31,pre_advance,DELTA_SA,DELTA_SA,2019:Q3,0.14614808561753678,0.4083457572708493,0.639019371592794,model_implied_state_space,0.20500000000000007,-0.05885191438246329,True,True,21,-2026.2766876836477,-2999.2256488039475,-2026.2766876836477,0.18367954648488194,9.059587524061963e-05,21.0,14,5,0.02
indicator_revision_only_dfm_kalman_em,pseudo,2019:Q3:pre_advance:pseudo,2019-10-31,pre_advance,DELTA_SA,DELTA_SA,2019:Q3,0.0,0.43265029075687167,0.6577615759200834,model_implied_state_space,0.20500000000000007,-0.20500000000000007,True,True,29,-3753.8932207713306,-4930.058567145434,-3753.8932207713306,0.35411105797993514,9.429766582310183e-05,29.0,14,5,0.02
joint_indicator_revision_dfm_full_kalman_em,pseudo,2019:Q3:pre_advance:pseudo,2019-10-31,pre_advance,DELTA_SA,DELTA_SA,2019:Q3,0.14739610414726023,0.3935079360603,0.627302109083255,model_implied_state_space,0.20500000000000007,-0.05760389585273984,True,True,28,-3718.8401127032334,-4945.167009253002,-3718.8401127032334,0.37085657610896305,9.96869745214485e-05,28.0,14,5,0.02
ar,pseudo,2019:Q3:pre_second:pseudo,2019-11-30,pre_second,DELTA_TS,DELTA_TS,2019:Q3,0.040081918729043764,,,not_available,-0.021400000000000308,0.06148191872904407,True,True,0,,,,,,,14,5,0.02
no_revision,pseudo,2019:Q3:pre_second:pseudo,2019-11-30,pre_second,DELTA_TS,DELTA_TS,2019:Q3,0.0,,,not_available,-0.021400000000000308,0.021400000000000308,True,True,0,,,,,,,14,5,0.02
bridge,pseudo,2019:Q3:pre_second:pseudo,2019-11-30,pre_second,DELTA_TS,DELTA_TS,2019:Q3,-0.0012805936584112665,,,not_available,-0.021400000000000308,0.02011940634158904,True,True,0,,,,,,,14,5,0.02
midas_umidas,pseudo,2019:Q3:pre_second:pseudo,2019-11-30,pre_second,DELTA_TS,DELTA_TS,2019:Q3,0.3635531020191416,,,not_available,-0.021400000000000308,0.3849531020191419,True,True,0,,,,,,,14,5,0.02
monthly_mixed_frequency_kalman_em,pseudo,2019:Q3:pre_second:pseudo,2019-11-30,pre_second,DELTA_TS,DELTA_TS,2019:Q3,-0.1866202995772639,0.13619107243272266,0.3690407463041482,model_implied_state_space,-0.021400000000000308,-0.16522029957726359,True,True,86,-6382.861424006063,-7483.761482383472,-6382.861424006063,0.603163747941835,9.447366175368237e-05,86.0,14,5,0.02
standard_dfm,pseudo,2019:Q3:pre_second:pseudo,2019-11-30,pre_second,DELTA_TS,DELTA_TS,2019:Q3,0.060865098210171276,,,not_available,-0.021400000000000308,0.08226509821017158,True,True,0,,,,,,,14,5,0.02
release_dfm,pseudo,2019:Q3:pre_second:pseudo,2019-11-30,pre_second,DELTA_TS,DELTA_TS,2019:Q3,0.040349504607029685,,,not_available,-0.021400000000000308,0.06174950460702999,True,True,0,,,,,,,14,5,0.02
revision_dfm_kalman_em,pseudo,2019:Q3:pre_second:pseudo,2019-11-30,pre_second,DELTA_TS,DELTA_TS,2019:Q3,0.0028111314909655682,0.1481616858162076,0.3849177650046924,model_implied_state_space,-0.021400000000000308,0.024211131490965876,True,True,21,-2027.0516691443493,-3000.4615679396916,-2027.0516691443493,0.18571131685143882,9.156291006194253e-05,21.0,14,5,0.02
indicator_revision_only_dfm_kalman_em,pseudo,2019:Q3:pre_second:pseudo,2019-11-30,pre_second,DELTA_TS,DELTA_TS,2019:Q3,0.0,0.15256579711923923,0.390596719288884,model_implied_state_space,-0.021400000000000308,0.021400000000000308,True,True,25,-3753.9554873665516,-4941.532041926364,-3753.9554873665516,0.3627616113467411,9.659943240375847e-05,25.0,14,5,0.02
joint_indicator_revision_dfm_full_kalman_em,pseudo,2019:Q3:pre_second:pseudo,2019-11-30,pre_second,DELTA_TS,DELTA_TS,2019:Q3,0.0031421857106543882,0.1472984032247664,0.3837947410071774,model_implied_state_space,-0.021400000000000308,0.024542185710654696,True,True,26,-3718.4455464983103,-4956.660107495271,-3718.4455464983103,0.34309163583702684,9.223417489901314e-05,26.0,14,5,0.02
ar,pseudo,2019:Q3:pre_third:pseudo,2019-12-31,pre_third,DELTA_MT,DELTA_MT,2019:Q3,0.5233605281748179,,,not_available,2.6594,-2.1360394718251823,True,True,0,,,,,,,14,5,0.02
no_revision,pseudo,2019:Q3:pre_third:pseudo,2019-12-31,pre_third,DELTA_MT,DELTA_MT,2019:Q3,0.0,,,not_available,2.6594,-2.6594,True,True,0,,,,,,,14,5,0.02
bridge,pseudo,2019:Q3:pre_third:pseudo,2019-12-31,pre_third,DELTA_MT,DELTA_MT,2019:Q3,-0.5005279317503972,,,not_available,2.6594,-3.1599279317503974,True,True,0,,,,,,,14,5,0.02
midas_umidas,pseudo,2019:Q3:pre_third:pseudo,2019-12-31,pre_third,DELTA_MT,DELTA_MT,2019:Q3,-3.4287036456544917,,,not_available,2.6594,-6.088103645654492,True,True,0,,,,,,,14,5,0.02
monthly_mixed_frequency_kalman_em,pseudo,2019:Q3:pre_third:pseudo,2019-12-31,pre_third,DELTA_MT,DELTA_MT,2019:Q3,-0.09442725915027861,4.4340044050499685,2.1057075782382437,model_implied_state_space,2.6594,-2.753827259150279,True,True,85,-6400.655898089368,-7478.681402652314,-6400.655898089368,0.5302225945315513,8.281899097224487e-05,85.0,14,5,0.02
standard_dfm,pseudo,2019:Q3:pre_third:pseudo,2019-12-31,pre_third,DELTA_MT,DELTA_MT,2019:Q3,0.27097951517942986,,,not_available,2.6594,-2.3884204848205703,True,True,0,,,,,,,14,5,0.02
release_dfm,pseudo,2019:Q3:pre_third:pseudo,2019-12-31,pre_third,DELTA_MT,DELTA_MT,2019:Q3,0.31298521039985117,,,not_available,2.6594,-2.346414789600149,True,True,0,,,,,,,14,5,0.02
revision_dfm_kalman_em,pseudo,2019:Q3:pre_third:pseudo,2019-12-31,pre_third,DELTA_MT,DELTA_MT,2019:Q3,0.0029626649117244774,4.320375395531575,2.0785512732505724,model_implied_state_space,2.6594,-2.6564373350882757,True,True,22,-2026.7639469979956,-3012.709876766834,-2026.7639469979956,0.20161769282231035,9.941869641807691e-05,22.0,14,5,0.02
indicator_revision_only_dfm_kalman_em,pseudo,2019:Q3:pre_third:pseudo,2019-12-31,pre_third,DELTA_MT,DELTA_MT,2019:Q3,0.0,4.322952037376787,2.0791709976278496,model_implied_state_space,2.6594,-2.6594,True,True,28,-3754.7286387312606,-4932.354917789324,-3754.7286387312606,0.37367337488831254,9.948434409891878e-05,28.0,14,5,0.02
joint_indicator_revision_dfm_full_kalman_em,pseudo,2019:Q3:pre_third:pseudo,2019-12-31,pre_third,DELTA_MT,DELTA_MT,2019:Q3,0.003019048720849238,4.333434445211681,2.081690285612075,model_implied_state_space,2.6594,-2.656380951279151,True,True,28,-3719.125084066101,-4947.540389012807,-3719.125084066101,0.3693245381800807,9.926759661994234e-05,28.0,14,5,0.02
ar,exact,2019:Q4:pre_advance:exact,2020-01-29,pre_advance,DELTA_SA,DELTA_SA,2019:Q4,0.1665444581766966,,,not_available,0.014800000000000146,0.15174445817669646,True,True,0,,,,,,,14,5,0.02
no_revision,exact,2019:Q4:pre_advance:exact,2020-01-29,pre_advance,DELTA_SA,DELTA_SA,2019:Q4,0.0,,,not_available,0.014800000000000146,-0.014800000000000146,True,True,0,,,,,,,14,5,0.02
bridge,exact,2019:Q4:pre_advance:exact,2020-01-29,pre_advance,DELTA_SA,DELTA_SA,2019:Q4,0.2746654258404977,,,not_available,0.014800000000000146,0.25986542584049754,True,True,0,,,,,,,14,5,0.02
midas_umidas,exact,2019:Q4:pre_advance:exact,2020-01-29,pre_advance,DELTA_SA,DELTA_SA,2019:Q4,0.9147253380832268,,,not_available,0.014800000000000146,0.8999253380832266,True,True,0,,,,,,,14,5,0.02
monthly_mixed_frequency_kalman_em,exact,2019:Q4:pre_advance:exact,2020-01-29,pre_advance,DELTA_SA,DELTA_SA,2019:Q4,-0.1365828619100684,0.3479927672484875,0.5899091177872127,model_implied_state_space,0.014800000000000146,-0.15138286191006856,True,True,50,-6469.2853342069075,-7498.543314628145,-6469.2853342069075,0.6272767151895096,9.693790550203759e-05,50.0,14,5,0.02
standard_dfm,exact,2019:Q4:pre_advance:exact,2020-01-29,pre_advance,DELTA_SA,DELTA_SA,2019:Q4,0.03862515144349943,,,not_available,0.014800000000000146,0.02382515144349928,True,True,0,,,,,,,14,5,0.02
release_dfm,exact,2019:Q4:pre_advance:exact,2020-01-29,pre_advance,DELTA_SA,DELTA_SA,2019:Q4,0.03862515144349943,,,not_available,0.014800000000000146,0.02382515144349928,True,True,0,,,,,,,14,5,0.02
revision_dfm_kalman_em,exact,2019:Q4:pre_advance:exact,2020-01-29,pre_advance,DELTA_SA,DELTA_SA,2019:Q4,0.07910035729533682,0.4046897140415311,0.636152272684403,model_implied_state_space,0.014800000000000146,0.06430035729533667,True,True,22,-2045.506871580419,-3034.156554402775,-2045.506871580419,0.2013965346909572,9.840021552091094e-05,22.0,14,5,0.02
indicator_revision_only_dfm_kalman_em,exact,2019:Q4:pre_advance:exact,2020-01-29,pre_advance,DELTA_SA,DELTA_SA,2019:Q4,0.0,0.432551825783424,0.65768672313148,model_implied_state_space,0.014800000000000146,-0.014800000000000146,True,True,25,-3790.936210047085,-4983.035545540191,-3790.936210047085,0.37543599214723145,9.899924562880914e-05,25.0,14,5,0.02
joint_indicator_revision_dfm_full_kalman_em,exact,2019:Q4:pre_advance:exact,2020-01-29,pre_advance,DELTA_SA,DELTA_SA,2019:Q4,0.052731691981270146,0.3908464369019118,0.6251771244230804,model_implied_state_space,0.014800000000000146,0.03793169198127,True,True,26,-3755.4550489466437,-4998.127308346953,-3755.4550489466437,0.3518573223063868,9.365861250926834e-05,26.0,14,5,0.02
ar,exact,2019:Q4:pre_second:exact,2020-02-26,pre_second,DELTA_TS,DELTA_TS,2019:Q4,0.03892602850336768,,,not_available,0.03189999999999982,0.007026028503367865,True,True,0,,,,,,,14,5,0.02
no_revision,exact,2019:Q4:pre_second:exact,2020-02-26,pre_second,DELTA_TS,DELTA_TS,2019:Q4,0.0,,,not_available,0.03189999999999982,-0.03189999999999982,True,True,0,,,,,,,14,5,0.02
bridge,exact,2019:Q4:pre_second:exact,2020-02-26,pre_second,DELTA_TS,DELTA_TS,2019:Q4,0.03400117091687571,,,not_available,0.03189999999999982,0.002101170916875894,True,True,0,,,,,,,14,5,0.02
midas_umidas,exact,2019:Q4:pre_second:exact,2020-02-26,pre_second,DELTA_TS,DELTA_TS,2019:Q4,0.6241503795066428,,,not_available,0.03189999999999982,0.5922503795066429,True,True,0,,,,,,,14,5,0.02
monthly_mixed_frequency_kalman_em,exact,2019:Q4:pre_second:exact,2020-02-26,pre_second,DELTA_TS,DELTA_TS,2019:Q4,-0.1668650907342064,0.13520033461446979,0.36769598123241676,model_implied_state_space,0.03189999999999982,-0.19876509073420623,True,True,87,-6438.970241778739,-7517.704691580865,-6438.970241778739,0.5797461170295719,9.00150015323434e-05,87.0,14,5,0.02
standard_dfm,exact,2019:Q4:pre_second:exact,2020-02-26,pre_second,DELTA_TS,DELTA_TS,2019:Q4,0.05548674693901656,,,not_available,0.03189999999999982,0.023586746939016745,True,True,0,,,,,,,14,5,0.02
release_dfm,exact,2019:Q4:pre_second:exact,2020-02-26,pre_second,DELTA_TS,DELTA_TS,2019:Q4,0.040042636480916105,,,not_available,0.03189999999999982,0.008142636480916288,True,True,0,,,,,,,14,5,0.02
revision_dfm_kalman_em,exact,2019:Q4:pre_second:exact,2020-02-26,pre_second,DELTA_TS,DELTA_TS,2019:Q4,0.0044863445966241144,0.14746980626726125,0.38401797648972275,model_implied_state_space,0.03189999999999982,-0.027413655403375703,True,True,21,-2045.6376608984879,-3024.0291849585483,-2045.6376608984879,0.1871316240133183,9.142532604498004e-05,21.0,14,5,0.02
indicator_revision_only_dfm_kalman_em,exact,2019:Q4:pre_second:exact,2020-02-26,pre_second,DELTA_TS,DELTA_TS,2019:Q4,0.0,0.15185933719781175,0.38969133580028664,model_implied_state_space,0.03189999999999982,-0.03189999999999982,True,True,25,-3791.364656944164,-4984.026243667886,-3791.364656944164,0.3751159421508419,9.890368562390841e-05,25.0,14,5,0.02
joint_indicator_revision_dfm_full_kalman_em,exact,2019:Q4:pre_second:exact,2020-02-26,pre_second,DELTA_TS,DELTA_TS,2019:Q4,0.0031095942281331723,0.1466239961076079,0.38291512911820014,model_implied_state_space,0.03189999999999982,-0.028790405771866645,True,True,26,-3755.749069653072,-4999.222744649749,-3755.749069653072,0.3508992301717626,9.339629849563558e-05,26.0,14,5,0.02
ar,exact,2019:Q4:pre_third:exact,2020-03-25,pre_third,DELTA_MT,DELTA_MT,2019:Q4,0.28493109658739835,,,not_available,0.6275,-0.3425689034126016,True,True,0,,,,,,,14,5,0.02
no_revision,exact,2019:Q4:pre_third:exact,2020-03-25,pre_third,DELTA_MT,DELTA_MT,2019:Q4,0.0,,,not_available,0.6275,-0.6275,True,True,0,,,,,,,14,5,0.02
bridge,exact,2019:Q4:pre_third:exact,2020-03-25,pre_third,DELTA_MT,DELTA_MT,2019:Q4,-0.3429265046088039,,,not_available,0.6275,-0.9704265046088039,True,True,0,,,,,,,14,5,0.02
midas_umidas,exact,2019:Q4:pre_third:exact,2020-03-25,pre_third,DELTA_MT,DELTA_MT,2019:Q4,4.4102217841675255,,,not_available,0.6275,3.7827217841675256,True,True,0,,,,,,,14,5,0.02
monthly_mixed_frequency_kalman_em,exact,2019:Q4:pre_third:exact,2020-03-25,pre_third,DELTA_MT,DELTA_MT,2019:Q4,-0.08747126955077422,4.41549729289404,2.1013084716181107,model_implied_state_space,0.6275,-0.7149712695507742,True,True,53,-6506.291415830412,-7539.787496723451,-6506.291415830412,0.6501470142229664,9.990056117510461e-05,53.0,14,5,0.02
standard_dfm,exact,2019:Q4:pre_third:exact,2020-03-25,pre_third,DELTA_MT,DELTA_MT,2019:Q4,0.2285591696432827,,,not_available,0.6275,-0.39894083035671724,True,True,0,,,,,,,14,5,0.02
release_dfm,exact,2019:Q4:pre_third:exact,2020-03-25,pre_third,DELTA_MT,DELTA_MT,2019:Q4,0.22708393626803725,,,not_available,0.6275,-0.4004160637319627,True,True,0,,,,,,,14,5,0.02
revision_dfm_kalman_em,exact,2019:Q4:pre_third:exact,2020-03-25,pre_third,DELTA_MT,DELTA_MT,2019:Q4,0.0016823570000354948,4.299956735490231,2.073633703306886,model_implied_state_space,0.6275,-0.6258176429999645,True,True,22,-2045.736870491317,-3036.424136231777,-2045.736870491317,0.2033975484284838,9.936662618067877e-05,22.0,14,5,0.02
indicator_revision_only_dfm_kalman_em,exact,2019:Q4:pre_third:exact,2020-03-25,pre_third,DELTA_MT,DELTA_MT,2019:Q4,0.0,4.303700761137909,2.074536276168221,model_implied_state_space,0.6275,-0.6275,True,True,29,-3792.1054302596067,-4974.862873763641,-3792.1054302596067,0.36104639287441387,9.51758490806585e-05,29.0,14,5,0.02
joint_indicator_revision_dfm_full_kalman_em,exact,2019:Q4:pre_third:exact,2020-03-25,pre_third,DELTA_MT,DELTA_MT,2019:Q4,0.0009781076138826172,4.312732950837407,2.0767120529426815,model_implied_state_space,0.6275,-0.6265218923861173,True,True,28,-3756.757764626973,-4990.117659912273,-3756.757764626973,0.37549048218352254,9.991409476315024e-05,28.0,14,5,0.02
ar,pseudo,2019:Q4:pre_advance:pseudo,2020-01-31,pre_advance,DELTA_SA,DELTA_SA,2019:Q4,0.1665444581766966,,,not_available,0.014800000000000146,0.15174445817669646,True,True,0,,,,,,,14,5,0.02
no_revision,pseudo,2019:Q4:pre_advance:pseudo,2020-01-31,pre_advance,DELTA_SA,DELTA_SA,2019:Q4,0.0,,,not_available,0.014800000000000146,-0.014800000000000146,True,True,0,,,,,,,14,5,0.02
bridge,pseudo,2019:Q4:pre_advance:pseudo,2020-01-31,pre_advance,DELTA_SA,DELTA_SA,2019:Q4,0.2745872631544426,,,not_available,0.014800000000000146,0.25978726315444245,True,True,0,,,,,,,14,5,0.02
midas_umidas,pseudo,2019:Q4:pre_advance:pseudo,2020-01-31,pre_advance,DELTA_SA,DELTA_SA,2019:Q4,0.9118186832048545,,,not_available,0.014800000000000146,0.8970186832048543,True,True,0,,,,,,,14,5,0.02
monthly_mixed_frequency_kalman_em,pseudo,2019:Q4:pre_advance:pseudo,2020-01-31,pre_advance,DELTA_SA,DELTA_SA,2019:Q4,-0.13749565285170195,0.3479340147202432,0.5898593177362236,model_implied_state_space,0.014800000000000146,-0.1522956528517021,True,True,50,-6470.62796759433,-7499.925111035035,-6470.62796759433,0.6268550275635789,9.685264946191373e-05,50.0,14,5,0.02
standard_dfm,pseudo,2019:Q4:pre_advance:pseudo,2020-01-31,pre_advance,DELTA_SA,DELTA_SA,2019:Q4,0.03852049043193739,,,not_available,0.014800000000000146,0.023720490431937247,True,True,0,,,,,,,14,5,0.02
release_dfm,pseudo,2019:Q4:pre_advance:pseudo,2020-01-31,pre_advance,DELTA_SA,DELTA_SA,2019:Q4,0.03852049043193739,,,not_available,0.014800000000000146,0.023720490431937247,True,True,0,,,,,,,14,5,0.02
revision_dfm_kalman_em,pseudo,2019:Q4:pre_advance:pseudo,2020-01-31,pre_advance,DELTA_SA,DELTA_SA,2019:Q4,0.07904536881378599,0.40468992491031486,0.6361524384220458,model_implied_state_space,0.014800000000000146,0.06424536881378584,True,True,22,-2045.5041709594925,-3034.1551848826516,-2045.5041709594925,0.20139094122919232,9.839761271873705e-05,22.0,14,5,0.02
indicator_revision_only_dfm_kalman_em,pseudo,2019:Q4:pre_advance:pseudo,2020-01-31,pre_advance,DELTA_SA,DELTA_SA,2019:Q4,0.0,0.4325517559319163,0.6576866700275416,model_implied_state_space,0.014800000000000146,-0.014800000000000146,True,True,25,-3790.9426760290107,-4983.041497477234,-3790.9426760290107,0.37548584218302494,9.90122205352501e-05,25.0,14,5,0.02
joint_indicator_revision_dfm_full_kalman_em,pseudo,2019:Q4:pre_advance:pseudo,2020-01-31,pre_advance,DELTA_SA,DELTA_SA,2019:Q4,0.052488179153826975,0.39084562358419817,0.6251764739529136,model_implied_state_space,0.014800000000000146,0.03768817915382683,True,True,26,-3755.4616292841247,-4998.13326163433,-3755.4616292841247,0.3519191874320313,9.367491436331945e-05,26.0,14,5,0.02
ar,pseudo,2019:Q4:pre_second:pseudo,2020-02-29,pre_second,DELTA_TS,DELTA_TS,2019:Q4,0.03892602850336768,,,not_available,0.03189999999999982,0.007026028503367865,True,True,0,,,,,,,14,5,0.02
no_revision,pseudo,2019:Q4:pre_second:pseudo,2020-02-29,pre_second,DELTA_TS,DELTA_TS,2019:Q4,0.0,,,not_available,0.03189999999999982,-0.03189999999999982,True,True,0,,,,,,,14,5,0.02
bridge,pseudo,2019:Q4:pre_second:pseudo,2020-02-29,pre_second,DELTA_TS,DELTA_TS,2019:Q4,0.03696695036035447,,,not_available,0.03189999999999982,0.0050669503603546495,True,True,0,,,,,,,14,5,0.02
midas_umidas,pseudo,2019:Q4:pre_second:pseudo,2020-02-29,pre_second,DELTA_TS,DELTA_TS,2019:Q4,0.6400989146419032,,,not_available,0.03189999999999982,0.6081989146419033,True,True,0,,,,,,,14,5,0.02
monthly_mixed_frequency_kalman_em,pseudo,2019:Q4:pre_second:pseudo,2020-02-29,pre_second,DELTA_TS,DELTA_TS,2019:Q4,-0.11786730351220331,0.14151371210691366,0.37618308322798577,model_implied_state_space,0.03189999999999982,-0.14976730351220313,True,True,53,-6488.448639322011,-7520.511986458246,-6488.448639322011,0.6459187049040338,9.952377413440994e-05,53.0,14,5,0.02
standard_dfm,pseudo,2019:Q4:pre_second:pseudo,2020-02-29,pre_second,DELTA_TS,DELTA_TS,2019:Q4,0.05561877310770136,,,not_available,0.03189999999999982,0.02371877310770154,True,True,0,,,,,,,14,5,0.02
release_dfm,pseudo,2019:Q4:pre_second:pseudo,2020-02-29,pre_second,DELTA_TS,DELTA_TS,2019:Q4,0.04006162345805109,,,not_available,0.03189999999999982,0.00816162345805127,True,True,0,,,,,,,14,5,0.02
revision_dfm_kalman_em,pseudo,2019:Q4:pre_second:pseudo,2020-02-29,pre_second,DELTA_TS,DELTA_TS,2019:Q4,0.004469196500192396,0.1474696401119353,0.38401776015170874,model_implied_state_space,0.03189999999999982,-0.02743080349980742,True,True,21,-2045.6274825128417,-3024.017805460742,-2045.6274825128417,0.1871405706308451,9.143015128010115e-05,21.0,14,5,0.02
indicator_revision_only_dfm_kalman_em,pseudo,2019:Q4:pre_second:pseudo,2020-02-29,pre_second,DELTA_TS,DELTA_TS,2019:Q4,0.0,0.15185938680375688,0.3896913994480208,model_implied_state_space,0.03189999999999982,-0.03189999999999982,True,True,25,-3791.402862119737,-4984.056246900486,-3791.402862119737,0.3751994106728489,9.892469440235413e-05,25.0,14,5,0.02
joint_indicator_revision_dfm_full_kalman_em,pseudo,2019:Q4:pre_second:pseudo,2020-02-29,pre_second,DELTA_TS,DELTA_TS,2019:Q4,0.003091706690607321,0.14662399152872896,0.38291512313922643,model_implied_state_space,0.03189999999999982,-0.028808293309392496,True,True,26,-3755.7859754867814,-4999.2529098601535,-3755.7859754867814,0.3510051772468614,9.342357732850761e-05,26.0,14,5,0.02
ar,pseudo,2019:Q4:pre_third:pseudo,2020-03-31,pre_third,DELTA_MT,DELTA_MT,2019:Q4,0.28493109658739835,,,not_available,0.6275,-0.3425689034126016,True,True,0,,,,,,,14,5,0.02
no_revision,pseudo,2019:Q4:pre_third:pseudo,2020-03-31,pre_third,DELTA_MT,DELTA_MT,2019:Q4,0.0,,,not_available,0.6275,-0.6275,True,True,0,,,,,,,14,5,0.02
bridge,pseudo,2019:Q4:pre_third:pseudo,2020-03-31,pre_third,DELTA_MT,DELTA_MT,2019:Q4,-0.3429288327850699,,,not_available,0.6275,-0.9704288327850699,True,True,0,,,,,,,14,5,0.02
midas_umidas,pseudo,2019:Q4:pre_third:pseudo,2020-03-31,pre_third,DELTA_MT,DELTA_MT,2019:Q4,4.406138958198086,,,not_available,0.6275,3.7786389581980857,True,True,0,,,,,,,14,5,0.02
monthly_mixed_frequency_kalman_em,pseudo,2019:Q4:pre_third:pseudo,2020-03-31,pre_third,DELTA_MT,DELTA_MT,2019:Q4,-0.1179606553660899,4.4118857116143975,2.100448930970329,model_implied_state_space,0.6275,-0.7454606553660899,True,True,87,-6459.905496539938,-7541.2159128546655,-6459.905496539938,0.5675317894992986,8.783319020462265e-05,87.0,14,5,0.02
standard_dfm,pseudo,2019:Q4:pre_third:pseudo,2020-03-31,pre_third,DELTA_MT,DELTA_MT,2019:Q4,0.22861088466232404,,,not_available,0.6275,-0.3988891153376759,True,True,0,,,,,,,14,5,0.02
release_dfm,pseudo,2019:Q4:pre_third:pseudo,2020-03-31,pre_third,DELTA_MT,DELTA_MT,2019:Q4,0.22721360826241455,,,not_available,0.6275,-0.4002863917375854,True,True,0,,,,,,,14,5,0.02
revision_dfm_kalman_em,pseudo,2019:Q4:pre_third:pseudo,2020-03-31,pre_third,DELTA_MT,DELTA_MT,2019:Q4,0.0016821670120297227,4.299956736973516,2.0736337036645396,model_implied_state_space,0.6275,-0.6258178329879702,True,True,22,-2045.737507831816,-3036.424519852304,-2045.737507831816,0.20339905926039137,9.936733326088872e-05,22.0,14,5,0.02
indicator_revision_only_dfm_kalman_em,pseudo,2019:Q4:pre_third:pseudo,2020-03-31,pre_third,DELTA_MT,DELTA_MT,2019:Q4,0.0,4.303700783704911,2.0745362816072683,model_implied_state_space,0.6275,-0.6275,True,True,29,-3792.105728771213,-4974.863005782955,-3792.105728771213,0.3610475038281038,9.517613442304377e-05,29.0,14,5,0.02
joint_indicator_revision_dfm_full_kalman_em,pseudo,2019:Q4:pre_third:pseudo,2020-03-31,pre_third,DELTA_MT,DELTA_MT,2019:Q4,0.0009779208309232956,4.3127330013663565,2.0767120651082944,model_implied_state_space,0.6275,-0.6265220791690767,True,True,28,-3756.75803831883,-4990.117792603473,-3756.75803831883,0.3754915249619444,9.991436493145356e-05,28.0,14,5,0.02
ar,exact,2020:Q1:pre_advance:exact,2020-04-28,pre_advance,DELTA_SA,DELTA_SA,2020:Q1,0.07270396930060219,,,not_available,-0.26449999999999996,0.33720396930060215,True,True,0,,,,,,,14,5,0.02
no_revision,exact,2020:Q1:pre_advance:exact,2020-04-28,pre_advance,DELTA_SA,DELTA_SA,2020:Q1,0.0,,,not_available,-0.26449999999999996,0.26449999999999996,True,True,0,,,,,,,14,5,0.02
bridge,exact,2020:Q1:pre_advance:exact,2020-04-28,pre_advance,DELTA_SA,DELTA_SA,2020:Q1,-0.0012122564109908751,,,not_available,-0.26449999999999996,0.2632877435890091,True,True,0,,,,,,,14,5,0.02
midas_umidas,exact,2020:Q1:pre_advance:exact,2020-04-28,pre_advance,DELTA_SA,DELTA_SA,2020:Q1,0.8166439581580391,,,not_available,-0.26449999999999996,1.081143958158039,True,True,0,,,,,,,14,5,0.02
monthly_mixed_frequency_kalman_em,exact,2020:Q1:pre_advance:exact,2020-04-28,pre_advance,DELTA_SA,DELTA_SA,2020:Q1,-0.7001358075843687,0.3502455710560186,0.5918154873404536,model_implied_state_space,-0.26449999999999996,-0.4356358075843687,True,True,40,-6365.157784502217,-7570.539615772524,-6365.157784502217,0.5121276228919669,8.04388526436147e-05,40.0,14,5,0.02
standard_dfm,exact,2020:Q1:pre_advance:exact,2020-04-28,pre_advance,DELTA_SA,DELTA_SA,2020:Q1,-0.07900204542880451,,,not_available,-0.26449999999999996,0.18549795457119544,True,True,0,,,,,,,14,5,0.02
release_dfm,exact,2020:Q1:pre_advance:exact,2020-04-28,pre_advance,DELTA_SA,DELTA_SA,2020:Q1,-0.07900204542880451,,,not_available,-0.26449999999999996,0.18549795457119544,True,True,0,,,,,,,14,5,0.02
revision_dfm_kalman_em,exact,2020:Q1:pre_advance:exact,2020-04-28,pre_advance,DELTA_SA,DELTA_SA,2020:Q1,-0.08992059548291476,0.4049235077139137,0.6363360022141712,model_implied_state_space,-0.26449999999999996,0.1745794045170852,True,True,21,-2059.887976511969,-3045.2464494549654,-2059.887976511969,0.1897375401863428,9.205744106238078e-05,21.0,14,5,0.02
indicator_revision_only_dfm_kalman_em,exact,2020:Q1:pre_advance:exact,2020-04-28,pre_advance,DELTA_SA,DELTA_SA,2020:Q1,0.0,0.42918989171399247,0.6551258594453377,model_implied_state_space,-0.26449999999999996,0.26449999999999996,True,True,28,-3819.887275772837,-5011.7901732833225,-3819.887275772837,0.36213971621555174,9.476997621449535e-05,28.0,14,5,0.02
joint_indicator_revision_dfm_full_kalman_em,exact,2020:Q1:pre_advance:exact,2020-04-28,pre_advance,DELTA_SA,DELTA_SA,2020:Q1,-0.055885292388907715,0.3911361711286103,0.6254088032068387,model_implied_state_space,-0.26449999999999996,0.20861470761109224,True,True,28,-3784.0207878032556,-5027.031737933861,-3784.0207878032556,0.3577825501647567,9.451697987801322e-05,28.0,14,5,0.02
ar,exact,2020:Q1:pre_second:exact,2020-05-27,pre_second,DELTA_TS,DELTA_TS,2020:Q1,0.06260501235437754,,,not_available,0.05400000000000027,0.008605012354377273,True,True,0,,,,,,,14,5,0.02
no_revision,exact,2020:Q1:pre_second:exact,2020-05-27,pre_second,DELTA_TS,DELTA_TS,2020:Q1,0.0,,,not_available,0.05400000000000027,-0.05400000000000027,True,True,0,,,,,,,14,5,0.02
bridge,exact,2020:Q1:pre_second:exact,2020-05-27,pre_second,DELTA_TS,DELTA_TS,2020:Q1,-0.19571952994773856,,,not_available,0.05400000000000027,-0.24971952994773883,True,True,0,,,,,,,14,5,0.02
midas_umidas,exact,2020:Q1:pre_second:exact,2020-05-27,pre_second,DELTA_TS,DELTA_TS,2020:Q1,1.0995167666791978,,,not_available,0.05400000000000027,1.0455167666791976,True,True,0,,,,,,,14,5,0.02
monthly_mixed_frequency_kalman_em,exact,2020:Q1:pre_second:exact,2020-05-27,pre_second,DELTA_TS,DELTA_TS,2020:Q1,0.1462839644181333,0.15021312183058277,0.3875733760600472,model_implied_state_space,0.05400000000000027,0.09228396441813302,True,True,38,-5904.76722749727,-7387.481874880861,-5904.76722749727,0.5293239996499324,8.962028828636753e-05,38.0,14,5,0.02
standard_dfm,exact,2020:Q1:pre_second:exact,2020-05-27,pre_second,DELTA_TS,DELTA_TS,2020:Q1,0.029589852763222346,,,not_available,0.05400000000000027,-0.024410147236777924,True,True,0,,,,,,,14,5,0.02
release_dfm,exact,2020:Q1:pre_second:exact,2020-05-27,pre_second,DELTA_TS,DELTA_TS,2020:Q1,0.0020918693136193767,,,not_available,0.05400000000000027,-0.05190813068638089,True,True,0,,,,,,,14,5,0.02
revision_dfm_kalman_em,exact,2020:Q1:pre_second:exact,2020-05-27,pre_second,DELTA_TS,DELTA_TS,2020:Q1,-0.015150079994035615,0.14692850524400636,0.383312542508077,model_implied_state_space,0.05400000000000027,-0.06915007999403588,True,True,20,-2059.2136467106907,-3046.4090124943195,-2059.2136467106907,0.20271518621757423,9.838554476967261e-05,20.0,14,5,0.02
indicator_revision_only_dfm_kalman_em,exact,2020:Q1:pre_second:exact,2020-05-27,pre_second,DELTA_TS,DELTA_TS,2020:Q1,0.0,0.15077865489179743,0.38830227258129385,model_implied_state_space,0.05400000000000027,-0.05400000000000027,True,True,27,-3818.59059146851,-5012.877077480699,-3818.59059146851,0.37359871959324664,9.780162875685226e-05,27.0,14,5,0.02
joint_indicator_revision_dfm_full_kalman_em,exact,2020:Q1:pre_second:exact,2020-05-27,pre_second,DELTA_TS,DELTA_TS,2020:Q1,-0.013906978904457468,0.1457194023948788,0.3817321081529281,model_implied_state_space,0.05400000000000027,-0.06790697890445774,True,True,28,-3782.9680866161425,-5027.754707137882,-3782.9680866161425,0.356347353536421,9.416406012594959e-05,28.0,14,5,0.02
ar,exact,2020:Q1:pre_third:exact,2020-06-24,pre_third,DELTA_MT,DELTA_MT,2020:Q1,0.1841743620429881,,,not_available,-0.16790000000000038,0.3520743620429885,True,True,0,,,,,,,14,5,0.02
no_revision,exact,2020:Q1:pre_third:exact,2020-06-24,pre_third,DELTA_MT,DELTA_MT,2020:Q1,0.0,,,not_available,-0.16790000000000038,0.16790000000000038,True,True,0,,,,,,,14,5,0.02
bridge,exact,2020:Q1:pre_third:exact,2020-06-24,pre_third,DELTA_MT,DELTA_MT,2020:Q1,-0.6232225679515535,,,not_available,-0.16790000000000038,-0.4553225679515531,True,True,0,,,,,,,14,5,0.02
midas_umidas,exact,2020:Q1:pre_third:exact,2020-06-24,pre_third,DELTA_MT,DELTA_MT,2020:Q1,2.5739716051732966,,,not_available,-0.16790000000000038,2.741871605173297,True,True,0,,,,,,,14,5,0.02
monthly_mixed_frequency_kalman_em,exact,2020:Q1:pre_third:exact,2020-06-24,pre_third,DELTA_MT,DELTA_MT,2020:Q1,-0.2265386385878454,4.360171106161589,2.088102273874915,model_implied_state_space,-0.16790000000000038,-0.058638638587845016,True,True,30,-5842.564757670993,-7569.414509506856,-5842.564757670993,0.568459167846413,9.727005644027727e-05,30.0,14,5,0.02
standard_dfm,exact,2020:Q1:pre_third:exact,2020-06-24,pre_third,DELTA_MT,DELTA_MT,2020:Q1,0.0422232444522006,,,not_available,-0.16790000000000038,0.21012324445220099,True,True,0,,,,,,,14,5,0.02
release_dfm,exact,2020:Q1:pre_third:exact,2020-06-24,pre_third,DELTA_MT,DELTA_MT,2020:Q1,1.1250785037045006,,,not_available,-0.16790000000000038,1.292978503704501,True,True,0,,,,,,,14,5,0.02
revision_dfm_kalman_em,exact,2020:Q1:pre_third:exact,2020-06-24,pre_third,DELTA_MT,DELTA_MT,2020:Q1,-0.009579353862410045,4.279077689402372,2.0685931667204094,model_implied_state_space,-0.16790000000000038,0.15832064613759034,True,True,21,-2056.724726181542,-3047.8690724583685,-2056.724726181542,0.17456145921141797,8.482507392844343e-05,21.0,14,5,0.02
indicator_revision_only_dfm_kalman_em,exact,2020:Q1:pre_third:exact,2020-06-24,pre_third,DELTA_MT,DELTA_MT,2020:Q1,0.0,4.280792408970286,2.069007590360723,model_implied_state_space,-0.16790000000000038,0.16790000000000038,True,True,25,-3815.174479253683,-5025.124780667336,-3815.174479253683,0.37250920063343074,9.760372445572725e-05,25.0,14,5,0.02
joint_indicator_revision_dfm_full_kalman_em,exact,2020:Q1:pre_third:exact,2020-06-24,pre_third,DELTA_MT,DELTA_MT,2020:Q1,-0.008970447390739267,4.291428232012064,2.071576267486202,model_implied_state_space,-0.16790000000000038,0.15892955260926112,True,True,26,-3779.394383266016,-5039.9802849760335,-3779.394383266016,0.3549438252789514,9.388187223510691e-05,26.0,14,5,0.02
ar,pseudo,2020:Q1:pre_advance:pseudo,2020-04-30,pre_advance,DELTA_SA,DELTA_SA,2020:Q1,0.07270396930060219,,,not_available,-0.26449999999999996,0.33720396930060215,True,True,0,,,,,,,14,5,0.02
no_revision,pseudo,2020:Q1:pre_advance:pseudo,2020-04-30,pre_advance,DELTA_SA,DELTA_SA,2020:Q1,0.0,,,not_available,-0.26449999999999996,0.26449999999999996,True,True,0,,,,,,,14,5,0.02
bridge,pseudo,2020:Q1:pre_advance:pseudo,2020-04-30,pre_advance,DELTA_SA,DELTA_SA,2020:Q1,-0.008254212386642479,,,not_available,-0.26449999999999996,0.2562457876133575,True,True,0,,,,,,,14,5,0.02
midas_umidas,pseudo,2020:Q1:pre_advance:pseudo,2020-04-30,pre_advance,DELTA_SA,DELTA_SA,2020:Q1,0.3587534204445504,,,not_available,-0.26449999999999996,0.6232534204445503,True,True,0,,,,,,,14,5,0.02
monthly_mixed_frequency_kalman_em,pseudo,2020:Q1:pre_advance:pseudo,2020-04-30,pre_advance,DELTA_SA,DELTA_SA,2020:Q1,-0.7033996338458226,0.3502055003116089,0.5917816322864448,model_implied_state_space,-0.26449999999999996,-0.43889963384582265,True,True,40,-6365.75857504451,-7568.960720705711,-6365.75857504451,0.5585125763955148,8.771552738929141e-05,40.0,14,5,0.02
standard_dfm,pseudo,2020:Q1:pre_advance:pseudo,2020-04-30,pre_advance,DELTA_SA,DELTA_SA,2020:Q1,-0.08726901154794109,,,not_available,-0.26449999999999996,0.17723098845205887,True,True,0,,,,,,,14,5,0.02
release_dfm,pseudo,2020:Q1:pre_advance:pseudo,2020-04-30,pre_advance,DELTA_SA,DELTA_SA,2020:Q1,-0.08726901154794109,,,not_available,-0.26449999999999996,0.17723098845205887,True,True,0,,,,,,,14,5,0.02
revision_dfm_kalman_em,pseudo,2020:Q1:pre_advance:pseudo,2020-04-30,pre_advance,DELTA_SA,DELTA_SA,2020:Q1,-0.09310257831963753,0.404946985679989,0.6363544497212139,model_implied_state_space,-0.26449999999999996,0.17139742168036243,True,True,21,-2059.057891911424,-3044.853184125418,-2059.057891911424,0.18951380504540793,9.198594524112643e-05,21.0,14,5,0.02
indicator_revision_only_dfm_kalman_em,pseudo,2020:Q1:pre_advance:pseudo,2020-04-30,pre_advance,DELTA_SA,DELTA_SA,2020:Q1,0.0,0.42918818361475886,0.6551245558019931,model_implied_state_space,-0.26449999999999996,0.26449999999999996,True,True,28,-3818.9415126398035,-5011.098158346933,-3818.9415126398035,0.3648062504507834,9.54913611630898e-05,28.0,14,5,0.02
joint_indicator_revision_dfm_full_kalman_em,pseudo,2020:Q1:pre_advance:pseudo,2020-04-30,pre_advance,DELTA_SA,DELTA_SA,2020:Q1,-0.05491350548435214,0.3911423682457471,0.6254137576402897,model_implied_state_space,-0.26449999999999996,0.20958649451564781,True,True,28,-3783.0595687540545,-5026.339076954508,-3783.0595687540545,0.3609123788146462,9.536793826530788e-05,28.0,14,5,0.02
ar,pseudo,2020:Q1:pre_second:pseudo,2020-05-31,pre_second,DELTA_TS,DELTA_TS,2020:Q1,0.06260501235437754,,,not_available,0.05400000000000027,0.008605012354377273,True,True,0,,,,,,,14,5,0.02
no_revision,pseudo,2020:Q1:pre_second:pseudo,2020-05-31,pre_second,DELTA_TS,DELTA_TS,2020:Q1,0.0,,,not_available,0.05400000000000027,-0.05400000000000027,True,True,0,,,,,,,14,5,0.02
bridge,pseudo,2020:Q1:pre_second:pseudo,2020-05-31,pre_second,DELTA_TS,DELTA_TS,2020:Q1,-0.1950308406984187,,,not_available,0.05400000000000027,-0.24903084069841896,True,True,0,,,,,,,14,5,0.02
midas_umidas,pseudo,2020:Q1:pre_second:pseudo,2020-05-31,pre_second,DELTA_TS,DELTA_TS,2020:Q1,0.7787367456186525,,,not_available,0.05400000000000027,0.7247367456186522,True,True,0,,,,,,,14,5,0.02
monthly_mixed_frequency_kalman_em,pseudo,2020:Q1:pre_second:pseudo,2020-05-31,pre_second,DELTA_TS,DELTA_TS,2020:Q1,0.09223285893868383,0.14843031507427562,0.3852665506818307,model_implied_state_space,0.05400000000000027,0.038232858938683556,True,True,44,-5864.340540144614,-7345.674777637329,-5864.340540144614,0.547686764674836,9.3368087404456e-05,44.0,14,5,0.02
standard_dfm,pseudo,2020:Q1:pre_second:pseudo,2020-05-31,pre_second,DELTA_TS,DELTA_TS,2020:Q1,0.029330985332028714,,,not_available,0.05400000000000027,-0.024669014667971556,True,True,0,,,,,,,14,5,0.02
release_dfm,pseudo,2020:Q1:pre_second:pseudo,2020-05-31,pre_second,DELTA_TS,DELTA_TS,2020:Q1,0.0020323707882221598,,,not_available,0.05400000000000027,-0.05196762921177811,True,True,0,,,,,,,14,5,0.02
revision_dfm_kalman_em,pseudo,2020:Q1:pre_second:pseudo,2020-05-31,pre_second,DELTA_TS,DELTA_TS,2020:Q1,-0.015097372869440129,0.1469311409481021,0.383315980554036,model_implied_state_space,0.05400000000000027,-0.0690973728694404,True,True,20,-2060.1523648985667,-3046.7795478652133,-2060.1523648985667,0.20340917956445992,9.867737637644212e-05,20.0,14,5,0.02
indicator_revision_only_dfm_kalman_em,pseudo,2020:Q1:pre_second:pseudo,2020-05-31,pre_second,DELTA_TS,DELTA_TS,2020:Q1,0.0,0.1507810223232814,0.3883053210082002,model_implied_state_space,0.05400000000000027,-0.05400000000000027,True,True,27,-3819.465147047992,-5013.248986742446,-3819.465147047992,0.37583318064616833,9.836399436431886e-05,27.0,14,5,0.02
joint_indicator_revision_dfm_full_kalman_em,pseudo,2020:Q1:pre_second:pseudo,2020-05-31,pre_second,DELTA_TS,DELTA_TS,2020:Q1,-0.013886729553335364,0.14571802523212884,0.38173030431461535,model_implied_state_space,0.05400000000000027,-0.06788672955333563,True,True,28,-3783.8362200173165,-5028.126971034792,-3783.8362200173165,0.35811626917939066,9.460974453711255e-05,28.0,14,5,0.02
ar,pseudo,2020:Q1:pre_third:pseudo,2020-06-30,pre_third,DELTA_MT,DELTA_MT,2020:Q1,0.1841743620429881,,,not_available,-0.16790000000000038,0.3520743620429885,True,True,0,,,,,,,14,5,0.02
no_revision,pseudo,2020:Q1:pre_third:pseudo,2020-06-30,pre_third,DELTA_MT,DELTA_MT,2020:Q1,0.0,,,not_available,-0.16790000000000038,0.16790000000000038,True,True,0,,,,,,,14,5,0.02
bridge,pseudo,2020:Q1:pre_third:pseudo,2020-06-30,pre_third,DELTA_MT,DELTA_MT,2020:Q1,-0.6220211317495115,,,not_available,-0.16790000000000038,-0.4541211317495111,True,True,0,,,,,,,14,5,0.02
midas_umidas,pseudo,2020:Q1:pre_third:pseudo,2020-06-30,pre_third,DELTA_MT,DELTA_MT,2020:Q1,2.525235690040403,,,not_available,-0.16790000000000038,2.6931356900404033,True,True,0,,,,,,,14,5,0.02
monthly_mixed_frequency_kalman_em,pseudo,2020:Q1:pre_third:pseudo,2020-06-30,pre_third,DELTA_MT,DELTA_MT,2020:Q1,-0.22617328111443946,4.360133186602745,2.0880931939457934,model_implied_state_space,-0.16790000000000038,-0.05827328111443908,True,True,30,-5848.09797214537,-7570.982370400096,-5848.09797214537,0.5808403497094332,9.929440031284142e-05,30.0,14,5,0.02
standard_dfm,pseudo,2020:Q1:pre_third:pseudo,2020-06-30,pre_third,DELTA_MT,DELTA_MT,2020:Q1,0.04086455062086802,,,not_available,-0.16790000000000038,0.2087645506208684,True,True,0,,,,,,,14,5,0.02
release_dfm,pseudo,2020:Q1:pre_third:pseudo,2020-06-30,pre_third,DELTA_MT,DELTA_MT,2020:Q1,1.1213922379207828,,,not_available,-0.16790000000000038,1.2892922379207832,True,True,0,,,,,,,14,5,0.02
revision_dfm_kalman_em,pseudo,2020:Q1:pre_third:pseudo,2020-06-30,pre_third,DELTA_MT,DELTA_MT,2020:Q1,-0.009552842651778803,4.276488387599249,2.0679672114420113,model_implied_state_space,-0.16790000000000038,0.15834715734822158,True,True,20,-2056.8046373345205,-3047.8277928181064,-2056.8046373345205,0.20579654771108835,9.999781552267142e-05,20.0,14,5,0.02
indicator_revision_only_dfm_kalman_em,pseudo,2020:Q1:pre_third:pseudo,2020-06-30,pre_third,DELTA_MT,DELTA_MT,2020:Q1,0.0,4.280790854177607,2.0690072146267657,model_implied_state_space,-0.16790000000000038,0.16790000000000038,True,True,25,-3815.1169497642613,-5025.107256549124,-3815.1169497642613,0.37259727959735756,9.762827200351184e-05,25.0,14,5,0.02
joint_indicator_revision_dfm_full_kalman_em,pseudo,2020:Q1:pre_third:pseudo,2020-06-30,pre_third,DELTA_MT,DELTA_MT,2020:Q1,-0.008966044953632846,4.291429428806811,2.0715765563470763,model_implied_state_space,-0.16790000000000038,0.15893395504636754,True,True,26,-3779.3353767487815,-5039.962716167363,-3779.3353767487815,0.3550458427207559,9.391031876061068e-05,26.0,14,5,0.02
ar,exact,2020:Q2:pre_advance:exact,2020-07-29,pre_advance,DELTA_SA,DELTA_SA,2020:Q2,0.22277037037452474,,,not_available,1.1996999999999964,-0.9769296296254717,True,True,0,,,,,,,14,5,0.02
no_revision,exact,2020:Q2:pre_advance:exact,2020-07-29,pre_advance,DELTA_SA,DELTA_SA,2020:Q2,0.0,,,not_available,1.1996999999999964,-1.1996999999999964,True,True,0,,,,,,,14,5,0.02
bridge,exact,2020:Q2:pre_advance:exact,2020-07-29,pre_advance,DELTA_SA,DELTA_SA,2020:Q2,-0.8123714058636846,,,not_available,1.1996999999999964,-2.012071405863681,True,True,0,,,,,,,14,5,0.02
midas_umidas,exact,2020:Q2:pre_advance:exact,2020-07-29,pre_advance,DELTA_SA,DELTA_SA,2020:Q2,46.64625568917797,,,not_available,1.1996999999999964,45.44655568917797,True,True,0,,,,,,,14,5,0.02
monthly_mixed_frequency_kalman_em,exact,2020:Q2:pre_advance:exact,2020-07-29,pre_advance,DELTA_SA,DELTA_SA,2020:Q2,-1.5587867500333488,0.3331608578720253,0.5772008817318502,model_implied_state_space,1.1996999999999964,-2.758486750033345,True,True,30,-5800.950420662696,-7576.408237289621,-5800.950420662696,0.543709375088838,9.370270144250838e-05,30.0,14,5,0.02
standard_dfm,exact,2020:Q2:pre_advance:exact,2020-07-29,pre_advance,DELTA_SA,DELTA_SA,2020:Q2,-1.5018387117883414,,,not_available,1.1996999999999964,-2.701538711788338,True,True,0,,,,,,,14,5,0.02
release_dfm,exact,2020:Q2:pre_advance:exact,2020-07-29,pre_advance,DELTA_SA,DELTA_SA,2020:Q2,-1.5018387117883414,,,not_available,1.1996999999999964,-2.701538711788338,True,True,0,,,,,,,14,5,0.02
revision_dfm_kalman_em,exact,2020:Q2:pre_advance:exact,2020-07-29,pre_advance,DELTA_SA,DELTA_SA,2020:Q2,-0.9959376441675545,0.39684524161005275,0.629956539461297,model_implied_state_space,1.1996999999999964,-2.195637644167551,True,True,29,-1891.851125589318,-3069.387912349364,-1891.851125589318,0.16657981915682285,8.799696837535828e-05,29.0,14,5,0.02
indicator_revision_only_dfm_kalman_em,exact,2020:Q2:pre_advance:exact,2020-07-29,pre_advance,DELTA_SA,DELTA_SA,2020:Q2,0.0,0.42424570423401686,0.6513414651578824,model_implied_state_space,1.1996999999999964,-1.1996999999999964,True,True,36,-3399.108269419196,-5013.9063084873,-3399.108269419196,0.2850956652923742,8.384196611479111e-05,36.0,14,5,0.02
joint_indicator_revision_dfm_full_kalman_em,exact,2020:Q2:pre_advance:exact,2020-07-29,pre_advance,DELTA_SA,DELTA_SA,2020:Q2,-0.5280934410849554,0.359474434416577,0.5995618687146281,model_implied_state_space,1.1996999999999964,-1.7277934410849518,True,True,37,-3358.030529116918,-5028.769549213028,-3358.030529116918,0.2943491953187731,8.76215328916498e-05,37.0,14,5,0.02
ar,exact,2020:Q2:pre_second:exact,2020-08-26,pre_second,DELTA_TS,DELTA_TS,2020:Q2,0.22266421245840196,,,not_available,0.3214000000000006,-0.09873578754159862,True,True,0,,,,,,,14,5,0.02
no_revision,exact,2020:Q2:pre_second:exact,2020-08-26,pre_second,DELTA_TS,DELTA_TS,2020:Q2,0.0,,,not_available,0.3214000000000006,-0.3214000000000006,True,True,0,,,,,,,14,5,0.02
bridge,exact,2020:Q2:pre_second:exact,2020-08-26,pre_second,DELTA_TS,DELTA_TS,2020:Q2,0.2158070170818096,,,not_available,0.3214000000000006,-0.10559298291819097,True,True,0,,,,,,,14,5,0.02
midas_umidas,exact,2020:Q2:pre_second:exact,2020-08-26,pre_second,DELTA_TS,DELTA_TS,2020:Q2,-20.633376910143767,,,not_available,0.3214000000000006,-20.954776910143767,True,True,0,,,,,,,14,5,0.02
monthly_mixed_frequency_kalman_em,exact,2020:Q2:pre_second:exact,2020-08-26,pre_second,DELTA_TS,DELTA_TS,2020:Q2,-0.7709575212528677,0.14745425712027993,0.38399773061865866,model_implied_state_space,0.3214000000000006,-1.0923575212528682,True,True,30,-5790.936824378299,-7593.671304928383,-5790.936824378299,0.5359329527009322,9.252230871913056e-05,30.0,14,5,0.02
standard_dfm,exact,2020:Q2:pre_second:exact,2020-08-26,pre_second,DELTA_TS,DELTA_TS,2020:Q2,-0.20132203708942242,,,not_available,0.3214000000000006,-0.522722037089423,True,True,0,,,,,,,14,5,0.02
release_dfm,exact,2020:Q2:pre_second:exact,2020-08-26,pre_second,DELTA_TS,DELTA_TS,2020:Q2,-0.1432377354184453,,,not_available,0.3214000000000006,-0.4646377354184459,True,True,0,,,,,,,14,5,0.02
revision_dfm_kalman_em,exact,2020:Q2:pre_second:exact,2020-08-26,pre_second,DELTA_TS,DELTA_TS,2020:Q2,-0.06502836340571605,0.14574282999793864,0.3817627928412336,model_implied_state_space,0.3214000000000006,-0.3864283634057166,True,True,24,-1847.8379170726112,-3080.5536770625677,-1847.8379170726112,0.1789742623143411,9.679428195224758e-05,24.0,14,5,0.02
indicator_revision_only_dfm_kalman_em,exact,2020:Q2:pre_second:exact,2020-08-26,pre_second,DELTA_TS,DELTA_TS,2020:Q2,0.0,0.14881186745060337,0.3857614125992948,model_implied_state_space,0.3214000000000006,-0.3214000000000006,True,True,42,-3345.173763553609,-5014.503265091498,-3345.173763553609,0.3046951834844549,9.104949792488486e-05,42.0,14,5,0.02
joint_indicator_revision_dfm_full_kalman_em,exact,2020:Q2:pre_second:exact,2020-08-26,pre_second,DELTA_TS,DELTA_TS,2020:Q2,-0.01641618758181096,0.14449875541465518,0.38012991912588934,model_implied_state_space,0.3214000000000006,-0.33781618758181153,True,True,43,-3306.1937171382415,-5023.084919022854,-3306.1937171382415,0.2844919614644823,8.601476517117278e-05,43.0,14,5,0.02
ar,exact,2020:Q2:pre_third:exact,2020-09-29,pre_third,DELTA_MT,DELTA_MT,2020:Q2,3.4133521633512327,,,not_available,3.4068000000000005,0.00655216335123221,True,True,0,,,,,,,14,5,0.02
no_revision,exact,2020:Q2:pre_third:exact,2020-09-29,pre_third,DELTA_MT,DELTA_MT,2020:Q2,0.0,,,not_available,3.4068000000000005,-3.4068000000000005,True,True,0,,,,,,,14,5,0.02
bridge,exact,2020:Q2:pre_third:exact,2020-09-29,pre_third,DELTA_MT,DELTA_MT,2020:Q2,-1.2255572624661575,,,not_available,3.4068000000000005,-4.632357262466158,True,True,0,,,,,,,14,5,0.02
midas_umidas,exact,2020:Q2:pre_third:exact,2020-09-29,pre_third,DELTA_MT,DELTA_MT,2020:Q2,5.755193188971731,,,not_available,3.4068000000000005,2.3483931889717304,True,True,0,,,,,,,14,5,0.02
monthly_mixed_frequency_kalman_em,exact,2020:Q2:pre_third:exact,2020-09-29,pre_third,DELTA_MT,DELTA_MT,2020:Q2,-0.07489958433117039,4.282575440904073,2.069438436123209,model_implied_state_space,3.4068000000000005,-3.481699584331171,True,True,30,-5763.283163787264,-7611.521640025797,-5763.283163787264,0.5381468727000538,9.335013935383299e-05,30.0,14,5,0.02
standard_dfm,exact,2020:Q2:pre_third:exact,2020-09-29,pre_third,DELTA_MT,DELTA_MT,2020:Q2,-0.6909622800456106,,,not_available,3.4068000000000005,-4.097762280045611,True,True,0,,,,,,,14,5,0.02
release_dfm,exact,2020:Q2:pre_third:exact,2020-09-29,pre_third,DELTA_MT,DELTA_MT,2020:Q2,1.4993223405828005,,,not_available,3.4068000000000005,-1.9074776594172,True,True,0,,,,,,,14,5,0.02
revision_dfm_kalman_em,exact,2020:Q2:pre_third:exact,2020-09-29,pre_third,DELTA_MT,DELTA_MT,2020:Q2,0.004283464134900328,4.2618677674223795,2.064429162607034,model_implied_state_space,3.4068000000000005,-3.4025165358651,True,True,24,-1808.8204999211987,-3085.5103096659586,-1808.8204999211987,0.17094960674830872,9.444774271883608e-05,24.0,14,5,0.02
indicator_revision_only_dfm_kalman_em,exact,2020:Q2:pre_third:exact,2020-09-29,pre_third,DELTA_MT,DELTA_MT,2020:Q2,0.0,4.279131064385076,2.0686060679561677,model_implied_state_space,3.4068000000000005,-3.4068000000000005,True,True,38,-3301.711997914387,-5032.976656048883,-3301.711997914387,0.31834240276020864,9.637889149078853e-05,38.0,14,5,0.02
joint_indicator_revision_dfm_full_kalman_em,exact,2020:Q2:pre_third:exact,2020-09-29,pre_third,DELTA_MT,DELTA_MT,2020:Q2,0.018933005062706343,4.281732266808634,2.0692347055877045,model_implied_state_space,3.4068000000000005,-3.387866994937294,True,True,40,-3261.788874420308,-5042.172946669239,-3261.788874420308,0.27470806938799797,8.418716413070859e-05,40.0,14,5,0.02
ar,pseudo,2020:Q2:pre_advance:pseudo,2020-07-31,pre_advance,DELTA_SA,DELTA_SA,2020:Q2,0.22277037037452474,,,not_available,1.1996999999999964,-0.9769296296254717,True,True,0,,,,,,,14,5,0.02
no_revision,pseudo,2020:Q2:pre_advance:pseudo,2020-07-31,pre_advance,DELTA_SA,DELTA_SA,2020:Q2,0.0,,,not_available,1.1996999999999964,-1.1996999999999964,True,True,0,,,,,,,14,5,0.02
bridge,pseudo,2020:Q2:pre_advance:pseudo,2020-07-31,pre_advance,DELTA_SA,DELTA_SA,2020:Q2,-0.7774403997501551,,,not_available,1.1996999999999964,-1.9771403997501515,True,True,0,,,,,,,14,5,0.02
midas_umidas,pseudo,2020:Q2:pre_advance:pseudo,2020-07-31,pre_advance,DELTA_SA,DELTA_SA,2020:Q2,47.64493335960522,,,not_available,1.1996999999999964,46.445233359605226,True,True,0,,,,,,,14,5,0.02
monthly_mixed_frequency_kalman_em,pseudo,2020:Q2:pre_advance:pseudo,2020-07-31,pre_advance,DELTA_SA,DELTA_SA,2020:Q2,-1.5572435297640652,0.3332142579721582,0.5772471376907452,model_implied_state_space,1.1996999999999964,-2.7569435297640617,True,True,30,-5805.174913630151,-7577.424273802538,-5805.174913630151,0.5482355668964374,9.441393240389759e-05,30.0,14,5,0.02
standard_dfm,pseudo,2020:Q2:pre_advance:pseudo,2020-07-31,pre_advance,DELTA_SA,DELTA_SA,2020:Q2,-1.4870034110111714,,,not_available,1.1996999999999964,-2.686703411011168,True,True,0,,,,,,,14,5,0.02
release_dfm,pseudo,2020:Q2:pre_advance:pseudo,2020-07-31,pre_advance,DELTA_SA,DELTA_SA,2020:Q2,-1.4870034110111714,,,not_available,1.1996999999999964,-2.686703411011168,True,True,0,,,,,,,14,5,0.02
revision_dfm_kalman_em,pseudo,2020:Q2:pre_advance:pseudo,2020-07-31,pre_advance,DELTA_SA,DELTA_SA,2020:Q2,-0.9862361212175799,0.3975134730797292,0.6304866954026304,model_implied_state_space,1.1996999999999964,-2.1859361212175763,True,True,28,-1897.4304554452524,-3071.9092908013413,-1897.4304554452524,0.18262006814666165,9.618603732478763e-05,28.0,14,5,0.02
indicator_revision_only_dfm_kalman_em,pseudo,2020:Q2:pre_advance:pseudo,2020-07-31,pre_advance,DELTA_SA,DELTA_SA,2020:Q2,0.0,0.4242433745347336,0.6513396767699121,model_implied_state_space,1.1996999999999964,-1.1996999999999964,True,True,36,-3409.374270386097,-5017.836502160775,-3409.374270386097,0.3410116549071063,9.998244553061658e-05,36.0,14,5,0.02
joint_indicator_revision_dfm_full_kalman_em,pseudo,2020:Q2:pre_advance:pseudo,2020-07-31,pre_advance,DELTA_SA,DELTA_SA,2020:Q2,-0.5384852943399281,0.3584574443880779,0.5987131570193509,model_implied_state_space,1.1996999999999964,-1.7381852943399245,True,True,38,-3367.9766507793847,-5032.689486270528,-3367.9766507793847,0.2809303566609742,8.338049255535107e-05,38.0,14,5,0.02
ar,pseudo,2020:Q2:pre_second:pseudo,2020-08-31,pre_second,DELTA_TS,DELTA_TS,2020:Q2,0.22266421245840196,,,not_available,0.3214000000000006,-0.09873578754159862,True,True,0,,,,,,,14,5,0.02
no_revision,pseudo,2020:Q2:pre_second:pseudo,2020-08-31,pre_second,DELTA_TS,DELTA_TS,2020:Q2,0.0,,,not_available,0.3214000000000006,-0.3214000000000006,True,True,0,,,,,,,14,5,0.02
bridge,pseudo,2020:Q2:pre_second:pseudo,2020-08-31,pre_second,DELTA_TS,DELTA_TS,2020:Q2,0.23140965317984374,,,not_available,0.3214000000000006,-0.08999034682015683,True,True,0,,,,,,,14,5,0.02
midas_umidas,pseudo,2020:Q2:pre_second:pseudo,2020-08-31,pre_second,DELTA_TS,DELTA_TS,2020:Q2,-20.626923509636782,,,not_available,0.3214000000000006,-20.948323509636783,True,True,0,,,,,,,14,5,0.02
monthly_mixed_frequency_kalman_em,pseudo,2020:Q2:pre_second:pseudo,2020-08-31,pre_second,DELTA_TS,DELTA_TS,2020:Q2,-0.770920708788907,0.14745774825586389,0.38400227636807555,model_implied_state_space,0.3214000000000006,-1.0923207087889075,True,True,30,-5794.179609483348,-7595.112622176762,-5794.179609483348,0.5378628933985965,9.280350465013715e-05,30.0,14,5,0.02
standard_dfm,pseudo,2020:Q2:pre_second:pseudo,2020-08-31,pre_second,DELTA_TS,DELTA_TS,2020:Q2,-0.2010002342961421,,,not_available,0.3214000000000006,-0.5224002342961427,True,True,0,,,,,,,14,5,0.02
release_dfm,pseudo,2020:Q2:pre_second:pseudo,2020-08-31,pre_second,DELTA_TS,DELTA_TS,2020:Q2,-0.14322689758746776,,,not_available,0.3214000000000006,-0.46462689758746833,True,True,0,,,,,,,14,5,0.02
revision_dfm_kalman_em,pseudo,2020:Q2:pre_second:pseudo,2020-08-31,pre_second,DELTA_TS,DELTA_TS,2020:Q2,-0.06505915374410165,0.14574230689107304,0.3817621077203355,model_implied_state_space,0.3214000000000006,-0.3864591537441022,True,True,24,-1848.700761627302,-3080.784225679075,-1848.700761627302,0.17864534779891983,9.657134790804467e-05,24.0,14,5,0.02
indicator_revision_only_dfm_kalman_em,pseudo,2020:Q2:pre_second:pseudo,2020-08-31,pre_second,DELTA_TS,DELTA_TS,2020:Q2,0.0,0.1488120257181762,0.385761617735845,model_implied_state_space,0.3214000000000006,-0.3214000000000006,True,True,42,-3346.1449027104077,-5014.559281517239,-3346.1449027104077,0.3141173326498574,9.383754387105746e-05,42.0,14,5,0.02
joint_indicator_revision_dfm_full_kalman_em,pseudo,2020:Q2:pre_second:pseudo,2020-08-31,pre_second,DELTA_TS,DELTA_TS,2020:Q2,-0.01653607291707715,0.14450516803850688,0.3801383538114865,model_implied_state_space,0.3214000000000006,-0.3379360729170777,True,True,43,-3307.1860025341193,-5023.14130185671,-3307.1860025341193,0.2927513770596306,8.848519178596785e-05,43.0,14,5,0.02
ar,pseudo,2020:Q2:pre_third:pseudo,2020-09-30,pre_third,DELTA_MT,DELTA_MT,2020:Q2,3.4133521633512327,,,not_available,3.4068000000000005,0.00655216335123221,True,True,0,,,,,,,14,5,0.02
no_revision,pseudo,2020:Q2:pre_third:pseudo,2020-09-30,pre_third,DELTA_MT,DELTA_MT,2020:Q2,0.0,,,not_available,3.4068000000000005,-3.4068000000000005,True,True,0,,,,,,,14,5,0.02
bridge,pseudo,2020:Q2:pre_third:pseudo,2020-09-30,pre_third,DELTA_MT,DELTA_MT,2020:Q2,-1.2255572624661575,,,not_available,3.4068000000000005,-4.632357262466158,True,True,0,,,,,,,14,5,0.02
midas_umidas,pseudo,2020:Q2:pre_third:pseudo,2020-09-30,pre_third,DELTA_MT,DELTA_MT,2020:Q2,5.755193188971731,,,not_available,3.4068000000000005,2.3483931889717304,True,True,0,,,,,,,14,5,0.02
monthly_mixed_frequency_kalman_em,pseudo,2020:Q2:pre_third:pseudo,2020-09-30,pre_third,DELTA_MT,DELTA_MT,2020:Q2,-0.07489958433117039,4.282575440904073,2.069438436123209,model_implied_state_space,3.4068000000000005,-3.481699584331171,True,True,30,-5763.283163787264,-7611.521640025797,-5763.283163787264,0.5381468727000538,9.335013935383299e-05,30.0,14,5,0.02
standard_dfm,pseudo,2020:Q2:pre_third:pseudo,2020-09-30,pre_third,DELTA_MT,DELTA_MT,2020:Q2,-0.6909622800456106,,,not_available,3.4068000000000005,-4.097762280045611,True,True,0,,,,,,,14,5,0.02
release_dfm,pseudo,2020:Q2:pre_third:pseudo,2020-09-30,pre_third,DELTA_MT,DELTA_MT,2020:Q2,1.4993223405828005,,,not_available,3.4068000000000005,-1.9074776594172,True,True,0,,,,,,,14,5,0.02
revision_dfm_kalman_em,pseudo,2020:Q2:pre_third:pseudo,2020-09-30,pre_third,DELTA_MT,DELTA_MT,2020:Q2,0.004283464134900328,4.2618677674223795,2.064429162607034,model_implied_state_space,3.4068000000000005,-3.4025165358651,True,True,24,-1808.8204999211987,-3085.5103096659586,-1808.8204999211987,0.17094960674830872,9.444774271883608e-05,24.0,14,5,0.02
indicator_revision_only_dfm_kalman_em,pseudo,2020:Q2:pre_third:pseudo,2020-09-30,pre_third,DELTA_MT,DELTA_MT,2020:Q2,0.0,4.279131064385076,2.0686060679561677,model_implied_state_space,3.4068000000000005,-3.4068000000000005,True,True,38,-3301.711997914387,-5032.976656048883,-3301.711997914387,0.31834240276020864,9.637889149078853e-05,38.0,14,5,0.02
joint_indicator_revision_dfm_full_kalman_em,pseudo,2020:Q2:pre_third:pseudo,2020-09-30,pre_third,DELTA_MT,DELTA_MT,2020:Q2,0.018933005062706343,4.281732266808634,2.0692347055877045,model_implied_state_space,3.4068000000000005,-3.387866994937294,True,True,40,-3261.788874420308,-5042.172946669239,-3261.788874420308,0.27470806938799797,8.418716413070859e-05,40.0,14,5,0.02
ar,exact,2020:Q3:pre_advance:exact,2020-10-28,pre_advance,DELTA_SA,DELTA_SA,2020:Q3,2.555388340709694,,,not_available,-0.014299999999998647,2.5696883407096927,True,True,0,,,,,,,14,5,0.02
no_revision,exact,2020:Q3:pre_advance:exact,2020-10-28,pre_advance,DELTA_SA,DELTA_SA,2020:Q3,0.0,,,not_available,-0.014299999999998647,0.014299999999998647,True,True,0,,,,,,,14,5,0.02
bridge,exact,2020:Q3:pre_advance:exact,2020-10-28,pre_advance,DELTA_SA,DELTA_SA,2020:Q3,2.262902420301885,,,not_available,-0.014299999999998647,2.2772024203018835,True,True,0,,,,,,,14,5,0.02
midas_umidas,exact,2020:Q3:pre_advance:exact,2020-10-28,pre_advance,DELTA_SA,DELTA_SA,2020:Q3,-63.93108790807699,,,not_available,-0.014299999999998647,-63.91678790807699,True,True,0,,,,,,,14,5,0.02
monthly_mixed_frequency_kalman_em,exact,2020:Q3:pre_advance:exact,2020-10-28,pre_advance,DELTA_SA,DELTA_SA,2020:Q3,1.1994237271587114,0.36806673004026,0.6066850336379331,model_implied_state_space,-0.014299999999998647,1.21372372715871,True,True,30,-5768.034541426863,-7659.023192441736,-5768.034541426863,0.5548614852687024,9.617001254693144e-05,30.0,14,5,0.02
standard_dfm,exact,2020:Q3:pre_advance:exact,2020-10-28,pre_advance,DELTA_SA,DELTA_SA,2020:Q3,0.1201214726990365,,,not_available,-0.014299999999998647,0.13442147269903515,True,True,0,,,,,,,14,5,0.02
release_dfm,exact,2020:Q3:pre_advance:exact,2020-10-28,pre_advance,DELTA_SA,DELTA_SA,2020:Q3,0.1201214726990365,,,not_available,-0.014299999999998647,0.13442147269903515,True,True,0,,,,,,,14,5,0.02
revision_dfm_kalman_em,exact,2020:Q3:pre_advance:exact,2020-10-28,pre_advance,DELTA_SA,DELTA_SA,2020:Q3,0.8343829755617929,0.39358175504342086,0.6273609447865087,model_implied_state_space,-0.014299999999998647,0.8486829755617915,True,True,26,-1758.0781637650718,-3157.6816619177607,-1758.0781637650718,0.1549405320142796,8.807276968346225e-05,26.0,14,5,0.02
indicator_revision_only_dfm_kalman_em,exact,2020:Q3:pre_advance:exact,2020-10-28,pre_advance,DELTA_SA,DELTA_SA,2020:Q3,0.0,0.42974730700960073,0.6555511475160429,model_implied_state_space,-0.014299999999998647,0.014299999999998647,True,True,39,-3199.4194297924055,-5127.78144161457,-3199.4194297924055,0.2862703959372084,8.94397744598521e-05,39.0,14,5,0.02
joint_indicator_revision_dfm_full_kalman_em,exact,2020:Q3:pre_advance:exact,2020-10-28,pre_advance,DELTA_SA,DELTA_SA,2020:Q3,1.5111393444449526,0.35866397612901313,0.5988856118901281,model_implied_state_space,-0.014299999999998647,1.5254393444449512,True,True,39,-3168.766228813134,-5138.787307048757,-3168.766228813134,0.3037698375769651,9.58243312312535e-05,39.0,14,5,0.02
ar,exact,2020:Q3:pre_second:exact,2020-11-24,pre_second,DELTA_TS,DELTA_TS,2020:Q3,1.0697573673306877,,,not_available,0.3727000000000018,0.6970573673306859,True,True,0,,,,,,,14,5,0.02
no_revision,exact,2020:Q3:pre_second:exact,2020-11-24,pre_second,DELTA_TS,DELTA_TS,2020:Q3,0.0,,,not_available,0.3727000000000018,-0.3727000000000018,True,True,0,,,,,,,14,5,0.02
bridge,exact,2020:Q3:pre_second:exact,2020-11-24,pre_second,DELTA_TS,DELTA_TS,2020:Q3,1.0566794154162311,,,not_available,0.3727000000000018,0.6839794154162293,True,True,0,,,,,,,14,5,0.02
midas_umidas,exact,2020:Q3:pre_second:exact,2020-11-24,pre_second,DELTA_TS,DELTA_TS,2020:Q3,14.8390442611652,,,not_available,0.3727000000000018,14.466344261165197,True,True,0,,,,,,,14,5,0.02
monthly_mixed_frequency_kalman_em,exact,2020:Q3:pre_second:exact,2020-11-24,pre_second,DELTA_TS,DELTA_TS,2020:Q3,0.48896568790998174,0.14475198477720796,0.38046285597572854,model_implied_state_space,0.3727000000000018,0.11626568790997993,True,True,37,-5751.403105536458,-7656.96332378251,-5751.403105536458,0.5543315071199686,9.635592009608843e-05,37.0,14,5,0.02
standard_dfm,exact,2020:Q3:pre_second:exact,2020-11-24,pre_second,DELTA_TS,DELTA_TS,2020:Q3,0.07655031567811577,,,not_available,0.3727000000000018,-0.29614968432188604,True,True,0,,,,,,,14,5,0.02
release_dfm,exact,2020:Q3:pre_second:exact,2020-11-24,pre_second,DELTA_TS,DELTA_TS,2020:Q3,0.025104152176020023,,,not_available,0.3727000000000018,-0.3475958478239818,True,True,0,,,,,,,14,5,0.02
revision_dfm_kalman_em,exact,2020:Q3:pre_second:exact,2020-11-24,pre_second,DELTA_TS,DELTA_TS,2020:Q3,0.051804690240132345,0.14611655849104455,0.38225195681780955,model_implied_state_space,0.3727000000000018,-0.32089530975986946,True,True,26,-1735.1373202278485,-3171.6230069519975,-1735.1373202278485,0.16401517288318246,9.446238941314204e-05,26.0,14,5,0.02
indicator_revision_only_dfm_kalman_em,exact,2020:Q3:pre_second:exact,2020-11-24,pre_second,DELTA_TS,DELTA_TS,2020:Q3,0.0,0.14845612684409415,0.38530004781221366,model_implied_state_space,0.3727000000000018,-0.3727000000000018,True,True,40,-3169.5265110215687,-5146.883346062738,-3169.5265110215687,0.24589703140554775,7.755114519762767e-05,40.0,14,5,0.02
joint_indicator_revision_dfm_full_kalman_em,exact,2020:Q3:pre_second:exact,2020-11-24,pre_second,DELTA_TS,DELTA_TS,2020:Q3,0.03384537959924927,0.14439879226224284,0.37999841086804936,model_implied_state_space,0.3727000000000018,-0.33885462040075254,True,True,41,-3135.5627157516847,-5158.916454815696,-3135.5627157516847,0.2567091502974108,8.183740136888254e-05,41.0,14,5,0.02
ar,exact,2020:Q3:pre_third:exact,2020-12-21,pre_third,DELTA_MT,DELTA_MT,2020:Q3,18.90965041100232,,,not_available,1.4142999999999972,17.495350411002324,True,True,0,,,,,,,14,5,0.02
no_revision,exact,2020:Q3:pre_third:exact,2020-12-21,pre_third,DELTA_MT,DELTA_MT,2020:Q3,0.0,,,not_available,1.4142999999999972,-1.4142999999999972,True,True,0,,,,,,,14,5,0.02
bridge,exact,2020:Q3:pre_third:exact,2020-12-21,pre_third,DELTA_MT,DELTA_MT,2020:Q3,6.926143260561631,,,not_available,1.4142999999999972,5.511843260561633,True,True,0,,,,,,,14,5,0.02
midas_umidas,exact,2020:Q3:pre_third:exact,2020-12-21,pre_third,DELTA_MT,DELTA_MT,2020:Q3,38.85047266361775,,,not_available,1.4142999999999972,37.436172663617754,True,True,0,,,,,,,14,5,0.02
monthly_mixed_frequency_kalman_em,exact,2020:Q3:pre_third:exact,2020-12-21,pre_third,DELTA_MT,DELTA_MT,2020:Q3,0.3313663820439743,4.263836525566774,2.0649059362515216,model_implied_state_space,1.4142999999999972,-1.082933617956023,True,True,33,-5738.80839494275,-7680.297825146089,-5738.80839494275,0.5482886126919766,9.551472894753632e-05,33.0,14,5,0.02
standard_dfm,exact,2020:Q3:pre_third:exact,2020-12-21,pre_third,DELTA_MT,DELTA_MT,2020:Q3,-5.018362780451323,,,not_available,1.4142999999999972,-6.43266278045132,True,True,0,,,,,,,14,5,0.02
release_dfm,exact,2020:Q3:pre_third:exact,2020-12-21,pre_third,DELTA_MT,DELTA_MT,2020:Q3,-1.9791798300080856,,,not_available,1.4142999999999972,-3.393479830008083,True,True,0,,,,,,,14,5,0.02
