haminh109/Revision-Aware-DFM/outputs/full_state_space_release_revision_dfm/exact_pseudo_backtest_mature_1y_max_iter2_journal_evidence/cumulative_loss_point.csv
timing_mode,checkpoint_id,outcome_id,baseline_model,model_id,target_quarter,loss_diff_baseline_minus_model,cumulative_loss_diff
exact,pre_advance,A,ar,bridge,2024:Q1,0.7855773239734215,0.7855773239734215
exact,pre_advance,A,ar,bridge,2024:Q2,-0.6561092188970661,0.12946810507635542
exact,pre_advance,A,ar,bridge,2024:Q3,-0.07053545014004475,0.05893265493631067
exact,pre_advance,A,ar,bridge,2024:Q4,-0.00044289376299851135,0.05848976117331216
exact,pre_advance,A,ar,indicator_revision_only_dfm_kalman_em,2024:Q1,-0.12601777568310835,-0.12601777568310835
exact,pre_advance,A,ar,indicator_revision_only_dfm_kalman_em,2024:Q2,0.13174753129757913,0.005729755614470783
exact,pre_advance,A,ar,indicator_revision_only_dfm_kalman_em,2024:Q3,-0.19338785746295853,-0.18765810184848775
exact,pre_advance,A,ar,indicator_revision_only_dfm_kalman_em,2024:Q4,-0.06599334087645728,-0.253651442724945
exact,pre_advance,A,ar,joint_indicator_revision_dfm_full_kalman_em,2024:Q1,0.10761519097511674,0.10761519097511674
exact,pre_advance,A,ar,joint_indicator_revision_dfm_full_kalman_em,2024:Q2,0.08123377953354828,0.188848970508665
exact,pre_advance,A,ar,joint_indicator_revision_dfm_full_kalman_em,2024:Q3,-0.34359295952238655,-0.15474398901372155
exact,pre_advance,A,ar,joint_indicator_revision_dfm_full_kalman_em,2024:Q4,-0.0285193724846705,-0.18326336149839206
exact,pre_advance,A,ar,midas_umidas,2024:Q1,-6.858121252587646,-6.858121252587646
exact,pre_advance,A,ar,midas_umidas,2024:Q2,-0.00908849640029552,-6.867209748987941
exact,pre_advance,A,ar,midas_umidas,2024:Q3,-3.39415843192423,-10.261368180912172
exact,pre_advance,A,ar,midas_umidas,2024:Q4,0.053104823491226846,-10.208263357420945
exact,pre_advance,A,ar,monthly_mixed_frequency_kalman_em,2024:Q1,0.7462649292274601,0.7462649292274601
exact,pre_advance,A,ar,monthly_mixed_frequency_kalman_em,2024:Q2,0.09752205705407543,0.8437869862815356
exact,pre_advance,A,ar,monthly_mixed_frequency_kalman_em,2024:Q3,-0.1888039376719756,0.65498304860956
exact,pre_advance,A,ar,monthly_mixed_frequency_kalman_em,2024:Q4,-0.13477955585279378,0.5202034927567663
exact,pre_advance,A,ar,no_revision,2024:Q1,-0.31218151521482485,-0.31218151521482485
exact,pre_advance,A,ar,no_revision,2024:Q2,0.0978852185130688,-0.21429629670175604
exact,pre_advance,A,ar,no_revision,2024:Q3,-0.06291573213851451,-0.2772120288402705
exact,pre_advance,A,ar,no_revision,2024:Q4,0.026146771737672124,-0.2510652571025984
exact,pre_advance,A,ar,release_dfm,2024:Q1,0.4624004308907374,0.4624004308907374
exact,pre_advance,A,ar,release_dfm,2024:Q2,0.12983346758590594,0.5922338984766433
exact,pre_advance,A,ar,release_dfm,2024:Q3,-0.8060037928736986,-0.2137698943970553
exact,pre_advance,A,ar,release_dfm,2024:Q4,0.033129491051418346,-0.18064040334563694
exact,pre_advance,A,ar,revision_dfm_kalman_em,2024:Q1,0.08830604651676255,0.08830604651676255
exact,pre_advance,A,ar,revision_dfm_kalman_em,2024:Q2,-0.011141385783791702,0.07716466073297085
exact,pre_advance,A,ar,revision_dfm_kalman_em,2024:Q3,-0.13383570658928048,-0.05667104585630964
exact,pre_advance,A,ar,revision_dfm_kalman_em,2024:Q4,-0.08607448466722684,-0.14274553052353647
exact,pre_advance,A,ar,spf,2024:Q1,0.6176035835239486,0.6176035835239486
exact,pre_advance,A,ar,spf,2024:Q2,-0.5427808169482209,0.07482276657572773
exact,pre_advance,A,ar,spf,2024:Q3,-0.8072172383919204,-0.7323944718161927
exact,pre_advance,A,ar,spf,2024:Q4,-0.05692555044772479,-0.7893200222639174
exact,pre_advance,A,ar,standard_dfm,2024:Q1,0.4624004308907374,0.4624004308907374
exact,pre_advance,A,ar,standard_dfm,2024:Q2,0.12983346758590594,0.5922338984766433
exact,pre_advance,A,ar,standard_dfm,2024:Q3,-0.8060037928736986,-0.2137698943970553
exact,pre_advance,A,ar,standard_dfm,2024:Q4,0.033129491051418346,-0.18064040334563694
exact,pre_advance,A,no_revision,ar,2024:Q1,0.31218151521482485,0.31218151521482485
exact,pre_advance,A,no_revision,ar,2024:Q2,-0.0978852185130688,0.21429629670175604
exact,pre_advance,A,no_revision,ar,2024:Q3,0.06291573213851451,0.2772120288402705
exact,pre_advance,A,no_revision,ar,2024:Q4,-0.026146771737672124,0.2510652571025984
exact,pre_advance,A,no_revision,bridge,2024:Q1,1.0977588391882465,1.0977588391882465
exact,pre_advance,A,no_revision,bridge,2024:Q2,-0.7539944374101349,0.3437644017781115
exact,pre_advance,A,no_revision,bridge,2024:Q3,-0.007619718001530246,0.33614468377658124
exact,pre_advance,A,no_revision,bridge,2024:Q4,-0.026589665500670635,0.3095550182759106
exact,pre_advance,A,no_revision,indicator_revision_only_dfm_kalman_em,2024:Q1,0.1861637395317165,0.1861637395317165
exact,pre_advance,A,no_revision,indicator_revision_only_dfm_kalman_em,2024:Q2,0.03386231278451034,0.22002605231622685
exact,pre_advance,A,no_revision,indicator_revision_only_dfm_kalman_em,2024:Q3,-0.13047212532444402,0.08955392699178283
exact,pre_advance,A,no_revision,indicator_revision_only_dfm_kalman_em,2024:Q4,-0.09214011261412941,-0.0025861856223465818
exact,pre_advance,A,no_revision,joint_indicator_revision_dfm_full_kalman_em,2024:Q1,0.4197967061899416,0.4197967061899416
exact,pre_advance,A,no_revision,joint_indicator_revision_dfm_full_kalman_em,2024:Q2,-0.016651438979520518,0.40314526721042104
exact,pre_advance,A,no_revision,joint_indicator_revision_dfm_full_kalman_em,2024:Q3,-0.2806772273838721,0.12246803982654897
exact,pre_advance,A,no_revision,joint_indicator_revision_dfm_full_kalman_em,2024:Q4,-0.05466614422234262,0.06780189560420635
exact,pre_advance,A,no_revision,midas_umidas,2024:Q1,-6.545939737372821,-6.545939737372821
exact,pre_advance,A,no_revision,midas_umidas,2024:Q2,-0.10697371491336433,-6.652913452286185
exact,pre_advance,A,no_revision,midas_umidas,2024:Q3,-3.3312426997857156,-9.9841561520719
exact,pre_advance,A,no_revision,midas_umidas,2024:Q4,0.026958051753554722,-9.957198100318346
exact,pre_advance,A,no_revision,monthly_mixed_frequency_kalman_em,2024:Q1,1.058446444442285,1.058446444442285
exact,pre_advance,A,no_revision,monthly_mixed_frequency_kalman_em,2024:Q2,-0.0003631614589933718,1.0580832829832916
exact,pre_advance,A,no_revision,monthly_mixed_frequency_kalman_em,2024:Q3,-0.12588820553346108,0.9321950774498304
exact,pre_advance,A,no_revision,monthly_mixed_frequency_kalman_em,2024:Q4,-0.1609263275904659,0.7712687498593646
exact,pre_advance,A,no_revision,release_dfm,2024:Q1,0.7745819461055623,0.7745819461055623
exact,pre_advance,A,no_revision,release_dfm,2024:Q2,0.03194824907283715,0.8065301951783994
exact,pre_advance,A,no_revision,release_dfm,2024:Q3,-0.7430880607351842,0.06344213444321523
exact,pre_advance,A,no_revision,release_dfm,2024:Q4,0.006982719313746222,0.07042485375696145
exact,pre_advance,A,no_revision,revision_dfm_kalman_em,2024:Q1,0.4004875617315874,0.4004875617315874
exact,pre_advance,A,no_revision,revision_dfm_kalman_em,2024:Q2,-0.10902660429686051,0.2914609574347269
exact,pre_advance,A,no_revision,revision_dfm_kalman_em,2024:Q3,-0.07091997445076598,0.2205409829839609
exact,pre_advance,A,no_revision,revision_dfm_kalman_em,2024:Q4,-0.11222125640489897,0.10831972657906194
exact,pre_advance,A,no_revision,spf,2024:Q1,0.9297850987387735,0.9297850987387735
exact,pre_advance,A,no_revision,spf,2024:Q2,-0.6406660354612896,0.2891190632774838
exact,pre_advance,A,no_revision,spf,2024:Q3,-0.744301506253406,-0.45518244297592214
exact,pre_advance,A,no_revision,spf,2024:Q4,-0.08307232218539692,-0.5382547651613191
exact,pre_advance,A,no_revision,standard_dfm,2024:Q1,0.7745819461055623,0.7745819461055623
exact,pre_advance,A,no_revision,standard_dfm,2024:Q2,0.03194824907283715,0.8065301951783994
exact,pre_advance,A,no_revision,standard_dfm,2024:Q3,-0.7430880607351842,0.06344213444321523
exact,pre_advance,A,no_revision,standard_dfm,2024:Q4,0.006982719313746222,0.07042485375696145
exact,pre_advance,A,bridge,ar,2024:Q1,-0.7855773239734215,-0.7855773239734215
exact,pre_advance,A,bridge,ar,2024:Q2,0.6561092188970661,-0.12946810507635542
exact,pre_advance,A,bridge,ar,2024:Q3,0.07053545014004475,-0.05893265493631067
exact,pre_advance,A,bridge,ar,2024:Q4,0.00044289376299851135,-0.05848976117331216
exact,pre_advance,A,bridge,indicator_revision_only_dfm_kalman_em,2024:Q1,-0.9115950996565299,-0.9115950996565299
exact,pre_advance,A,bridge,indicator_revision_only_dfm_kalman_em,2024:Q2,0.7878567501946453,-0.12373834946188456
exact,pre_advance,A,bridge,indicator_revision_only_dfm_kalman_em,2024:Q3,-0.12285240732291378,-0.24659075678479833
exact,pre_advance,A,bridge,indicator_revision_only_dfm_kalman_em,2024:Q4,-0.06555044711345877,-0.3121412038982571
exact,pre_advance,A,bridge,joint_indicator_revision_dfm_full_kalman_em,2024:Q1,-0.6779621329983048,-0.6779621329983048
exact,pre_advance,A,bridge,joint_indicator_revision_dfm_full_kalman_em,2024:Q2,0.7373429984306145,0.05938086543230969
exact,pre_advance,A,bridge,joint_indicator_revision_dfm_full_kalman_em,2024:Q3,-0.27305750938234186,-0.21367664395003216
exact,pre_advance,A,bridge,joint_indicator_revision_dfm_full_kalman_em,2024:Q4,-0.028076478721671988,-0.24175312267170415
exact,pre_advance,A,bridge,midas_umidas,2024:Q1,-7.643698576561067,-7.643698576561067
exact,pre_advance,A,bridge,midas_umidas,2024:Q2,0.6470207224967706,-6.996677854064297
exact,pre_advance,A,bridge,midas_umidas,2024:Q3,-3.3236229817841854,-10.320300835848482
exact,pre_advance,A,bridge,midas_umidas,2024:Q4,0.05354771725422536,-10.266753118594256
exact,pre_advance,A,bridge,monthly_mixed_frequency_kalman_em,2024:Q1,-0.03931239474596143,-0.03931239474596143
exact,pre_advance,A,bridge,monthly_mixed_frequency_kalman_em,2024:Q2,0.7536312759511415,0.7143188812051802
exact,pre_advance,A,bridge,monthly_mixed_frequency_kalman_em,2024:Q3,-0.11826848753193084,0.5960503936732493
exact,pre_advance,A,bridge,monthly_mixed_frequency_kalman_em,2024:Q4,-0.13433666208979528,0.461713731583454
exact,pre_advance,A,bridge,no_revision,2024:Q1,-1.0977588391882465,-1.0977588391882465
exact,pre_advance,A,bridge,no_revision,2024:Q2,0.7539944374101349,-0.3437644017781115
exact,pre_advance,A,bridge,no_revision,2024:Q3,0.007619718001530246,-0.33614468377658124
exact,pre_advance,A,bridge,no_revision,2024:Q4,0.026589665500670635,-0.3095550182759106
exact,pre_advance,A,bridge,release_dfm,2024:Q1,-0.3231768930826841,-0.3231768930826841
exact,pre_advance,A,bridge,release_dfm,2024:Q2,0.785942686482972,0.46276579340028795
exact,pre_advance,A,bridge,release_dfm,2024:Q3,-0.7354683427336539,-0.27270254933336596
exact,pre_advance,A,bridge,release_dfm,2024:Q4,0.03357238481441686,-0.2391301645189491
exact,pre_advance,A,bridge,revision_dfm_kalman_em,2024:Q1,-0.697271277456659,-0.697271277456659
exact,pre_advance,A,bridge,revision_dfm_kalman_em,2024:Q2,0.6449678331132744,-0.05230344434338452
exact,pre_advance,A,bridge,revision_dfm_kalman_em,2024:Q3,-0.06330025644923573,-0.11560370079262025
exact,pre_advance,A,bridge,revision_dfm_kalman_em,2024:Q4,-0.08563159090422832,-0.20123529169684856
exact,pre_advance,A,bridge,spf,2024:Q1,-0.16797374044947289,-0.16797374044947289
exact,pre_advance,A,bridge,spf,2024:Q2,0.1133284019488453,-0.05464533850062758
exact,pre_advance,A,bridge,spf,2024:Q3,-0.7366817882518757,-0.7913271267525033
exact,pre_advance,A,bridge,spf,2024:Q4,-0.05648265668472628,-0.8478097834372296
exact,pre_advance,A,bridge,standard_dfm,2024:Q1,-0.3231768930826841,-0.3231768930826841
exact,pre_advance,A,bridge,standard_dfm,2024:Q2,0.785942686482972,0.46276579340028795
exact,pre_advance,A,bridge,standard_dfm,2024:Q3,-0.7354683427336539,-0.27270254933336596
exact,pre_advance,A,bridge,standard_dfm,2024:Q4,0.03357238481441686,-0.2391301645189491
exact,pre_advance,A,midas_umidas,ar,2024:Q1,6.858121252587646,6.858121252587646
exact,pre_advance,A,midas_umidas,ar,2024:Q2,0.00908849640029552,6.867209748987941
exact,pre_advance,A,midas_umidas,ar,2024:Q3,3.39415843192423,10.261368180912172
exact,pre_advance,A,midas_umidas,ar,2024:Q4,-0.053104823491226846,10.208263357420945
exact,pre_advance,A,midas_umidas,bridge,2024:Q1,7.643698576561067,7.643698576561067
exact,pre_advance,A,midas_umidas,bridge,2024:Q2,-0.6470207224967706,6.996677854064297
exact,pre_advance,A,midas_umidas,bridge,2024:Q3,3.3236229817841854,10.320300835848482
exact,pre_advance,A,midas_umidas,bridge,2024:Q4,-0.05354771725422536,10.266753118594256
exact,pre_advance,A,midas_umidas,indicator_revision_only_dfm_kalman_em,2024:Q1,6.732103476904538,6.732103476904538
exact,pre_advance,A,midas_umidas,indicator_revision_only_dfm_kalman_em,2024:Q2,0.14083602769787465,6.872939504602412
exact,pre_advance,A,midas_umidas,indicator_revision_only_dfm_kalman_em,2024:Q3,3.200770574461272,10.073710079063684
exact,pre_advance,A,midas_umidas,indicator_revision_only_dfm_kalman_em,2024:Q4,-0.11909816436768413,9.954611914695999
exact,pre_advance,A,midas_umidas,joint_indicator_revision_dfm_full_kalman_em,2024:Q1,6.965736443562762,6.965736443562762
exact,pre_advance,A,midas_umidas,joint_indicator_revision_dfm_full_kalman_em,2024:Q2,0.0903222759338438,7.0560587194966065
exact,pre_advance,A,midas_umidas,joint_indicator_revision_dfm_full_kalman_em,2024:Q3,3.0505654724018436,10.106624191898451
exact,pre_advance,A,midas_umidas,joint_indicator_revision_dfm_full_kalman_em,2024:Q4,-0.08162419597589735,10.024999995922554
exact,pre_advance,A,midas_umidas,monthly_mixed_frequency_kalman_em,2024:Q1,7.604386181815106,7.604386181815106
exact,pre_advance,A,midas_umidas,monthly_mixed_frequency_kalman_em,2024:Q2,0.10661055345437095,7.710996735269477
exact,pre_advance,A,midas_umidas,monthly_mixed_frequency_kalman_em,2024:Q3,3.2053544942522545,10.916351229521732
exact,pre_advance,A,midas_umidas,monthly_mixed_frequency_kalman_em,2024:Q4,-0.18788437934402064,10.72846685017771
exact,pre_advance,A,midas_umidas,no_revision,2024:Q1,6.545939737372821,6.545939737372821
exact,pre_advance,A,midas_umidas,no_revision,2024:Q2,0.10697371491336433,6.652913452286185
exact,pre_advance,A,midas_umidas,no_revision,2024:Q3,3.3312426997857156,9.9841561520719
exact,pre_advance,A,midas_umidas,no_revision,2024:Q4,-0.026958051753554722,9.957198100318346
exact,pre_advance,A,midas_umidas,release_dfm,2024:Q1,7.320521683478383,7.320521683478383
exact,pre_advance,A,midas_umidas,release_dfm,2024:Q2,0.13892196398620146,7.459443647464584
exact,pre_advance,A,midas_umidas,release_dfm,2024:Q3,2.5881546390505314,10.047598286515116
exact,pre_advance,A,midas_umidas,release_dfm,2024:Q4,-0.0199753324398085,10.027622954075309
exact,pre_advance,A,midas_umidas,revision_dfm_kalman_em,2024:Q1,6.946427299104408,6.946427299104408
exact,pre_advance,A,midas_umidas,revision_dfm_kalman_em,2024:Q2,-0.0020528893834961814,6.944374409720911
exact,pre_advance,A,midas_umidas,revision_dfm_kalman_em,2024:Q3,3.26032272533495,10.204697135055861
exact,pre_advance,A,midas_umidas,revision_dfm_kalman_em,2024:Q4,-0.1391793081584537,10.065517826897407
exact,pre_advance,A,midas_umidas,spf,2024:Q1,7.475724836111594,7.475724836111594
exact,pre_advance,A,midas_umidas,spf,2024:Q2,-0.5336923205479254,6.942032515563668
exact,pre_advance,A,midas_umidas,spf,2024:Q3,2.5869411935323097,9.528973709095979
exact,pre_advance,A,midas_umidas,spf,2024:Q4,-0.11003037393895164,9.418943335157028
exact,pre_advance,A,midas_umidas,standard_dfm,2024:Q1,7.320521683478383,7.320521683478383
exact,pre_advance,A,midas_umidas,standard_dfm,2024:Q2,0.13892196398620146,7.459443647464584
exact,pre_advance,A,midas_umidas,standard_dfm,2024:Q3,2.5881546390505314,10.047598286515116
exact,pre_advance,A,midas_umidas,standard_dfm,2024:Q4,-0.0199753324398085,10.027622954075309
exact,pre_advance,A,spf,ar,2024:Q1,-0.6176035835239486,-0.6176035835239486
exact,pre_advance,A,spf,ar,2024:Q2,0.5427808169482209,-0.07482276657572773
exact,pre_advance,A,spf,ar,2024:Q3,0.8072172383919204,0.7323944718161927
exact,pre_advance,A,spf,ar,2024:Q4,0.05692555044772479,0.7893200222639174
exact,pre_advance,A,spf,bridge,2024:Q1,0.16797374044947289,0.16797374044947289
exact,pre_advance,A,spf,bridge,2024:Q2,-0.1133284019488453,0.05464533850062758
exact,pre_advance,A,spf,bridge,2024:Q3,0.7366817882518757,0.7913271267525033
exact,pre_advance,A,spf,bridge,2024:Q4,0.05648265668472628,0.8478097834372296
exact,pre_advance,A,spf,indicator_revision_only_dfm_kalman_em,2024:Q1,-0.743621359207057,-0.743621359207057
exact,pre_advance,A,spf,indicator_revision_only_dfm_kalman_em,2024:Q2,0.6745283482458,-0.06909301096125697
exact,pre_advance,A,spf,indicator_revision_only_dfm_kalman_em,2024:Q3,0.6138293809289619,0.5447363699677049
exact,pre_advance,A,spf,indicator_revision_only_dfm_kalman_em,2024:Q4,-0.009067790428732486,0.5356685795389724
exact,pre_advance,A,spf,joint_indicator_revision_dfm_full_kalman_em,2024:Q1,-0.5099883925488319,-0.5099883925488319
exact,pre_advance,A,spf,joint_indicator_revision_dfm_full_kalman_em,2024:Q2,0.6240145964817692,0.11402620393293728
exact,pre_advance,A,spf,joint_indicator_revision_dfm_full_kalman_em,2024:Q3,0.46362427886953383,0.5776504828024711
exact,pre_advance,A,spf,joint_indicator_revision_dfm_full_kalman_em,2024:Q4,0.028406177963054294,0.6060566607655254
exact,pre_advance,A,spf,midas_umidas,2024:Q1,-7.475724836111594,-7.475724836111594
exact,pre_advance,A,spf,midas_umidas,2024:Q2,0.5336923205479254,-6.942032515563668
exact,pre_advance,A,spf,midas_umidas,2024:Q3,-2.5869411935323097,-9.528973709095979
exact,pre_advance,A,spf,midas_umidas,2024:Q4,0.11003037393895164,-9.418943335157028
exact,pre_advance,A,spf,monthly_mixed_frequency_kalman_em,2024:Q1,0.12866134570351145,0.12866134570351145
exact,pre_advance,A,spf,monthly_mixed_frequency_kalman_em,2024:Q2,0.6403028740022962,0.7689642197058077
exact,pre_advance,A,spf,monthly_mixed_frequency_kalman_em,2024:Q3,0.6184133007199448,1.3873775204257526
exact,pre_advance,A,spf,monthly_mixed_frequency_kalman_em,2024:Q4,-0.07785400540506898,1.3095235150206836
exact,pre_advance,A,spf,no_revision,2024:Q1,-0.9297850987387735,-0.9297850987387735
exact,pre_advance,A,spf,no_revision,2024:Q2,0.6406660354612896,-0.2891190632774838
exact,pre_advance,A,spf,no_revision,2024:Q3,0.744301506253406,0.45518244297592214
exact,pre_advance,A,spf,no_revision,2024:Q4,0.08307232218539692,0.5382547651613191
exact,pre_advance,A,spf,release_dfm,2024:Q1,-0.15520315263321122,-0.15520315263321122
exact,pre_advance,A,spf,release_dfm,2024:Q2,0.6726142845341267,0.5174111319009156
exact,pre_advance,A,spf,release_dfm,2024:Q3,0.0012134455182217785,0.5186245774191374
exact,pre_advance,A,spf,release_dfm,2024:Q4,0.09005504149914315,0.6086796189182805
exact,pre_advance,A,spf,revision_dfm_kalman_em,2024:Q1,-0.5292975370071861,-0.5292975370071861
exact,pre_advance,A,spf,revision_dfm_kalman_em,2024:Q2,0.5316394311644291,0.002341894157243063
exact,pre_advance,A,spf,revision_dfm_kalman_em,2024:Q3,0.6733815318026399,0.675723425959883
exact,pre_advance,A,spf,revision_dfm_kalman_em,2024:Q4,-0.029148934219502043,0.646574491740381
exact,pre_advance,A,spf,standard_dfm,2024:Q1,-0.15520315263321122,-0.15520315263321122
exact,pre_advance,A,spf,standard_dfm,2024:Q2,0.6726142845341267,0.5174111319009156
exact,pre_advance,A,spf,standard_dfm,2024:Q3,0.0012134455182217785,0.5186245774191374
exact,pre_advance,A,spf,standard_dfm,2024:Q4,0.09005504149914315,0.6086796189182805
exact,pre_advance,A,standard_dfm,ar,2024:Q1,-0.4624004308907374,-0.4624004308907374
exact,pre_advance,A,standard_dfm,ar,2024:Q2,-0.12983346758590594,-0.5922338984766433
exact,pre_advance,A,standard_dfm,ar,2024:Q3,0.8060037928736986,0.2137698943970553
exact,pre_advance,A,standard_dfm,ar,2024:Q4,-0.033129491051418346,0.18064040334563694
exact,pre_advance,A,standard_dfm,bridge,2024:Q1,0.3231768930826841,0.3231768930826841
exact,pre_advance,A,standard_dfm,bridge,2024:Q2,-0.785942686482972,-0.46276579340028795
exact,pre_advance,A,standard_dfm,bridge,2024:Q3,0.7354683427336539,0.27270254933336596
exact,pre_advance,A,standard_dfm,bridge,2024:Q4,-0.03357238481441686,0.2391301645189491
exact,pre_advance,A,standard_dfm,indicator_revision_only_dfm_kalman_em,2024:Q1,-0.5884182065738457,-0.5884182065738457
exact,pre_advance,A,standard_dfm,indicator_revision_only_dfm_kalman_em,2024:Q2,0.0019140637116731862,-0.5865041428621725
exact,pre_advance,A,standard_dfm,indicator_revision_only_dfm_kalman_em,2024:Q3,0.6126159354107401,0.02611179254856766
exact,pre_advance,A,standard_dfm,indicator_revision_only_dfm_kalman_em,2024:Q4,-0.09912283192787563,-0.07301103937930797
exact,pre_advance,A,standard_dfm,joint_indicator_revision_dfm_full_kalman_em,2024:Q1,-0.35478523991562066,-0.35478523991562066
exact,pre_advance,A,standard_dfm,joint_indicator_revision_dfm_full_kalman_em,2024:Q2,-0.04859968805235766,-0.4033849279679783
exact,pre_advance,A,standard_dfm,joint_indicator_revision_dfm_full_kalman_em,2024:Q3,0.46241083335131206,0.05902590538333374
exact,pre_advance,A,standard_dfm,joint_indicator_revision_dfm_full_kalman_em,2024:Q4,-0.061648863536088845,-0.002622958152755102
exact,pre_advance,A,standard_dfm,midas_umidas,2024:Q1,-7.320521683478383,-7.320521683478383
exact,pre_advance,A,standard_dfm,midas_umidas,2024:Q2,-0.13892196398620146,-7.459443647464584
exact,pre_advance,A,standard_dfm,midas_umidas,2024:Q3,-2.5881546390505314,-10.047598286515116
exact,pre_advance,A,standard_dfm,midas_umidas,2024:Q4,0.0199753324398085,-10.027622954075309
exact,pre_advance,A,standard_dfm,monthly_mixed_frequency_kalman_em,2024:Q1,0.28386449833672267,0.28386449833672267
exact,pre_advance,A,standard_dfm,monthly_mixed_frequency_kalman_em,2024:Q2,-0.03231141053183052,0.25155308780489216
exact,pre_advance,A,standard_dfm,monthly_mixed_frequency_kalman_em,2024:Q3,0.617199855201723,0.8687529430066152
exact,pre_advance,A,standard_dfm,monthly_mixed_frequency_kalman_em,2024:Q4,-0.16790904690421213,0.700843896102403
exact,pre_advance,A,standard_dfm,no_revision,2024:Q1,-0.7745819461055623,-0.7745819461055623
exact,pre_advance,A,standard_dfm,no_revision,2024:Q2,-0.03194824907283715,-0.8065301951783994
exact,pre_advance,A,standard_dfm,no_revision,2024:Q3,0.7430880607351842,-0.06344213444321523
exact,pre_advance,A,standard_dfm,no_revision,2024:Q4,-0.006982719313746222,-0.07042485375696145
exact,pre_advance,A,standard_dfm,release_dfm,2024:Q1,0.0,0.0
exact,pre_advance,A,standard_dfm,release_dfm,2024:Q2,0.0,0.0
exact,pre_advance,A,standard_dfm,release_dfm,2024:Q3,0.0,0.0
exact,pre_advance,A,standard_dfm,release_dfm,2024:Q4,0.0,0.0
exact,pre_advance,A,standard_dfm,revision_dfm_kalman_em,2024:Q1,-0.37409438437397485,-0.37409438437397485
exact,pre_advance,A,standard_dfm,revision_dfm_kalman_em,2024:Q2,-0.14097485336969764,-0.5150692377436725
exact,pre_advance,A,standard_dfm,revision_dfm_kalman_em,2024:Q3,0.6721680862844182,0.15709884854074563
exact,pre_advance,A,standard_dfm,revision_dfm_kalman_em,2024:Q4,-0.11920397571864519,0.03789487282210044
exact,pre_advance,A,standard_dfm,spf,2024:Q1,0.15520315263321122,0.15520315263321122
exact,pre_advance,A,standard_dfm,spf,2024:Q2,-0.6726142845341267,-0.5174111319009156
exact,pre_advance,A,standard_dfm,spf,2024:Q3,-0.0012134455182217785,-0.5186245774191374
exact,pre_advance,A,standard_dfm,spf,2024:Q4,-0.09005504149914315,-0.6086796189182805
exact,pre_advance,A,release_dfm,ar,2024:Q1,-0.4624004308907374,-0.4624004308907374
exact,pre_advance,A,release_dfm,ar,2024:Q2,-0.12983346758590594,-0.5922338984766433
exact,pre_advance,A,release_dfm,ar,2024:Q3,0.8060037928736986,0.2137698943970553
exact,pre_advance,A,release_dfm,ar,2024:Q4,-0.033129491051418346,0.18064040334563694
exact,pre_advance,A,release_dfm,bridge,2024:Q1,0.3231768930826841,0.3231768930826841
exact,pre_advance,A,release_dfm,bridge,2024:Q2,-0.785942686482972,-0.46276579340028795
exact,pre_advance,A,release_dfm,bridge,2024:Q3,0.7354683427336539,0.27270254933336596
exact,pre_advance,A,release_dfm,bridge,2024:Q4,-0.03357238481441686,0.2391301645189491
exact,pre_advance,A,release_dfm,indicator_revision_only_dfm_kalman_em,2024:Q1,-0.5884182065738457,-0.5884182065738457
exact,pre_advance,A,release_dfm,indicator_revision_only_dfm_kalman_em,2024:Q2,0.0019140637116731862,-0.5865041428621725
exact,pre_advance,A,release_dfm,indicator_revision_only_dfm_kalman_em,2024:Q3,0.6126159354107401,0.02611179254856766
exact,pre_advance,A,release_dfm,indicator_revision_only_dfm_kalman_em,2024:Q4,-0.09912283192787563,-0.07301103937930797
exact,pre_advance,A,release_dfm,joint_indicator_revision_dfm_full_kalman_em,2024:Q1,-0.35478523991562066,-0.35478523991562066
exact,pre_advance,A,release_dfm,joint_indicator_revision_dfm_full_kalman_em,2024:Q2,-0.04859968805235766,-0.4033849279679783
exact,pre_advance,A,release_dfm,joint_indicator_revision_dfm_full_kalman_em,2024:Q3,0.46241083335131206,0.05902590538333374
exact,pre_advance,A,release_dfm,joint_indicator_revision_dfm_full_kalman_em,2024:Q4,-0.061648863536088845,-0.002622958152755102
exact,pre_advance,A,release_dfm,midas_umidas,2024:Q1,-7.320521683478383,-7.320521683478383
exact,pre_advance,A,release_dfm,midas_umidas,2024:Q2,-0.13892196398620146,-7.459443647464584
exact,pre_advance,A,release_dfm,midas_umidas,2024:Q3,-2.5881546390505314,-10.047598286515116
exact,pre_advance,A,release_dfm,midas_umidas,2024:Q4,0.0199753324398085,-10.027622954075309
exact,pre_advance,A,release_dfm,monthly_mixed_frequency_kalman_em,2024:Q1,0.28386449833672267,0.28386449833672267
exact,pre_advance,A,release_dfm,monthly_mixed_frequency_kalman_em,2024:Q2,-0.03231141053183052,0.25155308780489216
exact,pre_advance,A,release_dfm,monthly_mixed_frequency_kalman_em,2024:Q3,0.617199855201723,0.8687529430066152
exact,pre_advance,A,release_dfm,monthly_mixed_frequency_kalman_em,2024:Q4,-0.16790904690421213,0.700843896102403
exact,pre_advance,A,release_dfm,no_revision,2024:Q1,-0.7745819461055623,-0.7745819461055623
exact,pre_advance,A,release_dfm,no_revision,2024:Q2,-0.03194824907283715,-0.8065301951783994
exact,pre_advance,A,release_dfm,no_revision,2024:Q3,0.7430880607351842,-0.06344213444321523
exact,pre_advance,A,release_dfm,no_revision,2024:Q4,-0.006982719313746222,-0.07042485375696145
exact,pre_advance,A,release_dfm,revision_dfm_kalman_em,2024:Q1,-0.37409438437397485,-0.37409438437397485
exact,pre_advance,A,release_dfm,revision_dfm_kalman_em,2024:Q2,-0.14097485336969764,-0.5150692377436725
exact,pre_advance,A,release_dfm,revision_dfm_kalman_em,2024:Q3,0.6721680862844182,0.15709884854074563
exact,pre_advance,A,release_dfm,revision_dfm_kalman_em,2024:Q4,-0.11920397571864519,0.03789487282210044
exact,pre_advance,A,release_dfm,spf,2024:Q1,0.15520315263321122,0.15520315263321122
exact,pre_advance,A,release_dfm,spf,2024:Q2,-0.6726142845341267,-0.5174111319009156
exact,pre_advance,A,release_dfm,spf,2024:Q3,-0.0012134455182217785,-0.5186245774191374
exact,pre_advance,A,release_dfm,spf,2024:Q4,-0.09005504149914315,-0.6086796189182805
exact,pre_advance,A,release_dfm,standard_dfm,2024:Q1,0.0,0.0
exact,pre_advance,A,release_dfm,standard_dfm,2024:Q2,0.0,0.0
exact,pre_advance,A,release_dfm,standard_dfm,2024:Q3,0.0,0.0
exact,pre_advance,A,release_dfm,standard_dfm,2024:Q4,0.0,0.0
exact,pre_second,S,ar,bridge,2024:Q1,1.8625059313085512,1.8625059313085512
exact,pre_second,S,ar,bridge,2024:Q2,0.19646254435920296,2.058968475667754
exact,pre_second,S,ar,bridge,2024:Q3,-0.03479997261905867,2.0241685030486956
exact,pre_second,S,ar,bridge,2024:Q4,0.05559488580485916,2.0797633888535545
exact,pre_second,S,ar,indicator_revision_only_dfm_kalman_em,2024:Q1,1.4883051203382223,1.4883051203382223
exact,pre_second,S,ar,indicator_revision_only_dfm_kalman_em,2024:Q2,0.19057091154823338,1.6788760318864557
exact,pre_second,S,ar,indicator_revision_only_dfm_kalman_em,2024:Q3,0.029955399501690825,1.7088314313881465
exact,pre_second,S,ar,indicator_revision_only_dfm_kalman_em,2024:Q4,0.059379247044105354,1.768210678432252
exact,pre_second,S,ar,joint_indicator_revision_dfm_full_kalman_em,2024:Q1,1.207184300504058,1.207184300504058
exact,pre_second,S,ar,joint_indicator_revision_dfm_full_kalman_em,2024:Q2,0.18486152564270875,1.3920458261467665
exact,pre_second,S,ar,joint_indicator_revision_dfm_full_kalman_em,2024:Q3,0.02089588959895196,1.4129417157457185
exact,pre_second,S,ar,joint_indicator_revision_dfm_full_kalman_em,2024:Q4,0.038615190981286115,1.4515569067270047
exact,pre_second,S,ar,midas_umidas,2024:Q1,1.742981538645485,1.742981538645485
exact,pre_second,S,ar,midas_umidas,2024:Q2,0.19158475531859454,1.9345662939640795
exact,pre_second,S,ar,midas_umidas,2024:Q3,0.0072136882216394735,1.941779982185719
exact,pre_second,S,ar,midas_umidas,2024:Q4,-3.153776347288865,-1.211996365103146
exact,pre_second,S,ar,monthly_mixed_frequency_kalman_em,2024:Q1,1.2818196943115638,1.2818196943115638
exact,pre_second,S,ar,monthly_mixed_frequency_kalman_em,2024:Q2,0.08411294398874049,1.3659326383003043
exact,pre_second,S,ar,monthly_mixed_frequency_kalman_em,2024:Q3,0.01635985594686519,1.3822924942471695
exact,pre_second,S,ar,monthly_mixed_frequency_kalman_em,2024:Q4,0.054026527438014546,1.436319021685184
exact,pre_second,S,ar,no_revision,2024:Q1,1.7483139650320858,1.7483139650320858
exact,pre_second,S,ar,no_revision,2024:Q2,0.18710051598747035,1.9354144810195562
exact,pre_second,S,ar,no_revision,2024:Q3,0.05599925683028013,1.9914137378498362
exact,pre_second,S,ar,no_revision,2024:Q4,0.051938970479201964,2.043352708329038
exact,pre_second,S,ar,release_dfm,2024:Q1,1.651741673392914,1.651741673392914
exact,pre_second,S,ar,release_dfm,2024:Q2,0.19945355818537053,1.8511952315782845
exact,pre_second,S,ar,release_dfm,2024:Q3,0.043297622040026705,1.8944928536183112
exact,pre_second,S,ar,release_dfm,2024:Q4,0.06051785573169185,1.955010709350003
exact,pre_second,S,ar,revision_dfm_kalman_em,2024:Q1,1.239233569112796,1.239233569112796
exact,pre_second,S,ar,revision_dfm_kalman_em,2024:Q2,0.19329500684607365,1.4325285759588697
exact,pre_second,S,ar,revision_dfm_kalman_em,2024:Q3,0.039601945123851415,1.4721305210827211
exact,pre_second,S,ar,revision_dfm_kalman_em,2024:Q4,0.052968954939722986,1.5250994760224441
exact,pre_second,S,ar,spf,2024:Q1,1.1549533750320857,1.1549533750320857
exact,pre_second,S,ar,spf,2024:Q2,-0.6922142840125297,0.462739091019556
exact,pre_second,S,ar,spf,2024:Q3,-0.8720628631697199,-0.4093237721501639
exact,pre_second,S,ar,spf,2024:Q4,-0.13354845952079786,-0.5428722316709618
exact,pre_second,S,ar,standard_dfm,2024:Q1,1.8162972283502483,1.8162972283502483
exact,pre_second,S,ar,standard_dfm,2024:Q2,0.02427274858339823,1.8405699769336465
exact,pre_second,S,ar,standard_dfm,2024:Q3,-0.3601316625223395,1.4804383144113071
exact,pre_second,S,ar,standard_dfm,2024:Q4,0.059659089299488356,1.5400974037107955
exact,pre_second,S,no_revision,ar,2024:Q1,-1.7483139650320858,-1.7483139650320858
exact,pre_second,S,no_revision,ar,2024:Q2,-0.18710051598747035,-1.9354144810195562
exact,pre_second,S,no_revision,ar,2024:Q3,-0.05599925683028013,-1.9914137378498362
exact,pre_second,S,no_revision,ar,2024:Q4,-0.051938970479201964,-2.043352708329038
exact,pre_second,S,no_revision,bridge,2024:Q1,0.11419196627646529,0.11419196627646529
exact,pre_second,S,no_revision,bridge,2024:Q2,0.009362028371732604,0.12355399464819788
exact,pre_second,S,no_revision,bridge,2024:Q3,-0.0907992294493388,0.03275476519885909
exact,pre_second,S,no_revision,bridge,2024:Q4,0.0036559153256572,0.036410680524516285
exact,pre_second,S,no_revision,indicator_revision_only_dfm_kalman_em,2024:Q1,-0.26000884469386365,-0.26000884469386365
exact,pre_second,S,no_revision,indicator_revision_only_dfm_kalman_em,2024:Q2,0.0034703955607630274,-0.25653844913310064
exact,pre_second,S,no_revision,indicator_revision_only_dfm_kalman_em,2024:Q3,-0.0260438573285893,-0.28258230646168997
exact,pre_second,S,no_revision,indicator_revision_only_dfm_kalman_em,2024:Q4,0.007440276564903391,-0.2751420298967866
exact,pre_second,S,no_revision,joint_indicator_revision_dfm_full_kalman_em,2024:Q1,-0.541129664528028,-0.541129664528028
exact,pre_second,S,no_revision,joint_indicator_revision_dfm_full_kalman_em,2024:Q2,-0.002238990344761594,-0.5433686548727896
exact,pre_second,S,no_revision,joint_indicator_revision_dfm_full_kalman_em,2024:Q3,-0.03510336723132817,-0.5784720221041177
exact,pre_second,S,no_revision,joint_indicator_revision_dfm_full_kalman_em,2024:Q4,-0.013323779497915847,-0.5917958016020336
exact,pre_second,S,no_revision,midas_umidas,2024:Q1,-0.0053324263866008775,-0.0053324263866008775
exact,pre_second,S,no_revision,midas_umidas,2024:Q2,0.00448423933112419,-0.0008481870554766877
exact,pre_second,S,no_revision,midas_umidas,2024:Q3,-0.04878556860864065,-0.04963375566411734
exact,pre_second,S,no_revision,midas_umidas,2024:Q4,-3.2057153177680666,-3.255349073432184
exact,pre_second,S,no_revision,monthly_mixed_frequency_kalman_em,2024:Q1,-0.46649427072052196,-0.46649427072052196
exact,pre_second,S,no_revision,monthly_mixed_frequency_kalman_em,2024:Q2,-0.10298757199872986,-0.5694818427192518
exact,pre_second,S,no_revision,monthly_mixed_frequency_kalman_em,2024:Q3,-0.03963940088341494,-0.6091212436026667
exact,pre_second,S,no_revision,monthly_mixed_frequency_kalman_em,2024:Q4,0.002087556958812583,-0.6070336866438542
exact,pre_second,S,no_revision,release_dfm,2024:Q1,-0.09657229163917196,-0.09657229163917196
exact,pre_second,S,no_revision,release_dfm,2024:Q2,0.01235304219790018,-0.08421924944127178
exact,pre_second,S,no_revision,release_dfm,2024:Q3,-0.012701634790253422,-0.0969208842315252
exact,pre_second,S,no_revision,release_dfm,2024:Q4,0.008578885252489881,-0.08834199897903532
exact,pre_second,S,no_revision,revision_dfm_kalman_em,2024:Q1,-0.50908039591929,-0.50908039591929
exact,pre_second,S,no_revision,revision_dfm_kalman_em,2024:Q2,0.006194490858603302,-0.5028859050606866
exact,pre_second,S,no_revision,revision_dfm_kalman_em,2024:Q3,-0.016397311706428712,-0.5192832167671153
exact,pre_second,S,no_revision,revision_dfm_kalman_em,2024:Q4,0.0010299844605210183,-0.5182532323065943
exact,pre_second,S,no_revision,spf,2024:Q1,-0.5933605900000003,-0.5933605900000003
exact,pre_second,S,no_revision,spf,2024:Q2,-0.8793148000000001,-1.4726753900000005
exact,pre_second,S,no_revision,spf,2024:Q3,-0.9280621200000001,-2.400737510000001
exact,pre_second,S,no_revision,spf,2024:Q4,-0.18548742999999981,-2.5862249400000006
exact,pre_second,S,no_revision,standard_dfm,2024:Q1,0.06798326331816246,0.06798326331816246
exact,pre_second,S,no_revision,standard_dfm,2024:Q2,-0.16282776740407212,-0.09484450408590966
exact,pre_second,S,no_revision,standard_dfm,2024:Q3,-0.41613091935261964,-0.5109754234385293
exact,pre_second,S,no_revision,standard_dfm,2024:Q4,0.007720118820286391,-0.503255304618243
exact,pre_second,S,bridge,ar,2024:Q1,-1.8625059313085512,-1.8625059313085512
exact,pre_second,S,bridge,ar,2024:Q2,-0.19646254435920296,-2.058968475667754
exact,pre_second,S,bridge,ar,2024:Q3,0.03479997261905867,-2.0241685030486956
exact,pre_second,S,bridge,ar,2024:Q4,-0.05559488580485916,-2.0797633888535545
exact,pre_second,S,bridge,indicator_revision_only_dfm_kalman_em,2024:Q1,-0.3742008109703289,-0.3742008109703289
exact,pre_second,S,bridge,indicator_revision_only_dfm_kalman_em,2024:Q2,-0.005891632810969577,-0.3800924437812985
exact,pre_second,S,bridge,indicator_revision_only_dfm_kalman_em,2024:Q3,0.0647553721207495,-0.315337071660549
exact,pre_second,S,bridge,indicator_revision_only_dfm_kalman_em,2024:Q4,0.0037843612392461914,-0.3115527104213028
exact,pre_second,S,bridge,joint_indicator_revision_dfm_full_kalman_em,2024:Q1,-0.6553216308044933,-0.6553216308044933
exact,pre_second,S,bridge,joint_indicator_revision_dfm_full_kalman_em,2024:Q2,-0.011601018716494198,-0.6669226495209876
exact,pre_second,S,bridge,joint_indicator_revision_dfm_full_kalman_em,2024:Q3,0.05569586221801063,-0.611226787302977
exact,pre_second,S,bridge,joint_indicator_revision_dfm_full_kalman_em,2024:Q4,-0.016979694823573047,-0.6282064821265501
exact,pre_second,S,bridge,midas_umidas,2024:Q1,-0.11952439266306616,-0.11952439266306616
exact,pre_second,S,bridge,midas_umidas,2024:Q2,-0.004877789040608415,-0.12440218170367458
exact,pre_second,S,bridge,midas_umidas,2024:Q3,0.042013660840698144,-0.08238852086297643
exact,pre_second,S,bridge,midas_umidas,2024:Q4,-3.209371233093724,-3.2917597539567005
exact,pre_second,S,bridge,monthly_mixed_frequency_kalman_em,2024:Q1,-0.5806862369969873,-0.5806862369969873
exact,pre_second,S,bridge,monthly_mixed_frequency_kalman_em,2024:Q2,-0.11234960037046247,-0.6930358373674498
exact,pre_second,S,bridge,monthly_mixed_frequency_kalman_em,2024:Q3,0.05115982856592386,-0.641876008801526
exact,pre_second,S,bridge,monthly_mixed_frequency_kalman_em,2024:Q4,-0.001568358366844617,-0.6434443671683706
exact,pre_second,S,bridge,no_revision,2024:Q1,-0.11419196627646529,-0.11419196627646529
exact,pre_second,S,bridge,no_revision,2024:Q2,-0.009362028371732604,-0.12355399464819788
exact,pre_second,S,bridge,no_revision,2024:Q3,0.0907992294493388,-0.03275476519885909
exact,pre_second,S,bridge,no_revision,2024:Q4,-0.0036559153256572,-0.036410680524516285
exact,pre_second,S,bridge,release_dfm,2024:Q1,-0.21076425791563724,-0.21076425791563724
exact,pre_second,S,bridge,release_dfm,2024:Q2,0.0029910138261675756,-0.20777324408946968
exact,pre_second,S,bridge,release_dfm,2024:Q3,0.07809759465908538,-0.1296756494303843
exact,pre_second,S,bridge,release_dfm,2024:Q4,0.004922969926832681,-0.12475267950355161
exact,pre_second,S,bridge,revision_dfm_kalman_em,2024:Q1,-0.6232723621957553,-0.6232723621957553
exact,pre_second,S,bridge,revision_dfm_kalman_em,2024:Q2,-0.0031675375131293023,-0.6264398997088846
exact,pre_second,S,bridge,revision_dfm_kalman_em,2024:Q3,0.07440191774291008,-0.5520379819659745
exact,pre_second,S,bridge,revision_dfm_kalman_em,2024:Q4,-0.0026259308651361817,-0.5546639128311107
exact,pre_second,S,bridge,spf,2024:Q1,-0.7075525562764656,-0.7075525562764656
exact,pre_second,S,bridge,spf,2024:Q2,-0.8886768283717327,-1.5962293846481983
exact,pre_second,S,bridge,spf,2024:Q3,-0.8372628905506613,-2.4334922751988595
exact,pre_second,S,bridge,spf,2024:Q4,-0.18914334532565702,-2.6226356205245165
exact,pre_second,S,bridge,standard_dfm,2024:Q1,-0.04620870295830283,-0.04620870295830283
exact,pre_second,S,bridge,standard_dfm,2024:Q2,-0.17218979577580473,-0.21839849873410755
exact,pre_second,S,bridge,standard_dfm,2024:Q3,-0.3253316899032808,-0.5437301886373884
exact,pre_second,S,bridge,standard_dfm,2024:Q4,0.004064203494629191,-0.5396659851427592
exact,pre_second,S,midas_umidas,ar,2024:Q1,-1.742981538645485,-1.742981538645485
exact,pre_second,S,midas_umidas,ar,2024:Q2,-0.19158475531859454,-1.9345662939640795
exact,pre_second,S,midas_umidas,ar,2024:Q3,-0.0072136882216394735,-1.941779982185719
exact,pre_second,S,midas_umidas,ar,2024:Q4,3.153776347288865,1.211996365103146
exact,pre_second,S,midas_umidas,bridge,2024:Q1,0.11952439266306616,0.11952439266306616
exact,pre_second,S,midas_umidas,bridge,2024:Q2,0.004877789040608415,0.12440218170367458
exact,pre_second,S,midas_umidas,bridge,2024:Q3,-0.042013660840698144,0.08238852086297643
exact,pre_second,S,midas_umidas,bridge,2024:Q4,3.209371233093724,3.2917597539567005
exact,pre_second,S,midas_umidas,indicator_revision_only_dfm_kalman_em,2024:Q1,-0.25467641830726273,-0.25467641830726273
exact,pre_second,S,midas_umidas,indicator_revision_only_dfm_kalman_em,2024:Q2,-0.0010138437703611624,-0.2556902620776239
exact,pre_second,S,midas_umidas,indicator_revision_only_dfm_kalman_em,2024:Q3,0.02274171128005135,-0.23294855079757257
exact,pre_second,S,midas_umidas,indicator_revision_only_dfm_kalman_em,2024:Q4,3.21315559433297,2.9802070435353976
exact,pre_second,S,midas_umidas,joint_indicator_revision_dfm_full_kalman_em,2024:Q1,-0.5357972381414271,-0.5357972381414271
exact,pre_second,S,midas_umidas,joint_indicator_revision_dfm_full_kalman_em,2024:Q2,-0.006723229675885784,-0.5425204678173129
exact,pre_second,S,midas_umidas,joint_indicator_revision_dfm_full_kalman_em,2024:Q3,0.013682201377312485,-0.5288382664400004
exact,pre_second,S,midas_umidas,joint_indicator_revision_dfm_full_kalman_em,2024:Q4,3.192391538270151,2.6635532718301507
exact,pre_second,S,midas_umidas,monthly_mixed_frequency_kalman_em,2024:Q1,-0.46116184433392104,-0.46116184433392104
exact,pre_second,S,midas_umidas,monthly_mixed_frequency_kalman_em,2024:Q2,-0.10747181132985406,-0.5686336556637751
exact,pre_second,S,midas_umidas,monthly_mixed_frequency_kalman_em,2024:Q3,0.009146167725225716,-0.5594874879385494
exact,pre_second,S,midas_umidas,monthly_mixed_frequency_kalman_em,2024:Q4,3.2078028747268794,2.64831538678833
exact,pre_second,S,midas_umidas,no_revision,2024:Q1,0.0053324263866008775,0.0053324263866008775
exact,pre_second,S,midas_umidas,no_revision,2024:Q2,-0.00448423933112419,0.0008481870554766877
exact,pre_second,S,midas_umidas,no_revision,2024:Q3,0.04878556860864065,0.04963375566411734
exact,pre_second,S,midas_umidas,no_revision,2024:Q4,3.2057153177680666,3.255349073432184
exact,pre_second,S,midas_umidas,release_dfm,2024:Q1,-0.09123986525257108,-0.09123986525257108
exact,pre_second,S,midas_umidas,release_dfm,2024:Q2,0.00786880286677599,-0.08337106238579509
exact,pre_second,S,midas_umidas,release_dfm,2024:Q3,0.03608393381838723,-0.047287128567407855
exact,pre_second,S,midas_umidas,release_dfm,2024:Q4,3.2142942030205566,3.167007074453149
exact,pre_second,S,midas_umidas,revision_dfm_kalman_em,2024:Q1,-0.5037479695326891,-0.5037479695326891
exact,pre_second,S,midas_umidas,revision_dfm_kalman_em,2024:Q2,0.001710251527479112,-0.50203771800521
exact,pre_second,S,midas_umidas,revision_dfm_kalman_em,2024:Q3,0.03238825690221194,-0.4696494611029981
exact,pre_second,S,midas_umidas,revision_dfm_kalman_em,2024:Q4,3.2067453022285877,2.7370958411255897
exact,pre_second,S,midas_umidas,spf,2024:Q1,-0.5880281636133994,-0.5880281636133994
exact,pre_second,S,midas_umidas,spf,2024:Q2,-0.8837990393311242,-1.4718272029445236
exact,pre_second,S,midas_umidas,spf,2024:Q3,-0.8792765513913594,-2.351103754335883
exact,pre_second,S,midas_umidas,spf,2024:Q4,3.020227887768067,0.669124133432184
exact,pre_second,S,midas_umidas,standard_dfm,2024:Q1,0.07331568970476335,0.07331568970476335
exact,pre_second,S,midas_umidas,standard_dfm,2024:Q2,-0.1673120067351963,-0.09399631703043296
exact,pre_second,S,midas_umidas,standard_dfm,2024:Q3,-0.367345350743979,-0.461341667774412
exact,pre_second,S,midas_umidas,standard_dfm,2024:Q4,3.213435436588353,2.752093768813941
exact,pre_second,S,spf,ar,2024:Q1,-1.1549533750320857,-1.1549533750320857
exact,pre_second,S,spf,ar,2024:Q2,0.6922142840125297,-0.462739091019556
exact,pre_second,S,spf,ar,2024:Q3,0.8720628631697199,0.4093237721501639
exact,pre_second,S,spf,ar,2024:Q4,0.13354845952079786,0.5428722316709618
exact,pre_second,S,spf,bridge,2024:Q1,0.7075525562764656,0.7075525562764656
exact,pre_second,S,spf,bridge,2024:Q2,0.8886768283717327,1.5962293846481983
exact,pre_second,S,spf,bridge,2024:Q3,0.8372628905506613,2.4334922751988595
exact,pre_second,S,spf,bridge,2024:Q4,0.18914334532565702,2.6226356205245165
exact,pre_second,S,spf,indicator_revision_only_dfm_kalman_em,2024:Q1,0.33335174530613665,0.33335174530613665
exact,pre_second,S,spf,indicator_revision_only_dfm_kalman_em,2024:Q2,0.8827851955607631,1.2161369408668996
exact,pre_second,S,spf,indicator_revision_only_dfm_kalman_em,2024:Q3,0.9020182626714108,2.1181552035383104
exact,pre_second,S,spf,indicator_revision_only_dfm_kalman_em,2024:Q4,0.1929277065649032,2.3110829101032135
exact,pre_second,S,spf,joint_indicator_revision_dfm_full_kalman_em,2024:Q1,0.05223092547197228,0.05223092547197228
exact,pre_second,S,spf,joint_indicator_revision_dfm_full_kalman_em,2024:Q2,0.8770758096552385,0.9293067351272107
exact,pre_second,S,spf,joint_indicator_revision_dfm_full_kalman_em,2024:Q3,0.8929587527686719,1.8222654878958826
exact,pre_second,S,spf,joint_indicator_revision_dfm_full_kalman_em,2024:Q4,0.17216365050208396,1.9944291383979666
exact,pre_second,S,spf,midas_umidas,2024:Q1,0.5880281636133994,0.5880281636133994
exact,pre_second,S,spf,midas_umidas,2024:Q2,0.8837990393311242,1.4718272029445236
exact,pre_second,S,spf,midas_umidas,2024:Q3,0.8792765513913594,2.351103754335883
exact,pre_second,S,spf,midas_umidas,2024:Q4,-3.020227887768067,-0.669124133432184
exact,pre_second,S,spf,monthly_mixed_frequency_kalman_em,2024:Q1,0.12686631927947833,0.12686631927947833
exact,pre_second,S,spf,monthly_mixed_frequency_kalman_em,2024:Q2,0.7763272280012702,0.9031935472807485
exact,pre_second,S,spf,monthly_mixed_frequency_kalman_em,2024:Q3,0.8884227191165851,1.7916162663973336
exact,pre_second,S,spf,monthly_mixed_frequency_kalman_em,2024:Q4,0.1875749869588124,1.979191253356146
exact,pre_second,S,spf,no_revision,2024:Q1,0.5933605900000003,0.5933605900000003
exact,pre_second,S,spf,no_revision,2024:Q2,0.8793148000000001,1.4726753900000005
exact,pre_second,S,spf,no_revision,2024:Q3,0.9280621200000001,2.400737510000001
exact,pre_second,S,spf,no_revision,2024:Q4,0.18548742999999981,2.5862249400000006
exact,pre_second,S,spf,release_dfm,2024:Q1,0.49678829836082833,0.49678829836082833
exact,pre_second,S,spf,release_dfm,2024:Q2,0.8916678421979002,1.3884561405587286
exact,pre_second,S,spf,release_dfm,2024:Q3,0.9153604852097467,2.303816625768475
exact,pre_second,S,spf,release_dfm,2024:Q4,0.19406631525248969,2.497882941020965
exact,pre_second,S,spf,revision_dfm_kalman_em,2024:Q1,0.0842801940807103,0.0842801940807103
exact,pre_second,S,spf,revision_dfm_kalman_em,2024:Q2,0.8855092908586033,0.9697894849393136
exact,pre_second,S,spf,revision_dfm_kalman_em,2024:Q3,0.9116648082935713,1.8814542932328848
exact,pre_second,S,spf,revision_dfm_kalman_em,2024:Q4,0.18651741446052084,2.0679717076934057
exact,pre_second,S,spf,standard_dfm,2024:Q1,0.6613438533181627,0.6613438533181627
exact,pre_second,S,spf,standard_dfm,2024:Q2,0.7164870325959279,1.3778308859140906
exact,pre_second,S,spf,standard_dfm,2024:Q3,0.5119312006473804,1.889762086561471
exact,pre_second,S,spf,standard_dfm,2024:Q4,0.1932075488202862,2.0829696353817573
exact,pre_second,S,standard_dfm,ar,2024:Q1,-1.8162972283502483,-1.8162972283502483
exact,pre_second,S,standard_dfm,ar,2024:Q2,-0.02427274858339823,-1.8405699769336465
exact,pre_second,S,standard_dfm,ar,2024:Q3,0.3601316625223395,-1.4804383144113071
exact,pre_second,S,standard_dfm,ar,2024:Q4,-0.059659089299488356,-1.5400974037107955
exact,pre_second,S,standard_dfm,bridge,2024:Q1,0.04620870295830283,0.04620870295830283
exact,pre_second,S,standard_dfm,bridge,2024:Q2,0.17218979577580473,0.21839849873410755
exact,pre_second,S,standard_dfm,bridge,2024:Q3,0.3253316899032808,0.5437301886373884
exact,pre_second,S,standard_dfm,bridge,2024:Q4,-0.004064203494629191,0.5396659851427592
exact,pre_second,S,standard_dfm,indicator_revision_only_dfm_kalman_em,2024:Q1,-0.3279921080120261,-0.3279921080120261
exact,pre_second,S,standard_dfm,indicator_revision_only_dfm_kalman_em,2024:Q2,0.16629816296483516,-0.16169394504719095
exact,pre_second,S,standard_dfm,indicator_revision_only_dfm_kalman_em,2024:Q3,0.3900870620240303,0.22839311697683937
exact,pre_second,S,standard_dfm,indicator_revision_only_dfm_kalman_em,2024:Q4,-0.000279842255382999,0.22811327472145637
exact,pre_second,S,standard_dfm,joint_indicator_revision_dfm_full_kalman_em,2024:Q1,-0.6091129278461904,-0.6091129278461904
exact,pre_second,S,standard_dfm,joint_indicator_revision_dfm_full_kalman_em,2024:Q2,0.16058877705931052,-0.4485241507868799
exact,pre_second,S,standard_dfm,joint_indicator_revision_dfm_full_kalman_em,2024:Q3,0.38102755212129147,-0.06749659866558844
exact,pre_second,S,standard_dfm,joint_indicator_revision_dfm_full_kalman_em,2024:Q4,-0.021043898318202237,-0.08854049698379067
exact,pre_second,S,standard_dfm,midas_umidas,2024:Q1,-0.07331568970476335,-0.07331568970476335
exact,pre_second,S,standard_dfm,midas_umidas,2024:Q2,0.1673120067351963,0.09399631703043296
exact,pre_second,S,standard_dfm,midas_umidas,2024:Q3,0.367345350743979,0.461341667774412
exact,pre_second,S,standard_dfm,midas_umidas,2024:Q4,-3.213435436588353,-2.752093768813941
exact,pre_second,S,standard_dfm,monthly_mixed_frequency_kalman_em,2024:Q1,-0.5344775340386844,-0.5344775340386844
exact,pre_second,S,standard_dfm,monthly_mixed_frequency_kalman_em,2024:Q2,0.05984019540534226,-0.4746373386333421
exact,pre_second,S,standard_dfm,monthly_mixed_frequency_kalman_em,2024:Q3,0.3764915184692047,-0.09814582016413742
exact,pre_second,S,standard_dfm,monthly_mixed_frequency_kalman_em,2024:Q4,-0.0056325618614738076,-0.10377838202561122
exact,pre_second,S,standard_dfm,no_revision,2024:Q1,-0.06798326331816246,-0.06798326331816246
exact,pre_second,S,standard_dfm,no_revision,2024:Q2,0.16282776740407212,0.09484450408590966
exact,pre_second,S,standard_dfm,no_revision,2024:Q3,0.41613091935261964,0.5109754234385293
exact,pre_second,S,standard_dfm,no_revision,2024:Q4,-0.007720118820286391,0.503255304618243
exact,pre_second,S,standard_dfm,release_dfm,2024:Q1,-0.16455555495733443,-0.16455555495733443
exact,pre_second,S,standard_dfm,release_dfm,2024:Q2,0.1751808096019723,0.010625254644637872
exact,pre_second,S,standard_dfm,release_dfm,2024:Q3,0.4034292845623662,0.4140545392070041
exact,pre_second,S,standard_dfm,release_dfm,2024:Q4,0.0008587664322034907,0.4149133056392076
exact,pre_second,S,standard_dfm,revision_dfm_kalman_em,2024:Q1,-0.5770636592374524,-0.5770636592374524
exact,pre_second,S,standard_dfm,revision_dfm_kalman_em,2024:Q2,0.16902225826267542,-0.408041400974777
exact,pre_second,S,standard_dfm,revision_dfm_kalman_em,2024:Q3,0.3997336076461909,-0.008307793328586055
exact,pre_second,S,standard_dfm,revision_dfm_kalman_em,2024:Q4,-0.006690134359765372,-0.014997927688351427
exact,pre_second,S,standard_dfm,spf,2024:Q1,-0.6613438533181627,-0.6613438533181627
exact,pre_second,S,standard_dfm,spf,2024:Q2,-0.7164870325959279,-1.3778308859140906
exact,pre_second,S,standard_dfm,spf,2024:Q3,-0.5119312006473804,-1.889762086561471
exact,pre_second,S,standard_dfm,spf,2024:Q4,-0.1932075488202862,-2.0829696353817573
exact,pre_second,S,release_dfm,ar,2024:Q1,-1.651741673392914,-1.651741673392914
exact,pre_second,S,release_dfm,ar,2024:Q2,-0.19945355818537053,-1.8511952315782845
exact,pre_second,S,release_dfm,ar,2024:Q3,-0.043297622040026705,-1.8944928536183112
exact,pre_second,S,release_dfm,ar,2024:Q4,-0.06051785573169185,-1.955010709350003
exact,pre_second,S,release_dfm,bridge,2024:Q1,0.21076425791563724,0.21076425791563724
exact,pre_second,S,release_dfm,bridge,2024:Q2,-0.0029910138261675756,0.20777324408946968
exact,pre_second,S,release_dfm,bridge,2024:Q3,-0.07809759465908538,0.1296756494303843
exact,pre_second,S,release_dfm,bridge,2024:Q4,-0.004922969926832681,0.12475267950355161
exact,pre_second,S,release_dfm,indicator_revision_only_dfm_kalman_em,2024:Q1,-0.16343655305469168,-0.16343655305469168
exact,pre_second,S,release_dfm,indicator_revision_only_dfm_kalman_em,2024:Q2,-0.008882646637137153,-0.17231919969182882
exact,pre_second,S,release_dfm,indicator_revision_only_dfm_kalman_em,2024:Q3,-0.01334222253833588,-0.1856614222301647
exact,pre_second,S,release_dfm,indicator_revision_only_dfm_kalman_em,2024:Q4,-0.0011386086875864899,-0.18680003091775121
exact,pre_second,S,release_dfm,joint_indicator_revision_dfm_full_kalman_em,2024:Q1,-0.44455737288885605,-0.44455737288885605
exact,pre_second,S,release_dfm,joint_indicator_revision_dfm_full_kalman_em,2024:Q2,-0.014592032542661774,-0.45914940543151783
exact,pre_second,S,release_dfm,joint_indicator_revision_dfm_full_kalman_em,2024:Q3,-0.022401732441074747,-0.48155113787259257
exact,pre_second,S,release_dfm,joint_indicator_revision_dfm_full_kalman_em,2024:Q4,-0.02190266475040573,-0.5034538026229983
exact,pre_second,S,release_dfm,midas_umidas,2024:Q1,0.09123986525257108,0.09123986525257108
exact,pre_second,S,release_dfm,midas_umidas,2024:Q2,-0.00786880286677599,0.08337106238579509
exact,pre_second,S,release_dfm,midas_umidas,2024:Q3,-0.03608393381838723,0.047287128567407855
exact,pre_second,S,release_dfm,midas_umidas,2024:Q4,-3.2142942030205566,-3.167007074453149
exact,pre_second,S,release_dfm,monthly_mixed_frequency_kalman_em,2024:Q1,-0.36992197908135,-0.36992197908135
exact,pre_second,S,release_dfm,monthly_mixed_frequency_kalman_em,2024:Q2,-0.11534061419663004,-0.48526259327798005
exact,pre_second,S,release_dfm,monthly_mixed_frequency_kalman_em,2024:Q3,-0.026937766093161515,-0.5122003593711416
exact,pre_second,S,release_dfm,monthly_mixed_frequency_kalman_em,2024:Q4,-0.006491328293677298,-0.5186916876648189
exact,pre_second,S,release_dfm,no_revision,2024:Q1,0.09657229163917196,0.09657229163917196
exact,pre_second,S,release_dfm,no_revision,2024:Q2,-0.01235304219790018,0.08421924944127178
exact,pre_second,S,release_dfm,no_revision,2024:Q3,0.012701634790253422,0.0969208842315252
exact,pre_second,S,release_dfm,no_revision,2024:Q4,-0.008578885252489881,0.08834199897903532
exact,pre_second,S,release_dfm,revision_dfm_kalman_em,2024:Q1,-0.412508104280118,-0.412508104280118
exact,pre_second,S,release_dfm,revision_dfm_kalman_em,2024:Q2,-0.006158551339296878,-0.4186666556194149
exact,pre_second,S,release_dfm,revision_dfm_kalman_em,2024:Q3,-0.0036956769161752903,-0.4223623325355902
exact,pre_second,S,release_dfm,revision_dfm_kalman_em,2024:Q4,-0.007548900791968863,-0.42991123332755904
exact,pre_second,S,release_dfm,spf,2024:Q1,-0.49678829836082833,-0.49678829836082833
exact,pre_second,S,release_dfm,spf,2024:Q2,-0.8916678421979002,-1.3884561405587286
exact,pre_second,S,release_dfm,spf,2024:Q3,-0.9153604852097467,-2.303816625768475
exact,pre_second,S,release_dfm,spf,2024:Q4,-0.19406631525248969,-2.497882941020965
exact,pre_second,S,release_dfm,standard_dfm,2024:Q1,0.16455555495733443,0.16455555495733443
exact,pre_second,S,release_dfm,standard_dfm,2024:Q2,-0.1751808096019723,-0.010625254644637872
exact,pre_second,S,release_dfm,standard_dfm,2024:Q3,-0.4034292845623662,-0.4140545392070041
exact,pre_second,S,release_dfm,standard_dfm,2024:Q4,-0.0008587664322034907,-0.4149133056392076
exact,pre_third,T,ar,bridge,2024:Q1,1.4397044832711754,1.4397044832711754
exact,pre_third,T,ar,bridge,2024:Q2,0.04938468605208607,1.4890891693232615
exact,pre_third,T,ar,bridge,2024:Q3,-0.33116763899052126,1.1579215303327404
exact,pre_third,T,ar,bridge,2024:Q4,0.04711271131803244,1.2050342416507729
exact,pre_third,T,ar,indicator_revision_only_dfm_kalman_em,2024:Q1,1.5894910417403394,1.5894910417403394
exact,pre_third,T,ar,indicator_revision_only_dfm_kalman_em,2024:Q2,0.15432142446029015,1.7438124662006296
exact,pre_third,T,ar,indicator_revision_only_dfm_kalman_em,2024:Q3,0.05337399325507512,1.7971864594557048
exact,pre_third,T,ar,indicator_revision_only_dfm_kalman_em,2024:Q4,0.042590565507337086,1.8397770249630419
exact,pre_third,T,ar,joint_indicator_revision_dfm_full_kalman_em,2024:Q1,1.543993534527808,1.543993534527808
exact,pre_third,T,ar,joint_indicator_revision_dfm_full_kalman_em,2024:Q2,0.15264499817957106,1.696638532707379
exact,pre_third,T,ar,joint_indicator_revision_dfm_full_kalman_em,2024:Q3,0.051775896965193094,1.748414429672572
exact,pre_third,T,ar,joint_indicator_revision_dfm_full_kalman_em,2024:Q4,0.04800681650844218,1.7964212461810143
exact,pre_third,T,ar,midas_umidas,2024:Q1,1.5647784500336008,1.5647784500336008
exact,pre_third,T,ar,midas_umidas,2024:Q2,-0.6798960816339388,0.8848823683996621
exact,pre_third,T,ar,midas_umidas,2024:Q3,-0.07207626284074742,0.8128061055589146
exact,pre_third,T,ar,midas_umidas,2024:Q4,-2.066413364584531,-1.2536072590256162
exact,pre_third,T,ar,monthly_mixed_frequency_kalman_em,2024:Q1,1.5715361765708926,1.5715361765708926
exact,pre_third,T,ar,monthly_mixed_frequency_kalman_em,2024:Q2,0.07050137222249536,1.642037548793388
exact,pre_third,T,ar,monthly_mixed_frequency_kalman_em,2024:Q3,0.006428730999105153,1.6484662797924932
exact,pre_third,T,ar,monthly_mixed_frequency_kalman_em,2024:Q4,0.0482050543580764,1.6966713341505695
exact,pre_third,T,ar,no_revision,2024:Q1,1.6135341740229943,1.6135341740229943
exact,pre_third,T,ar,no_revision,2024:Q2,0.163341856265736,1.7768760302887303
exact,pre_third,T,ar,no_revision,2024:Q3,0.10893601961242862,1.885812049901159
exact,pre_third,T,ar,no_revision,2024:Q4,0.038262134918035304,1.9240741848191942
exact,pre_third,T,ar,release_dfm,2024:Q1,1.6392242798528451,1.6392242798528451
exact,pre_third,T,ar,release_dfm,2024:Q2,0.16366967243635794,1.8028939522892031
exact,pre_third,T,ar,release_dfm,2024:Q3,0.14532292519050136,1.9482168774797044
exact,pre_third,T,ar,release_dfm,2024:Q4,0.047894524837390325,1.9961114023170947
exact,pre_third,T,ar,revision_dfm_kalman_em,2024:Q1,1.5479718006252186,1.5479718006252186
exact,pre_third,T,ar,revision_dfm_kalman_em,2024:Q2,0.15615202460910294,1.7041238252343214
exact,pre_third,T,ar,revision_dfm_kalman_em,2024:Q3,0.06794766236768675,1.772071487602008
exact,pre_third,T,ar,revision_dfm_kalman_em,2024:Q4,0.04908868813685317,1.8211601757388611
exact,pre_third,T,ar,spf,2024:Q1,1.174242654022994,1.174242654022994
exact,pre_third,T,ar,spf,2024:Q2,-0.8003162937342644,0.3739263602887296
exact,pre_third,T,ar,spf,2024:Q3,-1.2804794603875718,-0.9065531000988422
exact,pre_third,T,ar,spf,2024:Q4,-0.2480815450819646,-1.1546346451808067
exact,pre_third,T,ar,standard_dfm,2024:Q1,1.4382877562697,1.4382877562697
exact,pre_third,T,ar,standard_dfm,2024:Q2,-0.036784968310538596,1.4015027879591615
exact,pre_third,T,ar,standard_dfm,2024:Q3,-0.7111048453909496,0.6903979425682119
exact,pre_third,T,ar,standard_dfm,2024:Q4,0.04779092928529234,0.7381888718535042
exact,pre_third,T,no_revision,ar,2024:Q1,-1.6135341740229943,-1.6135341740229943
exact,pre_third,T,no_revision,ar,2024:Q2,-0.163341856265736,-1.7768760302887303
exact,pre_third,T,no_revision,ar,2024:Q3,-0.10893601961242862,-1.885812049901159
exact,pre_third,T,no_revision,ar,2024:Q4,-0.038262134918035304,-1.9240741848191942
exact,pre_third,T,no_revision,bridge,2024:Q1,-0.17382969075181887,-0.17382969075181887
exact,pre_third,T,no_revision,bridge,2024:Q2,-0.11395717021364991,-0.2877868609654688
exact,pre_third,T,no_revision,bridge,2024:Q3,-0.4401036586029499,-0.7278905195684187
exact,pre_third,T,no_revision,bridge,2024:Q4,0.008850576399997137,-0.7190399431684216
exact,pre_third,T,no_revision,indicator_revision_only_dfm_kalman_em,2024:Q1,-0.02404313228265486,-0.02404313228265486
exact,pre_third,T,no_revision,indicator_revision_only_dfm_kalman_em,2024:Q2,-0.009020431805445829,-0.03306356408810069
exact,pre_third,T,no_revision,indicator_revision_only_dfm_kalman_em,2024:Q3,-0.055562026357353494,-0.08862559044545418
exact,pre_third,T,no_revision,indicator_revision_only_dfm_kalman_em,2024:Q4,0.004328430589301779,-0.0842971598561524
exact,pre_third,T,no_revision,joint_indicator_revision_dfm_full_kalman_em,2024:Q1,-0.06954063949518646,-0.06954063949518646
exact,pre_third,T,no_revision,joint_indicator_revision_dfm_full_kalman_em,2024:Q2,-0.010696858086164936,-0.0802374975813514
exact,pre_third,T,no_revision,joint_indicator_revision_dfm_full_kalman_em,2024:Q3,-0.05716012264723552,-0.13739762022858693
exact,pre_third,T,no_revision,joint_indicator_revision_dfm_full_kalman_em,2024:Q4,0.009744681590406874,-0.12765293863818006
exact,pre_third,T,no_revision,midas_umidas,2024:Q1,-0.04875572398939343,-0.04875572398939343
exact,pre_third,T,no_revision,midas_umidas,2024:Q2,-0.8432379378996747,-0.8919936618890681
exact,pre_third,T,no_revision,midas_umidas,2024:Q3,-0.18101228245317602,-1.0730059443422442
exact,pre_third,T,no_revision,midas_umidas,2024:Q4,-2.1046754995025663,-3.1776814438448104
exact,pre_third,T,no_revision,monthly_mixed_frequency_kalman_em,2024:Q1,-0.041997997452101754,-0.041997997452101754
exact,pre_third,T,no_revision,monthly_mixed_frequency_kalman_em,2024:Q2,-0.09284048404324062,-0.1348384814953424
exact,pre_third,T,no_revision,monthly_mixed_frequency_kalman_em,2024:Q3,-0.10250728861332346,-0.23734577010866587
exact,pre_third,T,no_revision,monthly_mixed_frequency_kalman_em,2024:Q4,0.00994291944004109,-0.22740285066862478
exact,pre_third,T,no_revision,release_dfm,2024:Q1,0.025690105829850773,0.025690105829850773
exact,pre_third,T,no_revision,release_dfm,2024:Q2,0.0003278161706219609,0.026017922000472732
exact,pre_third,T,no_revision,release_dfm,2024:Q3,0.03638690557807274,0.06240482757854547
exact,pre_third,T,no_revision,release_dfm,2024:Q4,0.009632389919355016,0.07203721749790049
exact,pre_third,T,no_revision,revision_dfm_kalman_em,2024:Q1,-0.06556237339777572,-0.06556237339777572
exact,pre_third,T,no_revision,revision_dfm_kalman_em,2024:Q2,-0.007189831656633064,-0.07275220505440878
exact,pre_third,T,no_revision,revision_dfm_kalman_em,2024:Q3,-0.04098835724474187,-0.11374056229915065
exact,pre_third,T,no_revision,revision_dfm_kalman_em,2024:Q4,0.010826553218817866,-0.10291400908033278
exact,pre_third,T,no_revision,spf,2024:Q1,-0.43929152000000027,-0.43929152000000027
exact,pre_third,T,no_revision,spf,2024:Q2,-0.9636581500000003,-1.4029496700000006
exact,pre_third,T,no_revision,spf,2024:Q3,-1.3894154800000005,-2.792365150000001
exact,pre_third,T,no_revision,spf,2024:Q4,-0.2863436799999999,-3.078708830000001
exact,pre_third,T,no_revision,standard_dfm,2024:Q1,-0.1752464177532942,-0.1752464177532942
exact,pre_third,T,no_revision,standard_dfm,2024:Q2,-0.2001268245762746,-0.3753732423295688
exact,pre_third,T,no_revision,standard_dfm,2024:Q3,-0.8200408650033782,-1.195414107332947
exact,pre_third,T,no_revision,standard_dfm,2024:Q4,0.00952879436725704,-1.1858853129656899
exact,pre_third,T,bridge,ar,2024:Q1,-1.4397044832711754,-1.4397044832711754
exact,pre_third,T,bridge,ar,2024:Q2,-0.04938468605208607,-1.4890891693232615
exact,pre_third,T,bridge,ar,2024:Q3,0.33116763899052126,-1.1579215303327404
exact,pre_third,T,bridge,ar,2024:Q4,-0.04711271131803244,-1.2050342416507729
exact,pre_third,T,bridge,indicator_revision_only_dfm_kalman_em,2024:Q1,0.14978655846916403,0.14978655846916403
exact,pre_third,T,bridge,indicator_revision_only_dfm_kalman_em,2024:Q2,0.10493673840820408,0.2547232968773681
exact,pre_third,T,bridge,indicator_revision_only_dfm_kalman_em,2024:Q3,0.3845416322455964,0.6392649291229645
exact,pre_third,T,bridge,indicator_revision_only_dfm_kalman_em,2024:Q4,-0.004522145810695358,0.6347427833122692
exact,pre_third,T,bridge,joint_indicator_revision_dfm_full_kalman_em,2024:Q1,0.10428905125663242,0.10428905125663242
exact,pre_third,T,bridge,joint_indicator_revision_dfm_full_kalman_em,2024:Q2,0.10326031212748499,0.2075493633841174
exact,pre_third,T,bridge,joint_indicator_revision_dfm_full_kalman_em,2024:Q3,0.3829435359557144,0.5904928993398317
exact,pre_third,T,bridge,joint_indicator_revision_dfm_full_kalman_em,2024:Q4,0.0008941051904097373,0.5913870045302415
exact,pre_third,T,bridge,midas_umidas,2024:Q1,0.12507396676242544,0.12507396676242544
exact,pre_third,T,bridge,midas_umidas,2024:Q2,-0.7292807676860249,-0.6042068009235995
exact,pre_third,T,bridge,midas_umidas,2024:Q3,0.25909137614977384,-0.3451154247738256
exact,pre_third,T,bridge,midas_umidas,2024:Q4,-2.113526075902563,-2.458641500676389
exact,pre_third,T,bridge,monthly_mixed_frequency_kalman_em,2024:Q1,0.1318316932997171,0.1318316932997171
exact,pre_third,T,bridge,monthly_mixed_frequency_kalman_em,2024:Q2,0.021116686170409293,0.1529483794701264
exact,pre_third,T,bridge,monthly_mixed_frequency_kalman_em,2024:Q3,0.33759636998962644,0.49054474945975285
exact,pre_third,T,bridge,monthly_mixed_frequency_kalman_em,2024:Q4,0.0010923430400439544,0.4916370924997968
exact,pre_third,T,bridge,no_revision,2024:Q1,0.17382969075181887,0.17382969075181887
exact,pre_third,T,bridge,no_revision,2024:Q2,0.11395717021364991,0.2877868609654688
exact,pre_third,T,bridge,no_revision,2024:Q3,0.4401036586029499,0.7278905195684187
exact,pre_third,T,bridge,no_revision,2024:Q4,-0.008850576399997137,0.7190399431684216
exact,pre_third,T,bridge,release_dfm,2024:Q1,0.19951979658166966,0.19951979658166966
exact,pre_third,T,bridge,release_dfm,2024:Q2,0.11428498638427188,0.31380478296594155
exact,pre_third,T,bridge,release_dfm,2024:Q3,0.47649056418102265,0.7902953471469643
exact,pre_third,T,bridge,release_dfm,2024:Q4,0.0007818135193578795,0.7910771606663222
exact,pre_third,T,bridge,revision_dfm_kalman_em,2024:Q1,0.10826731735404316,0.10826731735404316
exact,pre_third,T,bridge,revision_dfm_kalman_em,2024:Q2,0.10676733855701685,0.21503465591106002
exact,pre_third,T,bridge,revision_dfm_kalman_em,2024:Q3,0.39911530135820805,0.6141499572692681
exact,pre_third,T,bridge,revision_dfm_kalman_em,2024:Q4,0.0019759768188207304,0.6161259340880889
exact,pre_third,T,bridge,spf,2024:Q1,-0.2654618292481814,-0.2654618292481814
exact,pre_third,T,bridge,spf,2024:Q2,-0.8497009797863504,-1.1151628090345318
exact,pre_third,T,bridge,spf,2024:Q3,-0.9493118213970505,-2.064474630431582
exact,pre_third,T,bridge,spf,2024:Q4,-0.295194256399997,-2.3596688868315794
exact,pre_third,T,bridge,standard_dfm,2024:Q1,-0.0014167270014752986,-0.0014167270014752986
exact,pre_third,T,bridge,standard_dfm,2024:Q2,-0.08616965436262466,-0.08758638136409996
exact,pre_third,T,bridge,standard_dfm,2024:Q3,-0.3799372064004284,-0.46752358776452835
exact,pre_third,T,bridge,standard_dfm,2024:Q4,0.0006782179672599029,-0.46684536979726843
exact,pre_third,T,midas_umidas,ar,2024:Q1,-1.5647784500336008,-1.5647784500336008
exact,pre_third,T,midas_umidas,ar,2024:Q2,0.6798960816339388,-0.8848823683996621
exact,pre_third,T,midas_umidas,ar,2024:Q3,0.07207626284074742,-0.8128061055589146
exact,pre_third,T,midas_umidas,ar,2024:Q4,2.066413364584531,1.2536072590256162
exact,pre_third,T,midas_umidas,bridge,2024:Q1,-0.12507396676242544,-0.12507396676242544
exact,pre_third,T,midas_umidas,bridge,2024:Q2,0.7292807676860249,0.6042068009235995
exact,pre_third,T,midas_umidas,bridge,2024:Q3,-0.25909137614977384,0.3451154247738256
exact,pre_third,T,midas_umidas,bridge,2024:Q4,2.113526075902563,2.458641500676389
exact,pre_third,T,midas_umidas,indicator_revision_only_dfm_kalman_em,2024:Q1,0.02471259170673857,0.02471259170673857
exact,pre_third,T,midas_umidas,indicator_revision_only_dfm_kalman_em,2024:Q2,0.834217506094229,0.8589300978009675
exact,pre_third,T,midas_umidas,indicator_revision_only_dfm_kalman_em,2024:Q3,0.12545025609582255,0.9843803538967901
exact,pre_third,T,midas_umidas,indicator_revision_only_dfm_kalman_em,2024:Q4,2.109003930091868,3.093384283988658
exact,pre_third,T,midas_umidas,joint_indicator_revision_dfm_full_kalman_em,2024:Q1,-0.020784915505793033,-0.020784915505793033
exact,pre_third,T,midas_umidas,joint_indicator_revision_dfm_full_kalman_em,2024:Q2,0.8325410798135098,0.8117561643077167
exact,pre_third,T,midas_umidas,joint_indicator_revision_dfm_full_kalman_em,2024:Q3,0.12385215980594051,0.9356083241136572
exact,pre_third,T,midas_umidas,joint_indicator_revision_dfm_full_kalman_em,2024:Q4,2.114420181092973,3.0500285052066305
exact,pre_third,T,midas_umidas,monthly_mixed_frequency_kalman_em,2024:Q1,0.006757726537291675,0.006757726537291675
exact,pre_third,T,midas_umidas,monthly_mixed_frequency_kalman_em,2024:Q2,0.7503974538564342,0.7571551803937259
exact,pre_third,T,midas_umidas,monthly_mixed_frequency_kalman_em,2024:Q3,0.07850499383985257,0.8356601742335784
exact,pre_third,T,midas_umidas,monthly_mixed_frequency_kalman_em,2024:Q4,2.1146184189426074,2.950278593176186
exact,pre_third,T,midas_umidas,no_revision,2024:Q1,0.04875572398939343,0.04875572398939343
exact,pre_third,T,midas_umidas,no_revision,2024:Q2,0.8432379378996747,0.8919936618890681
exact,pre_third,T,midas_umidas,no_revision,2024:Q3,0.18101228245317602,1.0730059443422442
exact,pre_third,T,midas_umidas,no_revision,2024:Q4,2.1046754995025663,3.1776814438448104
exact,pre_third,T,midas_umidas,release_dfm,2024:Q1,0.0744458298192442,0.0744458298192442
exact,pre_third,T,midas_umidas,release_dfm,2024:Q2,0.8435657540702968,0.918011583889541
exact,pre_third,T,midas_umidas,release_dfm,2024:Q3,0.21739918803124877,1.1354107719207898
exact,pre_third,T,midas_umidas,release_dfm,2024:Q4,2.114307889421921,3.249718661342711
exact,pre_third,T,midas_umidas,revision_dfm_kalman_em,2024:Q1,-0.016806649408382293,-0.016806649408382293
exact,pre_third,T,midas_umidas,revision_dfm_kalman_em,2024:Q2,0.8360481062430417,0.8192414568346594
exact,pre_third,T,midas_umidas,revision_dfm_kalman_em,2024:Q3,0.14002392520843415,0.9592653820430936
exact,pre_third,T,midas_umidas,revision_dfm_kalman_em,2024:Q4,2.115502052721384,3.0747674347644773
exact,pre_third,T,midas_umidas,spf,2024:Q1,-0.39053579601060684,-0.39053579601060684
exact,pre_third,T,midas_umidas,spf,2024:Q2,-0.12042021210032561,-0.5109560081109324
exact,pre_third,T,midas_umidas,spf,2024:Q3,-1.2084031975468243,-1.719359205657757
exact,pre_third,T,midas_umidas,spf,2024:Q4,1.8183318195025662,0.09897261384480927
exact,pre_third,T,midas_umidas,standard_dfm,2024:Q1,-0.12649069376390076,-0.12649069376390076
exact,pre_third,T,midas_umidas,standard_dfm,2024:Q2,0.6431111133234002,0.5166204195594994
exact,pre_third,T,midas_umidas,standard_dfm,2024:Q3,-0.6390285825502022,-0.12240816299070278
exact,pre_third,T,midas_umidas,standard_dfm,2024:Q4,2.114204293869823,1.9917961308791203
exact,pre_third,T,spf,ar,2024:Q1,-1.174242654022994,-1.174242654022994
exact,pre_third,T,spf,ar,2024:Q2,0.8003162937342644,-0.3739263602887296
exact,pre_third,T,spf,ar,2024:Q3,1.2804794603875718,0.9065531000988422
exact,pre_third,T,spf,ar,2024:Q4,0.2480815450819646,1.1546346451808067
exact,pre_third,T,spf,bridge,2024:Q1,0.2654618292481814,0.2654618292481814
exact,pre_third,T,spf,bridge,2024:Q2,0.8497009797863504,1.1151628090345318
exact,pre_third,T,spf,bridge,2024:Q3,0.9493118213970505,2.064474630431582
exact,pre_third,T,spf,bridge,2024:Q4,0.295194256399997,2.3596688868315794
exact,pre_third,T,spf,indicator_revision_only_dfm_kalman_em,2024:Q1,0.4152483877173454,0.4152483877173454
exact,pre_third,T,spf,indicator_revision_only_dfm_kalman_em,2024:Q2,0.9546377181945546,1.3698861059118999
exact,pre_third,T,spf,indicator_revision_only_dfm_kalman_em,2024:Q3,1.333853453642647,2.703739559554547
exact,pre_third,T,spf,indicator_revision_only_dfm_kalman_em,2024:Q4,0.2906721105893017,2.9944116701438483
exact,pre_third,T,spf,joint_indicator_revision_dfm_full_kalman_em,2024:Q1,0.3697508805048138,0.3697508805048138
exact,pre_third,T,spf,joint_indicator_revision_dfm_full_kalman_em,2024:Q2,0.9529612919138354,1.3227121724186492
exact,pre_third,T,spf,joint_indicator_revision_dfm_full_kalman_em,2024:Q3,1.332255357352765,2.6549675297714144
exact,pre_third,T,spf,joint_indicator_revision_dfm_full_kalman_em,2024:Q4,0.2960883615904068,2.951055891361821
exact,pre_third,T,spf,midas_umidas,2024:Q1,0.39053579601060684,0.39053579601060684
exact,pre_third,T,spf,midas_umidas,2024:Q2,0.12042021210032561,0.5109560081109324
exact,pre_third,T,spf,midas_umidas,2024:Q3,1.2084031975468243,1.719359205657757
exact,pre_third,T,spf,midas_umidas,2024:Q4,-1.8183318195025662,-0.09897261384480927
exact,pre_third,T,spf,monthly_mixed_frequency_kalman_em,2024:Q1,0.3972935225478985,0.3972935225478985
exact,pre_third,T,spf,monthly_mixed_frequency_kalman_em,2024:Q2,0.8708176659567597,1.2681111885046583
exact,pre_third,T,spf,monthly_mixed_frequency_kalman_em,2024:Q3,1.286908191386677,2.555019379891335
exact,pre_third,T,spf,monthly_mixed_frequency_kalman_em,2024:Q4,0.296286599440041,2.851305979331376
exact,pre_third,T,spf,no_revision,2024:Q1,0.43929152000000027,0.43929152000000027
exact,pre_third,T,spf,no_revision,2024:Q2,0.9636581500000003,1.4029496700000006
exact,pre_third,T,spf,no_revision,2024:Q3,1.3894154800000005,2.792365150000001
exact,pre_third,T,spf,no_revision,2024:Q4,0.2863436799999999,3.078708830000001
exact,pre_third,T,spf,release_dfm,2024:Q1,0.46498162582985103,0.46498162582985103
exact,pre_third,T,spf,release_dfm,2024:Q2,0.9639859661706224,1.4289675920004734
exact,pre_third,T,spf,release_dfm,2024:Q3,1.425802385578073,2.8547699775785462
exact,pre_third,T,spf,release_dfm,2024:Q4,0.29597606991935493,3.150746047497901
exact,pre_third,T,spf,revision_dfm_kalman_em,2024:Q1,0.37372914660222456,0.37372914660222456
exact,pre_third,T,spf,revision_dfm_kalman_em,2024:Q2,0.9564683183433673,1.3301974649455919
exact,pre_third,T,spf,revision_dfm_kalman_em,2024:Q3,1.3484271227552584,2.6786245877008503
exact,pre_third,T,spf,revision_dfm_kalman_em,2024:Q4,0.29717023321881775,2.975794820919668
exact,pre_third,T,spf,standard_dfm,2024:Q1,0.2640451022467061,0.2640451022467061
exact,pre_third,T,spf,standard_dfm,2024:Q2,0.7635313254237258,1.0275764276704318
exact,pre_third,T,spf,standard_dfm,2024:Q3,0.5693746149966221,1.596951042667054
exact,pre_third,T,spf,standard_dfm,2024:Q4,0.29587247436725694,1.8928235170343108
exact,pre_third,T,standard_dfm,ar,2024:Q1,-1.4382877562697,-1.4382877562697
exact,pre_third,T,standard_dfm,ar,2024:Q2,0.036784968310538596,-1.4015027879591615
exact,pre_third,T,standard_dfm,ar,2024:Q3,0.7111048453909496,-0.6903979425682119
exact,pre_third,T,standard_dfm,ar,2024:Q4,-0.04779092928529234,-0.7381888718535042
exact,pre_third,T,standard_dfm,bridge,2024:Q1,0.0014167270014752986,0.0014167270014752986
exact,pre_third,T,standard_dfm,bridge,2024:Q2,0.08616965436262466,0.08758638136409996
exact,pre_third,T,standard_dfm,bridge,2024:Q3,0.3799372064004284,0.46752358776452835
exact,pre_third,T,standard_dfm,bridge,2024:Q4,-0.0006782179672599029,0.46684536979726843
exact,pre_third,T,standard_dfm,indicator_revision_only_dfm_kalman_em,2024:Q1,0.15120328547063933,0.15120328547063933
exact,pre_third,T,standard_dfm,indicator_revision_only_dfm_kalman_em,2024:Q2,0.19110639277082875,0.3423096782414681
exact,pre_third,T,standard_dfm,indicator_revision_only_dfm_kalman_em,2024:Q3,0.7644788386460248,1.106788516887493
exact,pre_third,T,standard_dfm,indicator_revision_only_dfm_kalman_em,2024:Q4,-0.0052003637779552605,1.1015881531095377
exact,pre_third,T,standard_dfm,joint_indicator_revision_dfm_full_kalman_em,2024:Q1,0.10570577825810772,0.10570577825810772
exact,pre_third,T,standard_dfm,joint_indicator_revision_dfm_full_kalman_em,2024:Q2,0.18942996649010965,0.29513574474821735
exact,pre_third,T,standard_dfm,joint_indicator_revision_dfm_full_kalman_em,2024:Q3,0.7628807423561428,1.0580164871043602
exact,pre_third,T,standard_dfm,joint_indicator_revision_dfm_full_kalman_em,2024:Q4,0.00021588722314983444,1.0582323743275102
exact,pre_third,T,standard_dfm,midas_umidas,2024:Q1,0.12649069376390076,0.12649069376390076
exact,pre_third,T,standard_dfm,midas_umidas,2024:Q2,-0.6431111133234002,-0.5166204195594994
exact,pre_third,T,standard_dfm,midas_umidas,2024:Q3,0.6390285825502022,0.12240816299070278
exact,pre_third,T,standard_dfm,midas_umidas,2024:Q4,-2.114204293869823,-1.9917961308791203
exact,pre_third,T,standard_dfm,monthly_mixed_frequency_kalman_em,2024:Q1,0.13324842030119244,0.13324842030119244
exact,pre_third,T,standard_dfm,monthly_mixed_frequency_kalman_em,2024:Q2,0.10728634053303396,0.2405347608342264
exact,pre_third,T,standard_dfm,monthly_mixed_frequency_kalman_em,2024:Q3,0.7175335763900548,0.9580683372242812
exact,pre_third,T,standard_dfm,monthly_mixed_frequency_kalman_em,2024:Q4,0.00041412507278405157,0.9584824622970652
exact,pre_third,T,standard_dfm,no_revision,2024:Q1,0.1752464177532942,0.1752464177532942
exact,pre_third,T,standard_dfm,no_revision,2024:Q2,0.2001268245762746,0.3753732423295688
exact,pre_third,T,standard_dfm,no_revision,2024:Q3,0.8200408650033782,1.195414107332947
exact,pre_third,T,standard_dfm,no_revision,2024:Q4,-0.00952879436725704,1.1858853129656899
exact,pre_third,T,standard_dfm,release_dfm,2024:Q1,0.20093652358314495,0.20093652358314495
exact,pre_third,T,standard_dfm,release_dfm,2024:Q2,0.20045464074689653,0.4013911643300415
exact,pre_third,T,standard_dfm,release_dfm,2024:Q3,0.856427770581451,1.2578189349114925
exact,pre_third,T,standard_dfm,release_dfm,2024:Q4,0.00010359555209797666,1.2579225304635906
exact,pre_third,T,standard_dfm,revision_dfm_kalman_em,2024:Q1,0.10968404435551846,0.10968404435551846
exact,pre_third,T,standard_dfm,revision_dfm_kalman_em,2024:Q2,0.19293699291964153,0.30262103727516
exact,pre_third,T,standard_dfm,revision_dfm_kalman_em,2024:Q3,0.7790525077586364,1.0816735450337964
exact,pre_third,T,standard_dfm,revision_dfm_kalman_em,2024:Q4,0.0012977588515608273,1.0829713038853572
exact,pre_third,T,standard_dfm,spf,2024:Q1,-0.2640451022467061,-0.2640451022467061
exact,pre_third,T,standard_dfm,spf,2024:Q2,-0.7635313254237258,-1.0275764276704318
exact,pre_third,T,standard_dfm,spf,2024:Q3,-0.5693746149966221,-1.596951042667054
exact,pre_third,T,standard_dfm,spf,2024:Q4,-0.29587247436725694,-1.8928235170343108
exact,pre_third,T,release_dfm,ar,2024:Q1,-1.6392242798528451,-1.6392242798528451
exact,pre_third,T,release_dfm,ar,2024:Q2,-0.16366967243635794,-1.8028939522892031
exact,pre_third,T,release_dfm,ar,2024:Q3,-0.14532292519050136,-1.9482168774797044
exact,pre_third,T,release_dfm,ar,2024:Q4,-0.047894524837390325,-1.9961114023170947
exact,pre_third,T,release_dfm,bridge,2024:Q1,-0.19951979658166966,-0.19951979658166966
exact,pre_third,T,release_dfm,bridge,2024:Q2,-0.11428498638427188,-0.31380478296594155
exact,pre_third,T,release_dfm,bridge,2024:Q3,-0.47649056418102265,-0.7902953471469643
exact,pre_third,T,release_dfm,bridge,2024:Q4,-0.0007818135193578795,-0.7910771606663222
exact,pre_third,T,release_dfm,indicator_revision_only_dfm_kalman_em,2024:Q1,-0.04973323811250563,-0.04973323811250563
exact,pre_third,T,release_dfm,indicator_revision_only_dfm_kalman_em,2024:Q2,-0.00934824797606779,-0.059081486088573415
exact,pre_third,T,release_dfm,indicator_revision_only_dfm_kalman_em,2024:Q3,-0.09194893193542623,-0.15103041802399964
exact,pre_third,T,release_dfm,indicator_revision_only_dfm_kalman_em,2024:Q4,-0.005303959330053237,-0.15633437735405287
exact,pre_third,T,release_dfm,joint_indicator_revision_dfm_full_kalman_em,2024:Q1,-0.09523074532503724,-0.09523074532503724
exact,pre_third,T,release_dfm,joint_indicator_revision_dfm_full_kalman_em,2024:Q2,-0.011024674256786897,-0.10625541958182413
exact,pre_third,T,release_dfm,joint_indicator_revision_dfm_full_kalman_em,2024:Q3,-0.09354702822530826,-0.1998024478071324
exact,pre_third,T,release_dfm,joint_indicator_revision_dfm_full_kalman_em,2024:Q4,0.00011229167105185778,-0.19969015613608054
exact,pre_third,T,release_dfm,midas_umidas,2024:Q1,-0.0744458298192442,-0.0744458298192442
exact,pre_third,T,release_dfm,midas_umidas,2024:Q2,-0.8435657540702968,-0.918011583889541
exact,pre_third,T,release_dfm,midas_umidas,2024:Q3,-0.21739918803124877,-1.1354107719207898
exact,pre_third,T,release_dfm,midas_umidas,2024:Q4,-2.114307889421921,-3.249718661342711
exact,pre_third,T,release_dfm,monthly_mixed_frequency_kalman_em,2024:Q1,-0.06768810328195253,-0.06768810328195253
exact,pre_third,T,release_dfm,monthly_mixed_frequency_kalman_em,2024:Q2,-0.09316830021386259,-0.16085640349581512
exact,pre_third,T,release_dfm,monthly_mixed_frequency_kalman_em,2024:Q3,-0.1388941941913962,-0.29975059768721135
exact,pre_third,T,release_dfm,monthly_mixed_frequency_kalman_em,2024:Q4,0.0003105295206860749,-0.2994400681665253
exact,pre_third,T,release_dfm,no_revision,2024:Q1,-0.025690105829850773,-0.025690105829850773
exact,pre_third,T,release_dfm,no_revision,2024:Q2,-0.0003278161706219609,-0.026017922000472732
exact,pre_third,T,release_dfm,no_revision,2024:Q3,-0.03638690557807274,-0.06240482757854547
exact,pre_third,T,release_dfm,no_revision,2024:Q4,-0.009632389919355016,-0.07203721749790049
exact,pre_third,T,release_dfm,revision_dfm_kalman_em,2024:Q1,-0.0912524792276265,-0.0912524792276265
exact,pre_third,T,release_dfm,revision_dfm_kalman_em,2024:Q2,-0.007517647827255025,-0.09877012705488153
exact,pre_third,T,release_dfm,revision_dfm_kalman_em,2024:Q3,-0.07737526282281461,-0.17614538987769612
exact,pre_third,T,release_dfm,revision_dfm_kalman_em,2024:Q4,0.0011941632994628506,-0.17495122657823328
exact,pre_third,T,release_dfm,spf,2024:Q1,-0.46498162582985103,-0.46498162582985103
exact,pre_third,T,release_dfm,spf,2024:Q2,-0.9639859661706224,-1.4289675920004734
exact,pre_third,T,release_dfm,spf,2024:Q3,-1.425802385578073,-2.8547699775785462
exact,pre_third,T,release_dfm,spf,2024:Q4,-0.29597606991935493,-3.150746047497901
exact,pre_third,T,release_dfm,standard_dfm,2024:Q1,-0.20093652358314495,-0.20093652358314495
exact,pre_third,T,release_dfm,standard_dfm,2024:Q2,-0.20045464074689653,-0.4013911643300415
exact,pre_third,T,release_dfm,standard_dfm,2024:Q3,-0.856427770581451,-1.2578189349114925
exact,pre_third,T,release_dfm,standard_dfm,2024:Q4,-0.00010359555209797666,-1.2579225304635906
pseudo,pre_advance,A,ar,bridge,2024:Q1,0.8229715260263376,0.8229715260263376
pseudo,pre_advance,A,ar,bridge,2024:Q2,-0.5607471005644935,0.2622244254618441
pseudo,pre_advance,A,ar,bridge,2024:Q3,-0.048988688159601834,0.21323573730224227
pseudo,pre_advance,A,ar,bridge,2024:Q4,-0.04518876846282459,0.16804696883941767
pseudo,pre_advance,A,ar,indicator_revision_only_dfm_kalman_em,2024:Q1,-0.13600861451998703,-0.13600861451998703
pseudo,pre_advance,A,ar,indicator_revision_only_dfm_kalman_em,2024:Q2,0.1498050965856685,0.013796482065681487
pseudo,pre_advance,A,ar,indicator_revision_only_dfm_kalman_em,2024:Q3,-0.177859799779759,-0.1640633177140775
pseudo,pre_advance,A,ar,indicator_revision_only_dfm_kalman_em,2024:Q4,-0.07039984604244243,-0.23446316375651993
pseudo,pre_advance,A,ar,joint_indicator_revision_dfm_full_kalman_em,2024:Q1,0.09733105496255245,0.09733105496255245
pseudo,pre_advance,A,ar,joint_indicator_revision_dfm_full_kalman_em,2024:Q2,0.13084021596355913,0.22817127092611159
pseudo,pre_advance,A,ar,joint_indicator_revision_dfm_full_kalman_em,2024:Q3,-0.3219515127355672,-0.09378024180945563
pseudo,pre_advance,A,ar,joint_indicator_revision_dfm_full_kalman_em,2024:Q4,-0.032871214973713106,-0.12665145678316875
pseudo,pre_advance,A,ar,midas_umidas,2024:Q1,-6.764964868619605,-6.764964868619605
pseudo,pre_advance,A,ar,midas_umidas,2024:Q2,0.12618900290229634,-6.638775865717308
pseudo,pre_advance,A,ar,midas_umidas,2024:Q3,-3.637404849726927,-10.276180715444236
pseudo,pre_advance,A,ar,midas_umidas,2024:Q4,0.04694255449680901,-10.229238160947427
pseudo,pre_advance,A,ar,monthly_mixed_frequency_kalman_em,2024:Q1,0.7431828548056642,0.7431828548056642
pseudo,pre_advance,A,ar,monthly_mixed_frequency_kalman_em,2024:Q2,0.056820197661625174,0.8000030524672893
pseudo,pre_advance,A,ar,monthly_mixed_frequency_kalman_em,2024:Q3,-0.19484315417492257,0.6051598982923667
pseudo,pre_advance,A,ar,monthly_mixed_frequency_kalman_em,2024:Q4,-0.12556575054554223,0.4795941477468245
pseudo,pre_advance,A,ar,no_revision,2024:Q1,-0.31218151521482485,-0.31218151521482485
pseudo,pre_advance,A,ar,no_revision,2024:Q2,0.0978852185130688,-0.21429629670175604
pseudo,pre_advance,A,ar,no_revision,2024:Q3,-0.06291573213851451,-0.2772120288402705
pseudo,pre_advance,A,ar,no_revision,2024:Q4,0.026146771737672124,-0.2510652571025984
pseudo,pre_advance,A,ar,release_dfm,2024:Q1,0.5002394336531952,0.5002394336531952
pseudo,pre_advance,A,ar,release_dfm,2024:Q2,0.14451076278167663,0.6447501964348719
pseudo,pre_advance,A,ar,release_dfm,2024:Q3,-0.7857647714127651,-0.14101457497789327
pseudo,pre_advance,A,ar,release_dfm,2024:Q4,0.042941518504606695,-0.09807305647328657
pseudo,pre_advance,A,ar,revision_dfm_kalman_em,2024:Q1,0.07330617410035767,0.07330617410035767
pseudo,pre_advance,A,ar,revision_dfm_kalman_em,2024:Q2,0.06589653390232704,0.1392027080026847
pseudo,pre_advance,A,ar,revision_dfm_kalman_em,2024:Q3,-0.13094445385391895,0.008258254148765742
pseudo,pre_advance,A,ar,revision_dfm_kalman_em,2024:Q4,-0.09279952172416017,-0.08454126757539443
pseudo,pre_advance,A,ar,spf,2024:Q1,0.6176035835239486,0.6176035835239486
pseudo,pre_advance,A,ar,spf,2024:Q2,-0.5427808169482209,0.07482276657572773
pseudo,pre_advance,A,ar,spf,2024:Q3,-0.8072172383919204,-0.7323944718161927
pseudo,pre_advance,A,ar,spf,2024:Q4,-0.05692555044772479,-0.7893200222639174
pseudo,pre_advance,A,ar,standard_dfm,2024:Q1,0.5002394336531952,0.5002394336531952
pseudo,pre_advance,A,ar,standard_dfm,2024:Q2,0.14451076278167663,0.6447501964348719
pseudo,pre_advance,A,ar,standard_dfm,2024:Q3,-0.7857647714127651,-0.14101457497789327
pseudo,pre_advance,A,ar,standard_dfm,2024:Q4,0.042941518504606695,-0.09807305647328657
pseudo,pre_advance,A,no_revision,ar,2024:Q1,0.31218151521482485,0.31218151521482485
pseudo,pre_advance,A,no_revision,ar,2024:Q2,-0.0978852185130688,0.21429629670175604
pseudo,pre_advance,A,no_revision,ar,2024:Q3,0.06291573213851451,0.2772120288402705
pseudo,pre_advance,A,no_revision,ar,2024:Q4,-0.026146771737672124,0.2510652571025984
pseudo,pre_advance,A,no_revision,bridge,2024:Q1,1.1351530412411626,1.1351530412411626
pseudo,pre_advance,A,no_revision,bridge,2024:Q2,-0.6586323190775624,0.4765207221636002
pseudo,pre_advance,A,no_revision,bridge,2024:Q3,0.013927043978912673,0.49044776614251284
pseudo,pre_advance,A,no_revision,bridge,2024:Q4,-0.0713355402004967,0.41911222594201614
pseudo,pre_advance,A,no_revision,indicator_revision_only_dfm_kalman_em,2024:Q1,0.17617290069483782,0.17617290069483782
pseudo,pre_advance,A,no_revision,indicator_revision_only_dfm_kalman_em,2024:Q2,0.05191987807259973,0.22809277876743755
pseudo,pre_advance,A,no_revision,indicator_revision_only_dfm_kalman_em,2024:Q3,-0.11494406764124449,0.11314871112619307
pseudo,pre_advance,A,no_revision,indicator_revision_only_dfm_kalman_em,2024:Q4,-0.09654661778011456,0.01660209334607851
pseudo,pre_advance,A,no_revision,joint_indicator_revision_dfm_full_kalman_em,2024:Q1,0.4095125701773773,0.4095125701773773
pseudo,pre_advance,A,no_revision,joint_indicator_revision_dfm_full_kalman_em,2024:Q2,0.032954997450490325,0.44246756762786765
pseudo,pre_advance,A,no_revision,joint_indicator_revision_dfm_full_kalman_em,2024:Q3,-0.25903578059705273,0.18343178703081492
pseudo,pre_advance,A,no_revision,joint_indicator_revision_dfm_full_kalman_em,2024:Q4,-0.05901798671138523,0.1244138003194297
pseudo,pre_advance,A,no_revision,midas_umidas,2024:Q1,-6.452783353404779,-6.452783353404779
pseudo,pre_advance,A,no_revision,midas_umidas,2024:Q2,0.028303784389227555,-6.424479569015552
pseudo,pre_advance,A,no_revision,midas_umidas,2024:Q3,-3.5744891175884126,-9.998968686603964
pseudo,pre_advance,A,no_revision,midas_umidas,2024:Q4,0.020795782759136884,-9.978172903844827
pseudo,pre_advance,A,no_revision,monthly_mixed_frequency_kalman_em,2024:Q1,1.055364370020489,1.055364370020489
pseudo,pre_advance,A,no_revision,monthly_mixed_frequency_kalman_em,2024:Q2,-0.041065020851443625,1.0142993491690455
pseudo,pre_advance,A,no_revision,monthly_mixed_frequency_kalman_em,2024:Q3,-0.13192742203640806,0.8823719271326375
pseudo,pre_advance,A,no_revision,monthly_mixed_frequency_kalman_em,2024:Q4,-0.15171252228321436,0.730659404849423
pseudo,pre_advance,A,no_revision,release_dfm,2024:Q1,0.8124209488680201,0.8124209488680201
pseudo,pre_advance,A,no_revision,release_dfm,2024:Q2,0.04662554426860782,0.859046493136628
pseudo,pre_advance,A,no_revision,release_dfm,2024:Q3,-0.7228490392742506,0.13619745386237736
pseudo,pre_advance,A,no_revision,release_dfm,2024:Q4,0.01679474676693457,0.15299220062931193
pseudo,pre_advance,A,no_revision,revision_dfm_kalman_em,2024:Q1,0.3854876893151825,0.3854876893151825
pseudo,pre_advance,A,no_revision,revision_dfm_kalman_em,2024:Q2,-0.03198868461074176,0.35349900470444073
pseudo,pre_advance,A,no_revision,revision_dfm_kalman_em,2024:Q3,-0.06802872171540444,0.2854702829890363
pseudo,pre_advance,A,no_revision,revision_dfm_kalman_em,2024:Q4,-0.1189462934618323,0.166523989527204
pseudo,pre_advance,A,no_revision,spf,2024:Q1,0.9297850987387735,0.9297850987387735
pseudo,pre_advance,A,no_revision,spf,2024:Q2,-0.6406660354612896,0.2891190632774838
pseudo,pre_advance,A,no_revision,spf,2024:Q3,-0.744301506253406,-0.45518244297592214
pseudo,pre_advance,A,no_revision,spf,2024:Q4,-0.08307232218539692,-0.5382547651613191
pseudo,pre_advance,A,no_revision,standard_dfm,2024:Q1,0.8124209488680201,0.8124209488680201
pseudo,pre_advance,A,no_revision,standard_dfm,2024:Q2,0.04662554426860782,0.859046493136628
pseudo,pre_advance,A,no_revision,standard_dfm,2024:Q3,-0.7228490392742506,0.13619745386237736
pseudo,pre_advance,A,no_revision,standard_dfm,2024:Q4,0.01679474676693457,0.15299220062931193
pseudo,pre_advance,A,bridge,ar,2024:Q1,-0.8229715260263376,-0.8229715260263376
pseudo,pre_advance,A,bridge,ar,2024:Q2,0.5607471005644935,-0.2622244254618441
pseudo,pre_advance,A,bridge,ar,2024:Q3,0.048988688159601834,-0.21323573730224227
pseudo,pre_advance,A,bridge,ar,2024:Q4,0.04518876846282459,-0.16804696883941767
pseudo,pre_advance,A,bridge,indicator_revision_only_dfm_kalman_em,2024:Q1,-0.9589801405463246,-0.9589801405463246
pseudo,pre_advance,A,bridge,indicator_revision_only_dfm_kalman_em,2024:Q2,0.710552197150162,-0.2484279433961626
pseudo,pre_advance,A,bridge,indicator_revision_only_dfm_kalman_em,2024:Q3,-0.12887111162015716,-0.3772990550163198
pseudo,pre_advance,A,bridge,indicator_revision_only_dfm_kalman_em,2024:Q4,-0.025211077579617838,-0.4025101325959376
pseudo,pre_advance,A,bridge,joint_indicator_revision_dfm_full_kalman_em,2024:Q1,-0.7256404710637852,-0.7256404710637852
pseudo,pre_advance,A,bridge,joint_indicator_revision_dfm_full_kalman_em,2024:Q2,0.6915873165280527,-0.03405315453573243
pseudo,pre_advance,A,bridge,joint_indicator_revision_dfm_full_kalman_em,2024:Q3,-0.27296282457596543,-0.30701597911169787
pseudo,pre_advance,A,bridge,joint_indicator_revision_dfm_full_kalman_em,2024:Q4,0.012317553489111482,-0.2946984256225864
pseudo,pre_advance,A,bridge,midas_umidas,2024:Q1,-7.587936394645943,-7.587936394645943
pseudo,pre_advance,A,bridge,midas_umidas,2024:Q2,0.6869361034667899,-6.901000291179153
pseudo,pre_advance,A,bridge,midas_umidas,2024:Q3,-3.5884161615673253,-10.489416452746479
pseudo,pre_advance,A,bridge,midas_umidas,2024:Q4,0.0921313229596336,-10.397285129786844
pseudo,pre_advance,A,bridge,monthly_mixed_frequency_kalman_em,2024:Q1,-0.07978867122067346,-0.07978867122067346
pseudo,pre_advance,A,bridge,monthly_mixed_frequency_kalman_em,2024:Q2,0.6175672982261188,0.5377786270054453
pseudo,pre_advance,A,bridge,monthly_mixed_frequency_kalman_em,2024:Q3,-0.14585446601532073,0.3919241609901246
pseudo,pre_advance,A,bridge,monthly_mixed_frequency_kalman_em,2024:Q4,-0.08037698208271764,0.31154717890740696
pseudo,pre_advance,A,bridge,no_revision,2024:Q1,-1.1351530412411626,-1.1351530412411626
pseudo,pre_advance,A,bridge,no_revision,2024:Q2,0.6586323190775624,-0.4765207221636002
pseudo,pre_advance,A,bridge,no_revision,2024:Q3,-0.013927043978912673,-0.49044776614251284
pseudo,pre_advance,A,bridge,no_revision,2024:Q4,0.0713355402004967,-0.41911222594201614
pseudo,pre_advance,A,bridge,release_dfm,2024:Q1,-0.3227320923731424,-0.3227320923731424
pseudo,pre_advance,A,bridge,release_dfm,2024:Q2,0.7052578633461701,0.38252577097302776
pseudo,pre_advance,A,bridge,release_dfm,2024:Q3,-0.7367760832531633,-0.3542503122801356
pseudo,pre_advance,A,bridge,release_dfm,2024:Q4,0.08813028696743128,-0.2661200253127043
pseudo,pre_advance,A,bridge,revision_dfm_kalman_em,2024:Q1,-0.7496653519259799,-0.7496653519259799
pseudo,pre_advance,A,bridge,revision_dfm_kalman_em,2024:Q2,0.6266436344668206,-0.12302171745915935
pseudo,pre_advance,A,bridge,revision_dfm_kalman_em,2024:Q3,-0.08195576569431712,-0.20497748315347647
pseudo,pre_advance,A,bridge,revision_dfm_kalman_em,2024:Q4,-0.047610753261335584,-0.25258823641481204
pseudo,pre_advance,A,bridge,spf,2024:Q1,-0.20536794250238902,-0.20536794250238902
pseudo,pre_advance,A,bridge,spf,2024:Q2,0.017966283616272727,-0.1874016588861163
pseudo,pre_advance,A,bridge,spf,2024:Q3,-0.7582285502323186,-0.9456302091184349
pseudo,pre_advance,A,bridge,spf,2024:Q4,-0.011736781984900205,-0.9573669911033351
pseudo,pre_advance,A,bridge,standard_dfm,2024:Q1,-0.3227320923731424,-0.3227320923731424
pseudo,pre_advance,A,bridge,standard_dfm,2024:Q2,0.7052578633461701,0.38252577097302776
pseudo,pre_advance,A,bridge,standard_dfm,2024:Q3,-0.7367760832531633,-0.3542503122801356
pseudo,pre_advance,A,bridge,standard_dfm,2024:Q4,0.08813028696743128,-0.2661200253127043
pseudo,pre_advance,A,midas_umidas,ar,2024:Q1,6.764964868619605,6.764964868619605
pseudo,pre_advance,A,midas_umidas,ar,2024:Q2,-0.12618900290229634,6.638775865717308
pseudo,pre_advance,A,midas_umidas,ar,2024:Q3,3.637404849726927,10.276180715444236
pseudo,pre_advance,A,midas_umidas,ar,2024:Q4,-0.04694255449680901,10.229238160947427
pseudo,pre_advance,A,midas_umidas,bridge,2024:Q1,7.587936394645943,7.587936394645943
pseudo,pre_advance,A,midas_umidas,bridge,2024:Q2,-0.6869361034667899,6.901000291179153
pseudo,pre_advance,A,midas_umidas,bridge,2024:Q3,3.5884161615673253,10.489416452746479
pseudo,pre_advance,A,midas_umidas,bridge,2024:Q4,-0.0921313229596336,10.397285129786844
pseudo,pre_advance,A,midas_umidas,indicator_revision_only_dfm_kalman_em,2024:Q1,6.628956254099617,6.628956254099617
pseudo,pre_advance,A,midas_umidas,indicator_revision_only_dfm_kalman_em,2024:Q2,0.023616093683372173,6.652572347782989
pseudo,pre_advance,A,midas_umidas,indicator_revision_only_dfm_kalman_em,2024:Q3,3.459545049947168,10.112117397730158
pseudo,pre_advance,A,midas_umidas,indicator_revision_only_dfm_kalman_em,2024:Q4,-0.11734240053925143,9.994774997190905
pseudo,pre_advance,A,midas_umidas,joint_indicator_revision_dfm_full_kalman_em,2024:Q1,6.862295923582157,6.862295923582157
pseudo,pre_advance,A,midas_umidas,joint_indicator_revision_dfm_full_kalman_em,2024:Q2,0.00465121306126277,6.86694713664342
pseudo,pre_advance,A,midas_umidas,joint_indicator_revision_dfm_full_kalman_em,2024:Q3,3.31545333699136,10.182400473634779
pseudo,pre_advance,A,midas_umidas,joint_indicator_revision_dfm_full_kalman_em,2024:Q4,-0.07981376947052211,10.102586704164256
pseudo,pre_advance,A,midas_umidas,monthly_mixed_frequency_kalman_em,2024:Q1,7.508147723425269,7.508147723425269
pseudo,pre_advance,A,midas_umidas,monthly_mixed_frequency_kalman_em,2024:Q2,-0.06936880524067118,7.438778918184598
pseudo,pre_advance,A,midas_umidas,monthly_mixed_frequency_kalman_em,2024:Q3,3.4425616955520044,10.881340613736603
pseudo,pre_advance,A,midas_umidas,monthly_mixed_frequency_kalman_em,2024:Q4,-0.17250830504235123,10.708832308694252
pseudo,pre_advance,A,midas_umidas,no_revision,2024:Q1,6.452783353404779,6.452783353404779
pseudo,pre_advance,A,midas_umidas,no_revision,2024:Q2,-0.028303784389227555,6.424479569015552
pseudo,pre_advance,A,midas_umidas,no_revision,2024:Q3,3.5744891175884126,9.998968686603964
pseudo,pre_advance,A,midas_umidas,no_revision,2024:Q4,-0.020795782759136884,9.978172903844827
pseudo,pre_advance,A,midas_umidas,release_dfm,2024:Q1,7.2652043022728,7.2652043022728
pseudo,pre_advance,A,midas_umidas,release_dfm,2024:Q2,0.018321759879380266,7.2835260621521805
pseudo,pre_advance,A,midas_umidas,release_dfm,2024:Q3,2.851640078314162,10.135166140466342
pseudo,pre_advance,A,midas_umidas,release_dfm,2024:Q4,-0.004001035992202313,10.13116510447414
pseudo,pre_advance,A,midas_umidas,revision_dfm_kalman_em,2024:Q1,6.8382710427199624,6.8382710427199624
pseudo,pre_advance,A,midas_umidas,revision_dfm_kalman_em,2024:Q2,-0.06029246899996932,6.777978573719993
pseudo,pre_advance,A,midas_umidas,revision_dfm_kalman_em,2024:Q3,3.5064603958730083,10.284438969593001
pseudo,pre_advance,A,midas_umidas,revision_dfm_kalman_em,2024:Q4,-0.13974207622096918,10.144696893372032
pseudo,pre_advance,A,midas_umidas,spf,2024:Q1,7.382568452143554,7.382568452143554
pseudo,pre_advance,A,midas_umidas,spf,2024:Q2,-0.6689698198505172,6.713598632293037
pseudo,pre_advance,A,midas_umidas,spf,2024:Q3,2.8301876113350066,9.543786243628043
pseudo,pre_advance,A,midas_umidas,spf,2024:Q4,-0.1038681049445338,9.43991813868351
pseudo,pre_advance,A,midas_umidas,standard_dfm,2024:Q1,7.2652043022728,7.2652043022728
pseudo,pre_advance,A,midas_umidas,standard_dfm,2024:Q2,0.018321759879380266,7.2835260621521805
pseudo,pre_advance,A,midas_umidas,standard_dfm,2024:Q3,2.851640078314162,10.135166140466342
pseudo,pre_advance,A,midas_umidas,standard_dfm,2024:Q4,-0.004001035992202313,10.13116510447414
pseudo,pre_advance,A,spf,ar,2024:Q1,-0.6176035835239486,-0.6176035835239486
pseudo,pre_advance,A,spf,ar,2024:Q2,0.5427808169482209,-0.07482276657572773
pseudo,pre_advance,A,spf,ar,2024:Q3,0.8072172383919204,0.7323944718161927
pseudo,pre_advance,A,spf,ar,2024:Q4,0.05692555044772479,0.7893200222639174
pseudo,pre_advance,A,spf,bridge,2024:Q1,0.20536794250238902,0.20536794250238902
pseudo,pre_advance,A,spf,bridge,2024:Q2,-0.017966283616272727,0.1874016588861163
pseudo,pre_advance,A,spf,bridge,2024:Q3,0.7582285502323186,0.9456302091184349
pseudo,pre_advance,A,spf,bridge,2024:Q4,0.011736781984900205,0.9573669911033351
pseudo,pre_advance,A,spf,indicator_revision_only_dfm_kalman_em,2024:Q1,-0.7536121980439356,-0.7536121980439356
pseudo,pre_advance,A,spf,indicator_revision_only_dfm_kalman_em,2024:Q2,0.6925859135338893,-0.061026284510046325
pseudo,pre_advance,A,spf,indicator_revision_only_dfm_kalman_em,2024:Q3,0.6293574386121614,0.5683311541021151
pseudo,pre_advance,A,spf,indicator_revision_only_dfm_kalman_em,2024:Q4,-0.013474295594717633,0.5548568585073974
pseudo,pre_advance,A,spf,joint_indicator_revision_dfm_full_kalman_em,2024:Q1,-0.5202725285613962,-0.5202725285613962
pseudo,pre_advance,A,spf,joint_indicator_revision_dfm_full_kalman_em,2024:Q2,0.67362103291178,0.15334850435038383
pseudo,pre_advance,A,spf,joint_indicator_revision_dfm_full_kalman_em,2024:Q3,0.4852657256563532,0.638614230006737
pseudo,pre_advance,A,spf,joint_indicator_revision_dfm_full_kalman_em,2024:Q4,0.024054335474011687,0.6626685654807487
pseudo,pre_advance,A,spf,midas_umidas,2024:Q1,-7.382568452143554,-7.382568452143554
pseudo,pre_advance,A,spf,midas_umidas,2024:Q2,0.6689698198505172,-6.713598632293037
pseudo,pre_advance,A,spf,midas_umidas,2024:Q3,-2.8301876113350066,-9.543786243628043
pseudo,pre_advance,A,spf,midas_umidas,2024:Q4,0.1038681049445338,-9.43991813868351
pseudo,pre_advance,A,spf,monthly_mixed_frequency_kalman_em,2024:Q1,0.12557927128171556,0.12557927128171556
pseudo,pre_advance,A,spf,monthly_mixed_frequency_kalman_em,2024:Q2,0.599601014609846,0.7251802858915616
pseudo,pre_advance,A,spf,monthly_mixed_frequency_kalman_em,2024:Q3,0.6123740842169978,1.3375543701085593
pseudo,pre_advance,A,spf,monthly_mixed_frequency_kalman_em,2024:Q4,-0.06864020009781743,1.2689141700107418
pseudo,pre_advance,A,spf,no_revision,2024:Q1,-0.9297850987387735,-0.9297850987387735
pseudo,pre_advance,A,spf,no_revision,2024:Q2,0.6406660354612896,-0.2891190632774838
pseudo,pre_advance,A,spf,no_revision,2024:Q3,0.744301506253406,0.45518244297592214
pseudo,pre_advance,A,spf,no_revision,2024:Q4,0.08307232218539692,0.5382547651613191
pseudo,pre_advance,A,spf,release_dfm,2024:Q1,-0.11736414987075333,-0.11736414987075333
pseudo,pre_advance,A,spf,release_dfm,2024:Q2,0.6872915797298974,0.5699274298591441
pseudo,pre_advance,A,spf,release_dfm,2024:Q3,0.02145246697915526,0.5913798968382994
pseudo,pre_advance,A,spf,release_dfm,2024:Q4,0.0998670689523315,0.6912469657906308
pseudo,pre_advance,A,spf,revision_dfm_kalman_em,2024:Q1,-0.544297409423591,-0.544297409423591
pseudo,pre_advance,A,spf,revision_dfm_kalman_em,2024:Q2,0.6086773508505479,0.06437994142695691
pseudo,pre_advance,A,spf,revision_dfm_kalman_em,2024:Q3,0.6762727845380014,0.7406527259649583
pseudo,pre_advance,A,spf,revision_dfm_kalman_em,2024:Q4,-0.03587397127643538,0.7047787546885229
pseudo,pre_advance,A,spf,standard_dfm,2024:Q1,-0.11736414987075333,-0.11736414987075333
pseudo,pre_advance,A,spf,standard_dfm,2024:Q2,0.6872915797298974,0.5699274298591441
pseudo,pre_advance,A,spf,standard_dfm,2024:Q3,0.02145246697915526,0.5913798968382994
pseudo,pre_advance,A,spf,standard_dfm,2024:Q4,0.0998670689523315,0.6912469657906308
pseudo,pre_advance,A,standard_dfm,ar,2024:Q1,-0.5002394336531952,-0.5002394336531952
pseudo,pre_advance,A,standard_dfm,ar,2024:Q2,-0.14451076278167663,-0.6447501964348719
pseudo,pre_advance,A,standard_dfm,ar,2024:Q3,0.7857647714127651,0.14101457497789327
pseudo,pre_advance,A,standard_dfm,ar,2024:Q4,-0.042941518504606695,0.09807305647328657
pseudo,pre_advance,A,standard_dfm,bridge,2024:Q1,0.3227320923731424,0.3227320923731424
pseudo,pre_advance,A,standard_dfm,bridge,2024:Q2,-0.7052578633461701,-0.38252577097302776
pseudo,pre_advance,A,standard_dfm,bridge,2024:Q3,0.7367760832531633,0.3542503122801356
pseudo,pre_advance,A,standard_dfm,bridge,2024:Q4,-0.08813028696743128,0.2661200253127043
pseudo,pre_advance,A,standard_dfm,indicator_revision_only_dfm_kalman_em,2024:Q1,-0.6362480481731823,-0.6362480481731823
