haminh109/Revision-Aware-DFM/outputs/full_state_space_release_revision_dfm/exact_pseudo_backtest_mature_1y_max_iter2_journal_evidence/cumulative_loss_revision.csv
timing_mode,checkpoint_id,outcome_id,baseline_model,model_id,target_quarter,loss_diff_baseline_minus_model,cumulative_loss_diff
exact,pre_advance,DELTA_SA,ar,bridge,2024:Q1,0.08308195917709739,0.08308195917709739
exact,pre_advance,DELTA_SA,ar,bridge,2024:Q2,-0.04089950912320364,0.04218245005389375
exact,pre_advance,DELTA_SA,ar,bridge,2024:Q3,0.002078917593568988,0.04426136764746273
exact,pre_advance,DELTA_SA,ar,bridge,2024:Q4,-0.00014364795373976344,0.04411771969372297
exact,pre_advance,DELTA_SA,ar,indicator_revision_only_dfm_kalman_em,2024:Q1,0.07155817897030346,0.07155817897030346
exact,pre_advance,DELTA_SA,ar,indicator_revision_only_dfm_kalman_em,2024:Q2,-0.009033581491366181,0.06252459747893728
exact,pre_advance,DELTA_SA,ar,indicator_revision_only_dfm_kalman_em,2024:Q3,0.00727617350536104,0.06980077098429832
exact,pre_advance,DELTA_SA,ar,indicator_revision_only_dfm_kalman_em,2024:Q4,-0.008788760628669104,0.06101201035562922
exact,pre_advance,DELTA_SA,ar,joint_indicator_revision_dfm_full_kalman_em,2024:Q1,-0.033051439969275676,-0.033051439969275676
exact,pre_advance,DELTA_SA,ar,joint_indicator_revision_dfm_full_kalman_em,2024:Q2,-0.04828805967316888,-0.08133949964244455
exact,pre_advance,DELTA_SA,ar,joint_indicator_revision_dfm_full_kalman_em,2024:Q3,-0.007318050671746875,-0.08865755031419142
exact,pre_advance,DELTA_SA,ar,joint_indicator_revision_dfm_full_kalman_em,2024:Q4,-0.0011459162982995553,-0.08980346661249097
exact,pre_advance,DELTA_SA,ar,midas_umidas,2024:Q1,0.1867492213036634,0.1867492213036634
exact,pre_advance,DELTA_SA,ar,midas_umidas,2024:Q2,0.0029975257085396354,0.18974674701220304
exact,pre_advance,DELTA_SA,ar,midas_umidas,2024:Q3,-0.20633145236123396,-0.01658470534903092
exact,pre_advance,DELTA_SA,ar,midas_umidas,2024:Q4,-1.63604893282211,-1.6526336381711408
exact,pre_advance,DELTA_SA,ar,monthly_mixed_frequency_kalman_em,2024:Q1,0.009313294306241254,0.009313294306241254
exact,pre_advance,DELTA_SA,ar,monthly_mixed_frequency_kalman_em,2024:Q2,-0.005896404025852295,0.003416890280388959
exact,pre_advance,DELTA_SA,ar,monthly_mixed_frequency_kalman_em,2024:Q3,0.006495814157429888,0.009912704437818847
exact,pre_advance,DELTA_SA,ar,monthly_mixed_frequency_kalman_em,2024:Q4,-0.003500169720835123,0.006412534716983723
exact,pre_advance,DELTA_SA,ar,no_revision,2024:Q1,0.07155817897030346,0.07155817897030346
exact,pre_advance,DELTA_SA,ar,no_revision,2024:Q2,-0.009033581491366181,0.06252459747893728
exact,pre_advance,DELTA_SA,ar,no_revision,2024:Q3,0.00727617350536104,0.06980077098429832
exact,pre_advance,DELTA_SA,ar,no_revision,2024:Q4,-0.008788760628669104,0.06101201035562922
exact,pre_advance,DELTA_SA,ar,release_dfm,2024:Q1,-0.001782041940785073,-0.001782041940785073
exact,pre_advance,DELTA_SA,ar,release_dfm,2024:Q2,0.0030115301445589647,0.0012294882037738918
exact,pre_advance,DELTA_SA,ar,release_dfm,2024:Q3,0.0003461342174390092,0.001575622421212901
exact,pre_advance,DELTA_SA,ar,release_dfm,2024:Q4,2.5610952888988313e-05,0.0016012333741018893
exact,pre_advance,DELTA_SA,ar,revision_dfm_kalman_em,2024:Q1,-0.03392890707346796,-0.03392890707346796
exact,pre_advance,DELTA_SA,ar,revision_dfm_kalman_em,2024:Q2,-0.058372143726932356,-0.09230105080040032
exact,pre_advance,DELTA_SA,ar,revision_dfm_kalman_em,2024:Q3,3.590547964152976e-05,-0.0922651453207588
exact,pre_advance,DELTA_SA,ar,revision_dfm_kalman_em,2024:Q4,-0.00033799404162377056,-0.09260313936238257
exact,pre_advance,DELTA_SA,ar,spf,2024:Q1,0.07155817897030346,0.07155817897030346
exact,pre_advance,DELTA_SA,ar,spf,2024:Q2,-0.009033581491366181,0.06252459747893728
exact,pre_advance,DELTA_SA,ar,spf,2024:Q3,0.00727617350536104,0.06980077098429832
exact,pre_advance,DELTA_SA,ar,spf,2024:Q4,-0.008788760628669104,0.06101201035562922
exact,pre_advance,DELTA_SA,ar,standard_dfm,2024:Q1,-0.001782041940785073,-0.001782041940785073
exact,pre_advance,DELTA_SA,ar,standard_dfm,2024:Q2,0.0030115301445589647,0.0012294882037738918
exact,pre_advance,DELTA_SA,ar,standard_dfm,2024:Q3,0.0003461342174390092,0.001575622421212901
exact,pre_advance,DELTA_SA,ar,standard_dfm,2024:Q4,2.5610952888988313e-05,0.0016012333741018893
exact,pre_advance,DELTA_SA,no_revision,ar,2024:Q1,-0.07155817897030346,-0.07155817897030346
exact,pre_advance,DELTA_SA,no_revision,ar,2024:Q2,0.009033581491366181,-0.06252459747893728
exact,pre_advance,DELTA_SA,no_revision,ar,2024:Q3,-0.00727617350536104,-0.06980077098429832
exact,pre_advance,DELTA_SA,no_revision,ar,2024:Q4,0.008788760628669104,-0.06101201035562922
exact,pre_advance,DELTA_SA,no_revision,bridge,2024:Q1,0.011523780206793927,0.011523780206793927
exact,pre_advance,DELTA_SA,no_revision,bridge,2024:Q2,-0.03186592763183746,-0.020342147425043533
exact,pre_advance,DELTA_SA,no_revision,bridge,2024:Q3,-0.005197255911792052,-0.025539403336835586
exact,pre_advance,DELTA_SA,no_revision,bridge,2024:Q4,0.008645112674929342,-0.016894290661906244
exact,pre_advance,DELTA_SA,no_revision,indicator_revision_only_dfm_kalman_em,2024:Q1,0.0,0.0
exact,pre_advance,DELTA_SA,no_revision,indicator_revision_only_dfm_kalman_em,2024:Q2,0.0,0.0
exact,pre_advance,DELTA_SA,no_revision,indicator_revision_only_dfm_kalman_em,2024:Q3,0.0,0.0
exact,pre_advance,DELTA_SA,no_revision,indicator_revision_only_dfm_kalman_em,2024:Q4,0.0,0.0
exact,pre_advance,DELTA_SA,no_revision,joint_indicator_revision_dfm_full_kalman_em,2024:Q1,-0.10460961893957914,-0.10460961893957914
exact,pre_advance,DELTA_SA,no_revision,joint_indicator_revision_dfm_full_kalman_em,2024:Q2,-0.0392544781818027,-0.14386409712138185
exact,pre_advance,DELTA_SA,no_revision,joint_indicator_revision_dfm_full_kalman_em,2024:Q3,-0.014594224177107915,-0.15845832129848975
exact,pre_advance,DELTA_SA,no_revision,joint_indicator_revision_dfm_full_kalman_em,2024:Q4,0.00764284433036955,-0.1508154769681202
exact,pre_advance,DELTA_SA,no_revision,midas_umidas,2024:Q1,0.11519104233335992,0.11519104233335992
exact,pre_advance,DELTA_SA,no_revision,midas_umidas,2024:Q2,0.012031107199905817,0.12722214953326574
exact,pre_advance,DELTA_SA,no_revision,midas_umidas,2024:Q3,-0.21360762586659499,-0.08638547633332924
exact,pre_advance,DELTA_SA,no_revision,midas_umidas,2024:Q4,-1.627260172193441,-1.7136456485267701
exact,pre_advance,DELTA_SA,no_revision,monthly_mixed_frequency_kalman_em,2024:Q1,-0.06224488466406221,-0.06224488466406221
exact,pre_advance,DELTA_SA,no_revision,monthly_mixed_frequency_kalman_em,2024:Q2,0.003137177465513886,-0.059107707198548326
exact,pre_advance,DELTA_SA,no_revision,monthly_mixed_frequency_kalman_em,2024:Q3,-0.0007803593479311516,-0.059888066546479476
exact,pre_advance,DELTA_SA,no_revision,monthly_mixed_frequency_kalman_em,2024:Q4,0.005288590907833982,-0.05459947563864549
exact,pre_advance,DELTA_SA,no_revision,release_dfm,2024:Q1,-0.07334022091108854,-0.07334022091108854
exact,pre_advance,DELTA_SA,no_revision,release_dfm,2024:Q2,0.012045111635925145,-0.06129510927516339
exact,pre_advance,DELTA_SA,no_revision,release_dfm,2024:Q3,-0.006930039287922031,-0.06822514856308542
exact,pre_advance,DELTA_SA,no_revision,release_dfm,2024:Q4,0.008814371581558093,-0.05941077698152733
exact,pre_advance,DELTA_SA,no_revision,revision_dfm_kalman_em,2024:Q1,-0.10548708604377142,-0.10548708604377142
exact,pre_advance,DELTA_SA,no_revision,revision_dfm_kalman_em,2024:Q2,-0.04933856223556617,-0.1548256482793376
exact,pre_advance,DELTA_SA,no_revision,revision_dfm_kalman_em,2024:Q3,-0.00724026802571951,-0.1620659163050571
exact,pre_advance,DELTA_SA,no_revision,revision_dfm_kalman_em,2024:Q4,0.008450766587045334,-0.15361514971801177
exact,pre_advance,DELTA_SA,no_revision,spf,2024:Q1,0.0,0.0
exact,pre_advance,DELTA_SA,no_revision,spf,2024:Q2,0.0,0.0
exact,pre_advance,DELTA_SA,no_revision,spf,2024:Q3,0.0,0.0
exact,pre_advance,DELTA_SA,no_revision,spf,2024:Q4,0.0,0.0
exact,pre_advance,DELTA_SA,no_revision,standard_dfm,2024:Q1,-0.07334022091108854,-0.07334022091108854
exact,pre_advance,DELTA_SA,no_revision,standard_dfm,2024:Q2,0.012045111635925145,-0.06129510927516339
exact,pre_advance,DELTA_SA,no_revision,standard_dfm,2024:Q3,-0.006930039287922031,-0.06822514856308542
exact,pre_advance,DELTA_SA,no_revision,standard_dfm,2024:Q4,0.008814371581558093,-0.05941077698152733
exact,pre_advance,DELTA_SA,bridge,ar,2024:Q1,-0.08308195917709739,-0.08308195917709739
exact,pre_advance,DELTA_SA,bridge,ar,2024:Q2,0.04089950912320364,-0.04218245005389375
exact,pre_advance,DELTA_SA,bridge,ar,2024:Q3,-0.002078917593568988,-0.04426136764746273
exact,pre_advance,DELTA_SA,bridge,ar,2024:Q4,0.00014364795373976344,-0.04411771969372297
exact,pre_advance,DELTA_SA,bridge,indicator_revision_only_dfm_kalman_em,2024:Q1,-0.011523780206793927,-0.011523780206793927
exact,pre_advance,DELTA_SA,bridge,indicator_revision_only_dfm_kalman_em,2024:Q2,0.03186592763183746,0.020342147425043533
exact,pre_advance,DELTA_SA,bridge,indicator_revision_only_dfm_kalman_em,2024:Q3,0.005197255911792052,0.025539403336835586
exact,pre_advance,DELTA_SA,bridge,indicator_revision_only_dfm_kalman_em,2024:Q4,-0.008645112674929342,0.016894290661906244
exact,pre_advance,DELTA_SA,bridge,joint_indicator_revision_dfm_full_kalman_em,2024:Q1,-0.11613339914637306,-0.11613339914637306
exact,pre_advance,DELTA_SA,bridge,joint_indicator_revision_dfm_full_kalman_em,2024:Q2,-0.007388550549965241,-0.12352194969633831
exact,pre_advance,DELTA_SA,bridge,joint_indicator_revision_dfm_full_kalman_em,2024:Q3,-0.009396968265315862,-0.13291891796165417
exact,pre_advance,DELTA_SA,bridge,joint_indicator_revision_dfm_full_kalman_em,2024:Q4,-0.0010022683445597917,-0.13392118630621397
exact,pre_advance,DELTA_SA,bridge,midas_umidas,2024:Q1,0.10366726212656599,0.10366726212656599
exact,pre_advance,DELTA_SA,bridge,midas_umidas,2024:Q2,0.04389703483174328,0.14756429695830928
exact,pre_advance,DELTA_SA,bridge,midas_umidas,2024:Q3,-0.20841036995480294,-0.060846072996493666
exact,pre_advance,DELTA_SA,bridge,midas_umidas,2024:Q4,-1.6359052848683702,-1.6967513578648639
exact,pre_advance,DELTA_SA,bridge,monthly_mixed_frequency_kalman_em,2024:Q1,-0.07376866487085613,-0.07376866487085613
exact,pre_advance,DELTA_SA,bridge,monthly_mixed_frequency_kalman_em,2024:Q2,0.03500310509735135,-0.038765559773504786
exact,pre_advance,DELTA_SA,bridge,monthly_mixed_frequency_kalman_em,2024:Q3,0.004416896563860901,-0.03434866320964389
exact,pre_advance,DELTA_SA,bridge,monthly_mixed_frequency_kalman_em,2024:Q4,-0.0033565217670953594,-0.03770518497673925
exact,pre_advance,DELTA_SA,bridge,no_revision,2024:Q1,-0.011523780206793927,-0.011523780206793927
exact,pre_advance,DELTA_SA,bridge,no_revision,2024:Q2,0.03186592763183746,0.020342147425043533
exact,pre_advance,DELTA_SA,bridge,no_revision,2024:Q3,0.005197255911792052,0.025539403336835586
exact,pre_advance,DELTA_SA,bridge,no_revision,2024:Q4,-0.008645112674929342,0.016894290661906244
exact,pre_advance,DELTA_SA,bridge,release_dfm,2024:Q1,-0.08486400111788246,-0.08486400111788246
exact,pre_advance,DELTA_SA,bridge,release_dfm,2024:Q2,0.04391103926776261,-0.04095296185011985
exact,pre_advance,DELTA_SA,bridge,release_dfm,2024:Q3,-0.0017327833761299786,-0.04268574522624983
exact,pre_advance,DELTA_SA,bridge,release_dfm,2024:Q4,0.00016925890662875174,-0.04251648631962108
exact,pre_advance,DELTA_SA,bridge,revision_dfm_kalman_em,2024:Q1,-0.11701086625056535,-0.11701086625056535
exact,pre_advance,DELTA_SA,bridge,revision_dfm_kalman_em,2024:Q2,-0.017472634603728714,-0.13448350085429406
exact,pre_advance,DELTA_SA,bridge,revision_dfm_kalman_em,2024:Q3,-0.002043012113927458,-0.13652651296822152
exact,pre_advance,DELTA_SA,bridge,revision_dfm_kalman_em,2024:Q4,-0.00019434608788400715,-0.13672085905610554
exact,pre_advance,DELTA_SA,bridge,spf,2024:Q1,-0.011523780206793927,-0.011523780206793927
exact,pre_advance,DELTA_SA,bridge,spf,2024:Q2,0.03186592763183746,0.020342147425043533
exact,pre_advance,DELTA_SA,bridge,spf,2024:Q3,0.005197255911792052,0.025539403336835586
exact,pre_advance,DELTA_SA,bridge,spf,2024:Q4,-0.008645112674929342,0.016894290661906244
exact,pre_advance,DELTA_SA,bridge,standard_dfm,2024:Q1,-0.08486400111788246,-0.08486400111788246
exact,pre_advance,DELTA_SA,bridge,standard_dfm,2024:Q2,0.04391103926776261,-0.04095296185011985
exact,pre_advance,DELTA_SA,bridge,standard_dfm,2024:Q3,-0.0017327833761299786,-0.04268574522624983
exact,pre_advance,DELTA_SA,bridge,standard_dfm,2024:Q4,0.00016925890662875174,-0.04251648631962108
exact,pre_advance,DELTA_SA,midas_umidas,ar,2024:Q1,-0.1867492213036634,-0.1867492213036634
exact,pre_advance,DELTA_SA,midas_umidas,ar,2024:Q2,-0.0029975257085396354,-0.18974674701220304
exact,pre_advance,DELTA_SA,midas_umidas,ar,2024:Q3,0.20633145236123396,0.01658470534903092
exact,pre_advance,DELTA_SA,midas_umidas,ar,2024:Q4,1.63604893282211,1.6526336381711408
exact,pre_advance,DELTA_SA,midas_umidas,bridge,2024:Q1,-0.10366726212656599,-0.10366726212656599
exact,pre_advance,DELTA_SA,midas_umidas,bridge,2024:Q2,-0.04389703483174328,-0.14756429695830928
exact,pre_advance,DELTA_SA,midas_umidas,bridge,2024:Q3,0.20841036995480294,0.060846072996493666
exact,pre_advance,DELTA_SA,midas_umidas,bridge,2024:Q4,1.6359052848683702,1.6967513578648639
exact,pre_advance,DELTA_SA,midas_umidas,indicator_revision_only_dfm_kalman_em,2024:Q1,-0.11519104233335992,-0.11519104233335992
exact,pre_advance,DELTA_SA,midas_umidas,indicator_revision_only_dfm_kalman_em,2024:Q2,-0.012031107199905817,-0.12722214953326574
exact,pre_advance,DELTA_SA,midas_umidas,indicator_revision_only_dfm_kalman_em,2024:Q3,0.21360762586659499,0.08638547633332924
exact,pre_advance,DELTA_SA,midas_umidas,indicator_revision_only_dfm_kalman_em,2024:Q4,1.627260172193441,1.7136456485267701
exact,pre_advance,DELTA_SA,midas_umidas,joint_indicator_revision_dfm_full_kalman_em,2024:Q1,-0.21980066127293907,-0.21980066127293907
exact,pre_advance,DELTA_SA,midas_umidas,joint_indicator_revision_dfm_full_kalman_em,2024:Q2,-0.05128558538170852,-0.2710862466546476
exact,pre_advance,DELTA_SA,midas_umidas,joint_indicator_revision_dfm_full_kalman_em,2024:Q3,0.19901340168948708,-0.0720728449651605
exact,pre_advance,DELTA_SA,midas_umidas,joint_indicator_revision_dfm_full_kalman_em,2024:Q4,1.6349030165238105,1.5628301715586501
exact,pre_advance,DELTA_SA,midas_umidas,monthly_mixed_frequency_kalman_em,2024:Q1,-0.17743592699742214,-0.17743592699742214
exact,pre_advance,DELTA_SA,midas_umidas,monthly_mixed_frequency_kalman_em,2024:Q2,-0.008893929734391931,-0.18632985673181407
exact,pre_advance,DELTA_SA,midas_umidas,monthly_mixed_frequency_kalman_em,2024:Q3,0.21282726651866385,0.02649740978684978
exact,pre_advance,DELTA_SA,midas_umidas,monthly_mixed_frequency_kalman_em,2024:Q4,1.632548763101275,1.6590461728881247
exact,pre_advance,DELTA_SA,midas_umidas,no_revision,2024:Q1,-0.11519104233335992,-0.11519104233335992
exact,pre_advance,DELTA_SA,midas_umidas,no_revision,2024:Q2,-0.012031107199905817,-0.12722214953326574
exact,pre_advance,DELTA_SA,midas_umidas,no_revision,2024:Q3,0.21360762586659499,0.08638547633332924
exact,pre_advance,DELTA_SA,midas_umidas,no_revision,2024:Q4,1.627260172193441,1.7136456485267701
exact,pre_advance,DELTA_SA,midas_umidas,release_dfm,2024:Q1,-0.18853126324444847,-0.18853126324444847
exact,pre_advance,DELTA_SA,midas_umidas,release_dfm,2024:Q2,1.4004436019329064e-05,-0.18851725880842915
exact,pre_advance,DELTA_SA,midas_umidas,release_dfm,2024:Q3,0.20667758657867297,0.018160327770243817
exact,pre_advance,DELTA_SA,midas_umidas,release_dfm,2024:Q4,1.636074543774999,1.6542348715452428
exact,pre_advance,DELTA_SA,midas_umidas,revision_dfm_kalman_em,2024:Q1,-0.22067812837713136,-0.22067812837713136
exact,pre_advance,DELTA_SA,midas_umidas,revision_dfm_kalman_em,2024:Q2,-0.061369669435471993,-0.28204779781260336
exact,pre_advance,DELTA_SA,midas_umidas,revision_dfm_kalman_em,2024:Q3,0.20636735784087548,-0.07568043997172788
exact,pre_advance,DELTA_SA,midas_umidas,revision_dfm_kalman_em,2024:Q4,1.6357109387804862,1.5600304988087583
exact,pre_advance,DELTA_SA,midas_umidas,spf,2024:Q1,-0.11519104233335992,-0.11519104233335992
exact,pre_advance,DELTA_SA,midas_umidas,spf,2024:Q2,-0.012031107199905817,-0.12722214953326574
exact,pre_advance,DELTA_SA,midas_umidas,spf,2024:Q3,0.21360762586659499,0.08638547633332924
exact,pre_advance,DELTA_SA,midas_umidas,spf,2024:Q4,1.627260172193441,1.7136456485267701
exact,pre_advance,DELTA_SA,midas_umidas,standard_dfm,2024:Q1,-0.18853126324444847,-0.18853126324444847
exact,pre_advance,DELTA_SA,midas_umidas,standard_dfm,2024:Q2,1.4004436019329064e-05,-0.18851725880842915
exact,pre_advance,DELTA_SA,midas_umidas,standard_dfm,2024:Q3,0.20667758657867297,0.018160327770243817
exact,pre_advance,DELTA_SA,midas_umidas,standard_dfm,2024:Q4,1.636074543774999,1.6542348715452428
exact,pre_advance,DELTA_SA,spf,ar,2024:Q1,-0.07155817897030346,-0.07155817897030346
exact,pre_advance,DELTA_SA,spf,ar,2024:Q2,0.009033581491366181,-0.06252459747893728
exact,pre_advance,DELTA_SA,spf,ar,2024:Q3,-0.00727617350536104,-0.06980077098429832
exact,pre_advance,DELTA_SA,spf,ar,2024:Q4,0.008788760628669104,-0.06101201035562922
exact,pre_advance,DELTA_SA,spf,bridge,2024:Q1,0.011523780206793927,0.011523780206793927
exact,pre_advance,DELTA_SA,spf,bridge,2024:Q2,-0.03186592763183746,-0.020342147425043533
exact,pre_advance,DELTA_SA,spf,bridge,2024:Q3,-0.005197255911792052,-0.025539403336835586
exact,pre_advance,DELTA_SA,spf,bridge,2024:Q4,0.008645112674929342,-0.016894290661906244
exact,pre_advance,DELTA_SA,spf,indicator_revision_only_dfm_kalman_em,2024:Q1,0.0,0.0
exact,pre_advance,DELTA_SA,spf,indicator_revision_only_dfm_kalman_em,2024:Q2,0.0,0.0
exact,pre_advance,DELTA_SA,spf,indicator_revision_only_dfm_kalman_em,2024:Q3,0.0,0.0
exact,pre_advance,DELTA_SA,spf,indicator_revision_only_dfm_kalman_em,2024:Q4,0.0,0.0
exact,pre_advance,DELTA_SA,spf,joint_indicator_revision_dfm_full_kalman_em,2024:Q1,-0.10460961893957914,-0.10460961893957914
exact,pre_advance,DELTA_SA,spf,joint_indicator_revision_dfm_full_kalman_em,2024:Q2,-0.0392544781818027,-0.14386409712138185
exact,pre_advance,DELTA_SA,spf,joint_indicator_revision_dfm_full_kalman_em,2024:Q3,-0.014594224177107915,-0.15845832129848975
exact,pre_advance,DELTA_SA,spf,joint_indicator_revision_dfm_full_kalman_em,2024:Q4,0.00764284433036955,-0.1508154769681202
exact,pre_advance,DELTA_SA,spf,midas_umidas,2024:Q1,0.11519104233335992,0.11519104233335992
exact,pre_advance,DELTA_SA,spf,midas_umidas,2024:Q2,0.012031107199905817,0.12722214953326574
exact,pre_advance,DELTA_SA,spf,midas_umidas,2024:Q3,-0.21360762586659499,-0.08638547633332924
exact,pre_advance,DELTA_SA,spf,midas_umidas,2024:Q4,-1.627260172193441,-1.7136456485267701
exact,pre_advance,DELTA_SA,spf,monthly_mixed_frequency_kalman_em,2024:Q1,-0.06224488466406221,-0.06224488466406221
exact,pre_advance,DELTA_SA,spf,monthly_mixed_frequency_kalman_em,2024:Q2,0.003137177465513886,-0.059107707198548326
exact,pre_advance,DELTA_SA,spf,monthly_mixed_frequency_kalman_em,2024:Q3,-0.0007803593479311516,-0.059888066546479476
exact,pre_advance,DELTA_SA,spf,monthly_mixed_frequency_kalman_em,2024:Q4,0.005288590907833982,-0.05459947563864549
exact,pre_advance,DELTA_SA,spf,no_revision,2024:Q1,0.0,0.0
exact,pre_advance,DELTA_SA,spf,no_revision,2024:Q2,0.0,0.0
exact,pre_advance,DELTA_SA,spf,no_revision,2024:Q3,0.0,0.0
exact,pre_advance,DELTA_SA,spf,no_revision,2024:Q4,0.0,0.0
exact,pre_advance,DELTA_SA,spf,release_dfm,2024:Q1,-0.07334022091108854,-0.07334022091108854
exact,pre_advance,DELTA_SA,spf,release_dfm,2024:Q2,0.012045111635925145,-0.06129510927516339
exact,pre_advance,DELTA_SA,spf,release_dfm,2024:Q3,-0.006930039287922031,-0.06822514856308542
exact,pre_advance,DELTA_SA,spf,release_dfm,2024:Q4,0.008814371581558093,-0.05941077698152733
exact,pre_advance,DELTA_SA,spf,revision_dfm_kalman_em,2024:Q1,-0.10548708604377142,-0.10548708604377142
exact,pre_advance,DELTA_SA,spf,revision_dfm_kalman_em,2024:Q2,-0.04933856223556617,-0.1548256482793376
exact,pre_advance,DELTA_SA,spf,revision_dfm_kalman_em,2024:Q3,-0.00724026802571951,-0.1620659163050571
exact,pre_advance,DELTA_SA,spf,revision_dfm_kalman_em,2024:Q4,0.008450766587045334,-0.15361514971801177
exact,pre_advance,DELTA_SA,spf,standard_dfm,2024:Q1,-0.07334022091108854,-0.07334022091108854
exact,pre_advance,DELTA_SA,spf,standard_dfm,2024:Q2,0.012045111635925145,-0.06129510927516339
exact,pre_advance,DELTA_SA,spf,standard_dfm,2024:Q3,-0.006930039287922031,-0.06822514856308542
exact,pre_advance,DELTA_SA,spf,standard_dfm,2024:Q4,0.008814371581558093,-0.05941077698152733
exact,pre_advance,DELTA_SA,standard_dfm,ar,2024:Q1,0.001782041940785073,0.001782041940785073
exact,pre_advance,DELTA_SA,standard_dfm,ar,2024:Q2,-0.0030115301445589647,-0.0012294882037738918
exact,pre_advance,DELTA_SA,standard_dfm,ar,2024:Q3,-0.0003461342174390092,-0.001575622421212901
exact,pre_advance,DELTA_SA,standard_dfm,ar,2024:Q4,-2.5610952888988313e-05,-0.0016012333741018893
exact,pre_advance,DELTA_SA,standard_dfm,bridge,2024:Q1,0.08486400111788246,0.08486400111788246
exact,pre_advance,DELTA_SA,standard_dfm,bridge,2024:Q2,-0.04391103926776261,0.04095296185011985
exact,pre_advance,DELTA_SA,standard_dfm,bridge,2024:Q3,0.0017327833761299786,0.04268574522624983
exact,pre_advance,DELTA_SA,standard_dfm,bridge,2024:Q4,-0.00016925890662875174,0.04251648631962108
exact,pre_advance,DELTA_SA,standard_dfm,indicator_revision_only_dfm_kalman_em,2024:Q1,0.07334022091108854,0.07334022091108854
exact,pre_advance,DELTA_SA,standard_dfm,indicator_revision_only_dfm_kalman_em,2024:Q2,-0.012045111635925145,0.06129510927516339
exact,pre_advance,DELTA_SA,standard_dfm,indicator_revision_only_dfm_kalman_em,2024:Q3,0.006930039287922031,0.06822514856308542
exact,pre_advance,DELTA_SA,standard_dfm,indicator_revision_only_dfm_kalman_em,2024:Q4,-0.008814371581558093,0.05941077698152733
exact,pre_advance,DELTA_SA,standard_dfm,joint_indicator_revision_dfm_full_kalman_em,2024:Q1,-0.0312693980284906,-0.0312693980284906
exact,pre_advance,DELTA_SA,standard_dfm,joint_indicator_revision_dfm_full_kalman_em,2024:Q2,-0.05129958981772785,-0.08256898784621845
exact,pre_advance,DELTA_SA,standard_dfm,joint_indicator_revision_dfm_full_kalman_em,2024:Q3,-0.007664184889185884,-0.09023317273540434
exact,pre_advance,DELTA_SA,standard_dfm,joint_indicator_revision_dfm_full_kalman_em,2024:Q4,-0.0011715272511885434,-0.09140469998659288
exact,pre_advance,DELTA_SA,standard_dfm,midas_umidas,2024:Q1,0.18853126324444847,0.18853126324444847
exact,pre_advance,DELTA_SA,standard_dfm,midas_umidas,2024:Q2,-1.4004436019329064e-05,0.18851725880842915
exact,pre_advance,DELTA_SA,standard_dfm,midas_umidas,2024:Q3,-0.20667758657867297,-0.018160327770243817
exact,pre_advance,DELTA_SA,standard_dfm,midas_umidas,2024:Q4,-1.636074543774999,-1.6542348715452428
exact,pre_advance,DELTA_SA,standard_dfm,monthly_mixed_frequency_kalman_em,2024:Q1,0.011095336247026327,0.011095336247026327
exact,pre_advance,DELTA_SA,standard_dfm,monthly_mixed_frequency_kalman_em,2024:Q2,-0.008907934170411259,0.002187402076615068
exact,pre_advance,DELTA_SA,standard_dfm,monthly_mixed_frequency_kalman_em,2024:Q3,0.0061496799399908784,0.008337082016605947
exact,pre_advance,DELTA_SA,standard_dfm,monthly_mixed_frequency_kalman_em,2024:Q4,-0.0035257806737241113,0.004811301342881835
exact,pre_advance,DELTA_SA,standard_dfm,no_revision,2024:Q1,0.07334022091108854,0.07334022091108854
exact,pre_advance,DELTA_SA,standard_dfm,no_revision,2024:Q2,-0.012045111635925145,0.06129510927516339
exact,pre_advance,DELTA_SA,standard_dfm,no_revision,2024:Q3,0.006930039287922031,0.06822514856308542
exact,pre_advance,DELTA_SA,standard_dfm,no_revision,2024:Q4,-0.008814371581558093,0.05941077698152733
exact,pre_advance,DELTA_SA,standard_dfm,release_dfm,2024:Q1,0.0,0.0
exact,pre_advance,DELTA_SA,standard_dfm,release_dfm,2024:Q2,0.0,0.0
exact,pre_advance,DELTA_SA,standard_dfm,release_dfm,2024:Q3,0.0,0.0
exact,pre_advance,DELTA_SA,standard_dfm,release_dfm,2024:Q4,0.0,0.0
exact,pre_advance,DELTA_SA,standard_dfm,revision_dfm_kalman_em,2024:Q1,-0.03214686513268289,-0.03214686513268289
exact,pre_advance,DELTA_SA,standard_dfm,revision_dfm_kalman_em,2024:Q2,-0.06138367387149132,-0.09353053900417421
exact,pre_advance,DELTA_SA,standard_dfm,revision_dfm_kalman_em,2024:Q3,-0.00031022873779747943,-0.0938407677419717
exact,pre_advance,DELTA_SA,standard_dfm,revision_dfm_kalman_em,2024:Q4,-0.0003636049945127589,-0.09420437273648445
exact,pre_advance,DELTA_SA,standard_dfm,spf,2024:Q1,0.07334022091108854,0.07334022091108854
exact,pre_advance,DELTA_SA,standard_dfm,spf,2024:Q2,-0.012045111635925145,0.06129510927516339
exact,pre_advance,DELTA_SA,standard_dfm,spf,2024:Q3,0.006930039287922031,0.06822514856308542
exact,pre_advance,DELTA_SA,standard_dfm,spf,2024:Q4,-0.008814371581558093,0.05941077698152733
exact,pre_advance,DELTA_SA,release_dfm,ar,2024:Q1,0.001782041940785073,0.001782041940785073
exact,pre_advance,DELTA_SA,release_dfm,ar,2024:Q2,-0.0030115301445589647,-0.0012294882037738918
exact,pre_advance,DELTA_SA,release_dfm,ar,2024:Q3,-0.0003461342174390092,-0.001575622421212901
exact,pre_advance,DELTA_SA,release_dfm,ar,2024:Q4,-2.5610952888988313e-05,-0.0016012333741018893
exact,pre_advance,DELTA_SA,release_dfm,bridge,2024:Q1,0.08486400111788246,0.08486400111788246
exact,pre_advance,DELTA_SA,release_dfm,bridge,2024:Q2,-0.04391103926776261,0.04095296185011985
exact,pre_advance,DELTA_SA,release_dfm,bridge,2024:Q3,0.0017327833761299786,0.04268574522624983
exact,pre_advance,DELTA_SA,release_dfm,bridge,2024:Q4,-0.00016925890662875174,0.04251648631962108
exact,pre_advance,DELTA_SA,release_dfm,indicator_revision_only_dfm_kalman_em,2024:Q1,0.07334022091108854,0.07334022091108854
exact,pre_advance,DELTA_SA,release_dfm,indicator_revision_only_dfm_kalman_em,2024:Q2,-0.012045111635925145,0.06129510927516339
exact,pre_advance,DELTA_SA,release_dfm,indicator_revision_only_dfm_kalman_em,2024:Q3,0.006930039287922031,0.06822514856308542
exact,pre_advance,DELTA_SA,release_dfm,indicator_revision_only_dfm_kalman_em,2024:Q4,-0.008814371581558093,0.05941077698152733
exact,pre_advance,DELTA_SA,release_dfm,joint_indicator_revision_dfm_full_kalman_em,2024:Q1,-0.0312693980284906,-0.0312693980284906
exact,pre_advance,DELTA_SA,release_dfm,joint_indicator_revision_dfm_full_kalman_em,2024:Q2,-0.05129958981772785,-0.08256898784621845
exact,pre_advance,DELTA_SA,release_dfm,joint_indicator_revision_dfm_full_kalman_em,2024:Q3,-0.007664184889185884,-0.09023317273540434
exact,pre_advance,DELTA_SA,release_dfm,joint_indicator_revision_dfm_full_kalman_em,2024:Q4,-0.0011715272511885434,-0.09140469998659288
exact,pre_advance,DELTA_SA,release_dfm,midas_umidas,2024:Q1,0.18853126324444847,0.18853126324444847
exact,pre_advance,DELTA_SA,release_dfm,midas_umidas,2024:Q2,-1.4004436019329064e-05,0.18851725880842915
exact,pre_advance,DELTA_SA,release_dfm,midas_umidas,2024:Q3,-0.20667758657867297,-0.018160327770243817
exact,pre_advance,DELTA_SA,release_dfm,midas_umidas,2024:Q4,-1.636074543774999,-1.6542348715452428
exact,pre_advance,DELTA_SA,release_dfm,monthly_mixed_frequency_kalman_em,2024:Q1,0.011095336247026327,0.011095336247026327
exact,pre_advance,DELTA_SA,release_dfm,monthly_mixed_frequency_kalman_em,2024:Q2,-0.008907934170411259,0.002187402076615068
exact,pre_advance,DELTA_SA,release_dfm,monthly_mixed_frequency_kalman_em,2024:Q3,0.0061496799399908784,0.008337082016605947
exact,pre_advance,DELTA_SA,release_dfm,monthly_mixed_frequency_kalman_em,2024:Q4,-0.0035257806737241113,0.004811301342881835
exact,pre_advance,DELTA_SA,release_dfm,no_revision,2024:Q1,0.07334022091108854,0.07334022091108854
exact,pre_advance,DELTA_SA,release_dfm,no_revision,2024:Q2,-0.012045111635925145,0.06129510927516339
exact,pre_advance,DELTA_SA,release_dfm,no_revision,2024:Q3,0.006930039287922031,0.06822514856308542
exact,pre_advance,DELTA_SA,release_dfm,no_revision,2024:Q4,-0.008814371581558093,0.05941077698152733
exact,pre_advance,DELTA_SA,release_dfm,revision_dfm_kalman_em,2024:Q1,-0.03214686513268289,-0.03214686513268289
exact,pre_advance,DELTA_SA,release_dfm,revision_dfm_kalman_em,2024:Q2,-0.06138367387149132,-0.09353053900417421
exact,pre_advance,DELTA_SA,release_dfm,revision_dfm_kalman_em,2024:Q3,-0.00031022873779747943,-0.0938407677419717
exact,pre_advance,DELTA_SA,release_dfm,revision_dfm_kalman_em,2024:Q4,-0.0003636049945127589,-0.09420437273648445
exact,pre_advance,DELTA_SA,release_dfm,spf,2024:Q1,0.07334022091108854,0.07334022091108854
exact,pre_advance,DELTA_SA,release_dfm,spf,2024:Q2,-0.012045111635925145,0.06129510927516339
exact,pre_advance,DELTA_SA,release_dfm,spf,2024:Q3,0.006930039287922031,0.06822514856308542
exact,pre_advance,DELTA_SA,release_dfm,spf,2024:Q4,-0.008814371581558093,0.05941077698152733
exact,pre_advance,DELTA_SA,release_dfm,standard_dfm,2024:Q1,0.0,0.0
exact,pre_advance,DELTA_SA,release_dfm,standard_dfm,2024:Q2,0.0,0.0
exact,pre_advance,DELTA_SA,release_dfm,standard_dfm,2024:Q3,0.0,0.0
exact,pre_advance,DELTA_SA,release_dfm,standard_dfm,2024:Q4,0.0,0.0
exact,pre_second,DELTA_TS,ar,bridge,2024:Q1,-0.04508858395854371,-0.04508858395854371
exact,pre_second,DELTA_TS,ar,bridge,2024:Q2,-0.05541939767022914,-0.10050798162877285
exact,pre_second,DELTA_TS,ar,bridge,2024:Q3,-0.027066730004457636,-0.12757471163323048
exact,pre_second,DELTA_TS,ar,bridge,2024:Q4,-0.00015372221921841373,-0.1277284338524489
exact,pre_second,DELTA_TS,ar,indicator_revision_only_dfm_kalman_em,2024:Q1,-0.018462133497916776,-0.018462133497916776
exact,pre_second,DELTA_TS,ar,indicator_revision_only_dfm_kalman_em,2024:Q2,0.0002043436737962131,-0.018257789824120563
exact,pre_second,DELTA_TS,ar,indicator_revision_only_dfm_kalman_em,2024:Q3,-0.028095128887836867,-0.04635291871195743
exact,pre_second,DELTA_TS,ar,indicator_revision_only_dfm_kalman_em,2024:Q4,-0.010286115580971903,-0.05663903429292933
exact,pre_second,DELTA_TS,ar,joint_indicator_revision_dfm_full_kalman_em,2024:Q1,-0.018225712655048527,-0.018225712655048527
exact,pre_second,DELTA_TS,ar,joint_indicator_revision_dfm_full_kalman_em,2024:Q2,0.0001931370595719443,-0.018032575595476583
exact,pre_second,DELTA_TS,ar,joint_indicator_revision_dfm_full_kalman_em,2024:Q3,-0.02811338314865552,-0.046145958744132104
exact,pre_second,DELTA_TS,ar,joint_indicator_revision_dfm_full_kalman_em,2024:Q4,-0.010197848353721879,-0.056343807097853985
exact,pre_second,DELTA_TS,ar,midas_umidas,2024:Q1,-0.0652275098722555,-0.0652275098722555
exact,pre_second,DELTA_TS,ar,midas_umidas,2024:Q2,0.0014799650418308662,-0.06374754483042464
exact,pre_second,DELTA_TS,ar,midas_umidas,2024:Q3,-0.02735334704078177,-0.0911008918712064
exact,pre_second,DELTA_TS,ar,midas_umidas,2024:Q4,-0.7575861942660077,-0.8486870861372141
exact,pre_second,DELTA_TS,ar,monthly_mixed_frequency_kalman_em,2024:Q1,0.005419607142628098,0.005419607142628098
exact,pre_second,DELTA_TS,ar,monthly_mixed_frequency_kalman_em,2024:Q2,-0.00719578187979544,-0.001776174737167342
exact,pre_second,DELTA_TS,ar,monthly_mixed_frequency_kalman_em,2024:Q3,-0.052909532942201146,-0.054685707679368485
exact,pre_second,DELTA_TS,ar,monthly_mixed_frequency_kalman_em,2024:Q4,-0.0037830029856301068,-0.05846871066499859
exact,pre_second,DELTA_TS,ar,no_revision,2024:Q1,-0.018462133497916776,-0.018462133497916776
exact,pre_second,DELTA_TS,ar,no_revision,2024:Q2,0.0002043436737962131,-0.018257789824120563
exact,pre_second,DELTA_TS,ar,no_revision,2024:Q3,-0.028095128887836867,-0.04635291871195743
exact,pre_second,DELTA_TS,ar,no_revision,2024:Q4,-0.010286115580971903,-0.05663903429292933
exact,pre_second,DELTA_TS,ar,release_dfm,2024:Q1,-0.005130379570303628,-0.005130379570303628
exact,pre_second,DELTA_TS,ar,release_dfm,2024:Q2,0.0014860856645817924,-0.003644293905721836
exact,pre_second,DELTA_TS,ar,release_dfm,2024:Q3,-0.0060797583482813285,-0.009724052254003164
exact,pre_second,DELTA_TS,ar,release_dfm,2024:Q4,-0.0023033535628398803,-0.012027405816843044
exact,pre_second,DELTA_TS,ar,revision_dfm_kalman_em,2024:Q1,-0.018228618067692652,-0.018228618067692652
exact,pre_second,DELTA_TS,ar,revision_dfm_kalman_em,2024:Q2,0.0001957465257766103,-0.018032871541916042
exact,pre_second,DELTA_TS,ar,revision_dfm_kalman_em,2024:Q3,-0.028101917859265056,-0.0461347894011811
exact,pre_second,DELTA_TS,ar,revision_dfm_kalman_em,2024:Q4,-0.010213480251595812,-0.05634826965277691
exact,pre_second,DELTA_TS,ar,spf,2024:Q1,-0.018462133497916776,-0.018462133497916776
exact,pre_second,DELTA_TS,ar,spf,2024:Q2,0.0002043436737962131,-0.018257789824120563
exact,pre_second,DELTA_TS,ar,spf,2024:Q3,-0.028095128887836867,-0.04635291871195743
exact,pre_second,DELTA_TS,ar,spf,2024:Q4,-0.010286115580971903,-0.05663903429292933
exact,pre_second,DELTA_TS,ar,standard_dfm,2024:Q1,-0.0024668469197966832,-0.0024668469197966832
exact,pre_second,DELTA_TS,ar,standard_dfm,2024:Q2,0.0008066622194018542,-0.001660184700394829
exact,pre_second,DELTA_TS,ar,standard_dfm,2024:Q3,-0.0008496616901237479,-0.002509846390518577
exact,pre_second,DELTA_TS,ar,standard_dfm,2024:Q4,-0.0007618480090728004,-0.0032716943995913777
exact,pre_second,DELTA_TS,no_revision,ar,2024:Q1,0.018462133497916776,0.018462133497916776
exact,pre_second,DELTA_TS,no_revision,ar,2024:Q2,-0.0002043436737962131,0.018257789824120563
exact,pre_second,DELTA_TS,no_revision,ar,2024:Q3,0.028095128887836867,0.04635291871195743
exact,pre_second,DELTA_TS,no_revision,ar,2024:Q4,0.010286115580971903,0.05663903429292933
exact,pre_second,DELTA_TS,no_revision,bridge,2024:Q1,-0.026626450460626935,-0.026626450460626935
exact,pre_second,DELTA_TS,no_revision,bridge,2024:Q2,-0.055623741344025354,-0.08225019180465229
exact,pre_second,DELTA_TS,no_revision,bridge,2024:Q3,0.0010283988833792307,-0.08122179292127306
exact,pre_second,DELTA_TS,no_revision,bridge,2024:Q4,0.010132393361753488,-0.07108939955951957
exact,pre_second,DELTA_TS,no_revision,indicator_revision_only_dfm_kalman_em,2024:Q1,0.0,0.0
exact,pre_second,DELTA_TS,no_revision,indicator_revision_only_dfm_kalman_em,2024:Q2,0.0,0.0
exact,pre_second,DELTA_TS,no_revision,indicator_revision_only_dfm_kalman_em,2024:Q3,0.0,0.0
exact,pre_second,DELTA_TS,no_revision,indicator_revision_only_dfm_kalman_em,2024:Q4,0.0,0.0
exact,pre_second,DELTA_TS,no_revision,joint_indicator_revision_dfm_full_kalman_em,2024:Q1,0.0002364208428682485,0.0002364208428682485
exact,pre_second,DELTA_TS,no_revision,joint_indicator_revision_dfm_full_kalman_em,2024:Q2,-1.1206614224268819e-05,0.00022521422864397967
exact,pre_second,DELTA_TS,no_revision,joint_indicator_revision_dfm_full_kalman_em,2024:Q3,-1.8254260818653667e-05,0.000206959967825326
exact,pre_second,DELTA_TS,no_revision,joint_indicator_revision_dfm_full_kalman_em,2024:Q4,8.826722725002387e-05,0.0002952271950753499
exact,pre_second,DELTA_TS,no_revision,midas_umidas,2024:Q1,-0.046765376374338724,-0.046765376374338724
exact,pre_second,DELTA_TS,no_revision,midas_umidas,2024:Q2,0.001275621368034653,-0.04548975500630407
exact,pre_second,DELTA_TS,no_revision,midas_umidas,2024:Q3,0.0007417818470550966,-0.04474797315924897
exact,pre_second,DELTA_TS,no_revision,midas_umidas,2024:Q4,-0.7473000786850358,-0.7920480518442847
exact,pre_second,DELTA_TS,no_revision,monthly_mixed_frequency_kalman_em,2024:Q1,0.023881740640544876,0.023881740640544876
exact,pre_second,DELTA_TS,no_revision,monthly_mixed_frequency_kalman_em,2024:Q2,-0.007400125553591653,0.016481615086953224
exact,pre_second,DELTA_TS,no_revision,monthly_mixed_frequency_kalman_em,2024:Q3,-0.024814404054364275,-0.008332788967411051
exact,pre_second,DELTA_TS,no_revision,monthly_mixed_frequency_kalman_em,2024:Q4,0.006503112595341795,-0.0018296763720692562
exact,pre_second,DELTA_TS,no_revision,release_dfm,2024:Q1,0.01333175392761315,0.01333175392761315
exact,pre_second,DELTA_TS,no_revision,release_dfm,2024:Q2,0.0012817419907855793,0.01461349591839873
exact,pre_second,DELTA_TS,no_revision,release_dfm,2024:Q3,0.02201537053955554,0.03662886645795427
exact,pre_second,DELTA_TS,no_revision,release_dfm,2024:Q4,0.007982762018132021,0.04461162847608629
exact,pre_second,DELTA_TS,no_revision,revision_dfm_kalman_em,2024:Q1,0.0002335154302241238,0.0002335154302241238
exact,pre_second,DELTA_TS,no_revision,revision_dfm_kalman_em,2024:Q2,-8.597148019602813e-06,0.00022491828220452099
exact,pre_second,DELTA_TS,no_revision,revision_dfm_kalman_em,2024:Q3,-6.788971428188517e-06,0.00021812931077633247
exact,pre_second,DELTA_TS,no_revision,revision_dfm_kalman_em,2024:Q4,7.263532937609035e-05,0.0002907646401524228
exact,pre_second,DELTA_TS,no_revision,spf,2024:Q1,0.0,0.0
exact,pre_second,DELTA_TS,no_revision,spf,2024:Q2,0.0,0.0
exact,pre_second,DELTA_TS,no_revision,spf,2024:Q3,0.0,0.0
exact,pre_second,DELTA_TS,no_revision,spf,2024:Q4,0.0,0.0
exact,pre_second,DELTA_TS,no_revision,standard_dfm,2024:Q1,0.015995286578120094,0.015995286578120094
exact,pre_second,DELTA_TS,no_revision,standard_dfm,2024:Q2,0.0006023185456056411,0.016597605123725736
exact,pre_second,DELTA_TS,no_revision,standard_dfm,2024:Q3,0.02724546719771312,0.04384307232143886
exact,pre_second,DELTA_TS,no_revision,standard_dfm,2024:Q4,0.009524267571899102,0.05336733989333796
exact,pre_second,DELTA_TS,bridge,ar,2024:Q1,0.04508858395854371,0.04508858395854371
exact,pre_second,DELTA_TS,bridge,ar,2024:Q2,0.05541939767022914,0.10050798162877285
exact,pre_second,DELTA_TS,bridge,ar,2024:Q3,0.027066730004457636,0.12757471163323048
exact,pre_second,DELTA_TS,bridge,ar,2024:Q4,0.00015372221921841373,0.1277284338524489
exact,pre_second,DELTA_TS,bridge,indicator_revision_only_dfm_kalman_em,2024:Q1,0.026626450460626935,0.026626450460626935
exact,pre_second,DELTA_TS,bridge,indicator_revision_only_dfm_kalman_em,2024:Q2,0.055623741344025354,0.08225019180465229
exact,pre_second,DELTA_TS,bridge,indicator_revision_only_dfm_kalman_em,2024:Q3,-0.0010283988833792307,0.08122179292127306
exact,pre_second,DELTA_TS,bridge,indicator_revision_only_dfm_kalman_em,2024:Q4,-0.010132393361753488,0.07108939955951957
exact,pre_second,DELTA_TS,bridge,joint_indicator_revision_dfm_full_kalman_em,2024:Q1,0.026862871303495184,0.026862871303495184
exact,pre_second,DELTA_TS,bridge,joint_indicator_revision_dfm_full_kalman_em,2024:Q2,0.055612534729801086,0.08247540603329627
exact,pre_second,DELTA_TS,bridge,joint_indicator_revision_dfm_full_kalman_em,2024:Q3,-0.0010466531441978844,0.08142875288909839
exact,pre_second,DELTA_TS,bridge,joint_indicator_revision_dfm_full_kalman_em,2024:Q4,-0.010044126134503464,0.07138462675459492
exact,pre_second,DELTA_TS,bridge,midas_umidas,2024:Q1,-0.02013892591371179,-0.02013892591371179
exact,pre_second,DELTA_TS,bridge,midas_umidas,2024:Q2,0.05689936271206,0.036760436798348214
exact,pre_second,DELTA_TS,bridge,midas_umidas,2024:Q3,-0.0002866170363241341,0.03647381976202408
exact,pre_second,DELTA_TS,bridge,midas_umidas,2024:Q4,-0.7574324720467893,-0.7209586522847652
exact,pre_second,DELTA_TS,bridge,monthly_mixed_frequency_kalman_em,2024:Q1,0.05050819110117181,0.05050819110117181
exact,pre_second,DELTA_TS,bridge,monthly_mixed_frequency_kalman_em,2024:Q2,0.0482236157904337,0.09873180689160552
exact,pre_second,DELTA_TS,bridge,monthly_mixed_frequency_kalman_em,2024:Q3,-0.025842802937743506,0.07288900395386201
exact,pre_second,DELTA_TS,bridge,monthly_mixed_frequency_kalman_em,2024:Q4,-0.003629280766411693,0.06925972318745031
exact,pre_second,DELTA_TS,bridge,no_revision,2024:Q1,0.026626450460626935,0.026626450460626935
exact,pre_second,DELTA_TS,bridge,no_revision,2024:Q2,0.055623741344025354,0.08225019180465229
exact,pre_second,DELTA_TS,bridge,no_revision,2024:Q3,-0.0010283988833792307,0.08122179292127306
exact,pre_second,DELTA_TS,bridge,no_revision,2024:Q4,-0.010132393361753488,0.07108939955951957
exact,pre_second,DELTA_TS,bridge,release_dfm,2024:Q1,0.03995820438824008,0.03995820438824008
exact,pre_second,DELTA_TS,bridge,release_dfm,2024:Q2,0.056905483334810936,0.09686368772305101
exact,pre_second,DELTA_TS,bridge,release_dfm,2024:Q3,0.020986971656176308,0.11785065937922731
exact,pre_second,DELTA_TS,bridge,release_dfm,2024:Q4,-0.0021496313436214667,0.11570102803560585
exact,pre_second,DELTA_TS,bridge,revision_dfm_kalman_em,2024:Q1,0.02685996589085106,0.02685996589085106
exact,pre_second,DELTA_TS,bridge,revision_dfm_kalman_em,2024:Q2,0.05561514419600575,0.08247511008685682
exact,pre_second,DELTA_TS,bridge,revision_dfm_kalman_em,2024:Q3,-0.0010351878548074192,0.0814399222320494
exact,pre_second,DELTA_TS,bridge,revision_dfm_kalman_em,2024:Q4,-0.010059758032377398,0.07138016419967201
exact,pre_second,DELTA_TS,bridge,spf,2024:Q1,0.026626450460626935,0.026626450460626935
exact,pre_second,DELTA_TS,bridge,spf,2024:Q2,0.055623741344025354,0.08225019180465229
exact,pre_second,DELTA_TS,bridge,spf,2024:Q3,-0.0010283988833792307,0.08122179292127306
exact,pre_second,DELTA_TS,bridge,spf,2024:Q4,-0.010132393361753488,0.07108939955951957
exact,pre_second,DELTA_TS,bridge,standard_dfm,2024:Q1,0.042621737038747026,0.042621737038747026
exact,pre_second,DELTA_TS,bridge,standard_dfm,2024:Q2,0.056226059889630996,0.09884779692837803
exact,pre_second,DELTA_TS,bridge,standard_dfm,2024:Q3,0.02621706831433389,0.12506486524271193
exact,pre_second,DELTA_TS,bridge,standard_dfm,2024:Q4,-0.0006081257898543867,0.12445673945285754
exact,pre_second,DELTA_TS,midas_umidas,ar,2024:Q1,0.0652275098722555,0.0652275098722555
exact,pre_second,DELTA_TS,midas_umidas,ar,2024:Q2,-0.0014799650418308662,0.06374754483042464
exact,pre_second,DELTA_TS,midas_umidas,ar,2024:Q3,0.02735334704078177,0.0911008918712064
exact,pre_second,DELTA_TS,midas_umidas,ar,2024:Q4,0.7575861942660077,0.8486870861372141
exact,pre_second,DELTA_TS,midas_umidas,bridge,2024:Q1,0.02013892591371179,0.02013892591371179
exact,pre_second,DELTA_TS,midas_umidas,bridge,2024:Q2,-0.05689936271206,-0.036760436798348214
exact,pre_second,DELTA_TS,midas_umidas,bridge,2024:Q3,0.0002866170363241341,-0.03647381976202408
exact,pre_second,DELTA_TS,midas_umidas,bridge,2024:Q4,0.7574324720467893,0.7209586522847652
exact,pre_second,DELTA_TS,midas_umidas,indicator_revision_only_dfm_kalman_em,2024:Q1,0.046765376374338724,0.046765376374338724
exact,pre_second,DELTA_TS,midas_umidas,indicator_revision_only_dfm_kalman_em,2024:Q2,-0.001275621368034653,0.04548975500630407
exact,pre_second,DELTA_TS,midas_umidas,indicator_revision_only_dfm_kalman_em,2024:Q3,-0.0007417818470550966,0.04474797315924897
exact,pre_second,DELTA_TS,midas_umidas,indicator_revision_only_dfm_kalman_em,2024:Q4,0.7473000786850358,0.7920480518442847
exact,pre_second,DELTA_TS,midas_umidas,joint_indicator_revision_dfm_full_kalman_em,2024:Q1,0.04700179721720697,0.04700179721720697
exact,pre_second,DELTA_TS,midas_umidas,joint_indicator_revision_dfm_full_kalman_em,2024:Q2,-0.001286827982258922,0.04571496923494805
exact,pre_second,DELTA_TS,midas_umidas,joint_indicator_revision_dfm_full_kalman_em,2024:Q3,-0.0007600361078737503,0.0449549331270743
exact,pre_second,DELTA_TS,midas_umidas,joint_indicator_revision_dfm_full_kalman_em,2024:Q4,0.7473883459122859,0.7923432790393602
exact,pre_second,DELTA_TS,midas_umidas,monthly_mixed_frequency_kalman_em,2024:Q1,0.0706471170148836,0.0706471170148836
exact,pre_second,DELTA_TS,midas_umidas,monthly_mixed_frequency_kalman_em,2024:Q2,-0.008675746921626306,0.061971370093257296
exact,pre_second,DELTA_TS,midas_umidas,monthly_mixed_frequency_kalman_em,2024:Q3,-0.025556185901419372,0.036415184191837924
exact,pre_second,DELTA_TS,midas_umidas,monthly_mixed_frequency_kalman_em,2024:Q4,0.7538031912803776,0.7902183754722156
exact,pre_second,DELTA_TS,midas_umidas,no_revision,2024:Q1,0.046765376374338724,0.046765376374338724
exact,pre_second,DELTA_TS,midas_umidas,no_revision,2024:Q2,-0.001275621368034653,0.04548975500630407
exact,pre_second,DELTA_TS,midas_umidas,no_revision,2024:Q3,-0.0007417818470550966,0.04474797315924897
exact,pre_second,DELTA_TS,midas_umidas,no_revision,2024:Q4,0.7473000786850358,0.7920480518442847
exact,pre_second,DELTA_TS,midas_umidas,release_dfm,2024:Q1,0.06009713030195187,0.06009713030195187
exact,pre_second,DELTA_TS,midas_umidas,release_dfm,2024:Q2,6.120622750926269e-06,0.0601032509247028
exact,pre_second,DELTA_TS,midas_umidas,release_dfm,2024:Q3,0.021273588692500442,0.08137683961720324
exact,pre_second,DELTA_TS,midas_umidas,release_dfm,2024:Q4,0.7552828407031679,0.8366596803203711
exact,pre_second,DELTA_TS,midas_umidas,revision_dfm_kalman_em,2024:Q1,0.04699889180456285,0.04699889180456285
exact,pre_second,DELTA_TS,midas_umidas,revision_dfm_kalman_em,2024:Q2,-0.001284218516054256,0.04571467328850859
exact,pre_second,DELTA_TS,midas_umidas,revision_dfm_kalman_em,2024:Q3,-0.0007485708184832851,0.044966102470025304
exact,pre_second,DELTA_TS,midas_umidas,revision_dfm_kalman_em,2024:Q4,0.7473727140144119,0.7923388164844372
exact,pre_second,DELTA_TS,midas_umidas,spf,2024:Q1,0.046765376374338724,0.046765376374338724
exact,pre_second,DELTA_TS,midas_umidas,spf,2024:Q2,-0.001275621368034653,0.04548975500630407
exact,pre_second,DELTA_TS,midas_umidas,spf,2024:Q3,-0.0007417818470550966,0.04474797315924897
exact,pre_second,DELTA_TS,midas_umidas,spf,2024:Q4,0.7473000786850358,0.7920480518442847
exact,pre_second,DELTA_TS,midas_umidas,standard_dfm,2024:Q1,0.06276066295245881,0.06276066295245881
exact,pre_second,DELTA_TS,midas_umidas,standard_dfm,2024:Q2,-0.000673302822429012,0.0620873601300298
exact,pre_second,DELTA_TS,midas_umidas,standard_dfm,2024:Q3,0.026503685350658023,0.08859104548068783
exact,pre_second,DELTA_TS,midas_umidas,standard_dfm,2024:Q4,0.756824346256935,0.8454153917376228
exact,pre_second,DELTA_TS,spf,ar,2024:Q1,0.018462133497916776,0.018462133497916776
exact,pre_second,DELTA_TS,spf,ar,2024:Q2,-0.0002043436737962131,0.018257789824120563
exact,pre_second,DELTA_TS,spf,ar,2024:Q3,0.028095128887836867,0.04635291871195743
exact,pre_second,DELTA_TS,spf,ar,2024:Q4,0.010286115580971903,0.05663903429292933
exact,pre_second,DELTA_TS,spf,bridge,2024:Q1,-0.026626450460626935,-0.026626450460626935
exact,pre_second,DELTA_TS,spf,bridge,2024:Q2,-0.055623741344025354,-0.08225019180465229
exact,pre_second,DELTA_TS,spf,bridge,2024:Q3,0.0010283988833792307,-0.08122179292127306
exact,pre_second,DELTA_TS,spf,bridge,2024:Q4,0.010132393361753488,-0.07108939955951957
exact,pre_second,DELTA_TS,spf,indicator_revision_only_dfm_kalman_em,2024:Q1,0.0,0.0
exact,pre_second,DELTA_TS,spf,indicator_revision_only_dfm_kalman_em,2024:Q2,0.0,0.0
exact,pre_second,DELTA_TS,spf,indicator_revision_only_dfm_kalman_em,2024:Q3,0.0,0.0
exact,pre_second,DELTA_TS,spf,indicator_revision_only_dfm_kalman_em,2024:Q4,0.0,0.0
exact,pre_second,DELTA_TS,spf,joint_indicator_revision_dfm_full_kalman_em,2024:Q1,0.0002364208428682485,0.0002364208428682485
exact,pre_second,DELTA_TS,spf,joint_indicator_revision_dfm_full_kalman_em,2024:Q2,-1.1206614224268819e-05,0.00022521422864397967
exact,pre_second,DELTA_TS,spf,joint_indicator_revision_dfm_full_kalman_em,2024:Q3,-1.8254260818653667e-05,0.000206959967825326
exact,pre_second,DELTA_TS,spf,joint_indicator_revision_dfm_full_kalman_em,2024:Q4,8.826722725002387e-05,0.0002952271950753499
exact,pre_second,DELTA_TS,spf,midas_umidas,2024:Q1,-0.046765376374338724,-0.046765376374338724
exact,pre_second,DELTA_TS,spf,midas_umidas,2024:Q2,0.001275621368034653,-0.04548975500630407
exact,pre_second,DELTA_TS,spf,midas_umidas,2024:Q3,0.0007417818470550966,-0.04474797315924897
exact,pre_second,DELTA_TS,spf,midas_umidas,2024:Q4,-0.7473000786850358,-0.7920480518442847
exact,pre_second,DELTA_TS,spf,monthly_mixed_frequency_kalman_em,2024:Q1,0.023881740640544876,0.023881740640544876
exact,pre_second,DELTA_TS,spf,monthly_mixed_frequency_kalman_em,2024:Q2,-0.007400125553591653,0.016481615086953224
exact,pre_second,DELTA_TS,spf,monthly_mixed_frequency_kalman_em,2024:Q3,-0.024814404054364275,-0.008332788967411051
exact,pre_second,DELTA_TS,spf,monthly_mixed_frequency_kalman_em,2024:Q4,0.006503112595341795,-0.0018296763720692562
exact,pre_second,DELTA_TS,spf,no_revision,2024:Q1,0.0,0.0
exact,pre_second,DELTA_TS,spf,no_revision,2024:Q2,0.0,0.0
exact,pre_second,DELTA_TS,spf,no_revision,2024:Q3,0.0,0.0
exact,pre_second,DELTA_TS,spf,no_revision,2024:Q4,0.0,0.0
exact,pre_second,DELTA_TS,spf,release_dfm,2024:Q1,0.01333175392761315,0.01333175392761315
exact,pre_second,DELTA_TS,spf,release_dfm,2024:Q2,0.0012817419907855793,0.01461349591839873
exact,pre_second,DELTA_TS,spf,release_dfm,2024:Q3,0.02201537053955554,0.03662886645795427
exact,pre_second,DELTA_TS,spf,release_dfm,2024:Q4,0.007982762018132021,0.04461162847608629
exact,pre_second,DELTA_TS,spf,revision_dfm_kalman_em,2024:Q1,0.0002335154302241238,0.0002335154302241238
exact,pre_second,DELTA_TS,spf,revision_dfm_kalman_em,2024:Q2,-8.597148019602813e-06,0.00022491828220452099
exact,pre_second,DELTA_TS,spf,revision_dfm_kalman_em,2024:Q3,-6.788971428188517e-06,0.00021812931077633247
exact,pre_second,DELTA_TS,spf,revision_dfm_kalman_em,2024:Q4,7.263532937609035e-05,0.0002907646401524228
exact,pre_second,DELTA_TS,spf,standard_dfm,2024:Q1,0.015995286578120094,0.015995286578120094
exact,pre_second,DELTA_TS,spf,standard_dfm,2024:Q2,0.0006023185456056411,0.016597605123725736
exact,pre_second,DELTA_TS,spf,standard_dfm,2024:Q3,0.02724546719771312,0.04384307232143886
exact,pre_second,DELTA_TS,spf,standard_dfm,2024:Q4,0.009524267571899102,0.05336733989333796
exact,pre_second,DELTA_TS,standard_dfm,ar,2024:Q1,0.0024668469197966832,0.0024668469197966832
exact,pre_second,DELTA_TS,standard_dfm,ar,2024:Q2,-0.0008066622194018542,0.001660184700394829
exact,pre_second,DELTA_TS,standard_dfm,ar,2024:Q3,0.0008496616901237479,0.002509846390518577
exact,pre_second,DELTA_TS,standard_dfm,ar,2024:Q4,0.0007618480090728004,0.0032716943995913777
exact,pre_second,DELTA_TS,standard_dfm,bridge,2024:Q1,-0.042621737038747026,-0.042621737038747026
exact,pre_second,DELTA_TS,standard_dfm,bridge,2024:Q2,-0.056226059889630996,-0.09884779692837803
exact,pre_second,DELTA_TS,standard_dfm,bridge,2024:Q3,-0.02621706831433389,-0.12506486524271193
exact,pre_second,DELTA_TS,standard_dfm,bridge,2024:Q4,0.0006081257898543867,-0.12445673945285754
exact,pre_second,DELTA_TS,standard_dfm,indicator_revision_only_dfm_kalman_em,2024:Q1,-0.015995286578120094,-0.015995286578120094
exact,pre_second,DELTA_TS,standard_dfm,indicator_revision_only_dfm_kalman_em,2024:Q2,-0.0006023185456056411,-0.016597605123725736
exact,pre_second,DELTA_TS,standard_dfm,indicator_revision_only_dfm_kalman_em,2024:Q3,-0.02724546719771312,-0.04384307232143886
exact,pre_second,DELTA_TS,standard_dfm,indicator_revision_only_dfm_kalman_em,2024:Q4,-0.009524267571899102,-0.05336733989333796
exact,pre_second,DELTA_TS,standard_dfm,joint_indicator_revision_dfm_full_kalman_em,2024:Q1,-0.015758865735251846,-0.015758865735251846
exact,pre_second,DELTA_TS,standard_dfm,joint_indicator_revision_dfm_full_kalman_em,2024:Q2,-0.0006135251598299099,-0.016372390895081756
exact,pre_second,DELTA_TS,standard_dfm,joint_indicator_revision_dfm_full_kalman_em,2024:Q3,-0.027263721458531773,-0.04363611235361353
exact,pre_second,DELTA_TS,standard_dfm,joint_indicator_revision_dfm_full_kalman_em,2024:Q4,-0.009436000344649078,-0.05307211269826261
exact,pre_second,DELTA_TS,standard_dfm,midas_umidas,2024:Q1,-0.06276066295245881,-0.06276066295245881
exact,pre_second,DELTA_TS,standard_dfm,midas_umidas,2024:Q2,0.000673302822429012,-0.0620873601300298
exact,pre_second,DELTA_TS,standard_dfm,midas_umidas,2024:Q3,-0.026503685350658023,-0.08859104548068783
exact,pre_second,DELTA_TS,standard_dfm,midas_umidas,2024:Q4,-0.756824346256935,-0.8454153917376228
exact,pre_second,DELTA_TS,standard_dfm,monthly_mixed_frequency_kalman_em,2024:Q1,0.007886454062424782,0.007886454062424782
exact,pre_second,DELTA_TS,standard_dfm,monthly_mixed_frequency_kalman_em,2024:Q2,-0.008002444099197294,-0.00011599003677251196
exact,pre_second,DELTA_TS,standard_dfm,monthly_mixed_frequency_kalman_em,2024:Q3,-0.052059871252077394,-0.052175861288849906
exact,pre_second,DELTA_TS,standard_dfm,monthly_mixed_frequency_kalman_em,2024:Q4,-0.0030211549765573062,-0.05519701626540721
exact,pre_second,DELTA_TS,standard_dfm,no_revision,2024:Q1,-0.015995286578120094,-0.015995286578120094
exact,pre_second,DELTA_TS,standard_dfm,no_revision,2024:Q2,-0.0006023185456056411,-0.016597605123725736
exact,pre_second,DELTA_TS,standard_dfm,no_revision,2024:Q3,-0.02724546719771312,-0.04384307232143886
exact,pre_second,DELTA_TS,standard_dfm,no_revision,2024:Q4,-0.009524267571899102,-0.05336733989333796
exact,pre_second,DELTA_TS,standard_dfm,release_dfm,2024:Q1,-0.002663532650506945,-0.002663532650506945
exact,pre_second,DELTA_TS,standard_dfm,release_dfm,2024:Q2,0.0006794234451799382,-0.0019841092053270067
exact,pre_second,DELTA_TS,standard_dfm,release_dfm,2024:Q3,-0.005230096658157581,-0.007214205863484587
exact,pre_second,DELTA_TS,standard_dfm,release_dfm,2024:Q4,-0.00154150555376708,-0.008755711417251667
exact,pre_second,DELTA_TS,standard_dfm,revision_dfm_kalman_em,2024:Q1,-0.01576177114789597,-0.01576177114789597
exact,pre_second,DELTA_TS,standard_dfm,revision_dfm_kalman_em,2024:Q2,-0.0006109156936252439,-0.016372686841521215
exact,pre_second,DELTA_TS,standard_dfm,revision_dfm_kalman_em,2024:Q3,-0.027252256169141308,-0.043624943010662526
exact,pre_second,DELTA_TS,standard_dfm,revision_dfm_kalman_em,2024:Q4,-0.009451632242523012,-0.053076575253185536
exact,pre_second,DELTA_TS,standard_dfm,spf,2024:Q1,-0.015995286578120094,-0.015995286578120094
exact,pre_second,DELTA_TS,standard_dfm,spf,2024:Q2,-0.0006023185456056411,-0.016597605123725736
exact,pre_second,DELTA_TS,standard_dfm,spf,2024:Q3,-0.02724546719771312,-0.04384307232143886
exact,pre_second,DELTA_TS,standard_dfm,spf,2024:Q4,-0.009524267571899102,-0.05336733989333796
exact,pre_second,DELTA_TS,release_dfm,ar,2024:Q1,0.005130379570303628,0.005130379570303628
exact,pre_second,DELTA_TS,release_dfm,ar,2024:Q2,-0.0014860856645817924,0.003644293905721836
exact,pre_second,DELTA_TS,release_dfm,ar,2024:Q3,0.0060797583482813285,0.009724052254003164
exact,pre_second,DELTA_TS,release_dfm,ar,2024:Q4,0.0023033535628398803,0.012027405816843044
exact,pre_second,DELTA_TS,release_dfm,bridge,2024:Q1,-0.03995820438824008,-0.03995820438824008
exact,pre_second,DELTA_TS,release_dfm,bridge,2024:Q2,-0.056905483334810936,-0.09686368772305101
exact,pre_second,DELTA_TS,release_dfm,bridge,2024:Q3,-0.020986971656176308,-0.11785065937922731
exact,pre_second,DELTA_TS,release_dfm,bridge,2024:Q4,0.0021496313436214667,-0.11570102803560585
exact,pre_second,DELTA_TS,release_dfm,indicator_revision_only_dfm_kalman_em,2024:Q1,-0.01333175392761315,-0.01333175392761315
exact,pre_second,DELTA_TS,release_dfm,indicator_revision_only_dfm_kalman_em,2024:Q2,-0.0012817419907855793,-0.01461349591839873
exact,pre_second,DELTA_TS,release_dfm,indicator_revision_only_dfm_kalman_em,2024:Q3,-0.02201537053955554,-0.03662886645795427
exact,pre_second,DELTA_TS,release_dfm,indicator_revision_only_dfm_kalman_em,2024:Q4,-0.007982762018132021,-0.04461162847608629
exact,pre_second,DELTA_TS,release_dfm,joint_indicator_revision_dfm_full_kalman_em,2024:Q1,-0.013095333084744901,-0.013095333084744901
exact,pre_second,DELTA_TS,release_dfm,joint_indicator_revision_dfm_full_kalman_em,2024:Q2,-0.0012929486050098481,-0.01438828168975475
exact,pre_second,DELTA_TS,release_dfm,joint_indicator_revision_dfm_full_kalman_em,2024:Q3,-0.022033624800374192,-0.03642190649012894
exact,pre_second,DELTA_TS,release_dfm,joint_indicator_revision_dfm_full_kalman_em,2024:Q4,-0.007894494790881997,-0.04431640128101094
exact,pre_second,DELTA_TS,release_dfm,midas_umidas,2024:Q1,-0.06009713030195187,-0.06009713030195187
exact,pre_second,DELTA_TS,release_dfm,midas_umidas,2024:Q2,-6.120622750926269e-06,-0.0601032509247028
exact,pre_second,DELTA_TS,release_dfm,midas_umidas,2024:Q3,-0.021273588692500442,-0.08137683961720324
exact,pre_second,DELTA_TS,release_dfm,midas_umidas,2024:Q4,-0.7552828407031679,-0.8366596803203711
exact,pre_second,DELTA_TS,release_dfm,monthly_mixed_frequency_kalman_em,2024:Q1,0.010549986712931725,0.010549986712931725
exact,pre_second,DELTA_TS,release_dfm,monthly_mixed_frequency_kalman_em,2024:Q2,-0.008681867544377232,0.001868119168554493
exact,pre_second,DELTA_TS,release_dfm,monthly_mixed_frequency_kalman_em,2024:Q3,-0.046829774593919814,-0.04496165542536532
exact,pre_second,DELTA_TS,release_dfm,monthly_mixed_frequency_kalman_em,2024:Q4,-0.0014796494227902264,-0.04644130484815555
exact,pre_second,DELTA_TS,release_dfm,no_revision,2024:Q1,-0.01333175392761315,-0.01333175392761315
exact,pre_second,DELTA_TS,release_dfm,no_revision,2024:Q2,-0.0012817419907855793,-0.01461349591839873
exact,pre_second,DELTA_TS,release_dfm,no_revision,2024:Q3,-0.02201537053955554,-0.03662886645795427
exact,pre_second,DELTA_TS,release_dfm,no_revision,2024:Q4,-0.007982762018132021,-0.04461162847608629
exact,pre_second,DELTA_TS,release_dfm,revision_dfm_kalman_em,2024:Q1,-0.013098238497389026,-0.013098238497389026
exact,pre_second,DELTA_TS,release_dfm,revision_dfm_kalman_em,2024:Q2,-0.0012903391388051821,-0.014388577636194208
exact,pre_second,DELTA_TS,release_dfm,revision_dfm_kalman_em,2024:Q3,-0.022022159510983727,-0.036410737147177935
exact,pre_second,DELTA_TS,release_dfm,revision_dfm_kalman_em,2024:Q4,-0.00791012668875593,-0.044320863835933866
exact,pre_second,DELTA_TS,release_dfm,spf,2024:Q1,-0.01333175392761315,-0.01333175392761315
exact,pre_second,DELTA_TS,release_dfm,spf,2024:Q2,-0.0012817419907855793,-0.01461349591839873
exact,pre_second,DELTA_TS,release_dfm,spf,2024:Q3,-0.02201537053955554,-0.03662886645795427
exact,pre_second,DELTA_TS,release_dfm,spf,2024:Q4,-0.007982762018132021,-0.04461162847608629
exact,pre_second,DELTA_TS,release_dfm,standard_dfm,2024:Q1,0.002663532650506945,0.002663532650506945
exact,pre_second,DELTA_TS,release_dfm,standard_dfm,2024:Q2,-0.0006794234451799382,0.0019841092053270067
exact,pre_second,DELTA_TS,release_dfm,standard_dfm,2024:Q3,0.005230096658157581,0.007214205863484587
exact,pre_second,DELTA_TS,release_dfm,standard_dfm,2024:Q4,0.00154150555376708,0.008755711417251667
exact,pre_third,DELTA_MT,ar,bridge,2024:Q1,-0.48301787446513433,-0.48301787446513433
exact,pre_third,DELTA_MT,ar,bridge,2024:Q2,0.475245847876551,-0.007772026588583336
exact,pre_third,DELTA_MT,ar,bridge,2024:Q3,-0.022672319416446415,-0.03044434600502975
exact,pre_third,DELTA_MT,ar,bridge,2024:Q4,1.8313179889313487,1.800873642926319
exact,pre_third,DELTA_MT,ar,indicator_revision_only_dfm_kalman_em,2024:Q1,0.11399225707455801,0.11399225707455801
exact,pre_third,DELTA_MT,ar,indicator_revision_only_dfm_kalman_em,2024:Q2,0.6913362605880267,0.8053285176625846
exact,pre_third,DELTA_MT,ar,indicator_revision_only_dfm_kalman_em,2024:Q3,0.006057198347105145,0.8113857160096898
exact,pre_third,DELTA_MT,ar,indicator_revision_only_dfm_kalman_em,2024:Q4,1.461722520818205,2.2731082368278948
exact,pre_third,DELTA_MT,ar,joint_indicator_revision_dfm_full_kalman_em,2024:Q1,0.13540696830844068,0.13540696830844068
exact,pre_third,DELTA_MT,ar,joint_indicator_revision_dfm_full_kalman_em,2024:Q2,0.6921254711459903,0.827532439454431
exact,pre_third,DELTA_MT,ar,joint_indicator_revision_dfm_full_kalman_em,2024:Q3,0.005497150730936449,0.8330295901853675
exact,pre_third,DELTA_MT,ar,joint_indicator_revision_dfm_full_kalman_em,2024:Q4,1.4109275450529042,2.2439571352382717
exact,pre_third,DELTA_MT,ar,midas_umidas,2024:Q1,-0.8311822437620849,-0.8311822437620849
exact,pre_third,DELTA_MT,ar,midas_umidas,2024:Q2,-2.299084164252194,-3.130266408014279
exact,pre_third,DELTA_MT,ar,midas_umidas,2024:Q3,-0.4327501238279084,-3.5630165318421874
exact,pre_third,DELTA_MT,ar,midas_umidas,2024:Q4,-13.866400620816101,-17.42941715265829
exact,pre_third,DELTA_MT,ar,monthly_mixed_frequency_kalman_em,2024:Q1,0.13781680250844033,0.13781680250844033
exact,pre_third,DELTA_MT,ar,monthly_mixed_frequency_kalman_em,2024:Q2,0.693084761006819,0.8309015635152593
exact,pre_third,DELTA_MT,ar,monthly_mixed_frequency_kalman_em,2024:Q3,0.008114372362825775,0.8390159358780851
exact,pre_third,DELTA_MT,ar,monthly_mixed_frequency_kalman_em,2024:Q4,1.3856945112004477,2.224710447078533
exact,pre_third,DELTA_MT,ar,no_revision,2024:Q1,0.11399225707455801,0.11399225707455801
exact,pre_third,DELTA_MT,ar,no_revision,2024:Q2,0.6913362605880267,0.8053285176625846
exact,pre_third,DELTA_MT,ar,no_revision,2024:Q3,0.006057198347105145,0.8113857160096898
exact,pre_third,DELTA_MT,ar,no_revision,2024:Q4,1.461722520818205,2.2731082368278948
exact,pre_third,DELTA_MT,ar,release_dfm,2024:Q1,0.12565169436747856,0.12565169436747856
exact,pre_third,DELTA_MT,ar,release_dfm,2024:Q2,0.6724792475751433,0.7981309419426219
exact,pre_third,DELTA_MT,ar,release_dfm,2024:Q3,-0.005209877199085536,0.7929210647435364
exact,pre_third,DELTA_MT,ar,release_dfm,2024:Q4,1.3062796294783399,2.099200694221876
exact,pre_third,DELTA_MT,ar,revision_dfm_kalman_em,2024:Q1,0.13580389185940964,0.13580389185940964
exact,pre_third,DELTA_MT,ar,revision_dfm_kalman_em,2024:Q2,0.6920458137526532,0.8278497056120628
exact,pre_third,DELTA_MT,ar,revision_dfm_kalman_em,2024:Q3,0.005697433733319522,0.8335471393453824
exact,pre_third,DELTA_MT,ar,revision_dfm_kalman_em,2024:Q4,1.4041760555018796,2.237723194847262
exact,pre_third,DELTA_MT,ar,spf,2024:Q1,0.11399225707455801,0.11399225707455801
exact,pre_third,DELTA_MT,ar,spf,2024:Q2,0.6913362605880267,0.8053285176625846
exact,pre_third,DELTA_MT,ar,spf,2024:Q3,0.006057198347105145,0.8113857160096898
exact,pre_third,DELTA_MT,ar,spf,2024:Q4,1.461722520818205,2.2731082368278948
exact,pre_third,DELTA_MT,ar,standard_dfm,2024:Q1,0.1283306931154459,0.1283306931154459
exact,pre_third,DELTA_MT,ar,standard_dfm,2024:Q2,0.6582873212737975,0.7866180143892434
exact,pre_third,DELTA_MT,ar,standard_dfm,2024:Q3,-0.016362333563773,0.7702556808254704
exact,pre_third,DELTA_MT,ar,standard_dfm,2024:Q4,1.2852475721687435,2.055503252994214
exact,pre_third,DELTA_MT,no_revision,ar,2024:Q1,-0.11399225707455801,-0.11399225707455801
exact,pre_third,DELTA_MT,no_revision,ar,2024:Q2,-0.6913362605880267,-0.8053285176625846
exact,pre_third,DELTA_MT,no_revision,ar,2024:Q3,-0.006057198347105145,-0.8113857160096898
exact,pre_third,DELTA_MT,no_revision,ar,2024:Q4,-1.461722520818205,-2.2731082368278948
exact,pre_third,DELTA_MT,no_revision,bridge,2024:Q1,-0.5970101315396923,-0.5970101315396923
exact,pre_third,DELTA_MT,no_revision,bridge,2024:Q2,-0.2160904127114756,-0.8131005442511678
exact,pre_third,DELTA_MT,no_revision,bridge,2024:Q3,-0.028729517763551562,-0.8418300620147194
exact,pre_third,DELTA_MT,no_revision,bridge,2024:Q4,0.36959546811314364,-0.4722345939015758
exact,pre_third,DELTA_MT,no_revision,indicator_revision_only_dfm_kalman_em,2024:Q1,0.0,0.0
exact,pre_third,DELTA_MT,no_revision,indicator_revision_only_dfm_kalman_em,2024:Q2,0.0,0.0
exact,pre_third,DELTA_MT,no_revision,indicator_revision_only_dfm_kalman_em,2024:Q3,0.0,0.0
exact,pre_third,DELTA_MT,no_revision,indicator_revision_only_dfm_kalman_em,2024:Q4,0.0,0.0
exact,pre_third,DELTA_MT,no_revision,joint_indicator_revision_dfm_full_kalman_em,2024:Q1,0.021414711233882666,0.021414711233882666
exact,pre_third,DELTA_MT,no_revision,joint_indicator_revision_dfm_full_kalman_em,2024:Q2,0.0007892105579637269,0.022203921791846392
exact,pre_third,DELTA_MT,no_revision,joint_indicator_revision_dfm_full_kalman_em,2024:Q3,-0.0005600476161686956,0.021643874175677695
exact,pre_third,DELTA_MT,no_revision,joint_indicator_revision_dfm_full_kalman_em,2024:Q4,-0.05079497576530084,-0.029151101589623148
exact,pre_third,DELTA_MT,no_revision,midas_umidas,2024:Q1,-0.945174500836643,-0.945174500836643
exact,pre_third,DELTA_MT,no_revision,midas_umidas,2024:Q2,-2.990420424840221,-3.935594925676864
exact,pre_third,DELTA_MT,no_revision,midas_umidas,2024:Q3,-0.43880732217501356,-4.374402247851878
exact,pre_third,DELTA_MT,no_revision,midas_umidas,2024:Q4,-15.328123141634306,-19.702525389486183
exact,pre_third,DELTA_MT,no_revision,monthly_mixed_frequency_kalman_em,2024:Q1,0.023824545433882318,0.023824545433882318
exact,pre_third,DELTA_MT,no_revision,monthly_mixed_frequency_kalman_em,2024:Q2,0.0017485004187923964,0.025573045852674715
exact,pre_third,DELTA_MT,no_revision,monthly_mixed_frequency_kalman_em,2024:Q3,0.0020571740157206307,0.027630219868395346
exact,pre_third,DELTA_MT,no_revision,monthly_mixed_frequency_kalman_em,2024:Q4,-0.07602800961775724,-0.048397789749361896
exact,pre_third,DELTA_MT,no_revision,release_dfm,2024:Q1,0.011659437292920537,0.011659437292920537
exact,pre_third,DELTA_MT,no_revision,release_dfm,2024:Q2,-0.01885701301288331,-0.007197575719962775
exact,pre_third,DELTA_MT,no_revision,release_dfm,2024:Q3,-0.011267075546190681,-0.018464651266153456
exact,pre_third,DELTA_MT,no_revision,release_dfm,2024:Q4,-0.1554428913398651,-0.17390754260601857
exact,pre_third,DELTA_MT,no_revision,revision_dfm_kalman_em,2024:Q1,0.021811634784851625,0.021811634784851625
exact,pre_third,DELTA_MT,no_revision,revision_dfm_kalman_em,2024:Q2,0.0007095531646265575,0.02252118794947818
exact,pre_third,DELTA_MT,no_revision,revision_dfm_kalman_em,2024:Q3,-0.000359764613785622,0.02216142333569256
exact,pre_third,DELTA_MT,no_revision,revision_dfm_kalman_em,2024:Q4,-0.05754646531632529,-0.035385041980632734
exact,pre_third,DELTA_MT,no_revision,spf,2024:Q1,0.0,0.0
exact,pre_third,DELTA_MT,no_revision,spf,2024:Q2,0.0,0.0
exact,pre_third,DELTA_MT,no_revision,spf,2024:Q3,0.0,0.0
exact,pre_third,DELTA_MT,no_revision,spf,2024:Q4,0.0,0.0
exact,pre_third,DELTA_MT,no_revision,standard_dfm,2024:Q1,0.014338436040887886,0.014338436040887886
exact,pre_third,DELTA_MT,no_revision,standard_dfm,2024:Q2,-0.03304893931422909,-0.0187105032733412
exact,pre_third,DELTA_MT,no_revision,standard_dfm,2024:Q3,-0.022419531910878143,-0.04113003518421934
exact,pre_third,DELTA_MT,no_revision,standard_dfm,2024:Q4,-0.17647494864946145,-0.2176049838336808
exact,pre_third,DELTA_MT,bridge,ar,2024:Q1,0.48301787446513433,0.48301787446513433
exact,pre_third,DELTA_MT,bridge,ar,2024:Q2,-0.475245847876551,0.007772026588583336
exact,pre_third,DELTA_MT,bridge,ar,2024:Q3,0.022672319416446415,0.03044434600502975
exact,pre_third,DELTA_MT,bridge,ar,2024:Q4,-1.8313179889313487,-1.800873642926319
exact,pre_third,DELTA_MT,bridge,indicator_revision_only_dfm_kalman_em,2024:Q1,0.5970101315396923,0.5970101315396923
exact,pre_third,DELTA_MT,bridge,indicator_revision_only_dfm_kalman_em,2024:Q2,0.2160904127114756,0.8131005442511678
exact,pre_third,DELTA_MT,bridge,indicator_revision_only_dfm_kalman_em,2024:Q3,0.028729517763551562,0.8418300620147194
exact,pre_third,DELTA_MT,bridge,indicator_revision_only_dfm_kalman_em,2024:Q4,-0.36959546811314364,0.4722345939015758
exact,pre_third,DELTA_MT,bridge,joint_indicator_revision_dfm_full_kalman_em,2024:Q1,0.618424842773575,0.618424842773575
exact,pre_third,DELTA_MT,bridge,joint_indicator_revision_dfm_full_kalman_em,2024:Q2,0.21687962326943935,0.8353044660430143
exact,pre_third,DELTA_MT,bridge,joint_indicator_revision_dfm_full_kalman_em,2024:Q3,0.028169470147382865,0.8634739361903973
exact,pre_third,DELTA_MT,bridge,joint_indicator_revision_dfm_full_kalman_em,2024:Q4,-0.4203904438784445,0.44308349231195276
exact,pre_third,DELTA_MT,bridge,midas_umidas,2024:Q1,-0.3481643692969506,-0.3481643692969506
exact,pre_third,DELTA_MT,bridge,midas_umidas,2024:Q2,-2.774330012128745,-3.1224943814256956
exact,pre_third,DELTA_MT,bridge,midas_umidas,2024:Q3,-0.41007780441146197,-3.5325721858371577
exact,pre_third,DELTA_MT,bridge,midas_umidas,2024:Q4,-15.697718609747449,-19.230290795584608
exact,pre_third,DELTA_MT,bridge,monthly_mixed_frequency_kalman_em,2024:Q1,0.6208346769735746,0.6208346769735746
exact,pre_third,DELTA_MT,bridge,monthly_mixed_frequency_kalman_em,2024:Q2,0.217838913130268,0.8386735901038427
exact,pre_third,DELTA_MT,bridge,monthly_mixed_frequency_kalman_em,2024:Q3,0.030786691779272193,0.8694602818831149
exact,pre_third,DELTA_MT,bridge,monthly_mixed_frequency_kalman_em,2024:Q4,-0.4456234777309009,0.423836804152214
exact,pre_third,DELTA_MT,bridge,no_revision,2024:Q1,0.5970101315396923,0.5970101315396923
exact,pre_third,DELTA_MT,bridge,no_revision,2024:Q2,0.2160904127114756,0.8131005442511678
exact,pre_third,DELTA_MT,bridge,no_revision,2024:Q3,0.028729517763551562,0.8418300620147194
exact,pre_third,DELTA_MT,bridge,no_revision,2024:Q4,-0.36959546811314364,0.4722345939015758
exact,pre_third,DELTA_MT,bridge,release_dfm,2024:Q1,0.6086695688326129,0.6086695688326129
exact,pre_third,DELTA_MT,bridge,release_dfm,2024:Q2,0.1972333996985923,0.8059029685312052
exact,pre_third,DELTA_MT,bridge,release_dfm,2024:Q3,0.01746244221736088,0.8233654107485662
exact,pre_third,DELTA_MT,bridge,release_dfm,2024:Q4,-0.5250383594530087,0.2983270512955575
exact,pre_third,DELTA_MT,bridge,revision_dfm_kalman_em,2024:Q1,0.618821766324544,0.618821766324544
exact,pre_third,DELTA_MT,bridge,revision_dfm_kalman_em,2024:Q2,0.21679996587610217,0.8356217322006462
exact,pre_third,DELTA_MT,bridge,revision_dfm_kalman_em,2024:Q3,0.02836975314976594,0.8639914853504121
exact,pre_third,DELTA_MT,bridge,revision_dfm_kalman_em,2024:Q4,-0.42714193342946893,0.4368495519209432
exact,pre_third,DELTA_MT,bridge,spf,2024:Q1,0.5970101315396923,0.5970101315396923
exact,pre_third,DELTA_MT,bridge,spf,2024:Q2,0.2160904127114756,0.8131005442511678
exact,pre_third,DELTA_MT,bridge,spf,2024:Q3,0.028729517763551562,0.8418300620147194
exact,pre_third,DELTA_MT,bridge,spf,2024:Q4,-0.36959546811314364,0.4722345939015758
exact,pre_third,DELTA_MT,bridge,standard_dfm,2024:Q1,0.6113485675805802,0.6113485675805802
exact,pre_third,DELTA_MT,bridge,standard_dfm,2024:Q2,0.18304147339724652,0.7943900409778267
exact,pre_third,DELTA_MT,bridge,standard_dfm,2024:Q3,0.006309985852673419,0.8007000268305001
exact,pre_third,DELTA_MT,bridge,standard_dfm,2024:Q4,-0.546070416762605,0.2546296100678951
exact,pre_third,DELTA_MT,midas_umidas,ar,2024:Q1,0.8311822437620849,0.8311822437620849
exact,pre_third,DELTA_MT,midas_umidas,ar,2024:Q2,2.299084164252194,3.130266408014279
exact,pre_third,DELTA_MT,midas_umidas,ar,2024:Q3,0.4327501238279084,3.5630165318421874
exact,pre_third,DELTA_MT,midas_umidas,ar,2024:Q4,13.866400620816101,17.42941715265829
exact,pre_third,DELTA_MT,midas_umidas,bridge,2024:Q1,0.3481643692969506,0.3481643692969506
exact,pre_third,DELTA_MT,midas_umidas,bridge,2024:Q2,2.774330012128745,3.1224943814256956
exact,pre_third,DELTA_MT,midas_umidas,bridge,2024:Q3,0.41007780441146197,3.5325721858371577
exact,pre_third,DELTA_MT,midas_umidas,bridge,2024:Q4,15.697718609747449,19.230290795584608
exact,pre_third,DELTA_MT,midas_umidas,indicator_revision_only_dfm_kalman_em,2024:Q1,0.945174500836643,0.945174500836643
exact,pre_third,DELTA_MT,midas_umidas,indicator_revision_only_dfm_kalman_em,2024:Q2,2.990420424840221,3.935594925676864
exact,pre_third,DELTA_MT,midas_umidas,indicator_revision_only_dfm_kalman_em,2024:Q3,0.43880732217501356,4.374402247851878
exact,pre_third,DELTA_MT,midas_umidas,indicator_revision_only_dfm_kalman_em,2024:Q4,15.328123141634306,19.702525389486183
exact,pre_third,DELTA_MT,midas_umidas,joint_indicator_revision_dfm_full_kalman_em,2024:Q1,0.9665892120705256,0.9665892120705256
exact,pre_third,DELTA_MT,midas_umidas,joint_indicator_revision_dfm_full_kalman_em,2024:Q2,2.9912096353981847,3.9577988474687102
exact,pre_third,DELTA_MT,midas_umidas,joint_indicator_revision_dfm_full_kalman_em,2024:Q3,0.4382472745588448,4.396046122027555
exact,pre_third,DELTA_MT,midas_umidas,joint_indicator_revision_dfm_full_kalman_em,2024:Q4,15.277328165869005,19.67337428789656
exact,pre_third,DELTA_MT,midas_umidas,monthly_mixed_frequency_kalman_em,2024:Q1,0.9689990462705252,0.9689990462705252
exact,pre_third,DELTA_MT,midas_umidas,monthly_mixed_frequency_kalman_em,2024:Q2,2.9921689252590133,3.9611679715295387
exact,pre_third,DELTA_MT,midas_umidas,monthly_mixed_frequency_kalman_em,2024:Q3,0.44086449619073415,4.4020324677202725
exact,pre_third,DELTA_MT,midas_umidas,monthly_mixed_frequency_kalman_em,2024:Q4,15.252095132016548,19.65412759973682
exact,pre_third,DELTA_MT,midas_umidas,no_revision,2024:Q1,0.945174500836643,0.945174500836643
exact,pre_third,DELTA_MT,midas_umidas,no_revision,2024:Q2,2.990420424840221,3.935594925676864
exact,pre_third,DELTA_MT,midas_umidas,no_revision,2024:Q3,0.43880732217501356,4.374402247851878
exact,pre_third,DELTA_MT,midas_umidas,no_revision,2024:Q4,15.328123141634306,19.702525389486183
exact,pre_third,DELTA_MT,midas_umidas,release_dfm,2024:Q1,0.9568339381295635,0.9568339381295635
exact,pre_third,DELTA_MT,midas_umidas,release_dfm,2024:Q2,2.9715634118273377,3.928397349956901
exact,pre_third,DELTA_MT,midas_umidas,release_dfm,2024:Q3,0.42754024662882284,4.355937596585724
exact,pre_third,DELTA_MT,midas_umidas,release_dfm,2024:Q4,15.172680250294441,19.528617846880167
exact,pre_third,DELTA_MT,midas_umidas,revision_dfm_kalman_em,2024:Q1,0.9669861356214946,0.9669861356214946
exact,pre_third,DELTA_MT,midas_umidas,revision_dfm_kalman_em,2024:Q2,2.9911299780048473,3.9581161136263416
exact,pre_third,DELTA_MT,midas_umidas,revision_dfm_kalman_em,2024:Q3,0.4384475575612279,4.39656367118757
exact,pre_third,DELTA_MT,midas_umidas,revision_dfm_kalman_em,2024:Q4,15.27057667631798,19.66714034750555
exact,pre_third,DELTA_MT,midas_umidas,spf,2024:Q1,0.945174500836643,0.945174500836643
exact,pre_third,DELTA_MT,midas_umidas,spf,2024:Q2,2.990420424840221,3.935594925676864
exact,pre_third,DELTA_MT,midas_umidas,spf,2024:Q3,0.43880732217501356,4.374402247851878
exact,pre_third,DELTA_MT,midas_umidas,spf,2024:Q4,15.328123141634306,19.702525389486183
exact,pre_third,DELTA_MT,midas_umidas,standard_dfm,2024:Q1,0.9595129368775308,0.9595129368775308
exact,pre_third,DELTA_MT,midas_umidas,standard_dfm,2024:Q2,2.957371485525992,3.916884422403523
exact,pre_third,DELTA_MT,midas_umidas,standard_dfm,2024:Q3,0.4163877902641354,4.333272212667659
exact,pre_third,DELTA_MT,midas_umidas,standard_dfm,2024:Q4,15.151648192984844,19.484920405652502
exact,pre_third,DELTA_MT,spf,ar,2024:Q1,-0.11399225707455801,-0.11399225707455801
exact,pre_third,DELTA_MT,spf,ar,2024:Q2,-0.6913362605880267,-0.8053285176625846
exact,pre_third,DELTA_MT,spf,ar,2024:Q3,-0.006057198347105145,-0.8113857160096898
exact,pre_third,DELTA_MT,spf,ar,2024:Q4,-1.461722520818205,-2.2731082368278948
exact,pre_third,DELTA_MT,spf,bridge,2024:Q1,-0.5970101315396923,-0.5970101315396923
exact,pre_third,DELTA_MT,spf,bridge,2024:Q2,-0.2160904127114756,-0.8131005442511678
exact,pre_third,DELTA_MT,spf,bridge,2024:Q3,-0.028729517763551562,-0.8418300620147194
exact,pre_third,DELTA_MT,spf,bridge,2024:Q4,0.36959546811314364,-0.4722345939015758
exact,pre_third,DELTA_MT,spf,indicator_revision_only_dfm_kalman_em,2024:Q1,0.0,0.0
exact,pre_third,DELTA_MT,spf,indicator_revision_only_dfm_kalman_em,2024:Q2,0.0,0.0
exact,pre_third,DELTA_MT,spf,indicator_revision_only_dfm_kalman_em,2024:Q3,0.0,0.0
exact,pre_third,DELTA_MT,spf,indicator_revision_only_dfm_kalman_em,2024:Q4,0.0,0.0
exact,pre_third,DELTA_MT,spf,joint_indicator_revision_dfm_full_kalman_em,2024:Q1,0.021414711233882666,0.021414711233882666
exact,pre_third,DELTA_MT,spf,joint_indicator_revision_dfm_full_kalman_em,2024:Q2,0.0007892105579637269,0.022203921791846392
exact,pre_third,DELTA_MT,spf,joint_indicator_revision_dfm_full_kalman_em,2024:Q3,-0.0005600476161686956,0.021643874175677695
exact,pre_third,DELTA_MT,spf,joint_indicator_revision_dfm_full_kalman_em,2024:Q4,-0.05079497576530084,-0.029151101589623148
exact,pre_third,DELTA_MT,spf,midas_umidas,2024:Q1,-0.945174500836643,-0.945174500836643
exact,pre_third,DELTA_MT,spf,midas_umidas,2024:Q2,-2.990420424840221,-3.935594925676864
exact,pre_third,DELTA_MT,spf,midas_umidas,2024:Q3,-0.43880732217501356,-4.374402247851878
exact,pre_third,DELTA_MT,spf,midas_umidas,2024:Q4,-15.328123141634306,-19.702525389486183
exact,pre_third,DELTA_MT,spf,monthly_mixed_frequency_kalman_em,2024:Q1,0.023824545433882318,0.023824545433882318
exact,pre_third,DELTA_MT,spf,monthly_mixed_frequency_kalman_em,2024:Q2,0.0017485004187923964,0.025573045852674715
exact,pre_third,DELTA_MT,spf,monthly_mixed_frequency_kalman_em,2024:Q3,0.0020571740157206307,0.027630219868395346
exact,pre_third,DELTA_MT,spf,monthly_mixed_frequency_kalman_em,2024:Q4,-0.07602800961775724,-0.048397789749361896
exact,pre_third,DELTA_MT,spf,no_revision,2024:Q1,0.0,0.0
exact,pre_third,DELTA_MT,spf,no_revision,2024:Q2,0.0,0.0
exact,pre_third,DELTA_MT,spf,no_revision,2024:Q3,0.0,0.0
exact,pre_third,DELTA_MT,spf,no_revision,2024:Q4,0.0,0.0
exact,pre_third,DELTA_MT,spf,release_dfm,2024:Q1,0.011659437292920537,0.011659437292920537
exact,pre_third,DELTA_MT,spf,release_dfm,2024:Q2,-0.01885701301288331,-0.007197575719962775
exact,pre_third,DELTA_MT,spf,release_dfm,2024:Q3,-0.011267075546190681,-0.018464651266153456
exact,pre_third,DELTA_MT,spf,release_dfm,2024:Q4,-0.1554428913398651,-0.17390754260601857
exact,pre_third,DELTA_MT,spf,revision_dfm_kalman_em,2024:Q1,0.021811634784851625,0.021811634784851625
exact,pre_third,DELTA_MT,spf,revision_dfm_kalman_em,2024:Q2,0.0007095531646265575,0.02252118794947818
exact,pre_third,DELTA_MT,spf,revision_dfm_kalman_em,2024:Q3,-0.000359764613785622,0.02216142333569256
exact,pre_third,DELTA_MT,spf,revision_dfm_kalman_em,2024:Q4,-0.05754646531632529,-0.035385041980632734
exact,pre_third,DELTA_MT,spf,standard_dfm,2024:Q1,0.014338436040887886,0.014338436040887886
exact,pre_third,DELTA_MT,spf,standard_dfm,2024:Q2,-0.03304893931422909,-0.0187105032733412
exact,pre_third,DELTA_MT,spf,standard_dfm,2024:Q3,-0.022419531910878143,-0.04113003518421934
exact,pre_third,DELTA_MT,spf,standard_dfm,2024:Q4,-0.17647494864946145,-0.2176049838336808
exact,pre_third,DELTA_MT,standard_dfm,ar,2024:Q1,-0.1283306931154459,-0.1283306931154459
exact,pre_third,DELTA_MT,standard_dfm,ar,2024:Q2,-0.6582873212737975,-0.7866180143892434
exact,pre_third,DELTA_MT,standard_dfm,ar,2024:Q3,0.016362333563773,-0.7702556808254704
exact,pre_third,DELTA_MT,standard_dfm,ar,2024:Q4,-1.2852475721687435,-2.055503252994214
exact,pre_third,DELTA_MT,standard_dfm,bridge,2024:Q1,-0.6113485675805802,-0.6113485675805802
exact,pre_third,DELTA_MT,standard_dfm,bridge,2024:Q2,-0.18304147339724652,-0.7943900409778267
exact,pre_third,DELTA_MT,standard_dfm,bridge,2024:Q3,-0.006309985852673419,-0.8007000268305001
exact,pre_third,DELTA_MT,standard_dfm,bridge,2024:Q4,0.546070416762605,-0.2546296100678951
exact,pre_third,DELTA_MT,standard_dfm,indicator_revision_only_dfm_kalman_em,2024:Q1,-0.014338436040887886,-0.014338436040887886
exact,pre_third,DELTA_MT,standard_dfm,indicator_revision_only_dfm_kalman_em,2024:Q2,0.03304893931422909,0.0187105032733412
exact,pre_third,DELTA_MT,standard_dfm,indicator_revision_only_dfm_kalman_em,2024:Q3,0.022419531910878143,0.04113003518421934
exact,pre_third,DELTA_MT,standard_dfm,indicator_revision_only_dfm_kalman_em,2024:Q4,0.17647494864946145,0.2176049838336808
exact,pre_third,DELTA_MT,standard_dfm,joint_indicator_revision_dfm_full_kalman_em,2024:Q1,0.00707627519299478,0.00707627519299478
exact,pre_third,DELTA_MT,standard_dfm,joint_indicator_revision_dfm_full_kalman_em,2024:Q2,0.033838149872192816,0.040914425065187596
exact,pre_third,DELTA_MT,standard_dfm,joint_indicator_revision_dfm_full_kalman_em,2024:Q3,0.021859484294709446,0.06277390935989705
exact,pre_third,DELTA_MT,standard_dfm,joint_indicator_revision_dfm_full_kalman_em,2024:Q4,0.1256799728841606,0.18845388224405765
exact,pre_third,DELTA_MT,standard_dfm,midas_umidas,2024:Q1,-0.9595129368775308,-0.9595129368775308
exact,pre_third,DELTA_MT,standard_dfm,midas_umidas,2024:Q2,-2.957371485525992,-3.916884422403523
exact,pre_third,DELTA_MT,standard_dfm,midas_umidas,2024:Q3,-0.4163877902641354,-4.333272212667659
exact,pre_third,DELTA_MT,standard_dfm,midas_umidas,2024:Q4,-15.151648192984844,-19.484920405652502
exact,pre_third,DELTA_MT,standard_dfm,monthly_mixed_frequency_kalman_em,2024:Q1,0.009486109392994432,0.009486109392994432
exact,pre_third,DELTA_MT,standard_dfm,monthly_mixed_frequency_kalman_em,2024:Q2,0.03479743973302148,0.04428354912601591
exact,pre_third,DELTA_MT,standard_dfm,monthly_mixed_frequency_kalman_em,2024:Q3,0.024476705926598775,0.06876025505261468
exact,pre_third,DELTA_MT,standard_dfm,monthly_mixed_frequency_kalman_em,2024:Q4,0.10044693903170421,0.1692071940843189
exact,pre_third,DELTA_MT,standard_dfm,no_revision,2024:Q1,-0.014338436040887886,-0.014338436040887886
exact,pre_third,DELTA_MT,standard_dfm,no_revision,2024:Q2,0.03304893931422909,0.0187105032733412
exact,pre_third,DELTA_MT,standard_dfm,no_revision,2024:Q3,0.022419531910878143,0.04113003518421934
exact,pre_third,DELTA_MT,standard_dfm,no_revision,2024:Q4,0.17647494864946145,0.2176049838336808
exact,pre_third,DELTA_MT,standard_dfm,release_dfm,2024:Q1,-0.0026789987479673497,-0.0026789987479673497
exact,pre_third,DELTA_MT,standard_dfm,release_dfm,2024:Q2,0.014191926301345779,0.011512927553378429
exact,pre_third,DELTA_MT,standard_dfm,release_dfm,2024:Q3,0.011152456364687462,0.02266538391806589
exact,pre_third,DELTA_MT,standard_dfm,release_dfm,2024:Q4,0.02103205730959634,0.04369744122766223
exact,pre_third,DELTA_MT,standard_dfm,revision_dfm_kalman_em,2024:Q1,0.007473198743963738,0.007473198743963738
exact,pre_third,DELTA_MT,standard_dfm,revision_dfm_kalman_em,2024:Q2,0.033758492478855644,0.04123169122281938
exact,pre_third,DELTA_MT,standard_dfm,revision_dfm_kalman_em,2024:Q3,0.02205976729709252,0.0632914585199119
exact,pre_third,DELTA_MT,standard_dfm,revision_dfm_kalman_em,2024:Q4,0.11892848333313616,0.18221994185304807
exact,pre_third,DELTA_MT,standard_dfm,spf,2024:Q1,-0.014338436040887886,-0.014338436040887886
exact,pre_third,DELTA_MT,standard_dfm,spf,2024:Q2,0.03304893931422909,0.0187105032733412
exact,pre_third,DELTA_MT,standard_dfm,spf,2024:Q3,0.022419531910878143,0.04113003518421934
exact,pre_third,DELTA_MT,standard_dfm,spf,2024:Q4,0.17647494864946145,0.2176049838336808
exact,pre_third,DELTA_MT,release_dfm,ar,2024:Q1,-0.12565169436747856,-0.12565169436747856
exact,pre_third,DELTA_MT,release_dfm,ar,2024:Q2,-0.6724792475751433,-0.7981309419426219
exact,pre_third,DELTA_MT,release_dfm,ar,2024:Q3,0.005209877199085536,-0.7929210647435364
exact,pre_third,DELTA_MT,release_dfm,ar,2024:Q4,-1.3062796294783399,-2.099200694221876
exact,pre_third,DELTA_MT,release_dfm,bridge,2024:Q1,-0.6086695688326129,-0.6086695688326129
exact,pre_third,DELTA_MT,release_dfm,bridge,2024:Q2,-0.1972333996985923,-0.8059029685312052
exact,pre_third,DELTA_MT,release_dfm,bridge,2024:Q3,-0.01746244221736088,-0.8233654107485662
exact,pre_third,DELTA_MT,release_dfm,bridge,2024:Q4,0.5250383594530087,-0.2983270512955575
exact,pre_third,DELTA_MT,release_dfm,indicator_revision_only_dfm_kalman_em,2024:Q1,-0.011659437292920537,-0.011659437292920537
exact,pre_third,DELTA_MT,release_dfm,indicator_revision_only_dfm_kalman_em,2024:Q2,0.01885701301288331,0.007197575719962775
exact,pre_third,DELTA_MT,release_dfm,indicator_revision_only_dfm_kalman_em,2024:Q3,0.011267075546190681,0.018464651266153456
exact,pre_third,DELTA_MT,release_dfm,indicator_revision_only_dfm_kalman_em,2024:Q4,0.1554428913398651,0.17390754260601857
exact,pre_third,DELTA_MT,release_dfm,joint_indicator_revision_dfm_full_kalman_em,2024:Q1,0.00975527394096213,0.00975527394096213
exact,pre_third,DELTA_MT,release_dfm,joint_indicator_revision_dfm_full_kalman_em,2024:Q2,0.019646223570847037,0.029401497511809167
exact,pre_third,DELTA_MT,release_dfm,joint_indicator_revision_dfm_full_kalman_em,2024:Q3,0.010707027930021984,0.04010852544183115
exact,pre_third,DELTA_MT,release_dfm,joint_indicator_revision_dfm_full_kalman_em,2024:Q4,0.10464791557456427,0.1447564410163954
exact,pre_third,DELTA_MT,release_dfm,midas_umidas,2024:Q1,-0.9568339381295635,-0.9568339381295635
exact,pre_third,DELTA_MT,release_dfm,midas_umidas,2024:Q2,-2.9715634118273377,-3.928397349956901
exact,pre_third,DELTA_MT,release_dfm,midas_umidas,2024:Q3,-0.42754024662882284,-4.355937596585724
exact,pre_third,DELTA_MT,release_dfm,midas_umidas,2024:Q4,-15.172680250294441,-19.528617846880167
exact,pre_third,DELTA_MT,release_dfm,monthly_mixed_frequency_kalman_em,2024:Q1,0.012165108140961781,0.012165108140961781
exact,pre_third,DELTA_MT,release_dfm,monthly_mixed_frequency_kalman_em,2024:Q2,0.020605513431675708,0.03277062157263749
exact,pre_third,DELTA_MT,release_dfm,monthly_mixed_frequency_kalman_em,2024:Q3,0.01332424956191131,0.046094871134548805
exact,pre_third,DELTA_MT,release_dfm,monthly_mixed_frequency_kalman_em,2024:Q4,0.07941488172210787,0.12550975285665666
exact,pre_third,DELTA_MT,release_dfm,no_revision,2024:Q1,-0.011659437292920537,-0.011659437292920537
exact,pre_third,DELTA_MT,release_dfm,no_revision,2024:Q2,0.01885701301288331,0.007197575719962775
exact,pre_third,DELTA_MT,release_dfm,no_revision,2024:Q3,0.011267075546190681,0.018464651266153456
exact,pre_third,DELTA_MT,release_dfm,no_revision,2024:Q4,0.1554428913398651,0.17390754260601857
exact,pre_third,DELTA_MT,release_dfm,revision_dfm_kalman_em,2024:Q1,0.010152197491931088,0.010152197491931088
exact,pre_third,DELTA_MT,release_dfm,revision_dfm_kalman_em,2024:Q2,0.01956656617750987,0.029718763669440956
exact,pre_third,DELTA_MT,release_dfm,revision_dfm_kalman_em,2024:Q3,0.01090731093240506,0.040626074601846016
exact,pre_third,DELTA_MT,release_dfm,revision_dfm_kalman_em,2024:Q4,0.09789642602353982,0.13852250062538585
exact,pre_third,DELTA_MT,release_dfm,spf,2024:Q1,-0.011659437292920537,-0.011659437292920537
exact,pre_third,DELTA_MT,release_dfm,spf,2024:Q2,0.01885701301288331,0.007197575719962775
exact,pre_third,DELTA_MT,release_dfm,spf,2024:Q3,0.011267075546190681,0.018464651266153456
exact,pre_third,DELTA_MT,release_dfm,spf,2024:Q4,0.1554428913398651,0.17390754260601857
exact,pre_third,DELTA_MT,release_dfm,standard_dfm,2024:Q1,0.0026789987479673497,0.0026789987479673497
exact,pre_third,DELTA_MT,release_dfm,standard_dfm,2024:Q2,-0.014191926301345779,-0.011512927553378429
exact,pre_third,DELTA_MT,release_dfm,standard_dfm,2024:Q3,-0.011152456364687462,-0.02266538391806589
exact,pre_third,DELTA_MT,release_dfm,standard_dfm,2024:Q4,-0.02103205730959634,-0.04369744122766223
pseudo,pre_advance,DELTA_SA,ar,bridge,2024:Q1,0.08483666595244514,0.08483666595244514
pseudo,pre_advance,DELTA_SA,ar,bridge,2024:Q2,-0.05427654395419356,0.03056012199825158
pseudo,pre_advance,DELTA_SA,ar,bridge,2024:Q3,0.0022378713501126956,0.03279799334836428
pseudo,pre_advance,DELTA_SA,ar,bridge,2024:Q4,-0.000239577243006402,0.032558416105357875
pseudo,pre_advance,DELTA_SA,ar,indicator_revision_only_dfm_kalman_em,2024:Q1,0.07155817897030346,0.07155817897030346
pseudo,pre_advance,DELTA_SA,ar,indicator_revision_only_dfm_kalman_em,2024:Q2,-0.009033581491366181,0.06252459747893728
pseudo,pre_advance,DELTA_SA,ar,indicator_revision_only_dfm_kalman_em,2024:Q3,0.00727617350536104,0.06980077098429832
pseudo,pre_advance,DELTA_SA,ar,indicator_revision_only_dfm_kalman_em,2024:Q4,-0.008788760628669104,0.06101201035562922
pseudo,pre_advance,DELTA_SA,ar,joint_indicator_revision_dfm_full_kalman_em,2024:Q1,-0.032148861419739494,-0.032148861419739494
pseudo,pre_advance,DELTA_SA,ar,joint_indicator_revision_dfm_full_kalman_em,2024:Q2,-0.0394856081351823,-0.0716344695549218
pseudo,pre_advance,DELTA_SA,ar,joint_indicator_revision_dfm_full_kalman_em,2024:Q3,-0.0067881159822717595,-0.07842258553719356
pseudo,pre_advance,DELTA_SA,ar,joint_indicator_revision_dfm_full_kalman_em,2024:Q4,-0.0012218913454636743,-0.07964447688265723
pseudo,pre_advance,DELTA_SA,ar,midas_umidas,2024:Q1,0.18690612493005315,0.18690612493005315
pseudo,pre_advance,DELTA_SA,ar,midas_umidas,2024:Q2,0.0021276311396446488,0.1890337560696978
pseudo,pre_advance,DELTA_SA,ar,midas_umidas,2024:Q3,-0.198853160128316,-0.009819404058618197
pseudo,pre_advance,DELTA_SA,ar,midas_umidas,2024:Q4,-1.6462374130599873,-1.6560568171186054
pseudo,pre_advance,DELTA_SA,ar,monthly_mixed_frequency_kalman_em,2024:Q1,0.009712221575589847,0.009712221575589847
pseudo,pre_advance,DELTA_SA,ar,monthly_mixed_frequency_kalman_em,2024:Q2,-0.0057130784495017135,0.003999143126088133
pseudo,pre_advance,DELTA_SA,ar,monthly_mixed_frequency_kalman_em,2024:Q3,0.006470374114094669,0.010469517240182802
pseudo,pre_advance,DELTA_SA,ar,monthly_mixed_frequency_kalman_em,2024:Q4,-0.003505922199983656,0.006963595040199146
pseudo,pre_advance,DELTA_SA,ar,no_revision,2024:Q1,0.07155817897030346,0.07155817897030346
pseudo,pre_advance,DELTA_SA,ar,no_revision,2024:Q2,-0.009033581491366181,0.06252459747893728
pseudo,pre_advance,DELTA_SA,ar,no_revision,2024:Q3,0.00727617350536104,0.06980077098429832
pseudo,pre_advance,DELTA_SA,ar,no_revision,2024:Q4,-0.008788760628669104,0.06101201035562922
pseudo,pre_advance,DELTA_SA,ar,release_dfm,2024:Q1,-0.0017825895612019194,-0.0017825895612019194
pseudo,pre_advance,DELTA_SA,ar,release_dfm,2024:Q2,0.003008646082712135,0.0012260565215102158
pseudo,pre_advance,DELTA_SA,ar,release_dfm,2024:Q3,0.0003456828551621832,0.001571739376672399
pseudo,pre_advance,DELTA_SA,ar,release_dfm,2024:Q4,2.563535762145483e-05,0.0015973747342938537
pseudo,pre_advance,DELTA_SA,ar,revision_dfm_kalman_em,2024:Q1,-0.0325694134081001,-0.0325694134081001
pseudo,pre_advance,DELTA_SA,ar,revision_dfm_kalman_em,2024:Q2,-0.049723797571991975,-0.08229321098009207
pseudo,pre_advance,DELTA_SA,ar,revision_dfm_kalman_em,2024:Q3,0.00011857332138219545,-0.08217463765870987
pseudo,pre_advance,DELTA_SA,ar,revision_dfm_kalman_em,2024:Q4,-0.00039631932305151605,-0.0825709569817614
pseudo,pre_advance,DELTA_SA,ar,spf,2024:Q1,0.07155817897030346,0.07155817897030346
pseudo,pre_advance,DELTA_SA,ar,spf,2024:Q2,-0.009033581491366181,0.06252459747893728
pseudo,pre_advance,DELTA_SA,ar,spf,2024:Q3,0.00727617350536104,0.06980077098429832
pseudo,pre_advance,DELTA_SA,ar,spf,2024:Q4,-0.008788760628669104,0.06101201035562922
pseudo,pre_advance,DELTA_SA,ar,standard_dfm,2024:Q1,-0.0017825895612019194,-0.0017825895612019194
pseudo,pre_advance,DELTA_SA,ar,standard_dfm,2024:Q2,0.003008646082712135,0.0012260565215102158
pseudo,pre_advance,DELTA_SA,ar,standard_dfm,2024:Q3,0.0003456828551621832,0.001571739376672399
pseudo,pre_advance,DELTA_SA,ar,standard_dfm,2024:Q4,2.563535762145483e-05,0.0015973747342938537
pseudo,pre_advance,DELTA_SA,no_revision,ar,2024:Q1,-0.07155817897030346,-0.07155817897030346
pseudo,pre_advance,DELTA_SA,no_revision,ar,2024:Q2,0.009033581491366181,-0.06252459747893728
pseudo,pre_advance,DELTA_SA,no_revision,ar,2024:Q3,-0.00727617350536104,-0.06980077098429832
pseudo,pre_advance,DELTA_SA,no_revision,ar,2024:Q4,0.008788760628669104,-0.06101201035562922
pseudo,pre_advance,DELTA_SA,no_revision,bridge,2024:Q1,0.01327848698214168,0.01327848698214168
pseudo,pre_advance,DELTA_SA,no_revision,bridge,2024:Q2,-0.04524296246282738,-0.0319644754806857
pseudo,pre_advance,DELTA_SA,no_revision,bridge,2024:Q3,-0.005038302155248344,-0.03700277763593404
pseudo,pre_advance,DELTA_SA,no_revision,bridge,2024:Q4,0.008549183385662703,-0.028453594250271337
pseudo,pre_advance,DELTA_SA,no_revision,indicator_revision_only_dfm_kalman_em,2024:Q1,0.0,0.0
pseudo,pre_advance,DELTA_SA,no_revision,indicator_revision_only_dfm_kalman_em,2024:Q2,0.0,0.0
pseudo,pre_advance,DELTA_SA,no_revision,indicator_revision_only_dfm_kalman_em,2024:Q3,0.0,0.0
pseudo,pre_advance,DELTA_SA,no_revision,indicator_revision_only_dfm_kalman_em,2024:Q4,0.0,0.0
pseudo,pre_advance,DELTA_SA,no_revision,joint_indicator_revision_dfm_full_kalman_em,2024:Q1,-0.10370704039004296,-0.10370704039004296
pseudo,pre_advance,DELTA_SA,no_revision,joint_indicator_revision_dfm_full_kalman_em,2024:Q2,-0.03045202664381612,-0.13415906703385908
pseudo,pre_advance,DELTA_SA,no_revision,joint_indicator_revision_dfm_full_kalman_em,2024:Q3,-0.0140642894876328,-0.14822335652149188
pseudo,pre_advance,DELTA_SA,no_revision,joint_indicator_revision_dfm_full_kalman_em,2024:Q4,0.00756686928320543,-0.14065648723828644
pseudo,pre_advance,DELTA_SA,no_revision,midas_umidas,2024:Q1,0.11534794595974969,0.11534794595974969
pseudo,pre_advance,DELTA_SA,no_revision,midas_umidas,2024:Q2,0.011161212631010829,0.1265091585907605
pseudo,pre_advance,DELTA_SA,no_revision,midas_umidas,2024:Q3,-0.20612933363367703,-0.07962017504291652
pseudo,pre_advance,DELTA_SA,no_revision,midas_umidas,2024:Q4,-1.6374486524313183,-1.7170688274742347
pseudo,pre_advance,DELTA_SA,no_revision,monthly_mixed_frequency_kalman_em,2024:Q1,-0.061845957394713616,-0.061845957394713616
pseudo,pre_advance,DELTA_SA,no_revision,monthly_mixed_frequency_kalman_em,2024:Q2,0.0033205030418644674,-0.05852545435284915
pseudo,pre_advance,DELTA_SA,no_revision,monthly_mixed_frequency_kalman_em,2024:Q3,-0.0008057993912663706,-0.05933125374411552
pseudo,pre_advance,DELTA_SA,no_revision,monthly_mixed_frequency_kalman_em,2024:Q4,0.005282838428685449,-0.05404841531543007
pseudo,pre_advance,DELTA_SA,no_revision,release_dfm,2024:Q1,-0.07334076853150538,-0.07334076853150538
pseudo,pre_advance,DELTA_SA,no_revision,release_dfm,2024:Q2,0.012042227574078315,-0.06129854095742707
pseudo,pre_advance,DELTA_SA,no_revision,release_dfm,2024:Q3,-0.006930490650198857,-0.06822903160762592
pseudo,pre_advance,DELTA_SA,no_revision,release_dfm,2024:Q4,0.008814395986290559,-0.05941463562133536
pseudo,pre_advance,DELTA_SA,no_revision,revision_dfm_kalman_em,2024:Q1,-0.10412759237840356,-0.10412759237840356
pseudo,pre_advance,DELTA_SA,no_revision,revision_dfm_kalman_em,2024:Q2,-0.04069021608062579,-0.14481780845902936
pseudo,pre_advance,DELTA_SA,no_revision,revision_dfm_kalman_em,2024:Q3,-0.007157600183978844,-0.1519754086430082
pseudo,pre_advance,DELTA_SA,no_revision,revision_dfm_kalman_em,2024:Q4,0.008392441305617589,-0.14358296733739062
pseudo,pre_advance,DELTA_SA,no_revision,spf,2024:Q1,0.0,0.0
pseudo,pre_advance,DELTA_SA,no_revision,spf,2024:Q2,0.0,0.0
pseudo,pre_advance,DELTA_SA,no_revision,spf,2024:Q3,0.0,0.0
pseudo,pre_advance,DELTA_SA,no_revision,spf,2024:Q4,0.0,0.0
pseudo,pre_advance,DELTA_SA,no_revision,standard_dfm,2024:Q1,-0.07334076853150538,-0.07334076853150538
pseudo,pre_advance,DELTA_SA,no_revision,standard_dfm,2024:Q2,0.012042227574078315,-0.06129854095742707
pseudo,pre_advance,DELTA_SA,no_revision,standard_dfm,2024:Q3,-0.006930490650198857,-0.06822903160762592
pseudo,pre_advance,DELTA_SA,no_revision,standard_dfm,2024:Q4,0.008814395986290559,-0.05941463562133536
pseudo,pre_advance,DELTA_SA,bridge,ar,2024:Q1,-0.08483666595244514,-0.08483666595244514
pseudo,pre_advance,DELTA_SA,bridge,ar,2024:Q2,0.05427654395419356,-0.03056012199825158
pseudo,pre_advance,DELTA_SA,bridge,ar,2024:Q3,-0.0022378713501126956,-0.03279799334836428
pseudo,pre_advance,DELTA_SA,bridge,ar,2024:Q4,0.000239577243006402,-0.032558416105357875
pseudo,pre_advance,DELTA_SA,bridge,indicator_revision_only_dfm_kalman_em,2024:Q1,-0.01327848698214168,-0.01327848698214168
pseudo,pre_advance,DELTA_SA,bridge,indicator_revision_only_dfm_kalman_em,2024:Q2,0.04524296246282738,0.0319644754806857
pseudo,pre_advance,DELTA_SA,bridge,indicator_revision_only_dfm_kalman_em,2024:Q3,0.005038302155248344,0.03700277763593404
pseudo,pre_advance,DELTA_SA,bridge,indicator_revision_only_dfm_kalman_em,2024:Q4,-0.008549183385662703,0.028453594250271337
pseudo,pre_advance,DELTA_SA,bridge,joint_indicator_revision_dfm_full_kalman_em,2024:Q1,-0.11698552737218464,-0.11698552737218464
pseudo,pre_advance,DELTA_SA,bridge,joint_indicator_revision_dfm_full_kalman_em,2024:Q2,0.01479093581901126,-0.10219459155317337
pseudo,pre_advance,DELTA_SA,bridge,joint_indicator_revision_dfm_full_kalman_em,2024:Q3,-0.009025987332384456,-0.11122057888555782
pseudo,pre_advance,DELTA_SA,bridge,joint_indicator_revision_dfm_full_kalman_em,2024:Q4,-0.0009823141024572722,-0.1122028929880151
pseudo,pre_advance,DELTA_SA,bridge,midas_umidas,2024:Q1,0.10206945897760801,0.10206945897760801
pseudo,pre_advance,DELTA_SA,bridge,midas_umidas,2024:Q2,0.05640417509383821,0.1584736340714462
pseudo,pre_advance,DELTA_SA,bridge,midas_umidas,2024:Q3,-0.2010910314784287,-0.04261739740698248
pseudo,pre_advance,DELTA_SA,bridge,midas_umidas,2024:Q4,-1.645997835816981,-1.6886152332239635
pseudo,pre_advance,DELTA_SA,bridge,monthly_mixed_frequency_kalman_em,2024:Q1,-0.0751244443768553,-0.0751244443768553
pseudo,pre_advance,DELTA_SA,bridge,monthly_mixed_frequency_kalman_em,2024:Q2,0.048563465504691844,-0.02656097887216345
pseudo,pre_advance,DELTA_SA,bridge,monthly_mixed_frequency_kalman_em,2024:Q3,0.004232502763981973,-0.022328476108181478
pseudo,pre_advance,DELTA_SA,bridge,monthly_mixed_frequency_kalman_em,2024:Q4,-0.0032663449569772535,-0.02559482106515873
pseudo,pre_advance,DELTA_SA,bridge,no_revision,2024:Q1,-0.01327848698214168,-0.01327848698214168
pseudo,pre_advance,DELTA_SA,bridge,no_revision,2024:Q2,0.04524296246282738,0.0319644754806857
pseudo,pre_advance,DELTA_SA,bridge,no_revision,2024:Q3,0.005038302155248344,0.03700277763593404
pseudo,pre_advance,DELTA_SA,bridge,no_revision,2024:Q4,-0.008549183385662703,0.028453594250271337
pseudo,pre_advance,DELTA_SA,bridge,release_dfm,2024:Q1,-0.08661925551364706,-0.08661925551364706
pseudo,pre_advance,DELTA_SA,bridge,release_dfm,2024:Q2,0.057285190036905694,-0.029334065476741368
pseudo,pre_advance,DELTA_SA,bridge,release_dfm,2024:Q3,-0.0018921884949505124,-0.031226253971691882
pseudo,pre_advance,DELTA_SA,bridge,release_dfm,2024:Q4,0.0002652126006278568,-0.030961041371064025
pseudo,pre_advance,DELTA_SA,bridge,revision_dfm_kalman_em,2024:Q1,-0.11740607936054524,-0.11740607936054524
pseudo,pre_advance,DELTA_SA,bridge,revision_dfm_kalman_em,2024:Q2,0.004552746382201586,-0.11285333297834366
pseudo,pre_advance,DELTA_SA,bridge,revision_dfm_kalman_em,2024:Q3,-0.0021192980287305,-0.11497263100707415
pseudo,pre_advance,DELTA_SA,bridge,revision_dfm_kalman_em,2024:Q4,-0.00015674208004511406,-0.11512937308711926
pseudo,pre_advance,DELTA_SA,bridge,spf,2024:Q1,-0.01327848698214168,-0.01327848698214168
pseudo,pre_advance,DELTA_SA,bridge,spf,2024:Q2,0.04524296246282738,0.0319644754806857
pseudo,pre_advance,DELTA_SA,bridge,spf,2024:Q3,0.005038302155248344,0.03700277763593404
pseudo,pre_advance,DELTA_SA,bridge,spf,2024:Q4,-0.008549183385662703,0.028453594250271337
pseudo,pre_advance,DELTA_SA,bridge,standard_dfm,2024:Q1,-0.08661925551364706,-0.08661925551364706
pseudo,pre_advance,DELTA_SA,bridge,standard_dfm,2024:Q2,0.057285190036905694,-0.029334065476741368
pseudo,pre_advance,DELTA_SA,bridge,standard_dfm,2024:Q3,-0.0018921884949505124,-0.031226253971691882
pseudo,pre_advance,DELTA_SA,bridge,standard_dfm,2024:Q4,0.0002652126006278568,-0.030961041371064025
pseudo,pre_advance,DELTA_SA,midas_umidas,ar,2024:Q1,-0.18690612493005315,-0.18690612493005315
pseudo,pre_advance,DELTA_SA,midas_umidas,ar,2024:Q2,-0.0021276311396446488,-0.1890337560696978
pseudo,pre_advance,DELTA_SA,midas_umidas,ar,2024:Q3,0.198853160128316,0.009819404058618197
pseudo,pre_advance,DELTA_SA,midas_umidas,ar,2024:Q4,1.6462374130599873,1.6560568171186054
pseudo,pre_advance,DELTA_SA,midas_umidas,bridge,2024:Q1,-0.10206945897760801,-0.10206945897760801
pseudo,pre_advance,DELTA_SA,midas_umidas,bridge,2024:Q2,-0.05640417509383821,-0.1584736340714462
pseudo,pre_advance,DELTA_SA,midas_umidas,bridge,2024:Q3,0.2010910314784287,0.04261739740698248
pseudo,pre_advance,DELTA_SA,midas_umidas,bridge,2024:Q4,1.645997835816981,1.6886152332239635
pseudo,pre_advance,DELTA_SA,midas_umidas,indicator_revision_only_dfm_kalman_em,2024:Q1,-0.11534794595974969,-0.11534794595974969
pseudo,pre_advance,DELTA_SA,midas_umidas,indicator_revision_only_dfm_kalman_em,2024:Q2,-0.011161212631010829,-0.1265091585907605
pseudo,pre_advance,DELTA_SA,midas_umidas,indicator_revision_only_dfm_kalman_em,2024:Q3,0.20612933363367703,0.07962017504291652
pseudo,pre_advance,DELTA_SA,midas_umidas,indicator_revision_only_dfm_kalman_em,2024:Q4,1.6374486524313183,1.7170688274742347
pseudo,pre_advance,DELTA_SA,midas_umidas,joint_indicator_revision_dfm_full_kalman_em,2024:Q1,-0.21905498634979265,-0.21905498634979265
pseudo,pre_advance,DELTA_SA,midas_umidas,joint_indicator_revision_dfm_full_kalman_em,2024:Q2,-0.04161323927482695,-0.2606682256246196
pseudo,pre_advance,DELTA_SA,midas_umidas,joint_indicator_revision_dfm_full_kalman_em,2024:Q3,0.19206504414604425,-0.06860318147857536
pseudo,pre_advance,DELTA_SA,midas_umidas,joint_indicator_revision_dfm_full_kalman_em,2024:Q4,1.6450155217145237,1.5764123402359482
pseudo,pre_advance,DELTA_SA,midas_umidas,monthly_mixed_frequency_kalman_em,2024:Q1,-0.1771939033544633,-0.1771939033544633
pseudo,pre_advance,DELTA_SA,midas_umidas,monthly_mixed_frequency_kalman_em,2024:Q2,-0.007840709589146361,-0.18503461294360968
