haminh109/Revision-Aware-DFM/outputs/full_state_space_release_revision_dfm/exact_pseudo_backtest_mature_1y_max_iter2_journal_evidence/density_point_records.csv
model_id,timing_mode,checkpoint_id,outcome_id,forecast_origin,forecast_origin_date,target_quarter,forecast_value,realized_value,forecast_error,calibration_n,predictive_variance,predictive_sd,log_score,crps,pit,prob_below_zero,prob_large_positive_revision_gt_0p2,prob_large_negative_revision_lt_minus_0p2,realized_below_zero,realized_large_positive_revision_gt_0p2,realized_large_negative_revision_lt_minus_0p2,lower_68,upper_68,covered_68,lower_90,upper_90,covered_90,density_method
indicator_revision_only_dfm_kalman_em,exact,pre_advance,A,2024:Q1:pre_advance:exact,2024-04-24,2024:Q1,2.587359385365094,1.5897,0.997659385365094,0,8.593375490542263,2.9314459726459674,-2.0523466387978333,0.8192260637747033,0.366803965190581,0.18872020646378557,0.7922910828991914,0.17084078441927622,False,True,False,-0.3440865872808736,5.518805358011061,True,-2.234440154953912,7.4091589256841,True,model_implied_state_space
indicator_revision_only_dfm_kalman_em,exact,pre_advance,A,2024:Q2:pre_advance:exact,2024-07-24,2024:Q2,2.9792425591046836,2.8401,0.1391425591046835,1,9.10724661260589,3.0178215011173024,-2.0245366726759126,0.707808663882006,0.48161250144667506,0.1617683077356674,0.8214599906002726,0.14605840557000704,False,True,False,-0.0385789420126188,5.997064060221986,True,-1.984632082500248,7.943117200709615,True,model_implied_state_space
indicator_revision_only_dfm_kalman_em,exact,pre_advance,A,2024:Q3:pre_advance:exact,2024-10-29,2024:Q3,2.2794269358768826,2.8248,-0.5453730641231176,2,8.513973621498533,2.917871419630847,-2.007260189367696,0.7224399039519682,0.574133556596887,0.21734386950707035,0.7619694406579987,0.19773531547271037,False,True,False,-0.6384444837539642,5.19729835550773,True,-2.520044451680957,7.078898323434722,True,model_implied_state_space
indicator_revision_only_dfm_kalman_em,exact,pre_advance,A,2024:Q4:pre_advance:exact,2025-01-29,2024:Q4,2.6109324011383075,2.2512,0.3597324011383076,3,9.017534274153387,3.002920957027239,-2.025699321209238,0.7189389700739136,0.4523231031413866,0.19229662843106546,0.7889728718724783,0.17461958713782672,False,True,False,-0.39198855588893133,5.613853358165546,True,-2.3284330264765325,7.5502978287531475,True,model_implied_state_space
indicator_revision_only_dfm_kalman_em,exact,pre_second,S,2024:Q1:pre_second:exact,2024-05-29,2024:Q1,1.8623468785648865,1.2492,0.6131468785648864,0,5.183541799242359,2.276739291012996,-1.7779465445410272,0.5975430411513747,0.3938458695179792,0.20668183668862747,0.7673488279051166,0.1825119749835425,False,True,False,-0.41439241244810954,4.139086169577882,True,-1.8825560018807634,5.607249759010537,True,model_implied_state_space
indicator_revision_only_dfm_kalman_em,exact,pre_second,S,2024:Q2:pre_second:exact,2024-08-28,2024:Q2,2.8569685728200778,2.9514,-0.0944314271799222,1,4.48123004170314,2.11689159894954,-1.6698822795905954,0.4963871788058411,0.5177903291636887,0.0885712773891851,0.8952837358894239,0.07435772158749128,False,True,False,0.7400769738705377,4.973860171769617,True,-0.6250082515751743,6.33894539721533,True,model_implied_state_space
indicator_revision_only_dfm_kalman_em,exact,pre_second,S,2024:Q3:pre_second:exact,2024-11-26,2024:Q3,2.671979155649436,2.8336,-0.1616208443505642,2,4.459027615767284,2.1116409770051545,-1.6693329278097209,0.4984124547767631,0.5305044711701633,0.10287173655731821,0.8791289831350801,0.08690391580489792,False,True,False,0.5603381786442814,4.78362013265459,True,-0.8013611641968428,6.145319475495715,True,model_implied_state_space
indicator_revision_only_dfm_kalman_em,exact,pre_second,S,2024:Q4:pre_second:exact,2025-02-26,2024:Q4,2.3822070537108058,2.3451,0.0371070537108058,3,4.431998291448397,2.105231172923391,-1.6635191551985966,0.49224287384025356,0.49296856025914393,0.1289085668251728,0.8500304739777946,0.10999269207067036,False,True,False,0.27697588078741475,4.487438226634197,True,-1.080590076643536,5.845004184065147,True,model_implied_state_space
indicator_revision_only_dfm_kalman_em,exact,pre_third,T,2024:Q1:pre_third:exact,2024-06-26,2024:Q1,1.6325229187385342,1.4095,0.2230229187385342,0,3.868172784474708,1.9667670895341696,-1.6017589483102719,0.4697019789742056,0.4548584267556478,0.20325412249965752,0.7668046921429048,0.17573448859420637,False,True,False,-0.3342441707956354,3.5992900082727037,True,-1.6025210618505354,4.867566899327604,True,model_implied_state_space
indicator_revision_only_dfm_kalman_em,exact,pre_third,T,2024:Q2:pre_third:exact,2024-09-25,2024:Q2,2.887167005294256,2.9895,-0.102332994705744,1,3.848797914633837,1.9618353434052096,-1.5941793981912902,0.4606000892987413,0.5208001414542973,0.0705555030639767,0.9146129895973071,0.05778862597669407,False,True,False,0.9253316618890464,4.849002348699465,True,-0.3397649747873901,6.114098985375902,True,model_implied_state_space
indicator_revision_only_dfm_kalman_em,exact,pre_third,T,2024:Q3:pre_third:exact,2024-12-18,2024:Q3,2.7370321646982356,3.073,-0.3359678353017643,2,3.8300395810881542,1.957048691547595,-1.6051115093119257,0.4803054297395498,0.5681517723183012,0.08097385285420156,0.9025735990920266,0.06671069012087232,False,True,False,0.7799834731506405,4.694080856245831,True,-0.48202647371445906,5.95609080311093,True,model_implied_state_space
indicator_revision_only_dfm_kalman_em,exact,pre_third,T,2024:Q4:pre_third:exact,2025-03-26,2024:Q4,2.3684387305138994,2.4495,-0.0810612694861006,3,4.431179153999446,2.105036615833427,-1.6640128374180292,0.49318163944087323,0.5153587718091636,0.13026708760504427,0.8485229840598538,0.1112059618231078,False,True,False,0.26340211468047237,4.4734753463473265,True,-1.0940383819053658,5.830915842933164,True,model_implied_state_space
indicator_revision_only_dfm_kalman_em,pseudo,pre_advance,A,2024:Q1:pre_advance:pseudo,2024-04-30,2024:Q1,2.5923540221053,1.5897,1.0026540221053002,0,8.593309778822483,2.9314347645517347,-2.052924573182688,0.8205576875338483,0.3661621823807528,0.18825920403179008,0.7927795142827713,0.17040769126121671,False,True,False,-0.3390807424464346,5.523788786657034,True,-2.2294270825392557,7.414135126749856,True,model_implied_state_space
indicator_revision_only_dfm_kalman_em,pseudo,pre_advance,A,2024:Q2:pre_advance:pseudo,2024-07-31,2024:Q2,2.876198288963758,2.8401,0.0360982889637577,1,9.106366302290676,3.0176756456403124,-2.0234969625973283,0.7053879097487168,0.49522785350107584,0.17026536907052797,0.8124177272056783,0.15400814644285293,False,True,False,-0.1414773566765546,5.89387393460407,True,-2.0874364417308358,7.839833019658352,True,model_implied_state_space
indicator_revision_only_dfm_kalman_em,pseudo,pre_advance,A,2024:Q3:pre_advance:pseudo,2024-10-31,2024:Q3,2.293853937402453,2.8248,-0.5309460625975473,2,8.51408783857479,2.9178909915510536,-2.0063547588474497,0.7203331447997974,0.5721938313611372,0.21589443130180055,0.7634954172421048,0.19636502963481528,False,True,False,-0.6240370541486007,5.2117449289535065,True,-2.505649643099325,7.093357517904231,True,model_implied_state_space
indicator_revision_only_dfm_kalman_em,pseudo,pre_advance,A,2024:Q4:pre_advance:pseudo,2025-01-31,2024:Q4,2.6170058304547883,2.2512,0.3658058304547884,3,9.017524395235712,3.0029193121420548,-2.0259431114020794,0.7195225848988639,0.4515220794445445,0.1917440879830859,0.7895570850629128,0.17409931526489772,False,True,False,-0.38591348168726647,5.619925142596843,True,-2.3223568915646906,7.556368552474267,True,model_implied_state_space
indicator_revision_only_dfm_kalman_em,pseudo,pre_second,S,2024:Q1:pre_second:pseudo,2024-05-31,2024:Q1,1.8622056876702944,1.2492,0.6130056876702941,0,5.183492101880642,2.2767283768338817,-1.7779253991168869,0.5975108279356133,0.3938692322400711,0.2066984231545365,0.767330945716962,0.18252724054878955,False,True,False,-0.41452268916358737,4.138934064504176,True,-1.8826792405482542,5.607090615888843,True,model_implied_state_space
indicator_revision_only_dfm_kalman_em,pseudo,pre_second,S,2024:Q2:pre_second:pseudo,2024-08-31,2024:Q2,2.857102811830697,2.9514,-0.0942971881693028,1,4.481231443138759,2.1168919299621223,-1.6698796088854764,0.49638248298018117,0.5177650532770985,0.08856113584006896,0.8952952080424762,0.07434883598099867,False,True,False,0.7402108818685749,4.973994741792819,True,-0.6248745570318017,6.3390801806931965,True,model_implied_state_space
indicator_revision_only_dfm_kalman_em,pseudo,pre_second,S,2024:Q3:pre_second:pseudo,2024-11-30,2024:Q3,2.6745544147704123,2.8336,-0.1590455852295877,2,4.458965738712948,2.1116263255398544,-1.6692334301521436,0.4982531993981079,0.5300195480767789,0.10265184366684392,0.8793756464974689,0.0867096386607018,False,True,False,0.5629280892305579,4.786180740310266,True,-0.7987618055600274,6.147870635100852,True,model_implied_state_space
indicator_revision_only_dfm_kalman_em,pseudo,pre_second,S,2024:Q4:pre_second:pseudo,2025-02-28,2024:Q4,2.3841773560088684,2.3451,0.0390773560088684,3,4.4320271433914975,2.1052380253528336,-1.6635393434087595,0.4922729179402393,0.49259527229113526,0.12871261199352094,0.8502477671943411,0.1098175678876001,False,True,False,0.2789393306560348,4.489415381361702,True,-1.0786310455888954,5.846985757606632,True,model_implied_state_space
indicator_revision_only_dfm_kalman_em,pseudo,pre_third,T,2024:Q1:pre_third:pseudo,2024-06-30,2024:Q1,1.6368140265614626,1.4095,0.2273140265614626,0,3.867808696380415,1.9666745273126447,-1.6019623005454133,0.4700719648221564,0.4539915415535958,0.20262687149485692,0.7674822816976867,0.17515981287189905,False,True,False,-0.3298605007511821,3.603488553874107,True,-1.5980777027218132,4.871705755844738,True,model_implied_state_space
indicator_revision_only_dfm_kalman_em,pseudo,pre_third,T,2024:Q2:pre_third:pseudo,2024-09-30,2024:Q2,2.8868229120962066,2.9895,-0.1026770879037934,1,3.8485874904813655,1.9617817132600064,-1.5941613002149826,0.46060195318895014,0.520870587908941,0.07057376408374272,0.9145914475734087,0.0578039391500774,False,True,False,0.9250411988362002,4.848604625356213,True,-0.3400208542465881,6.113666678439001,True,model_implied_state_space
indicator_revision_only_dfm_kalman_em,pseudo,pre_third,T,2024:Q3:pre_third:pseudo,2024-12-31,2024:Q3,2.7375008940413696,3.073,-0.3354991059586303,2,3.830034395422962,1.957047366678426,-1.6050697643742562,0.4802412902055983,0.5680576636775224,0.08093778309265887,0.9026149825842416,0.06667957842382795,False,True,False,0.7804535273629436,4.694548260719795,True,-0.48155556515546705,5.956557353238207,True,model_implied_state_space
indicator_revision_only_dfm_kalman_em,pseudo,pre_third,T,2024:Q4:pre_third:pseudo,2025-03-31,2024:Q4,2.367873576327033,2.4495,-0.0816264236729669,3,4.431176081583809,2.105035886056057,-1.664022865881215,0.4931988899683833,0.5154658041075258,0.13032388930567249,0.8484600516220738,0.11125676931573045,False,True,False,0.26283769027097614,4.47290946238309,True,-1.0946023357152783,5.830349488369345,True,model_implied_state_space
joint_indicator_revision_dfm_full_kalman_em,exact,pre_advance,A,2024:Q1:pre_advance:exact,2024-04-24,2024:Q1,2.4624492667134312,1.5897,0.8727492667134313,0,12.55712933220252,3.543604003299821,-2.2144118595776803,0.9134435327530027,0.40272941728615264,0.2435590885050973,0.738412844508059,0.22622421485008154,False,True,False,-1.0811547365863898,6.006053270013252,True,-3.366260630594036,8.291159164020899,True,model_implied_state_space
joint_indicator_revision_dfm_full_kalman_em,exact,pre_advance,A,2024:Q2:pre_advance:exact,2024-07-24,2024:Q2,3.104437669502913,2.8401,0.2643376695029129,1,13.178836864579068,3.630266775951744,-2.210895678763609,0.8560504549673822,0.47097668973959295,0.19623290983504535,0.7881624957932354,0.18134625998413847,False,True,False,-0.525829106448831,6.734704445454657,True,-2.866819803722741,9.075695142728566,True,model_implied_state_space
joint_indicator_revision_dfm_full_kalman_em,exact,pre_advance,A,2024:Q3:pre_advance:exact,2024-10-29,2024:Q3,2.155743290048993,2.8248,-0.6690567099510072,2,12.438260122929476,3.5267917606415997,-2.197321493994485,0.8746778232374306,0.5752305907748633,0.2705178103782688,0.7103949608845925,0.25208069732741556,False,True,False,-1.3710484705926067,5.682535050690593,True,-3.645312928944911,7.956799509042897,True,model_implied_state_space
joint_indicator_revision_dfm_full_kalman_em,exact,pre_advance,A,2024:Q4:pre_advance:exact,2025-01-29,2024:Q4,2.5544052638674755,2.2512,0.3032052638674756,3,13.049761642802206,3.6124453826739313,-2.206845885600508,0.854357101656775,0.46655464345740655,0.23974828615536584,0.7427182321001478,0.22288778619651128,False,True,False,-1.0580401188064559,6.166850646541407,True,-3.3875386259878395,8.49634915372279,True,model_implied_state_space
joint_indicator_revision_dfm_full_kalman_em,exact,pre_second,S,2024:Q1:pre_second:exact,2024-05-29,2024:Q1,2.0597984915653544,1.2492,0.8105984915653544,0,5.930710973037091,2.4353051088184188,-1.8644061266801661,0.6757743471257193,0.3696226430016362,0.19883016598803846,0.7774715924261929,0.1767213206578933,False,True,False,-0.37550661725306433,4.495103600383773,True,-1.9459219494080715,6.06551893253878,True,model_implied_state_space
joint_indicator_revision_dfm_full_kalman_em,exact,pre_second,S,2024:Q2:pre_second:exact,2024-08-28,2024:Q2,2.830459186604515,2.9514,-0.1209408133954852,1,5.422561711490547,2.3286394550231573,-1.7655713926597985,0.5466966227882911,0.5207102571799593,0.1120878938877052,0.8706801342123466,0.09656315220178216,False,True,False,0.5018197315813575,5.159098641627672,True,-0.999811866852625,6.660730240061655,True,model_implied_state_space
joint_indicator_revision_dfm_full_kalman_em,exact,pre_second,S,2024:Q3:pre_second:exact,2024-11-26,2024:Q3,2.6460345254815585,2.8336,-0.1875654745184416,2,5.397474615413413,2.323246567933204,-1.765163129659554,0.5489689377346586,0.5321733347147821,0.1273644421992503,0.8537955592740135,0.11028294938731956,False,True,False,0.3227879575483543,4.969281093414763,True,-1.1753660180859322,6.467435069049049,True,model_implied_state_space
joint_indicator_revision_dfm_full_kalman_em,exact,pre_second,S,2024:Q4:pre_second:exact,2025-02-26,2024:Q4,2.493898486208415,2.3451,0.148798486208415,3,5.371815017206123,2.3177176310340575,-1.7615823030230626,0.5454487274566585,0.4744053144697645,0.1409603174614375,0.838845239221609,0.12255547449347393,False,True,False,0.17618085517435755,4.8116161172424725,True,-1.3184077654473283,6.306204737864158,True,model_implied_state_space
joint_indicator_revision_dfm_full_kalman_em,exact,pre_third,T,2024:Q1:pre_third:exact,2024-06-26,2024:Q1,1.7181044871598377,1.4095,0.3086044871598377,0,4.321366291945225,2.078789621858168,-1.661743629507115,0.5040461622978502,0.4409922711224074,0.2042623232623579,0.7673913568871961,0.17808111803457585,False,True,False,-0.3606851346983304,3.7968941090180057,True,-1.7012001620226496,5.137409136342325,True,model_implied_state_space
joint_indicator_revision_dfm_full_kalman_em,exact,pre_third,T,2024:Q2:pre_third:exact,2024-09-25,2024:Q2,2.8792799106960763,2.9895,-0.1102200893039238,1,4.302280284470761,2.074193887868432,-1.6499229874907297,0.4870647322678535,0.5211893251108455,0.08254659218757267,0.9017731178590067,0.06882927405740272,False,True,False,0.8050860228276444,4.953473798564508,True,-0.5324654287648891,6.291025250157041,True,model_implied_state_space
joint_indicator_revision_dfm_full_kalman_em,exact,pre_third,T,2024:Q3:pre_third:exact,2024-12-18,2024:Q3,2.7346621767415953,3.073,-0.3383378232584046,2,4.282273448883406,2.0693654701099575,-1.6595464112221086,0.5056198453791544,0.5649369607420212,0.0931676968169045,0.8896841180697588,0.07807408503423027,False,True,False,0.6652967066316378,4.804027646851553,True,-0.6691411222569066,6.138465475740097,True,model_implied_state_space
joint_indicator_revision_dfm_full_kalman_em,exact,pre_third,T,2024:Q4:pre_third:exact,2025-03-26,2024:Q4,2.4155194407110017,2.4495,-0.0339805592889983,3,4.792028652129484,2.189070271172098,-1.7025359322620666,0.5117851548245009,0.5061924633458048,0.1349169030428994,0.8442506658057369,0.11608095842397699,False,True,False,0.22644916953890348,4.6045897118831,True,-1.1851807344780667,6.01621961590007,True,model_implied_state_space
joint_indicator_revision_dfm_full_kalman_em,pseudo,pre_advance,A,2024:Q1:pre_advance:pseudo,2024-04-30,2024:Q1,2.468321316928628,1.5897,0.8786213169286279,0,12.557040278161615,3.5435914378158233,-2.2148180255175873,0.914587020666677,0.4020878762970959,0.24303933953294052,0.7389524829986761,0.22572521440971582,False,True,False,-1.075270120887195,6.0119127547444515,True,-3.3603679119969114,8.297010545854167,True,model_implied_state_space
joint_indicator_revision_dfm_full_kalman_em,pseudo,pre_advance,A,2024:Q2:pre_advance:pseudo,2024-07-31,2024:Q2,2.9824656106235645,2.8401,0.1423656106235644,1,13.177677692313022,3.6301071185728144,-2.2089697168091904,0.8505649283990238,0.4843582837273519,0.2056546783791855,0.7783096322847314,0.19032849267137472,False,True,False,-0.6476415079492499,6.612572729196379,True,-2.988529249583287,8.953460470830416,True,model_implied_state_space
joint_indicator_revision_dfm_full_kalman_em,pseudo,pre_advance,A,2024:Q3:pre_advance:pseudo,2024-10-31,2024:Q3,2.172116742712327,2.8248,-0.6526832572876731,2,12.438406734535995,3.526812545987665,-2.1964572309446813,0.8722486236360495,0.5734102720711287,0.26898466856071424,0.7119799502352697,0.25060246846283624,False,True,False,-1.3546958032753378,5.698929288699992,True,-3.628973665133439,7.9732071505580935,True,model_implied_state_space
joint_indicator_revision_dfm_full_kalman_em,pseudo,pre_advance,A,2024:Q4:pre_advance:pseudo,2025-01-31,2024:Q4,2.561498685988175,2.2512,0.3102986859881751,3,13.049746773284753,3.612443324577529,-2.2070120603856864,0.8548366476999968,0.4657740775660406,0.23913850116181942,0.7433514159516279,0.2223023326528708,False,True,False,-1.0509446385893542,6.173942010565704,True,-3.3804418185998077,8.503439190576158,True,model_implied_state_space
joint_indicator_revision_dfm_full_kalman_em,pseudo,pre_second,S,2024:Q1:pre_second:pseudo,2024-05-31,2024:Q1,2.05928177820538,1.2492,0.81008177820538,0,5.930671073811212,2.4352969169715655,-1.8643325341853338,0.6756380904615936,0.3697023079508687,0.1988885694275899,0.7774091168970463,0.17677555033487913,False,True,False,-0.3760151387661854,4.494578695176946,True,-1.9464251883790378,6.064988744789797,True,model_implied_state_space
joint_indicator_revision_dfm_full_kalman_em,pseudo,pre_second,S,2024:Q2:pre_second:pseudo,2024-08-31,2024:Q2,2.830622752013414,2.9514,-0.1207772479865854,1,5.422563039789151,2.3286397402322994,-1.765567869233937,0.5466899187482492,0.520682270355898,0.11207453600362888,0.8706949096650609,0.0965511646382057,False,True,False,0.5019830117811148,5.1592624922457135,True,-0.9996487705710173,6.660894274597846,True,model_implied_state_space
joint_indicator_revision_dfm_full_kalman_em,pseudo,pre_second,S,2024:Q3:pre_second:pseudo,2024-11-30,2024:Q3,2.6490254969112255,2.8336,-0.1845745030887746,2,5.3974197867572595,2.3232347678952423,-1.765054973254198,0.5487752819661362,0.5316615374557452,0.127094930744789,0.8540916512987125,0.11003944366079575,False,True,False,0.32579072901598316,4.972260264806468,True,-1.1723556373210253,6.470406631143476,True,model_implied_state_space
joint_indicator_revision_dfm_full_kalman_em,pseudo,pre_second,S,2024:Q4:pre_second:pseudo,2025-02-28,2024:Q4,2.4962184047767675,2.3451,0.1511184047767675,3,5.371841001479462,2.3177232366008376,-1.7616494736635435,0.5455697075904267,0.4740068910884171,0.14073719539855356,0.839089222351965,0.12235294356766804,False,True,False,0.17849516817592992,4.813941641377605,True,-1.3160970672158254,6.30853387676936,True,model_implied_state_space
joint_indicator_revision_dfm_full_kalman_em,pseudo,pre_third,T,2024:Q1:pre_third:pseudo,2024-06-30,2024:Q1,1.7227363088142575,1.4095,0.3132363088142575,0,4.321091122849758,2.078723435873507,-1.6620457707474736,0.5045819893022646,0.44011136925940464,0.20362372444774915,0.7680787558581511,0.17749332229130585,False,True,False,-0.3559871270592496,3.8014597446877647,True,-1.6964594741113066,5.141932091739822,True,model_implied_state_space
joint_indicator_revision_dfm_full_kalman_em,pseudo,pre_third,T,2024:Q2:pre_third:pseudo,2024-09-30,2024:Q2,2.8790224719195603,2.9895,-0.1104775280804397,1,4.302108565379069,2.0741524932798625,-1.6499096899820322,0.48706602801428245,0.5212391933177875,0.08256126955648087,0.9017560829220341,0.06884179811212023,False,True,False,0.8048699786396978,4.953174965199423,True,-0.5326547795022605,6.2906997233413815,True,model_implied_state_space
joint_indicator_revision_dfm_full_kalman_em,pseudo,pre_third,T,2024:Q3:pre_third:pseudo,2024-12-31,2024:Q3,2.7351665281520177,3.073,-0.3378334718479823,2,4.282269204943096,2.06936444468902,-1.6595061103418636,0.5055541628668678,0.5648410503069037,0.09312698833213412,0.8897301484712864,0.07803841788317134,False,True,False,0.6658020834629976,4.804530972841038,True,-0.6686350841791362,6.138968140483172,True,model_implied_state_space
joint_indicator_revision_dfm_full_kalman_em,pseudo,pre_third,T,2024:Q4:pre_third:pseudo,2025-03-31,2024:Q4,2.414924803013529,2.4495,-0.0345751969864709,3,4.79202577564115,2.18906961416058,-1.7025398857093637,0.5117924303259862,0.5063008203864485,0.134975793029235,0.8441857948359877,0.1161339744743773,False,True,False,0.22585518885294897,4.603994417174109,True,-1.185774291487761,6.0156238975148195,True,model_implied_state_space
monthly_mixed_frequency_kalman_em,exact,pre_advance,A,2024:Q1:pre_advance:exact,2024-04-24,2024:Q1,1.9404727815787433,1.5897,0.3507727815787433,0,14.11294142805226,3.7567195035099785,-2.246843811651029,0.8909833075074608,0.4628039781214877,0.30274080233018336,0.6784238615327627,0.284416246944782,False,True,False,-1.8162467219312353,5.697192285088722,True,-4.238780919208979,8.119726482366465,True,model_implied_state_space
monthly_mixed_frequency_kalman_em,exact,pre_advance,A,2024:Q2:pre_advance:exact,2024-07-24,2024:Q2,2.608613227164695,2.8401,-0.2314867728353049,1,14.98829690395272,3.8714721881931067,-2.274360977190521,0.9102638317388627,0.5238397327629554,0.2502179837288057,0.733076410424019,0.23408374867302584,False,True,False,-1.2628589610284116,6.480085415357802,True,-3.7593918432264886,8.976618297555879,True,model_implied_state_space
monthly_mixed_frequency_kalman_em,exact,pre_advance,A,2024:Q3:pre_advance:exact,2024-10-29,2024:Q3,2.283645808220933,2.8248,-0.541154191779067,2,13.999901268833318,3.741644193243569,-2.2489225977626286,0.9055732185987623,0.5574985154244038,0.2708208963777056,0.7111951976811615,0.2534140905603426,False,True,False,-1.457998385022636,6.025290001464502,True,-3.870811213797667,8.438102830239533,True,model_implied_state_space
monthly_mixed_frequency_kalman_em,exact,pre_advance,A,2024:Q4:pre_advance:exact,2025-01-29,2024:Q4,2.6963894151988215,2.2512,0.4451894151988216,3,14.870587011706329,3.856240009608625,-2.275295098440539,0.921665040847854,0.45404561152564055,0.24220490492270394,0.7413016758681276,0.22629877030933607,False,True,False,-1.1598505944098036,6.552629424807447,True,-3.6465609510013057,9.03933978139895,True,model_implied_state_space
monthly_mixed_frequency_kalman_em,exact,pre_second,S,2024:Q1:pre_second:exact,2024-05-29,2024:Q1,2.01237397801584,1.2492,0.76317397801584,0,6.134763592083153,2.476845492170061,-1.8733943100871528,0.6719030994287264,0.37899422984474773,0.20825968613899948,0.767832301781458,0.1858690312116078,False,True,False,-0.46447151415422105,4.489219470185901,True,-2.0616743131784894,6.0864222692101695,True,model_implied_state_space
monthly_mixed_frequency_kalman_em,exact,pre_second,S,2024:Q2:pre_second:exact,2024-08-28,2024:Q2,2.611730657846885,2.9514,-0.3396693421531149,1,6.108599136308779,2.4715580382238205,-1.8332309456800426,0.5961845420819734,0.5546550393080176,0.14532100428200165,0.8354166357803803,0.1276364856366572,False,True,False,0.1401726196230646,5.0832886960707055,True,-1.4536205455466318,6.677081861240402,True,model_implied_state_space
monthly_mixed_frequency_kalman_em,exact,pre_second,S,2024:Q3:pre_second:exact,2024-11-26,2024:Q3,2.6343091550436526,2.8336,-0.1992908449563475,2,5.106486889319546,2.259753723156474,-1.7380832300310989,0.535100259137984,0.5351377238350328,0.12185765699750001,0.8593146614885417,0.1048745266606842,False,True,False,0.37455543188717844,4.894062878200127,True,-1.082654952507367,6.351273262594672,True,model_implied_state_space
monthly_mixed_frequency_kalman_em,exact,pre_second,S,2024:Q4:pre_second:exact,2025-02-26,2024:Q4,2.263065537478524,2.3451,-0.0820344625214759,3,5.081112912486241,2.254132407931318,-1.7323659129809,0.5279703220539602,0.514515470645227,0.15769822376404163,0.8199664058043405,0.13726520007358262,False,True,False,0.008933129547206153,4.517197945409842,True,-1.4446523293361597,5.970783404293208,True,model_implied_state_space
monthly_mixed_frequency_kalman_em,exact,pre_third,T,2024:Q1:pre_third:exact,2024-06-26,2024:Q1,1.6696808744933065,1.4095,0.2601808744933065,0,5.658051857852502,2.3786659828257735,-1.7914604543941859,0.5672244233925325,0.4564501497902179,0.2413582813377725,0.7316659517102146,0.21592765867905045,False,True,False,-0.708985108332467,4.04834685731908,True,-2.242876494663755,5.582238243650369,True,model_implied_state_space
monthly_mixed_frequency_kalman_em,exact,pre_third,T,2024:Q2:pre_third:exact,2024-09-25,2024:Q2,2.6824298222828524,2.9895,-0.3070701777171476,1,5.631991581269969,2.3731817421491277,-1.791541209842702,0.5704294906513879,0.5514761688307391,0.1291729205548464,0.85222743285635,0.11226229672736451,False,True,False,0.30924808013372473,5.05561156443198,True,-1.2211067737061536,6.585966418271859,True,model_implied_state_space
monthly_mixed_frequency_kalman_em,exact,pre_third,T,2024:Q3:pre_third:exact,2024-12-18,2024:Q3,2.6732255027977354,3.073,-0.3997744972022645,2,6.750224697059688,2.598119453962748,-1.8855645280144009,0.6316595334511489,0.5611441623120275,0.15176148948582854,0.8294335288485412,0.1343878015875407,False,True,False,0.0751060488349875,5.271344956760483,True,-1.6003007043060693,6.94675170990154,True,model_implied_state_space
monthly_mixed_frequency_kalman_em,exact,pre_third,T,2024:Q4:pre_third:exact,2025-03-26,2024:Q4,2.480426373210561,2.4495,0.0309263732105611,3,6.716005993496625,2.59152580413482,-1.8712565550755988,0.6057737975984819,0.4952392737140317,0.1692508916533846,0.8105581858121844,0.15049695548243913,False,True,False,-0.11109943092425878,5.071952177345381,True,-1.7822542450589283,6.743106991480051,True,model_implied_state_space
monthly_mixed_frequency_kalman_em,pseudo,pre_advance,A,2024:Q1:pre_advance:pseudo,2024-04-30,2024:Q1,1.9448388724404648,1.5897,0.3551388724404647,0,14.11209802988492,3.7566072498845178,-2.24692339069344,0.8912842916291176,0.4623412440398193,0.302329777569492,0.678845191160721,0.2840164106354724,False,True,False,-1.811768377444053,5.701446122324983,True,-4.23423018756428,8.12390793244521,True,model_implied_state_space
monthly_mixed_frequency_kalman_em,pseudo,pre_advance,A,2024:Q2:pre_advance:pseudo,2024-07-31,2024:Q2,2.5330365124438363,2.8401,-0.3070634875561637,1,14.986587371857176,3.871251396106584,-2.275662091838608,0.9144035319993744,0.5316105219333285,0.256452889951744,0.7266315329787068,0.24009944805890154,False,True,False,-1.3382148836627477,6.404287908550421,True,-3.834605387283029,8.900678412170702,True,model_implied_state_space
monthly_mixed_frequency_kalman_em,pseudo,pre_advance,A,2024:Q3:pre_advance:pseudo,2024-10-31,2024:Q3,2.278094342645878,2.8248,-0.5467056573541216,2,13.999065168493658,3.7415324625738124,-2.2491090613046807,0.9061897078926772,0.5580859255003906,0.2713064150919079,0.7106937682649751,0.25388286156218165,False,True,False,-1.4634381199279343,6.019626805219691,True,-3.876178898775331,8.432367584067087,True,model_implied_state_space
monthly_mixed_frequency_kalman_em,pseudo,pre_advance,A,2024:Q4:pre_advance:pseudo,2025-01-31,2024:Q4,2.6859180811719443,2.2512,0.4347180811719444,3,14.869250347010915,3.8560666937970502,-2.2749409247345715,0.9206742756592884,0.4551198734810905,0.24304427148719748,0.7404317860650257,0.22710650830826273,False,True,False,-1.170148612625106,6.541984774968995,True,-3.6567472058869055,9.028583368230795,True,model_implied_state_space
monthly_mixed_frequency_kalman_em,pseudo,pre_second,S,2024:Q1:pre_second:pseudo,2024-05-31,2024:Q1,2.0053691027986114,1.2492,0.7561691027986113,0,6.134744076845181,2.476841552632138,-1.8725254497899861,0.6702146004035672,0.3800704711261207,0.2090713381486698,0.7669684955473122,0.18662672147087683,False,True,False,-0.47147244983352676,4.48221065543075,True,-2.0686727084324765,6.079410914029699,True,model_implied_state_space
monthly_mixed_frequency_kalman_em,pseudo,pre_second,S,2024:Q2:pre_second:pseudo,2024-08-31,2024:Q2,2.612501367924782,2.9514,-0.3388986320752178,1,6.108555702298777,2.4715492514410426,-1.8331846505567768,0.5960984028538389,0.5545319957788086,0.14524897917528018,0.8354947640194991,0.1275705203293407,False,True,False,0.1409521164837395,5.084050619365825,True,-1.452835382497213,6.677838118346777,True,model_implied_state_space
monthly_mixed_frequency_kalman_em,pseudo,pre_second,S,2024:Q3:pre_second:pseudo,2024-11-30,2024:Q3,2.6267365140746466,2.8336,-0.2068634859253535,2,5.106448851934204,2.2597453068729236,-1.7383806891474474,0.5356405746136927,0.536469363127215,0.12253574181845843,0.8585658544860575,0.10548377763230372,False,True,False,0.36699120720172296,4.88648182094757,True,-1.0902137499218494,6.343686778071143,True,model_implied_state_space
monthly_mixed_frequency_kalman_em,pseudo,pre_second,S,2024:Q4:pre_second:pseudo,2025-02-28,2024:Q4,2.261016770224138,2.3451,-0.084083229775862,3,5.0808877645465245,2.254082466225787,-1.7323772782912839,0.5280188986588672,0.514878150260061,0.15791201684678063,0.8197331055568545,0.1374595798134862,False,True,False,0.0069343039983511545,4.515099236449925,True,-1.4466189497950666,5.968652490243342,True,model_implied_state_space
monthly_mixed_frequency_kalman_em,pseudo,pre_third,T,2024:Q1:pre_third:pseudo,2024-06-30,2024:Q1,1.681802194710282,1.4095,0.2723021947102821,0,5.65627234339739,2.3782918961719965,-1.7918756088804693,0.5682192047152802,0.4544227608626525,0.23973753731051184,0.7333751936487819,0.21440166840159827,False,True,False,-0.6964897014617146,4.060094090882279,True,-2.230139856657521,5.593744246078085,True,model_implied_state_space
monthly_mixed_frequency_kalman_em,pseudo,pre_third,T,2024:Q2:pre_third:pseudo,2024-09-30,2024:Q2,2.6992715093116693,2.9895,-0.2902284906883308,1,5.633093023102553,2.3734137909565103,-1.7907444532241403,0.5687957473280584,0.548662607910097,0.12770750340541748,0.8538359523330995,0.1109366999425569,False,True,False,0.325857718355159,5.07268530026818,True,-1.2046467729997898,6.603189791623128,True,model_implied_state_space
monthly_mixed_frequency_kalman_em,pseudo,pre_third,T,2024:Q3:pre_third:pseudo,2024-12-31,2024:Q3,2.6744787912258157,3.073,-0.3985212087741843,2,6.750191729972866,2.5981131095417815,-1.8854880352803516,0.6315050858056537,0.5609541247311893,0.15164757796634326,0.829556419407515,0.13428283690716628,False,True,False,0.07636568168403413,5.272591900767598,True,-1.599036980234151,6.947994562685782,True,model_implied_state_space
monthly_mixed_frequency_kalman_em,pseudo,pre_third,T,2024:Q4:pre_third:pseudo,2025-03-31,2024:Q4,2.474659615855775,2.4495,0.0251596158557751,3,6.715975538068392,2.591519928163469,-1.8712302085448602,0.6057226357925637,0.496126953629767,0.1698124529868755,0.8099553757674409,0.15101698414546585,False,True,False,-0.11686031230769389,5.066179544019244,True,-1.7880113373009259,6.737330569012476,True,model_implied_state_space
revision_dfm_kalman_em,exact,pre_advance,A,2024:Q1:pre_advance:exact,2024-04-24,2024:Q1,2.473442285401794,1.5897,0.8837422854017942,0,13.372750020650072,3.656877085800133,-2.244749251092378,0.9393837812220446,0.4045195490547709,0.24939937950460042,0.732926989224,0.23236743423874456,False,True,False,-1.1834348003983388,6.130319371201927,True,-3.5415852524922844,8.488469823295873,True,model_implied_state_space
revision_dfm_kalman_em,exact,pre_advance,A,2024:Q2:pre_advance:exact,2024-07-24,2024:Q2,3.242902146016591,2.8401,0.4028021460165911,1,14.121466744933482,3.757854007932384,-2.248531369680788,0.8953999149095028,0.4573193591509276,0.19407794113667134,0.7909565224148898,0.1797840516081044,False,True,False,-0.5149518619157929,7.000756153948975,True,-2.9382176484851175,9.4240219405183,True,model_implied_state_space
revision_dfm_kalman_em,exact,pre_advance,A,2024:Q3:pre_advance:exact,2024-10-29,2024:Q3,2.33707094796664,2.8248,-0.4877290520333601,2,14.046730720793978,3.7478968396680794,-2.2486008105751316,0.9011499253064669,0.5517698204663957,0.2664554544177229,0.7157307967982293,0.2492245799557639,False,True,False,-1.4108258917014393,6.084967787634719,True,-3.827670762201361,8.501812658134641,True,model_implied_state_space
revision_dfm_kalman_em,exact,pre_advance,A,2024:Q4:pre_advance:exact,2025-01-29,2024:Q4,2.6378374842400847,2.2512,0.3866374842400848,3,13.185082964211684,3.631126955121741,-2.21415044035973,0.8649845408769612,0.4576012982677331,0.23378102649977492,0.7490082566267637,0.21724519014052487,False,True,False,-0.9932894708816562,6.268964439361826,True,-3.334834857813166,8.610509826293335,True,model_implied_state_space
revision_dfm_kalman_em,exact,pre_second,S,2024:Q1:pre_second:exact,2024-05-29,2024:Q1,2.039782472560131,1.2492,0.7905824725601307,0,6.032735671007741,2.4561627940769197,-1.8693412481752063,0.674644405783478,0.37377291420017533,0.20313506062922795,0.7730856960878927,0.18090986406537277,False,True,False,-0.41638032151678894,4.495945266637051,True,-2.0002458076605527,6.079810752780814,True,model_implied_state_space
revision_dfm_kalman_em,exact,pre_second,S,2024:Q2:pre_second:exact,2024-08-28,2024:Q2,2.8727031186043774,2.9514,-0.0786968813956225,1,5.519719226084299,2.3494082714769475,-1.7736630370010587,0.5500964530870296,0.5133606592188378,0.11071495005161379,0.8723576730950104,0.09545996505283437,False,True,False,0.5232948471274299,5.222111390081325,True,-0.9917295979242686,6.7371358351330235,True,model_implied_state_space
revision_dfm_kalman_em,exact,pre_second,S,2024:Q3:pre_second:exact,2024-11-26,2024:Q3,2.7052459906881414,2.8336,-0.1283540093118587,2,5.982278482815835,2.4458696782158764,-1.8147162524525875,0.574274015321867,0.5209260323582234,0.13435316181123214,0.8471475714436395,0.11745272484459181,False,True,False,0.259376312472265,5.151115668904017,True,-1.317851620575873,6.728343601952156,True,model_implied_state_space
revision_dfm_kalman_em,exact,pre_second,S,2024:Q4:pre_second:exact,2025-02-26,2024:Q4,2.4333452578866366,2.3451,0.0882452578866366,3,5.9538432938486725,2.4400498547875356,-1.8116109708742383,0.5715004492025434,0.4855752571574536,0.1593210374631757,0.819979438729116,0.1402453212384208,False,True,False,-0.006704596900898974,4.873395112674173,True,-1.5801795957030542,6.446870111476327,True,model_implied_state_space
revision_dfm_kalman_em,exact,pre_third,T,2024:Q1:pre_third:exact,2024-06-26,2024:Q1,1.711590157730727,1.4095,0.3020901577307273,0,4.363301680236724,2.0888517611924318,-1.6660105526524849,0.5055529762196788,0.44250537413480795,0.20628116196207022,0.7653585910773677,0.1800592755743308,False,True,False,-0.3772616034617047,3.800441918923159,True,-1.724265237830615,5.147445553292069,True,model_implied_state_space
revision_dfm_kalman_em,exact,pre_third,T,2024:Q2:pre_third:exact,2024-09-25,2024:Q2,2.896540645136527,2.9895,-0.0929593548634728,1,4.344596224678944,2.084369502914237,-1.6543994506169821,0.4887603563684287,0.5177862546716205,0.082317842691525,0.902114789212324,0.06869239425762308,False,True,False,0.8121711422222901,4.980910148050764,True,-0.5319420916389928,6.325023381912047,True,model_implied_state_space
revision_dfm_kalman_em,exact,pre_third,T,2024:Q3:pre_third:exact,2024-12-18,2024:Q3,2.7594705480425454,3.073,-0.3135294519574545,2,4.8571081831167975,2.203884793521839,-1.719279415307494,0.5328010319392241,0.5565635401094223,0.10526783817468409,0.8772491834428356,0.0896614611281515,False,True,False,0.5555857545207066,4.963355341564384,True,-0.8655973479650476,6.384538444050138,True,model_implied_state_space
revision_dfm_kalman_em,exact,pre_third,T,2024:Q4:pre_third:exact,2025-03-26,2024:Q4,2.4409673110227703,2.4495,-0.0085326889772296,3,4.301355731966911,2.0739710055752734,-1.6484121261966693,0.48469061183025275,0.5016413155180623,0.11960704509199042,0.8600446743962428,0.10144040877694062,False,True,False,0.36699630544749695,4.514938316598044,True,-0.9704114196899098,5.8523460417354505,True,model_implied_state_space
revision_dfm_kalman_em,pseudo,pre_advance,A,2024:Q1:pre_advance:pseudo,2024-04-30,2024:Q1,2.4818884887307116,1.5897,0.8921884887307117,0,13.37266928390004,3.656866046753701,-2.2453072493054353,0.9410019115179526,0.4036246044433828,0.24866627911120517,0.7336865734276744,0.23166200747636462,False,True,False,-1.1749775580229893,6.138754535484413,True,-3.5331208915478056,8.496897869009228,True,model_implied_state_space
revision_dfm_kalman_em,pseudo,pre_advance,A,2024:Q2:pre_advance:pseudo,2024-07-31,2024:Q2,3.132010344368699,2.8401,0.291910344368699,1,14.121016126307076,3.7577940505444247,-2.2457878222966676,0.8872194545196691,0.46904078295342244,0.20228972490084351,0.7823774687718822,0.18762205644470364,False,True,False,-0.6257837061757257,6.889804394913124,True,-3.0490108290059617,9.31303151774336,True,model_implied_state_space
revision_dfm_kalman_em,pseudo,pre_advance,A,2024:Q3:pre_advance:pseudo,2024-10-31,2024:Q3,2.340044004202116,2.8248,-0.4847559957978844,2,14.04671861885642,3.7478952251705784,-2.2484974715035064,0.9008426625284333,0.5514560297690967,0.2661948809278951,0.7159998015323258,0.24897289119541233,False,True,False,-1.4078512209684626,6.087939229372694,True,-3.8246950503538146,8.504783058758047,True,model_implied_state_space
revision_dfm_kalman_em,pseudo,pre_advance,A,2024:Q4:pre_advance:pseudo,2025-01-31,2024:Q4,2.646438638390068,2.2512,0.3952386383900683,3,13.18507088676258,3.6311252920771793,-2.214405012238848,0.8657215969487159,0.4566617537170455,0.23305572762075222,0.7497620618336761,0.21654943352152492,False,True,False,-0.9846866536871111,6.277563930467247,True,-3.326230968198304,8.61910824497844,True,model_implied_state_space
revision_dfm_kalman_em,pseudo,pre_second,S,2024:Q1:pre_second:pseudo,2024-05-31,2024:Q1,2.037958469619814,1.2492,0.7887584696198138,0,6.0326800000506875,2.4561514611380724,-1.8690983523609443,0.6741822477705658,0.3740536936375646,0.20334389540493367,0.772862883628818,0.18110430444371559,False,True,False,-0.4181929915182585,4.494109930757887,True,-2.002051169575302,6.07796810881493,True,model_implied_state_space
revision_dfm_kalman_em,pseudo,pre_second,S,2024:Q2:pre_second:pseudo,2024-08-31,2024:Q2,2.872998532679225,2.9514,-0.0784014673207749,1,5.5197190563429555,2.349408235352672,-1.773658817708939,0.5500885656179878,0.5133105245379808,0.11069119468428008,0.8723839389238623,0.09543863533211473,False,True,False,0.5235902973265532,5.222406768031897,True,-0.9914341244302753,6.737431189788726,True,model_implied_state_space
revision_dfm_kalman_em,pseudo,pre_second,S,2024:Q3:pre_second:pseudo,2024-11-30,2024:Q3,2.705774193387695,2.8336,-0.127825806612305,2,5.982255059282075,2.4458648898256983,-1.814702990409261,0.5742508405841386,0.5208400368019304,0.13430596485500576,0.8471990262046198,0.11740972188907738,False,True,False,0.2599093035619968,5.151639083213393,True,-1.3173155416753675,6.728863928450758,True,model_implied_state_space
revision_dfm_kalman_em,pseudo,pre_second,S,2024:Q4:pre_second:pseudo,2025-02-28,2024:Q4,2.434941135547651,2.3451,0.0898411355476511,3,5.953855940916954,2.4400524463455606,-1.8116358988066705,0.5715475098095746,0.4853145242708126,0.1591626540740561,0.8201507632911783,0.1400998819012148,False,True,False,-0.005111310797909496,4.874993581893212,True,-1.5785879807756564,6.448470251870958,True,model_implied_state_space
revision_dfm_kalman_em,pseudo,pre_third,T,2024:Q1:pre_third:pseudo,2024-06-30,2024:Q1,1.718910627169964,1.4095,0.3094106271699641,0,4.363830093559166,2.088978241523632,-1.6665827411030896,0.5064333349823167,0.44112570081764196,0.20529734638351604,0.7664197835248987,0.17915552013562777,False,True,False,-0.3700676143536683,3.8078888686935963,True,-1.7171528100228912,5.154974064362819,True,model_implied_state_space
revision_dfm_kalman_em,pseudo,pre_third,T,2024:Q2:pre_third:pseudo,2024-09-30,2024:Q2,2.8963771112651147,2.9895,-0.0931228887348853,1,4.3446979527791045,2.0843939053785165,-1.6544146366787216,0.4887718621038146,0.5178173149583933,0.08233223287853239,0.9020986161344893,0.06870507897180357,False,True,False,0.8119832058865981,4.980771016643631,True,-0.5321457639922822,6.324899986522512,True,model_implied_state_space
revision_dfm_kalman_em,pseudo,pre_third,T,2024:Q3:pre_third:pseudo,2024-12-31,2024:Q3,2.760524909661521,3.073,-0.312475090338479,2,4.857107539710156,2.2038846475508094,-1.7192114051242422,0.5326819213518544,0.5563746008265582,0.10518069652533592,0.8773464108357413,0.08958399954974586,False,True,False,0.5566402621107116,4.96440955721233,True,-0.8645427462450948,6.385592565568137,True,model_implied_state_space
revision_dfm_kalman_em,pseudo,pre_third,T,2024:Q4:pre_third:pseudo,2025-03-31,2024:Q4,2.440006642003153,2.4495,-0.0094933579968468,3,4.301353632144811,2.0739704993429418,-1.6484138950908513,0.4846938245739858,0.501826105368247,0.11969945819828184,0.8599416315143216,0.10152252150157642,False,True,False,0.36603614266021145,4.5139771413460945,True,-0.9713712560314405,5.851384540037747,True,model_implied_state_space
