haminh109/Revision-Aware-DFM/outputs/full_state_space_release_revision_dfm/frozen/q1_manuscript_v1_sensitivity_exclude_covid/sensitivity_runs/sensitivity_exclude_covid_max_iter100/evidence_dir/density_revision_records.csv
model_id,timing_mode,checkpoint_id,outcome_id,forecast_origin,forecast_origin_date,target_quarter,forecast_value,realized_value,forecast_error,calibration_n,predictive_variance,predictive_sd,log_score,crps,pit,prob_below_zero,prob_large_positive_revision_gt_0p2,prob_large_negative_revision_lt_minus_0p2,realized_below_zero,realized_large_positive_revision_gt_0p2,realized_large_negative_revision_lt_minus_0p2,lower_68,upper_68,covered_68,lower_90,upper_90,covered_90,density_method
ar,exact,pre_advance,DELTA_SA,2008:Q1:pre_advance:exact,2008-04-29,2008:Q1,0.1411112771385929,0.3031999999999999,-0.1620887228614069,12,0.4246599209606872,0.6516593596049145,-0.5216391003274016,0.16829114156909322,0.5982160639322176,0.41428285085886285,0.4639976547222556,0.3003304696330272,False,True,False,-0.5105480824663216,0.7927706367435075,True,-0.9307729840444243,1.2129955383216102,True,expanding_residual_calibrated_gaussian
ar,exact,pre_advance,DELTA_SA,2008:Q2:pre_advance:exact,2008-07-30,2008:Q2,0.282369571934375,1.3898,-1.1074304280656249,13,0.39034904148426913,0.6247791941832483,-2.0194860795511382,0.7740465723702007,0.9618454375419841,0.32565214687657407,0.5524437426826976,0.22003823857643454,False,True,False,-0.34240962224887334,0.9071487661176234,False,-0.7453007516617591,1.3100398955305093,False,expanding_residual_calibrated_gaussian
ar,exact,pre_advance,DELTA_SA,2008:Q3:pre_advance:exact,2008-10-29,2008:Q3,0.714132038935611,-0.2618,0.975932038935611,14,0.4397619285178273,0.6631454806585259,-1.5910855613659503,0.6432416168089662,0.07055485770722462,0.1407656143763366,0.7809167230844953,0.08402774221794611,True,False,True,0.05098655827708509,1.377277519594137,False,-0.37664521012204255,1.8049092879932644,True,expanding_residual_calibrated_gaussian
ar,exact,pre_advance,DELTA_SA,2008:Q4:pre_advance:exact,2009-01-29,2008:Q4,0.0793056065031563,-2.4444,2.523705606503156,15,0.489619774192295,0.6997283574304353,-7.065993877277928,2.128979418739733,0.00015506190326214565,0.45488141257423165,0.4315271446928919,0.3448865856738742,True,False,True,-0.6204227509272789,0.7790339639335916,False,-1.0716451200970913,1.230256333103404,False,expanding_residual_calibrated_gaussian
ar,exact,pre_advance,DELTA_SA,2009:Q1:pre_advance:exact,2009-04-28,2009:Q1,-0.8004772054187677,0.4245000000000001,-1.2249772054187678,16,0.8724453144493385,0.9340478116506341,-1.7106897986157223,0.780994262062496,0.9051507636642305,0.8042770342978589,0.14205775909989526,0.7398478170437643,False,True,False,-1.7345250170694018,0.13357060623186645,False,-2.3368491361583987,0.7358947253208634,True,expanding_residual_calibrated_gaussian
ar,exact,pre_advance,DELTA_SA,2009:Q2:pre_advance:exact,2009-07-30,2009:Q2,0.6102794438475987,0.0030000000000001,0.6072794438475986,17,0.9222140123109045,0.9603197448302854,-1.0783968070362877,0.3727179747460258,0.2635718699982457,0.2625524577173233,0.6653948670464631,0.1994017496000308,False,False,False,-0.3500403009826867,1.570599188677884,True,-0.9693059714696084,2.189864859164806,True,expanding_residual_calibrated_gaussian
ar,exact,pre_advance,DELTA_SA,2009:Q3:pre_advance:exact,2009-10-28,2009:Q3,0.1888383411693894,-0.7522000000000002,0.9410383411693896,18,0.8865924051252095,0.9415903595116135,-1.3581674818799925,0.5668761957151592,0.15879715367694366,0.4205242345632513,0.49527102916957677,0.3398182767319277,True,False,True,-0.752752018342224,1.130428700681003,True,-1.3599399767758287,1.7376166591146076,True,expanding_residual_calibrated_gaussian
ar,exact,pre_advance,DELTA_SA,2009:Q4:pre_advance:exact,2010-01-28,2009:Q4,-0.3373558541688579,0.1962000000000001,-0.5335558541688581,19,0.8781524605607329,0.9370978927309211,-1.0160623635177632,0.3370191538924492,0.715447618861339,0.6405766777250558,0.28317830477890693,0.5582665638673037,False,False,False,-1.274453746899779,0.5997420385620633,True,-1.8787447218358952,1.2040330134981794,True,expanding_residual_calibrated_gaussian
ar,exact,pre_advance,DELTA_SA,2010:Q1:pre_advance:exact,2010-04-29,2010:Q1,0.0283511514001251,-0.2023000000000001,0.2306511514001252,20,0.8524346657244032,0.9232738844592124,-0.8703138879330322,0.23863310708399726,0.40136374958436594,0.48775152646202025,0.42625639563367823,0.40232733454373865,True,False,True,-0.8949227330590873,0.9516250358593376,True,-1.490299246122185,1.5470015489224351,True,expanding_residual_calibrated_gaussian
ar,exact,pre_advance,DELTA_SA,2010:Q2:pre_advance:exact,2010-07-29,2010:Q2,-0.0683836223313969,-0.7725,0.704116377668603,21,0.8109702893599383,0.9005388883107371,-1.119847402563579,0.4195430597384302,0.2171415606048919,0.5302651252599597,0.3828418210323462,0.44190033995824335,True,False,True,-0.9689225106421341,0.8321552659793402,True,-1.5496382789801597,1.4128710343173658,True,expanding_residual_calibrated_gaussian
ar,exact,pre_advance,DELTA_SA,2010:Q3:pre_advance:exact,2010-10-28,2010:Q3,-0.3068047363098523,0.5148000000000001,-0.8216047363098524,22,0.7899349260972257,0.8887828340473424,-1.2283082997812595,0.4908373271508362,0.8223650178799067,0.6350266804700622,0.28426310615818984,0.5478256266795237,False,True,False,-1.1955875703571945,0.5819780977374901,True,-1.7687224044648318,1.1551129318451272,True,expanding_residual_calibrated_gaussian
ar,exact,pre_advance,DELTA_SA,2010:Q4:pre_advance:exact,2011-01-27,2010:Q4,0.3116384840461248,-0.3850000000000002,0.696638484046125,23,0.791799161277662,0.8898309734312815,-1.1086720253691276,0.41506072418806556,0.21684627977817628,0.3630860061712751,0.5499204339758466,0.2826510925885202,True,False,True,-0.5781924893851567,1.2014694574774063,True,-1.1520032199760777,1.7752801880683273,True,expanding_residual_calibrated_gaussian
ar,exact,pre_advance,DELTA_SA,2011:Q1:pre_advance:exact,2011-04-27,2011:Q1,-0.1541999785436481,0.0939000000000001,-0.2480999785436481,24,0.773738675420703,0.8796241671422534,-0.8304547245180531,0.23329698515263542,0.6110482781972977,0.5695788757440579,0.3435947858549575,0.4792373684179985,False,False,False,-1.0338241456859016,0.7254241885986054,True,-1.6010529802217517,1.2926530231344555,True,expanding_residual_calibrated_gaussian
ar,exact,pre_advance,DELTA_SA,2011:Q2:pre_advance:exact,2011-07-28,2011:Q2,0.1222021712976695,-0.2928,0.4150021712976696,25,0.7462367244305209,0.8638499432369727,-0.8879792263438715,0.2799198536520927,0.3154679342689032,0.44375238341098877,0.4641199963697782,0.3545801916097403,True,False,True,-0.7416477719393032,0.9860521145346423,True,-1.2987045409774884,1.5431088835728275,True,expanding_residual_calibrated_gaussian
ar,exact,pre_advance,DELTA_SA,2011:Q3:pre_advance:exact,2011-10-26,2011:Q3,-0.0436641708390723,-0.4595999999999995,0.4159358291609272,26,0.7206453648374204,0.8489083371232847,-0.8751675826735014,0.27809947979240607,0.31207914299835543,0.5205108199067936,0.3870437679428824,0.4269435671678316,True,False,True,-0.892572507962357,0.8052441662842125,True,-1.4399941281056503,1.3526657864275056,True,expanding_residual_calibrated_gaussian
ar,exact,pre_advance,DELTA_SA,2011:Q4:pre_advance:exact,2012-01-26,2011:Q4,-0.1664617652864937,0.2299000000000002,-0.3963617652864939,27,0.6967414461618726,0.834710396581876,-0.8510090843233009,0.268773725368105,0.6825528548970748,0.5790346803860846,0.3303203942617622,0.48397501610143684,False,True,False,-1.0011721618683698,0.6682486312953823,True,-1.5394381885582942,1.2065146579853068,True,expanding_residual_calibrated_gaussian
ar,exact,pre_advance,DELTA_SA,2012:Q1:pre_advance:exact,2012-04-26,2012:Q1,0.146748410605829,-0.3447,0.491448410605829,28,0.679983491168534,0.8246111151133811,-0.9036888332276318,0.30621476713210716,0.27559563941211634,0.4293769012051644,0.4742550718629621,0.3370603641563587,True,False,True,-0.6778627045075521,0.9713595257192101,True,-1.209616172912914,1.503112994124572,True,expanding_residual_calibrated_gaussian
ar,exact,pre_advance,DELTA_SA,2012:Q2:pre_advance:exact,2012-07-26,2012:Q2,-0.1038122691178062,0.1949,-0.2987122691178063,29,0.6612840302735421,0.8131937224754887,-0.7796191025501159,0.2333282296174999,0.6433143946520312,0.5507909566151604,0.3543495512289927,0.45292135399934796,False,False,False,-0.9170059915932949,0.7093814533576825,True,-1.4413969129457829,1.2337723747101703,True,expanding_residual_calibrated_gaussian
ar,exact,pre_advance,DELTA_SA,2012:Q3:pre_advance:exact,2012-10-25,2012:Q3,0.1733371102203946,0.6579000000000002,-0.4845628897796055,30,0.6438563178730354,0.8024065789068753,-0.8811384352741132,0.3008349535144477,0.7270406088693881,0.41448547613455494,0.4867461244701212,0.32086843260349873,False,True,False,-0.6290694686864806,0.9757436891272699,True,-1.1465042613843017,1.493178481825091,True,expanding_residual_calibrated_gaussian
ar,exact,pre_advance,DELTA_SA,2012:Q4:pre_advance:exact,2013-01-29,2012:Q4,0.3745038169834829,0.2694999999999999,0.1050038169834829,31,0.6330238634687501,0.7956279680031051,-0.699023789583475,0.19145478602830163,0.44750162737267873,0.3189267146195405,0.5868028835837016,0.23512389328080177,False,True,False,-0.4211241510196222,1.170131784986588,True,-0.9341877318904543,1.6831953658574201,True,expanding_residual_calibrated_gaussian
ar,exact,pre_advance,DELTA_SA,2013:Q1:pre_advance:exact,2013-04-25,2013:Q1,0.2735383342584925,-0.1162,0.3897383342584926,32,0.6126399752717877,0.7827132139371277,-0.797917996315205,0.25877542445430474,0.3092658155471392,0.3633665436816145,0.5374267943869613,0.27259083968523407,True,False,False,-0.5091748796786352,1.05625154819562,True,-1.0139103345488356,1.5609870030658206,True,expanding_residual_calibrated_gaussian
ar,exact,pre_advance,DELTA_SA,2013:Q2:pre_advance:exact,2013-07-30,2013:Q2,-0.006310028729751,0.8419999999999999,-0.8483100287297509,33,0.5965539991783618,0.7723690822258241,-1.263801488289796,0.5188987238475902,0.8639680664911817,0.5032592050952738,0.3946909765859625,0.4009944787158185,False,True,False,-0.7786791109555751,0.7660590534960732,False,-1.2767441149740777,1.2641240575145756,True,expanding_residual_calibrated_gaussian
ar,exact,pre_advance,DELTA_SA,2013:Q3:pre_advance:exact,2013-11-06,2013:Q3,0.4736264614294589,0.7550000000000003,-0.2813735385705413,34,0.603912299441874,0.7771179443571445,-0.7323238689713444,0.22181365810630127,0.6413513145719705,0.27110801595200706,0.6376199258509733,0.19301852815437973,False,True,False,-0.30349148292768563,1.2507444057866035,True,-0.8046188079154626,1.7518717307743805,True,expanding_residual_calibrated_gaussian
ar,exact,pre_advance,DELTA_SA,2013:Q4:pre_advance:exact,2014-01-29,2013:Q4,0.3920541653838421,-0.8431000000000002,1.2351541653838425,35,0.5893693534627156,0.7677039490993358,-1.9488571467999536,0.8369678767730119,0.05381977681055331,0.3047861539721368,0.5987708835811637,0.22029385750105493,True,False,True,-0.37564978371549373,1.159758114483178,False,-0.8707064597171688,1.654814790484853,True,expanding_residual_calibrated_gaussian
ar,exact,pre_advance,DELTA_SA,2014:Q1:pre_advance:exact,2014-04-29,2014:Q1,-0.3707296002667286,-1.0928,0.7220703997332714,36,0.6118962719422345,0.7822379893243708,-1.0993831706801003,0.43132525150904244,0.1779820398903268,0.6822267055364226,0.23281393624365987,0.5863859024373897,True,False,True,-1.1529675895910994,0.41150838905764225,True,-1.657396594146147,0.9159373936126898,True,expanding_residual_calibrated_gaussian
ar,exact,pre_advance,DELTA_SA,2014:Q2:pre_advance:exact,2014-07-29,2014:Q2,-0.3807469573065625,0.2237999999999997,-0.6045469573065623,37,0.6061187067786769,0.7785362591290639,-0.9700884618422942,0.36034773600917935,0.7812782265435219,0.6875985782797698,0.22784964982621314,0.5917941151258977,False,True,False,-1.1592832164356264,0.3977893018225014,True,-1.6613251468482344,0.8998312322351094,True,expanding_residual_calibrated_gaussian
ar,exact,pre_advance,DELTA_SA,2014:Q3:pre_advance:exact,2014-10-29,2014:Q3,0.0960389505392824,0.3467000000000002,-0.2506610494607177,38,0.602621916044835,0.776287263868753,-0.7178372194563353,0.2134262828680568,0.6266134835281838,0.4507701757531954,0.4467325818293745,0.3514709171503958,False,True,False,-0.6802483133294707,0.8723262144080354,True,-1.1808399709914705,1.3729178720700355,True,expanding_residual_calibrated_gaussian
ar,exact,pre_advance,DELTA_SA,2014:Q4:pre_advance:exact,2015-01-29,2014:Q4,0.1688907339298215,-0.4497999999999997,0.6186907339298213,39,0.589512433759291,0.7677971306011054,-0.9793654161063403,0.3682178025575947,0.2101791618546902,0.4129480714314504,0.48384025396341823,0.315452519306341,True,False,True,-0.598906396671284,0.9366878645309269,True,-1.0940231611023399,1.431804628961983,True,expanding_residual_calibrated_gaussian
ar,exact,pre_advance,DELTA_SA,2015:Q1:pre_advance:exact,2015-04-28,2015:Q1,-0.1664187565321353,-0.9973,0.8308812434678646,40,0.5819679549174603,0.7628682421738765,-1.2413971558008312,0.5074387982689682,0.13804291899882515,0.5863433941091662,0.3155009215726744,0.48244434394875946,True,False,True,-0.9292869987060118,0.5964494856417412,False,-1.42122535155793,1.0883878384936594,True,expanding_residual_calibrated_gaussian
ar,exact,pre_advance,DELTA_SA,2015:Q2:pre_advance:exact,2015-07-29,2015:Q2,-0.3349089662402753,1.3627000000000002,-1.6976089662402756,41,0.5810925653894671,0.7622942774214346,-3.127220859549192,1.2744286892597698,0.9870254692630422,0.669793637376981,0.24143024320280715,0.5702369843510153,False,True,False,-1.0972032436617098,0.42738531118115936,False,-1.5887714732612739,0.9189535407807232,False,expanding_residual_calibrated_gaussian
ar,exact,pre_advance,DELTA_SA,2015:Q3:pre_advance:exact,2015-10-28,2015:Q3,0.677687720737902,0.5856999999999999,0.091987720737902,42,0.6438913268592905,0.8024283936023765,-0.7053966593985387,0.19172579676784313,0.4543665555412232,0.19918217423662754,0.7241793957358085,0.1370236635239864,False,True,False,-0.12474067286447454,1.4801161143402783,True,-0.6421895328478104,1.9975649743236144,True,expanding_residual_calibrated_gaussian
ar,exact,pre_advance,DELTA_SA,2015:Q4:pre_advance:exact,2016-01-28,2015:Q4,0.3567967296908301,0.314,0.04279672969083,43,0.6285881067771159,0.7928354853165415,-0.6882558798461244,0.18620305906183193,0.47847581554900886,0.32634577953522775,0.5783863337234652,0.24125062033941624,False,True,False,-0.43603875562571137,1.1496322150073714,True,-0.9473015939079139,1.660895053289574,True,expanding_residual_calibrated_gaussian
ar,exact,pre_advance,DELTA_SA,2016:Q1:pre_advance:exact,2016-04-27,2016:Q1,0.2661399341306913,0.3027000000000001,-0.0365600658693087,44,0.6139753007284686,0.7835657603089026,-0.6761267555224536,0.18379579110396738,0.5186073287096765,0.36705918336716054,0.5336343395051832,0.27595658195700956,False,True,False,-0.5174258261782112,1.049705694439594,True,-1.022711048668395,1.5549909169297778,True,expanding_residual_calibrated_gaussian
ar,exact,pre_advance,DELTA_SA,2016:Q2:pre_advance:exact,2016-07-28,2016:Q2,0.2681291742259852,-0.1195999999999999,0.3877291742259852,45,0.6002201447530114,0.7747387590362389,-0.7889414533631408,0.2568889937278131,0.3083740558361434,0.36463761822301954,0.5350371241973474,0.272841604939965,True,False,False,-0.5066095848102536,1.0428679332622242,True,-1.006202683514655,1.5424610319666254,True,expanding_residual_calibrated_gaussian
ar,exact,pre_advance,DELTA_SA,2016:Q3:pre_advance:exact,2016-10-27,2016:Q3,0.0452506389225619,0.2565999999999997,-0.2113493610774377,46,0.5892752251909242,0.767642641592378,-0.6924088332221303,0.20246284636944822,0.6084657951207002,0.4764969495261257,0.4201184887116549,0.3746792193177847,False,True,False,-0.7223920026698162,0.8128932805149399,True,-1.2174091443032702,1.3079104221483941,True,expanding_residual_calibrated_gaussian
ar,exact,pre_advance,DELTA_SA,2016:Q4:pre_advance:exact,2017-01-26,2016:Q4,0.1492374075003102,-0.0169999999999999,0.1662374075003101,47,0.5780679783539887,0.7603078181591905,-0.6688094199741477,0.19212296478211155,0.4134633468120972,0.42219335124457186,0.4733840579813309,0.32299614025339074,True,False,False,-0.6110704106588802,0.9095452256595007,True,-1.1013576647983947,1.3998324797990152,True,expanding_residual_calibrated_gaussian
ar,exact,pre_advance,DELTA_SA,2017:Q1:pre_advance:exact,2017-04-27,2017:Q1,0.0659129056715515,0.4599999999999998,-0.3940870943284483,48,0.5660158927960915,0.7523402772656077,-0.7715630298030036,0.2563386952535299,0.6997963773630892,0.4650931293965414,0.42927248686932096,0.36187643289587035,False,True,False,-0.6864273715940562,0.8182531829371592,True,-1.1715767280904597,1.3034025394335627,True,expanding_residual_calibrated_gaussian
ar,exact,pre_advance,DELTA_SA,2017:Q2:pre_advance:exact,2017-07-27,2017:Q2,0.3338386109932738,0.4662000000000001,-0.1323613890067263,49,0.5584239974626165,0.747277724452306,-0.6433067473119927,0.18396366867472547,0.5702948038701658,0.3275315143976687,0.5710710239615187,0.23749680024464262,False,True,False,-0.4134391134590322,1.0811163354455797,True,-0.8953238644121446,1.5630010863986923,True,expanding_residual_calibrated_gaussian
ar,exact,pre_advance,DELTA_SA,2017:Q3:pre_advance:exact,2017-10-26,2017:Q3,0.259901632394651,0.3077000000000001,-0.047798367605349,50,0.5476949804923225,0.7400641732257565,-0.62000588380572,0.1741804440563133,0.5257484976647616,0.36272366846617426,0.5322556159208367,0.26715679009257187,False,True,False,-0.48016254083110543,0.9999658056204075,True,-0.9573956071125771,1.4771988719018792,True,expanding_residual_calibrated_gaussian
ar,exact,pre_advance,DELTA_SA,2017:Q4:pre_advance:exact,2018-01-25,2017:Q4,0.1708964419460579,-0.0190000000000001,0.189896441946058,51,0.5369160240366202,0.7327455383942096,-0.641563028654198,0.1907629760218069,0.3977568921359906,0.407792359441727,0.4841587738367654,0.3063673955925226,True,False,False,-0.5618490964481517,0.9036419803402675,True,-1.034362714514167,1.3761555984062828,True,expanding_residual_calibrated_gaussian
ar,exact,pre_advance,DELTA_SA,2018:Q1:pre_advance:exact,2018-04-26,2018:Q1,0.0389715350373021,-0.1434999999999999,0.182471535037302,52,0.5267930880403595,0.7258051308997199,-0.6300672271324429,0.18782245572880818,0.40075023698916024,0.47858939689618335,0.41221071705530565,0.37098326472146176,True,False,False,-0.6868335958624178,0.764776665937022,True,-1.15487166698309,1.2328147370576943,True,expanding_residual_calibrated_gaussian
ar,exact,pre_advance,DELTA_SA,2018:Q2:pre_advance:exact,2018-07-26,2018:Q2,-0.0088385496543845,0.1665000000000001,-0.1753385496543846,53,0.5170056828139263,0.7190310722172766,-0.6188201954267755,0.18500749559632343,0.5963280229864637,0.5049037969207917,0.3857381395918008,0.3951735966590999,False,False,False,-0.727869621871661,0.7101925225628921,True,-1.1915394166817779,1.1738623173730087,True,expanding_residual_calibrated_gaussian
ar,exact,pre_advance,DELTA_SA,2018:Q3:pre_advance:exact,2018-10-25,2018:Q3,0.0614125513665548,0.0043999999999999,0.0570125513665549,54,0.5081923625633052,0.7128761200680699,-0.5836889470322514,0.1684136175513826,0.46812841145032674,0.46567455108395306,0.42292896665882285,0.35692094380805905,False,False,False,-0.6514635687015151,0.7742886714346247,True,-1.111164320294503,1.2339894230276127,True,expanding_residual_calibrated_gaussian
ar,exact,pre_advance,DELTA_SA,2019:Q1:pre_advance:exact,2019-04-25,2019:Q1,0.4648889202031996,-0.1047000000000002,0.5695889202031998,55,0.49878361160320517,0.7062461409474782,-0.8963698048573119,0.338986945399842,0.20997672967015596,0.2551876597507603,0.646194311491759,0.173239510998053,True,False,False,-0.24135722074427857,1.171135061150678,True,-0.6967826062547404,1.6265604466611396,True,expanding_residual_calibrated_gaussian
ar,exact,pre_advance,DELTA_SA,2019:Q2:pre_advance:exact,2019-07-25,2019:Q2,-0.026254198058714,-0.0171000000000001,-0.0091541980587139,56,0.49460715461731874,0.7032831255030357,-0.5670275169664123,0.1644012691111298,0.505192636358077,0.514889419407351,0.3738356707947246,0.4024349262110288,True,False,False,-0.7295373235617497,0.6770289274443217,True,-1.1830519978161498,1.1305436016987216,True,expanding_residual_calibrated_gaussian
ar,exact,pre_advance,DELTA_SA,2019:Q3:pre_advance:exact,2019-10-29,2019:Q3,0.0592963312990124,0.205,-0.1457036687009876,57,0.4858482509348452,0.6970281564864114,-0.5798569928225081,0.17499861097318486,0.5827897592463157,0.4661027869029366,0.42001220916046467,0.354945432834436,False,True,False,-0.637731825187399,0.7563244877854237,True,-1.0872129599849596,1.2058056225829845,True,expanding_residual_calibrated_gaussian
ar,exact,pre_advance,DELTA_SA,2019:Q4:pre_advance:exact,2020-01-29,2019:Q4,0.1665444581766966,0.0148000000000001,0.1517444581766964,58,0.47801482290201397,0.6913861604790871,-0.573967190113861,0.17480702992157698,0.4131386288307095,0.40482217849176655,0.4807030800863583,0.29800091637592757,False,False,False,-0.5248417023023905,0.8579306186557837,True,-0.9706845755113824,1.3037734918647756,True,expanding_residual_calibrated_gaussian
ar,exact,pre_advance,DELTA_SA,2020:Q1:pre_advance:exact,2020-04-28,2020:Q1,0.0727039693006021,-0.2644999999999999,0.3372039693006021,59,0.4699454540287458,0.6855256771476513,-0.6623476299446294,0.2250728918055988,0.31139817036391726,0.45776904267475726,0.4263434962570146,0.3453878112754757,True,False,True,-0.6128217078470493,0.7582296464482534,True,-1.054885427124076,1.2002933657252803,True,expanding_residual_calibrated_gaussian
ar,exact,pre_advance,DELTA_SA,2020:Q4:pre_advance:exact,2021-01-27,2020:Q4,0.6762934737196877,0.0797999999999996,0.5964934737196881,60,0.4633299063050595,0.6806834112163007,-0.9182450561795865,0.3552196079723329,0.19042925058996438,0.16022083002812856,0.7579515129570463,0.0989821479319057,False,False,False,-0.004389937496612983,1.3569768849359884,True,-0.44333110402514486,1.7959180514645203,True,expanding_residual_calibrated_gaussian
ar,exact,pre_advance,DELTA_SA,2021:Q1:pre_advance:exact,2021-04-28,2021:Q1,0.1141893782717202,0.0112000000000005,0.1029893782717197,61,0.4603723718301967,0.6785074589348276,-0.5425985448883088,0.1647883300176877,0.43967702233407163,0.43317562360964346,0.4496800737785154,0.3216608311108898,False,False,False,-0.5643180806631074,0.7926968372065477,True,-1.001856076470858,1.2302348330142985,True,expanding_residual_calibrated_gaussian
ar,exact,pre_advance,DELTA_SA,2021:Q2:pre_advance:exact,2021-07-28,2021:Q2,0.1447917586216602,0.0527999999999995,0.0919917586216607,62,0.45284709153208785,0.6729391440034439,-0.5321817984178103,0.16227156146423957,0.4456333905786278,0.4148200295519432,0.4673072670956151,0.30419711796794524,False,False,False,-0.5281473853817837,0.8177309026251041,True,-0.9620946331100236,1.251678150353344,True,expanding_residual_calibrated_gaussian
ar,exact,pre_advance,DELTA_SA,2021:Q3:pre_advance:exact,2021-10-27,2021:Q3,0.1470672919152162,0.0880999999999998,0.0589672919152164,63,0.4455531701630341,0.6674976930020313,-0.5186212383372912,0.1580676853303545,0.4648028990177718,0.4128085224095253,0.4683969191271695,0.3015482379292509,False,False,False,-0.5204304010868152,0.8145649849172475,True,-0.9508687094009153,1.2450032932313477,True,expanding_residual_calibrated_gaussian
ar,exact,pre_advance,DELTA_SA,2021:Q4:pre_advance:exact,2022-01-26,2021:Q4,0.0843496025345156,0.0993000000000003,-0.0149503974654847,64,0.4384819595983798,0.6621797034026186,-0.5069751015668894,0.154882725336796,0.5090063753828258,0.4493191341019162,0.43067690638127165,0.3338107817691018,False,False,False,-0.5778301008681029,0.7465293059371342,True,-1.0048390843009316,1.1735382893699629,True,expanding_residual_calibrated_gaussian
ar,exact,pre_advance,DELTA_SA,2022:Q1:pre_advance:exact,2022-04-27,2022:Q1,0.1550189766333507,-0.0959000000000001,0.2509189766333508,65,0.4317342085578451,0.6570648434955603,-0.5718815816876687,0.1913217647677005,0.35127572174606725,0.40674487128458897,0.472710721233185,0.2944914893672307,True,False,False,-0.5020458668622095,0.812083820128911,True,-0.925756514332623,1.2357944675993244,True,expanding_residual_calibrated_gaussian
ar,exact,pre_advance,DELTA_SA,2022:Q2:pre_advance:exact,2022-07-27,2022:Q2,0.0252303062888912,0.3589,-0.3336696937111088,66,0.42561125599396643,0.6523888840208472,-0.6226188701236935,0.2190965378851397,0.6954849011507191,0.4845752622975285,0.3943912667211331,0.36495722371330663,False,True,False,-0.6271585777319559,0.6776191903097384,True,-1.0478539157756226,1.098314528353405,True,expanding_residual_calibrated_gaussian
ar,exact,pre_advance,DELTA_SA,2022:Q3:pre_advance:exact,2022-10-26,2022:Q3,0.0582376027017708,0.3631999999999999,-0.3049623972982291,67,0.4215781398301264,0.6492904895577375,-0.5973657508217356,0.20785122543283907,0.6807101735544789,0.46426510540385735,0.413584318096035,0.34541728084751444,False,True,False,-0.5910528868559667,0.7075280922595083,True,-1.0097502139923706,1.1262254193959123,True,expanding_residual_calibrated_gaussian
ar,exact,pre_advance,DELTA_SA,2022:Q4:pre_advance:exact,2023-01-25,2022:Q4,0.1085327350948528,-0.2158000000000002,0.324332735094853,68,0.4172729487602036,0.6459666777475472,-0.607977834306435,0.21459334758841658,0.307802474091987,0.4332853472768541,0.44369897194174246,0.31645696867117845,True,False,True,-0.5374339426526944,0.7544994128424001,True,-0.953987897687993,1.1710533678776986,True,expanding_residual_calibrated_gaussian
ar,exact,pre_advance,DELTA_SA,2023:Q1:pre_advance:exact,2023-04-26,2023:Q1,0.0808547693367951,0.2098999999999999,-0.1290452306632048,69,0.4121706663788917,0.6420051918628787,-0.4959808296397675,0.16034666543362203,0.5796520448514941,0.4498893178939342,0.4263859045193722,0.33088709479506917,False,True,False,-0.5611504225260836,0.7228599611996739,True,-0.9751497990205367,1.136859337694127,True,expanding_residual_calibrated_gaussian
ar,exact,pre_advance,DELTA_SA,2023:Q2:pre_advance:exact,2023-07-26,2023:Q2,0.0786861488683192,-0.3529,0.4315861488683192,70,0.40671360739383,0.6377410190616799,-0.6981054133372736,0.26130557259045334,0.24928482369856475,0.4509020651237752,0.4245666775646537,0.3310594701807231,True,False,True,-0.5590548701933606,0.7164271679299992,True,-0.9703044793910129,1.1276767771276515,True,expanding_residual_calibrated_gaussian
ar,exact,pre_advance,DELTA_SA,2023:Q3:pre_advance:exact,2023-10-25,2023:Q3,0.0656009239904817,0.2763,-0.2106990760095182,71,0.4028652459847179,0.6347166659106391,-0.519459910942995,0.17597994802981323,0.6300393949012142,0.4588407484793453,0.4161523776530851,0.33780691721912737,False,True,False,-0.5691157419201575,0.7003175899011208,True,-0.978415086019179,1.1096169340001425,True,expanding_residual_calibrated_gaussian
ar,exact,pre_advance,DELTA_SA,2023:Q4:pre_advance:exact,2024-01-24,2023:Q4,0.1337989225363234,-0.0709999999999997,0.2047989225363231,72,0.3982362913093966,0.6310596574884157,-0.5112440991908114,0.17376038801375154,0.37276772789470036,0.41604469327733185,0.45822574403433625,0.29842011351882025,True,False,False,-0.49726073495209233,0.7648585800247392,True,-0.9042018439062509,1.1717996889788977,True,expanding_residual_calibrated_gaussian
ar,exact,pre_advance,DELTA_SA,2024:Q1:pre_advance:exact,2024-04-24,2024:Q1,0.092510887819583,-0.3404999999999998,0.4330108878195828,73,0.3929931748470168,0.626891677123741,-0.6905087786082856,0.2612949950440905,0.2448686191850235,0.4413407621232748,0.43192961949786934,0.3203911992736096,True,False,True,-0.5343807893041581,0.719402564943324,True,-0.9386341610030937,1.1236559366422598,True,expanding_residual_calibrated_gaussian
ar,exact,pre_advance,DELTA_SA,2024:Q2:pre_advance:exact,2024-07-24,2024:Q2,0.0533853342525936,0.1112999999999999,-0.0579146657474063,74,0.38947180786915303,0.62407676440415,-0.4517626057611079,0.14798618819433837,0.536968992185595,0.465914896857738,0.4071313385383759,0.342365314597045,False,False,False,-0.5706914301515564,0.6774620986567437,True,-0.973129595173712,1.0799002636788992,True,expanding_residual_calibrated_gaussian
ar,exact,pre_advance,DELTA_SA,2024:Q3:pre_advance:exact,2024-10-29,2024:Q3,0.0945532127990609,0.0087999999999999,0.085753212799061,75,0.384416122059752,0.620013001524768,-0.4504883550806466,0.14961801826723028,0.44499821188124006,0.4393955128925409,0.43247679731463873,0.31736645030103705,False,False,False,-0.5254597887257071,0.7145662143238289,True,-0.9252774215160224,1.1143838471141443,True,expanding_residual_calibrated_gaussian
ar,exact,pre_advance,DELTA_SA,2024:Q4:pre_advance:exact,2025-01-29,2024:Q4,0.0885662047910598,0.0939000000000001,-0.0053337952089402,76,0.37929615596445043,0.6158702427983109,-0.43425705360628125,0.14394421091754078,0.5034550294458218,0.44282659605894903,0.4282084614948273,0.31969554431029246,False,False,False,-0.5273040380072511,0.7044364475893707,True,-0.9244501978072257,1.1015826073893453,True,expanding_residual_calibrated_gaussian
ar,exact,pre_second,DELTA_TS,2008:Q1:pre_second:exact,2008-05-28,2008:Q1,0.0600251098958206,0.0587,0.0013251098958205,12,0.05163235358648373,0.22722753703388093,0.5628478605106191,0.053105016943716485,0.4976735241943527,0.39582715674492175,0.26894329911285286,0.12624174069120236,False,False,False,-0.16720242713806033,0.28725264692970154,True,-0.3137309285376084,0.43378114832924963,True,expanding_residual_calibrated_gaussian
ar,exact,pre_second,DELTA_TS,2008:Q2:pre_second:exact,2008-08-27,2008:Q2,0.100772173228941,-0.4531,0.5538721732289411,13,0.04746467013458396,0.21786387983000755,-2.626661389178188,0.4317210799179194,0.005506509442518218,0.32184473524218626,0.3243899217635178,0.08370854605464599,True,False,True,-0.11709170660106655,0.31863605305894854,False,-0.2575820196911666,0.4591263661490486,False,expanding_residual_calibrated_gaussian
ar,exact,pre_second,DELTA_TS,2008:Q3:pre_second:exact,2008-11-24,2008:Q3,-0.1583427007994933,0.0033999999999999,-0.1617427007994932,14,0.0626755102994184,0.2503507745133184,0.25725416590968936,0.09880196316323268,0.7408811466455043,0.7364644631251928,0.0761631805420172,0.4339227681096104,False,False,False,-0.4086934753128117,0.09200807371382508,True,-0.5701330802678353,0.2534476786688486,True,expanding_residual_calibrated_gaussian
ar,exact,pre_second,DELTA_TS,2008:Q4:pre_second:exact,2009-02-26,2008:Q4,0.0931111879520567,-0.0942999999999996,0.1874111879520563,15,0.06198909538547986,0.24897609400398235,0.1881604110330149,0.11194906717547887,0.2258067981341495,0.35421093027849704,0.33384752677870155,0.11954459823414579,True,False,False,-0.15586490605192566,0.34208728195603905,True,-0.3164180432946044,0.5026404191987177,True,expanding_residual_calibrated_gaussian
ar,exact,pre_second,DELTA_TS,2009:Q1:pre_second:exact,2009-05-28,2009:Q1,0.1325678027393972,0.2259999999999999,-0.0934321972606027,16,0.05885829135750111,0.24260727803901744,0.4232151815776731,0.07087615222568355,0.6499246488105113,0.29238532708560366,0.390526154723689,0.08521753343635896,False,True,False,-0.11003947529962024,0.37517508077841466,True,-0.26648565846790484,0.5316212639466993,True,expanding_residual_calibrated_gaussian
ar,exact,pre_second,DELTA_TS,2009:Q2:pre_second:exact,2009-08-26,2009:Q2,0.2749823419517103,0.2766999999999999,-0.0017176580482896,17,0.05672629505267802,0.2381728260164833,0.5157941707708975,0.05566473500679489,0.5028770724614896,0.12413745714943411,0.6235520692102272,0.023060952301192175,False,True,False,0.036809515935226994,0.5131551679681936,True,-0.1167770947627842,0.6667417786662048,True,expanding_residual_calibrated_gaussian
ar,exact,pre_second,DELTA_TS,2009:Q3:pre_second:exact,2009-11-23,2009:Q3,0.2248763601779096,-0.5463999999999998,0.7712763601779095,18,0.05359548775522431,0.2315069928862286,-5.005395070078936,0.640714775976085,0.0004318240267668124,0.16568481293198595,0.5427856049816887,0.03323331986168307,True,False,True,-0.006630632708319012,0.45638335306413824,False,-0.15591875673563219,0.6056714770914514,False,expanding_residual_calibrated_gaussian
ar,exact,pre_second,DELTA_TS,2009:Q4:pre_second:exact,2010-02-25,2009:Q4,-0.2121082936084128,-0.3730000000000002,0.1608917063915873,19,0.07756059854534765,0.2784970350746084,0.1925324538513868,0.10116689856159168,0.28172852760375544,0.7768559200529646,0.06946888308410848,0.5173394623852479,True,False,True,-0.4906053286830212,0.06638874146619558,True,-0.6701951518461138,0.24597856462928816,True,expanding_residual_calibrated_gaussian
ar,exact,pre_second,DELTA_TS,2010:Q1:pre_second:exact,2010-05-26,2010:Q1,-0.1805736028353486,-0.2984,0.1178263971646513,20,0.07370585262747227,0.27148821821116337,0.29071918649301176,0.08353180887789231,0.332143537841117,0.747014729138133,0.08048670887325127,0.4714779419250762,True,False,True,-0.45206182104651194,0.09091461537581477,True,-0.6271319832345734,0.2659847775638762,True,expanding_residual_calibrated_gaussian
ar,exact,pre_second,DELTA_TS,2010:Q2:pre_second:exact,2010-08-26,2010:Q2,-0.1040265308932921,0.1048,-0.2088265308932921,21,0.0700415606353572,0.26465366167003473,0.09909011187963435,0.12437470579677638,0.7849603297327316,0.6528648761632992,0.12532514837710385,0.35843766766910873,False,False,False,-0.36868019256332685,0.16062713077674262,True,-0.5393430661772365,0.3312900043906523,True,expanding_residual_calibrated_gaussian
ar,exact,pre_second,DELTA_TS,2010:Q3:pre_second:exact,2010-11-22,2010:Q3,0.0998453241604311,0.0339999999999998,0.0658453241604313,22,0.07098060420561815,0.2664218538438958,0.3731949917430748,0.06872077705514933,0.40239728529551244,0.3539179886936769,0.35348627064948734,0.13019852213758082,False,False,False,-0.16657652968346467,0.36626717800432684,True,-0.33837962843383584,0.5380702767546981,True,expanding_residual_calibrated_gaussian
ar,exact,pre_second,DELTA_TS,2010:Q4:pre_second:exact,2011-02-24,2010:Q4,0.0543732040476938,0.3264,-0.2720267959523061,23,0.06776836589807013,0.26032357922030447,-0.11907560904074532,0.1649447553761277,0.8519784446421514,0.417275734649418,0.2879420404449108,0.16424933242644488,False,True,False,-0.20595037517261067,0.31469678326799827,False,-0.3738209794138129,0.48256738750920053,True,expanding_residual_calibrated_gaussian
ar,exact,pre_second,DELTA_TS,2011:Q1:pre_second:exact,2011-05-25,2011:Q1,0.1840968521247026,0.0726999999999999,0.1113968521247026,24,0.0700767944659788,0.264720219223955,0.3216028266462603,0.08029379847534159,0.336947001785482,0.24339000974642327,0.4760478291443523,0.07339633947728573,False,False,False,-0.08062336709925241,0.44881707134865756,True,-0.25132916059320864,0.6195228648426138,True,expanding_residual_calibrated_gaussian
ar,exact,pre_second,DELTA_TS,2011:Q2:pre_second:exact,2011-08-25,2011:Q2,0.0826892785471069,0.3447000000000001,-0.2620107214528931,25,0.06723120147378164,0.25928980210139707,-0.07967841508900364,0.15807132817787437,0.8438706010625454,0.3748985975254271,0.32547929126865394,0.13780272967867344,False,True,False,-0.17660052355429018,0.34197908064850396,False,-0.34380449287090553,0.5091830499651193,True,expanding_residual_calibrated_gaussian
ar,exact,pre_second,DELTA_TS,2011:Q3:pre_second:exact,2011-11-21,2011:Q3,0.2196184979915967,-0.1896000000000002,0.4092184979915969,26,0.0687823645686042,0.26226392159159867,-0.7978508272343043,0.27462997961339586,0.05934085370733408,0.20118528619185477,0.529814833620841,0.05480088895872976,True,False,False,-0.04264542360000198,0.48188241958319533,False,-0.21176726465686088,0.6510042606400542,True,expanding_residual_calibrated_gaussian
ar,exact,pre_second,DELTA_TS,2011:Q4:pre_second:exact,2012-02-28,2011:Q4,-0.0390680507254161,-0.0276,-0.0114680507254161,27,0.07072487799945637,0.26594149356476204,0.404610637026921,0.062346449860018395,0.5171980412315593,0.5583963721115561,0.18433970185714987,0.27254284697697373,True,False,False,-0.3050095442901781,0.22687344283934593,True,-0.47650288097230653,0.39836677952147437,True,expanding_residual_calibrated_gaussian
ar,exact,pre_second,DELTA_TS,2012:Q1:pre_second:exact,2012-05-30,2012:Q1,0.0201593821295551,0.0121,0.0080593821295551,28,0.06834419067188502,0.26142721868980096,0.42218562838517315,0.061193340410660345,0.4877031967548862,0.4692669093050167,0.2457520556546806,0.19985365773076,False,False,False,-0.24126783656024586,0.28158660081935605,True,-0.4098501267161997,0.4501688909753099,True,expanding_residual_calibrated_gaussian
ar,exact,pre_second,DELTA_TS,2012:Q2:pre_second:exact,2012-08-28,2012:Q2,0.0542284222174149,-0.4791000000000001,0.533328422217415,29,0.0660246454454121,0.2569526132293892,-1.7141130551230463,0.39191347773713875,0.018965916942470653,0.4164262942480924,0.28525206863840324,0.16123420674472477,True,False,True,-0.20272419101197434,0.31118103544680414,False,-0.36842101560760476,0.4768778600424346,False,expanding_residual_calibrated_gaussian
ar,exact,pre_second,DELTA_TS,2012:Q3:pre_second:exact,2012-11-28,2012:Q3,-0.1690199464195982,0.4342999999999999,-0.6033199464195982,30,0.07104872098788102,0.2665496595155976,-2.158330803572821,0.4551067689720561,0.9881958010258671,0.7369932068611247,0.08311306896121329,0.45373663711133916,False,True,False,-0.4355696059351958,0.09752971309599942,False,-0.607455120636509,0.26941522779731253,False,expanding_residual_calibrated_gaussian
ar,exact,pre_second,DELTA_TS,2012:Q4:pre_second:exact,2013-02-27,2012:Q4,0.2334352574488747,0.2525,-0.0190647425511252,31,0.08378353873722587,0.2894538628818518,0.31865176161176306,0.06814468083535447,0.5262571597856693,0.20998654633722774,0.5459801574542805,0.06714144039737346,False,True,False,-0.056018605432977125,0.5228891203307265,True,-0.24267397874745336,0.7095444936452028,True,expanding_residual_calibrated_gaussian
ar,exact,pre_second,DELTA_TS,2013:Q1:pre_second:exact,2013-05-29,2013:Q1,0.1899848579887264,-0.6094000000000002,0.7993848579887266,32,0.0812705840721508,0.2850799608393245,-3.595364050458443,0.6389737591489406,0.002523078400099465,0.25256924487584415,0.4859876440458337,0.08565852417387035,True,False,True,-0.0950951028505981,0.47506481882805096,False,-0.2789299495690202,0.6588996655464731,False,expanding_residual_calibrated_gaussian
ar,exact,pre_second,DELTA_TS,2013:Q2:pre_second:exact,2013-08-28,2013:Q2,-0.2371281731179624,-0.0339999999999998,-0.2031281731179626,33,0.09545799770109731,0.30896277720964593,0.03947442035874607,0.12364138035506043,0.7445548138215109,0.7786071239713733,0.07855994793814491,0.5478259079062668,True,False,False,-0.5460909503276083,0.07183460409168355,True,-0.7453267178042482,0.27107037156832336,True,expanding_residual_calibrated_gaussian
ar,exact,pre_second,DELTA_TS,2013:Q3:pre_second:exact,2013-12-04,2013:Q3,0.0214258366188206,0.5327999999999999,-0.5113741633811792,34,0.09490532510322071,0.3080670789020156,-1.119208189406339,0.3499810768410606,0.9515371615856058,0.4722762128366954,0.28107196091654185,0.23614486080226021,False,True,False,-0.28664124228319504,0.3294929155208362,False,-0.4852994154575052,0.5281510886951464,False,expanding_residual_calibrated_gaussian
ar,exact,pre_second,DELTA_TS,2013:Q4:pre_second:exact,2014-02-27,2013:Q4,0.2638284005265996,0.2418,0.0220284005265996,35,0.10179226846287516,0.31904900636559763,0.2210884969798185,0.0751666716739282,0.4724773218402137,0.20414085139415314,0.5792825054975095,0.07300307437371985,False,True,False,-0.055220605838998016,0.5828774068921972,True,-0.26096051476911697,0.7886173158223162,True,expanding_residual_calibrated_gaussian
ar,exact,pre_second,DELTA_TS,2014:Q1:pre_second:exact,2014-05-28,2014:Q1,0.1500423574002036,-1.9455,2.0955423574002037,36,0.09891233029446758,0.3145033072870102,-21.960106853684337,1.9181028674387677,1.341270282658598e-11,0.316653574594126,0.43689504011837244,0.13285409430669318,True,False,True,-0.1644609498868066,0.4645456646872138,False,-0.3672695482790685,0.6673542630794758,False,expanding_residual_calibrated_gaussian
ar,exact,pre_second,DELTA_TS,2014:Q2:pre_second:exact,2014-08-27,2014:Q2,-0.7957150664800472,0.4200999999999997,-1.215815066480047,37,0.20890749744655665,0.4570639971016714,-3.673951203083005,0.9590478704207419,0.9960935976632311,0.9591518148955602,0.01468432265697317,0.9037726143684184,False,True,False,-1.2527790635817186,-0.3386510693783758,False,-1.5475184398616686,-0.0439116930984258,False,expanding_residual_calibrated_gaussian
ar,exact,pre_second,DELTA_TS,2014:Q3:pre_second:exact,2014-11-24,2014:Q3,0.18616178702778,1.0710000000000002,-0.8848382129722201,38,0.24940188373217378,0.4994015255605191,-1.7942263043341802,0.6183835907356846,0.9617858842867542,0.3546599054901347,0.4889468863031383,0.219687482407362,False,True,False,-0.3132397385327391,0.6855633125882991,False,-0.6352806235955382,1.007604197651098,False,expanding_residual_calibrated_gaussian
ar,exact,pre_second,DELTA_TS,2014:Q4:pre_second:exact,2015-02-26,2014:Q4,0.4841223334290574,0.0249999999999999,0.4591223334290575,39,0.26638656437892777,0.5161265003649084,-0.6531882023533115,0.2735992402740629,0.18685273867317334,0.17412435772053028,0.709008237557719,0.09250375808583158,False,False,False,-0.03200416693585095,1.000248833793966,True,-0.3648302126619325,1.3330748795200473,True,expanding_residual_calibrated_gaussian
ar,exact,pre_second,DELTA_TS,2015:Q1:pre_second:exact,2015-05-28,2015:Q1,0.0561086229840617,0.5774,-0.5212913770159383,40,0.2637631042463154,0.513578722540484,-0.7677168126679716,0.31469429688913486,0.8449512506931195,0.4565019877419478,0.3896720274834713,0.3090043487816764,False,True,False,-0.45747009955642226,0.5696873455245457,False,-0.7886532015117571,0.9008704474798805,True,expanding_residual_calibrated_gaussian
ar,exact,pre_second,DELTA_TS,2015:Q2:pre_second:exact,2015-08-26,2015:Q2,0.3625495083294923,0.2363999999999997,0.1261495083294925,41,0.26538668172090285,0.515156948629156,-0.28563696004767425,0.1326520913798773,0.4032762711924958,0.24078951938843357,0.623821861974729,0.13741735243481168,False,True,False,-0.15260744029966367,0.8777064569586482,True,-0.4848082670724281,1.2099072837314127,True,expanding_residual_calibrated_gaussian
ar,exact,pre_second,DELTA_TS,2015:Q3:pre_second:exact,2015-11-23,2015:Q3,0.1202330462125123,-0.0944999999999998,0.2147330462125121,42,0.25907061689474675,0.508989800383806,-0.33260295500161696,0.1545625937710238,0.336555996684309,0.4066313801651713,0.43773425456550885,0.26462407061174276,True,False,False,-0.38875675417129374,0.6292228465963183,True,-0.7169806730300969,0.9574467654551215,True,expanding_residual_calibrated_gaussian
ar,exact,pre_second,DELTA_TS,2015:Q4:pre_second:exact,2016-02-25,2015:Q4,0.0072572058068582,0.3811,-0.3738427941931417,43,0.2535570656965029,0.5035445022006525,-0.5084509707760168,0.2235831457038956,0.7710843199291311,0.4942505458884808,0.3509443693140305,0.34031756149907777,False,True,False,-0.4962872963937943,0.5108017080075107,True,-0.8209997949693587,0.8355142065830751,True,expanding_residual_calibrated_gaussian
ar,exact,pre_second,DELTA_TS,2016:Q1:pre_second:exact,2016-05-26,2016:Q1,0.2376238772222749,0.2323999999999999,0.005223877222275,44,0.2517593208876505,0.501756236520933,-0.2293518677513138,0.11727960926123304,0.4958466129733301,0.3178981858409024,0.5298864276267643,0.19155394037537862,False,True,False,-0.26413235929865814,0.7393801137432079,True,-0.5876916882647025,1.0629394427092524,True,expanding_residual_calibrated_gaussian
ar,exact,pre_second,DELTA_TS,2016:Q2:pre_second:exact,2016-08-25,2016:Q2,0.1766591280750276,0.3151999999999999,-0.1385408719249723,45,0.2460662563463859,0.49605065905246604,-0.25686213427130694,0.13126116862113596,0.6099879963427686,0.36087114760604344,0.4812353323091414,0.22383181899284935,False,True,False,-0.31939153097743844,0.6727097871274936,True,-0.6392715976190892,0.9925898537691444,True,expanding_residual_calibrated_gaussian
ar,exact,pre_second,DELTA_TS,2016:Q3:pre_second:exact,2016-11-28,2016:Q3,0.2085726636292308,0.3584,-0.1498273363707691,46,0.24129409251548758,0.49121695055798675,-0.2545854677956068,0.13288624602575394,0.6198217043148541,0.3355627019827693,0.5069619429409071,0.2027733319796599,False,True,False,-0.282644286928756,0.6997896141872175,True,-0.5994073191161158,1.0165526463745773,True,expanding_residual_calibrated_gaussian
ar,exact,pre_second,DELTA_TS,2016:Q4:pre_second:exact,2017-02-27,2016:Q4,0.1857855496112392,0.2233,-0.0375144503887607,47,0.2367872182612091,0.48660786909092324,-0.2016135831236965,0.11487103734884474,0.530725537928748,0.35130587679389447,0.488348032900086,0.21394548319784243,False,True,False,-0.3008223194796841,0.6723934187021624,True,-0.6146131687660931,0.9861842679885714,True,expanding_residual_calibrated_gaussian
ar,exact,pre_second,DELTA_TS,2017:Q1:pre_second:exact,2017-05-25,2017:Q1,0.1537243117302007,0.2690000000000001,-0.1152756882697993,48,0.2318514113250413,0.48150951322382124,-0.21676657165166183,0.12348389992986362,0.5946041454675455,0.3747665828858534,0.4617184115826164,0.23128687309102655,False,True,False,-0.32778520149362056,0.6352338249540219,True,-0.6382883575076395,0.9457369809680409,True,expanding_residual_calibrated_gaussian
ar,exact,pre_second,DELTA_TS,2017:Q2:pre_second:exact,2017-08-29,2017:Q2,0.1888077505774061,0.0266999999999999,0.1621077505774062,49,0.22745827282961703,0.4769258567425518,-0.2363107660131393,0.13322793784225903,0.36696540364524977,0.346094966273672,0.4906386880831859,0.2074682437446462,False,False,False,-0.28811810616514566,0.6657336073199579,True,-0.5956654746725185,0.9732809758273306,True,expanding_residual_calibrated_gaussian
ar,exact,pre_second,DELTA_TS,2017:Q3:pre_second:exact,2017-11-28,2017:Q3,0.0439172242577536,-0.1394999999999999,0.1834172242577536,50,0.22317550364793337,0.4724145463974764,-0.2444110328971197,0.1384590624817563,0.348913734456343,0.4629663510241643,0.3705512619339195,0.3028153572713347,True,False,False,-0.4284973221397228,0.51633177065523,True,-0.73313555580877,0.8209700043242771,True,expanding_residual_calibrated_gaussian
ar,exact,pre_second,DELTA_TS,2017:Q4:pre_second:exact,2018-02-27,2017:Q4,-0.0345783611468029,0.3519000000000001,-0.386478361146803,51,0.21916890047584336,0.46815478260490234,-0.5007366030526792,0.22992405524329002,0.7954661625876999,0.5294394893698986,0.308160896408043,0.36191371603728917,False,True,False,-0.5027331437517052,0.43357642145809944,True,-0.8046244532891546,0.7354677309955487,True,expanding_residual_calibrated_gaussian
ar,exact,pre_second,DELTA_TS,2018:Q1:pre_second:exact,2018-05-29,2018:Q1,0.1964108625937384,-0.1833000000000002,0.3797108625937386,52,0.21826762422320553,0.46719120734791825,-0.48820524985274394,0.22594348558860722,0.2081799620159868,0.33709375818280596,0.49693520649642475,0.19808030862875098,True,False,False,-0.27078034475417984,0.6636020699416567,True,-0.5720502892923222,0.964872014479799,True,expanding_residual_calibrated_gaussian
ar,exact,pre_second,DELTA_TS,2018:Q2:pre_second:exact,2018-08-28,2018:Q2,-0.0306561516332095,-0.0674999999999999,0.0368438483667903,53,0.21643506008666558,0.4652258162297806,-0.15684214158590182,0.10988439083290294,0.468438512987047,0.5262693718708344,0.3100198919202387,0.3579276794640285,True,False,False,-0.4958819678629901,0.4345696645965711,True,-0.7958845228102231,0.7345722195438043,True,expanding_residual_calibrated_gaussian
ar,exact,pre_second,DELTA_TS,2018:Q3:pre_second:exact,2018-11-27,2018:Q3,-0.022605780705315,-0.1484999999999998,0.1258942192946848,54,0.21235175235477546,0.4608163976626434,-0.18150158170801217,0.12132701859610806,0.39235042433947254,0.5195626413202471,0.31452363080209733,0.35013486106789926,True,False,False,-0.48342217836795837,0.4382106169573284,True,-0.7805813037594259,0.7353697423487958,True,expanding_residual_calibrated_gaussian
ar,exact,pre_second,DELTA_TS,2019:Q1:pre_second:exact,2019-05-29,2019:Q1,-0.5635001866146694,0.0609999999999999,-0.6245001866146693,55,0.20857810327972326,0.4567035179191455,-1.0701204234341113,0.4028035885402158,0.9142513208101302,0.8913691907477836,0.04728550181228153,0.7869611920069371,False,False,False,-1.0202037045338148,-0.1067966686955239,False,-1.3147106245054725,0.18771025127613372,True,expanding_residual_calibrated_gaussian
ar,exact,pre_second,DELTA_TS,2019:Q2:pre_second:exact,2019-08-28,2019:Q2,0.0553867231403613,-0.0236,0.0789867231403613,56,0.21253233072143982,0.46101228912192765,-0.15928549171684772,0.11312199387282265,0.4319808777142586,0.45218551604069035,0.3768796224901223,0.28979987760523107,True,False,False,-0.40562556598156635,0.5163990122622889,True,-0.7029110126910422,0.8136844589717648,True,expanding_residual_calibrated_gaussian
ar,exact,pre_second,DELTA_TS,2019:Q3:pre_second:exact,2019-11-26,2019:Q3,0.0400819187290437,-0.0214000000000003,0.061481918729044,57,0.20879332912841236,0.4569390868905968,-0.14478542354478735,0.11007964753767821,0.44648317658023273,0.4650502882196565,0.3631780529197659,0.2996479205287914,True,False,False,-0.4168571681615531,0.4970210056196405,True,-0.7115159956388484,0.7916798330969357,True,expanding_residual_calibrated_gaussian
ar,exact,pre_second,DELTA_TS,2019:Q4:pre_second:exact,2020-02-26,2019:Q4,0.0389260285033676,0.0318999999999998,0.0070260285033678,58,0.20515532919709886,0.45294075682929974,-0.1270649029921758,0.10589345888753937,0.4938118454016518,0.4657567937189454,0.36106326021093604,0.2989233773759252,False,False,False,-0.4140147283259321,0.49186678533266737,True,-0.7060952181614509,0.7839472751681861,True,expanding_residual_calibrated_gaussian
ar,exact,pre_second,DELTA_TS,2020:Q1:pre_second:exact,2020-05-27,2020:Q1,0.0626050123543775,0.0540000000000002,0.0086050123543772,59,0.2016230683454751,0.44902457432246967,-0.1184444971086222,0.10500057310473883,0.49235522210441357,0.444557369294917,0.37980786098818875,0.27932953954852435,False,False,False,-0.3864195619680922,0.5116295866768472,True,-0.6759746873102775,0.8011847120190326,True,expanding_residual_calibrated_gaussian
ar,exact,pre_second,DELTA_TS,2020:Q4:pre_second:exact,2021-02-24,2020:Q4,-0.0619677598879055,0.2328999999999998,-0.2948677598879055,60,0.19820954639415053,0.44520730721109075,-0.32905428625898936,0.17922648448345588,0.7461155202799401,0.5553494222053846,0.27812605528430057,0.3782651269495859,False,True,False,-0.5071750670989963,0.38323954732318527,True,-0.7942686138993664,0.6703330941235555,True,expanding_residual_calibrated_gaussian
ar,exact,pre_second,DELTA_TS,2021:Q1:pre_second:exact,2021-05-26,2021:Q1,0.0741194561374736,-0.0379000000000004,0.1120194561374741,61,0.19656754113510322,0.44335938146734105,-0.1374826346449762,0.11484240053284861,0.4002652407358095,0.4336154217493284,0.3882341607386556,0.2681959730165573,True,False,False,-0.36923992532986744,0.5174788376048146,True,-0.6551418305120437,0.8033807427869909,True,expanding_residual_calibrated_gaussian
ar,exact,pre_second,DELTA_TS,2021:Q2:pre_second:exact,2021-08-25,2021:Q2,0.0542172340461517,0.1697000000000006,-0.1154827659538488,62,0.19348688118616766,0.43987143711108095,-0.13212873057032773,0.11482210381965789,0.6035464771724502,0.4509517947852143,0.3701631369564059,0.28165389848184874,False,False,False,-0.38565420306492926,0.49408867115723265,True,-0.6693068946783662,0.7777413627706695,True,expanding_residual_calibrated_gaussian
ar,exact,pre_second,DELTA_TS,2021:Q3:pre_second:exact,2021-11-23,2021:Q3,0.0647130031895999,0.1993999999999998,-0.1346869968103998,63,0.190656545095586,0.43664235375829724,-0.13787169695024173,0.11848526042320166,0.6211340918753133,0.4410901105907431,0.3783432927774518,0.27217546007308535,False,False,False,-0.37192935056869736,0.5013553569478971,True,-0.653499756070363,0.7829257624495629,True,expanding_residual_calibrated_gaussian
ar,exact,pre_second,DELTA_TS,2021:Q4:pre_second:exact,2022-02-23,2021:Q4,0.0785903836922474,-0.0928000000000004,0.1713903836922479,64,0.18799277993406993,0.43358134177345536,-0.16138977827568057,0.12800717475792125,0.34631442645140764,0.4280822668480779,0.38973270030255414,0.2602635374293185,True,False,False,-0.35499095808120795,0.5121717254657028,True,-0.6345874589023066,0.7917682262868013,True,expanding_residual_calibrated_gaussian
ar,exact,pre_second,DELTA_TS,2022:Q1:pre_second:exact,2022-05-25,2022:Q1,0.0505502027361366,-0.0639,0.1144502027361367,65,0.1854304449086415,0.4306163546692595,-0.11172093354879131,0.11269730401466406,0.39520343998695107,0.4532753670984215,0.3642730473179415,0.2803369295608392,True,False,False,-0.38006615193312293,0.4811665574053961,True,-0.6577506700662163,0.7588510755384896,True,expanding_residual_calibrated_gaussian
ar,exact,pre_second,DELTA_TS,2022:Q2:pre_second:exact,2022-08-24,2022:Q2,0.0719132614688264,-0.0022999999999999,0.0742132614688264,66,0.18271962321031376,0.4274571595029305,-0.08410852645572238,0.10502192425886994,0.43108375778724345,0.43319919791608946,0.3822227837945702,0.26234970519773154,True,False,False,-0.35554389803410413,0.4993704209717569,True,-0.6311911977059428,0.7750177206435955,True,expanding_residual_calibrated_gaussian
ar,exact,pre_second,DELTA_TS,2022:Q3:pre_second:exact,2022-11-29,2022:Q3,0.0720417926744967,0.3147000000000002,-0.2426582073255034,67,0.17999644125171863,0.42425987466612797,-0.22509657190179222,0.15305512234811539,0.7163242888540449,0.43258142785262277,0.3814772199038987,0.2606915048453746,False,True,False,-0.3522180819916313,0.49630166734062464,True,-0.6258036009400608,0.7698871862890543,True,expanding_residual_calibrated_gaussian
ar,exact,pre_second,DELTA_TS,2022:Q4:pre_second:exact,2023-02-22,2022:Q4,0.0816900767583872,-0.1016999999999996,0.1833900767583869,68,0.17832405504209412,0.42228432961938583,-0.15116211798664592,0.1299685178219049,0.33204218609282415,0.4233040469023607,0.3896748829339982,0.2523660787385182,True,False,False,-0.34059425286099865,0.503974406377773,True,-0.6129058344208306,0.7762859879376051,True,expanding_residual_calibrated_gaussian
ar,exact,pre_second,DELTA_TS,2023:Q1:pre_second:exact,2023-05-24,2023:Q1,0.0603343116893237,0.7302,-0.6698656883106762,69,0.17610731549635314,0.4196514214158617,-1.324603698437348,0.45278322730513093,0.9447827364892143,0.442840080503694,0.36963750659622474,0.26751090560404367,False,True,False,-0.359317109726538,0.4799857331051854,False,-0.6299308508818972,0.7505994742605445,True,expanding_residual_calibrated_gaussian
ar,exact,pre_second,DELTA_TS,2023:Q2:pre_second:exact,2023-08-29,2023:Q2,0.1087417862766018,0.0009000000000001,0.1078417862766016,70,0.1803244479192534,0.4246462621044172,-0.09468676853622873,0.11010524593960125,0.39976448418527605,0.39894601304334437,0.41492105242955024,0.23359570047503112,False,False,False,-0.3159044758278154,0.5333880483810189,True,-0.5897391581172343,0.8072227306704379,True,expanding_residual_calibrated_gaussian
ar,exact,pre_second,DELTA_TS,2023:Q3:pre_second:exact,2023-11-28,2023:Q3,0.0694852593005626,-0.2930999999999999,0.3625852593005625,71,0.1778868936261584,0.4217663969855332,-0.42516199382379743,0.2157903321803436,0.19498199706960376,0.43457108432054625,0.37849040570281023,0.26142956529651373,True,False,True,-0.3522811376849706,0.4912516562860958,True,-0.6242587285073462,0.7632292471084714,True,expanding_residual_calibrated_gaussian
ar,exact,pre_second,DELTA_TS,2023:Q4:pre_second:exact,2024-02-27,2023:Q4,0.0457694123409471,0.1876999999999999,-0.1419305876590528,72,0.17710736340937752,0.4208412567814348,-0.11030923739879589,0.11726558567649384,0.6320374540153091,0.4566976342922606,0.3570028607258622,0.2796116600778865,False,False,False,-0.3750718444404877,0.4666106691223819,True,-0.6464528552468117,0.737991679928706,True,expanding_residual_calibrated_gaussian
ar,exact,pre_second,DELTA_TS,2024:Q1:pre_second:exact,2024-05-29,2024:Q1,0.0752473310114067,0.1602999999999999,-0.0850526689885931,73,0.1749847570334232,0.41831179404054963,-0.06808057502793953,0.10463269106949623,0.5805589531855526,0.42862206947831705,0.38276423035033336,0.2552704707130437,False,False,False,-0.34306446302914295,0.4935591250519563,True,-0.6128143406127686,0.763309002635582,True,expanding_residual_calibrated_gaussian
ar,exact,pre_second,DELTA_TS,2024:Q2:pre_second:exact,2024-08-28,2024:Q2,0.0787934106925951,0.0381,0.0406934106925951,74,0.17271714685598435,0.41559252502419286,-0.045682358439147905,0.09871022660827217,0.4609992557242052,0.4248140580519972,0.3852780139582267,0.25116328459747683,False,False,False,-0.33679911433159776,0.49438593571678796,True,-0.604795461427369,0.7623822828125593,True,expanding_residual_calibrated_gaussian
ar,exact,pre_second,DELTA_TS,2024:Q3:pre_second:exact,2024-11-26,2024:Q3,0.0684695138011854,0.2393999999999998,-0.1709304861988143,75,0.17039449837306414,0.4127886848898164,-0.11985313738497602,0.12430715576313427,0.6605948549533472,0.43412938573819493,0.3750002184531186,0.2577233894885729,False,True,False,-0.34431917108863097,0.48125819869100184,True,-0.6105074517043575,0.7474464793067283,True,expanding_residual_calibrated_gaussian
ar,exact,pre_second,DELTA_TS,2024:Q4:pre_second:exact,2025-02-26,2024:Q4,0.0796362276898672,0.1044,-0.0247637723101328,76,0.16856232673525973,0.41056342595908335,-0.030532723743262644,0.09654231621480502,0.5240482423377878,0.42310041090789857,0.3846971375077307,0.24790296947340631,False,False,False,-0.3309271982692161,0.4901996536489506,True,-0.5956805125925533,0.7549529679722877,True,expanding_residual_calibrated_gaussian
ar,exact,pre_third,DELTA_MT,2008:Q1:pre_third:exact,2008-06-25,2008:Q1,1.7202185393012928,-2.6557,4.375918539301293,12,2.662597258247354,1.6317466893630745,-5.0044512733058095,3.4589760806592005,0.003662030152618667,0.14589130685572635,0.8242415579202653,0.11964023598599303,True,False,True,0.08847184993821822,3.3519652286643673,False,-0.9637659209636176,4.404202999566203,False,expanding_residual_calibrated_gaussian
ar,exact,pre_third,DELTA_MT,2008:Q2:pre_third:exact,2008-09-25,2008:Q2,0.8561377278079947,-0.4218999999999999,1.2780377278079946,13,3.550515918355108,1.884281273683711,-1.782505147811972,0.7734964036157251,0.248802568085098,0.3247856920786537,0.6361611810589785,0.2875695683485289,True,False,True,-1.0281435458757162,2.7404190014917056,True,-2.243229159407397,3.9555046150233864,True,expanding_residual_calibrated_gaussian
ar,exact,pre_third,DELTA_MT,2008:Q3:pre_third:exact,2008-12-22,2008:Q3,0.3889916780206182,-1.5739999999999998,1.962991678020618,14,3.2893061297126414,1.8136444330994543,-2.1000138103429613,1.1974663908189358,0.13954929881485012,0.41508611862486317,0.5414968550435161,0.3726829226689257,True,False,True,-1.4246527550788362,2.2026361111200723,False,-2.594187945763366,3.3721713018046025,True,expanding_residual_calibrated_gaussian
ar,exact,pre_third,DELTA_MT,2008:Q4:pre_third:exact,2009-03-25,2008:Q4,1.55880959294112,-2.1294000000000004,3.68820959294112,15,3.129839317023177,1.769135189018402,-3.6625265488688568,2.713950631523193,0.018545871196353814,0.18912808928908068,0.7787755095567437,0.16007164267857746,True,False,True,-0.21032559607728185,3.327944781959522,False,-1.3511588392832767,4.468778025165517,False,expanding_residual_calibrated_gaussian
ar,exact,pre_third,DELTA_MT,2009:Q1:pre_third:exact,2009-06-24,2009:Q1,5.114549559835748,1.0301,4.084449559835748,16,3.383023906445801,1.8392998413651325,-3.993976824569991,3.063684131969613,0.013187184046912515,0.0027120532751740817,0.9962296034110522,0.0019296331435195296,False,True,False,3.275249718470615,6.9538494012008805,False,2.089170544715042,8.139928574956453,False,expanding_residual_calibrated_gaussian
ar,exact,pre_third,DELTA_MT,2009:Q2:pre_third:exact,2009-09-29,2009:Q2,3.6942436934611953,0.0229,3.6713436934611954,17,3.681657837423894,1.918764664419244,-3.4011493304806386,2.6297649286773326,0.02784911940852973,0.027094417340014974,0.9657034332482527,0.021200756648296886,False,False,False,1.7754790290419513,5.613008357880439,False,0.5381566759248773,6.850330710997513,False,expanding_residual_calibrated_gaussian
ar,exact,pre_third,DELTA_MT,2009:Q3:pre_third:exact,2009-12-21,2009:Q3,1.3747717542886857,-0.8215000000000001,2.196271754288686,18,3.774085607726071,1.9427005965217778,-2.2220610806474705,1.35113428969719,0.1291275175311703,0.2395781715428788,0.7273143670846085,0.20879495092398948,True,False,True,-0.5679288422330921,3.3174723508104638,False,-1.820686367980949,4.5702298765583205,True,expanding_residual_calibrated_gaussian
ar,exact,pre_third,DELTA_MT,2009:Q4:pre_third:exact,2010-03-25,2009:Q4,0.8095983736769883,-1.1592000000000002,1.9687983736769883,19,3.5941997899315865,1.8958374903803297,-2.097824537707247,1.1926112509095217,0.14952220940751837,0.334675109816603,0.6261015532587959,0.29717801749353134,True,False,True,-1.0862391167033414,2.7054358640573177,False,-2.308776798485674,3.9279735458396505,True,expanding_residual_calibrated_gaussian
ar,exact,pre_third,DELTA_MT,2010:Q1:pre_third:exact,2010-06-24,2010:Q1,-1.3464424050967403,-0.7871999999999999,-0.5592424050967404,20,3.4168029990892737,1.8484596287420707,-1.5790579614245943,0.4989649914386048,0.6188817211833273,0.7668196592966439,0.20140551666979634,0.7324418792953933,True,False,True,-3.1949020338388108,0.5020172236453304,True,-4.386887929706507,1.6940031195130265,True,expanding_residual_calibrated_gaussian
ar,exact,pre_third,DELTA_MT,2010:Q2:pre_third:exact,2010-09-29,2010:Q2,0.2800605402442713,2.2092,-1.9291394597557288,21,3.4494319742397663,1.8572646484116813,-2.0774914202473393,1.1686255763888622,0.8505276927700771,0.44006992208226725,0.5171917586832095,0.3980193268356137,False,True,False,-1.57720410816741,2.137325188655953,False,-2.7748679529044336,3.334989033392976,True,expanding_residual_calibrated_gaussian
ar,exact,pre_third,DELTA_MT,2010:Q3:pre_third:exact,2010-12-21,2010:Q3,0.7022323196041835,0.5615999999999999,0.1406323196041836,22,3.791806472793666,1.9472561394931243,-1.5879677260575698,0.45911410541347747,0.47121311184582226,0.35918930876598376,0.6017648859172988,0.32156205804628457,False,True,False,-1.2450238198889407,2.6494884590973076,True,-2.500719004044604,3.905183643252971,True,expanding_residual_calibrated_gaussian
ar,exact,pre_third,DELTA_MT,2010:Q4:pre_third:exact,2011-03-24,2010:Q4,0.3765823791324805,-0.9972999999999996,1.37388237913248,23,3.673701688842954,1.9166902954945417,-1.8264390893515152,0.824802892828095,0.23674895301926363,0.422119065825797,0.5367021471329884,0.38177516125706856,True,False,True,-1.5401079163620612,2.2932726746270222,True,-2.7760926051544055,3.5292573634193665,True,expanding_residual_calibrated_gaussian
ar,exact,pre_third,DELTA_MT,2011:Q1:pre_third:exact,2011-06-23,2011:Q1,-1.0718182190136771,-2.8618,1.789981780986323,24,3.5151069987136476,1.8748618612350212,-2.003225613556003,1.0724914486352717,0.16985781311535975,0.7162300990812089,0.24877394223739424,0.679035695179302,True,False,True,-2.946680080248698,0.8030436422213441,True,-4.155691551499089,2.0120551134717353,True,expanding_residual_calibrated_gaussian
ar,exact,pre_third,DELTA_MT,2011:Q2:pre_third:exact,2011-09-28,2011:Q2,0.608687331840768,1.4003,-0.7916126681592319,25,3.3818242491019572,1.8389736945105977,-1.620795964991235,0.5636419746648129,0.6665710632479925,0.370324904629295,0.587935163048007,0.3300593582972154,False,True,False,-1.2302863626698297,2.4476610263513656,True,-2.416155219443337,3.633529883124873,True,expanding_residual_calibrated_gaussian
ar,exact,pre_third,DELTA_MT,2011:Q3:pre_third:exact,2011-12-21,2011:Q3,-0.3933440393749206,-1.9037,1.5103559606250794,26,3.4051307522859444,1.8452996375347674,-1.8665416613928416,0.8986202527337042,0.20653924140681384,0.5843989100628746,0.37389928961586283,0.5417234215714986,True,False,True,-2.238643676909688,1.4519555981598469,True,-3.4285918409862197,2.6419037622363786,True,expanding_residual_calibrated_gaussian
ar,exact,pre_third,DELTA_MT,2011:Q4:pre_third:exact,2012-03-28,2011:Q4,-2.7473739680588154,1.6146000000000005,-4.361973968058816,27,3.2786891114480317,1.8107150829017888,-4.414249431476113,3.3499759760754344,0.9920013830158182,0.9354028465181918,0.05178997874857627,0.9202615619853541,False,True,False,-4.5580890509606045,-0.9366588851570266,False,-5.725735239545559,0.2309873034279275,False,expanding_residual_calibrated_gaussian
ar,exact,pre_third,DELTA_MT,2012:Q1:pre_third:exact,2012-06-27,2012:Q1,-2.2410735922632004,1.5244000000000002,-3.7654735922632,28,4.251700848287106,2.0619652878472774,-3.310023884136299,2.657239543416712,0.9660867374072594,0.8614512998716599,0.11823468805017068,0.8388806950606961,False,True,False,-4.303038880110478,-0.17910830441592296,False,-5.632704674626831,1.15055749010043,False,expanding_residual_calibrated_gaussian
ar,exact,pre_third,DELTA_MT,2012:Q2:pre_third:exact,2012-09-26,2012:Q2,-0.552390073549228,0.5443,-1.096690073549228,29,4.875101910707206,2.2079632946920125,-1.834363291565468,0.7289431896911717,0.6902988431025658,0.5987762424736572,0.3666413652920608,0.5634017556103794,False,True,False,-2.7603533682412404,1.6555732211427845,True,-4.184166506999107,3.079386359900651,True,expanding_residual_calibrated_gaussian
ar,exact,pre_third,DELTA_MT,2012:Q3:pre_third:exact,2012-12-19,2012:Q3,0.4323044465369809,-2.5269,2.959204446536981,30,4.828503145797742,2.197385525072408,-2.6129982618053913,1.9004878016961824,0.08903950946791268,0.42201713816906694,0.5420971752962342,0.38676787888759384,True,False,True,-1.765081078535427,2.629689971609389,False,-3.182073104189034,4.046681997262996,True,expanding_residual_calibrated_gaussian
ar,exact,pre_third,DELTA_MT,2012:Q4:pre_third:exact,2013-03-27,2012:Q4,0.5831210866907051,0.0847999999999999,0.4983210866907051,31,4.825145087063621,2.1966212889489216,-1.7315912087330916,0.5582466079945068,0.41026708541073126,0.39532650821322757,0.569229868817206,0.36072871341574436,False,False,False,-1.6135002022582166,2.7797423756396267,True,-3.0299994074757466,4.196241580857157,True,expanding_residual_calibrated_gaussian
ar,exact,pre_third,DELTA_MT,2013:Q1:pre_third:exact,2013-06-25,2013:Q1,1.014584232915781,2.2271,-1.212515767084219,32,4.672733343598733,2.1616506062726075,-1.8471269587968502,0.7696014170109767,0.7125743896043789,0.31940750561928066,0.6468516495915522,0.2870995224889319,False,True,False,-1.1470663733568265,3.1762348391883886,True,-2.541014607013566,4.570183072845128,True,expanding_residual_calibrated_gaussian
ar,exact,pre_third,DELTA_MT,2013:Q2:pre_third:exact,2013-09-25,2013:Q2,1.0385568946874906,-1.4062,2.4447568946874907,33,4.650686829889752,2.156545114271842,-2.3300216454730838,1.5048568960730735,0.1284717144364422,0.31505086713073194,0.6513037561748473,0.28287408511566614,True,False,True,-1.1179882195843516,3.1951020089593327,False,-2.508644158207026,4.585757947582007,True,expanding_residual_calibrated_gaussian
ar,exact,pre_third,DELTA_MT,2013:Q3:pre_third:exact,2013-12-19,2013:Q3,0.4541913002950837,-0.6842999999999999,1.1384913002950836,34,4.594346335898137,2.143442636484153,-1.822412371689547,0.7366407777510551,0.2976571371922845,0.4160932886330234,0.5471999868141973,0.3801046764246747,True,False,True,-1.689251336189069,2.5976339367792365,True,-3.071458094488301,3.9798406950784684,True,expanding_residual_calibrated_gaussian
ar,exact,pre_third,DELTA_MT,2013:Q4:pre_third:exact,2014-03-26,2013:Q4,-0.6314836412317248,0.9040000000000004,-1.5354836412317252,35,4.4625163963839825,2.112466898293079,-1.9309631623359276,0.9203147200576427,0.7663464516070271,0.6175039781820081,0.34693527710478944,0.5809232004806861,False,True,False,-2.743950539524804,1.4809832570613541,True,-4.106182480704023,2.8432151982405727,True,expanding_residual_calibrated_gaussian
ar,exact,pre_third,DELTA_MT,2014:Q1:pre_third:exact,2014-06-24,2014:Q1,-0.9781149028640296,1.5587000000000002,-2.5368149028640294,36,4.487628231360045,2.118402282702708,-2.38661974629743,1.5805444031973763,0.8844467261281058,0.6778599863048539,0.28905972884316056,0.6433069049443572,False,True,False,-3.0965171855667375,1.1402873798386786,False,-4.4625765809098565,2.5063467751817976,True,expanding_residual_calibrated_gaussian
ar,exact,pre_third,DELTA_MT,2014:Q2:pre_third:exact,2014-09-25,2014:Q2,2.7691950804953116,0.6755000000000004,2.093695080495311,37,4.653767715734706,2.157259306558835,-2.158745941592965,1.2566852429101425,0.16589001090867952,0.09962985648288362,0.8831640398426557,0.08435297538286815,False,True,False,0.6119357739364766,4.926454387054147,True,-0.779180714172806,6.31757087516343,True,expanding_residual_calibrated_gaussian
ar,exact,pre_third,DELTA_MT,2014:Q3:pre_third:exact,2014-12-22,2014:Q3,-1.5584745254200678,-0.0165000000000006,-1.5419745254200672,38,4.5824831381227105,2.140673524412985,-1.9394910335058186,0.9251674437908409,0.7643366606693847,0.7667023860142963,0.20569256831540206,0.7371558093151871,True,False,False,-3.699148049833053,0.5821989989929173,True,-5.0795691361697575,1.9626200853296214,True,expanding_residual_calibrated_gaussian
ar,exact,pre_third,DELTA_MT,2014:Q4:pre_third:exact,2015-03-26,2014:Q4,-0.19951112191033,-0.1787999999999998,-0.0207111219103302,39,4.589920826913814,2.142410051067212,-1.6809166480950253,0.5007503432408525,0.5038565976230513,0.5370977207585536,0.42603518804688867,0.4999089650750371,True,False,False,-2.341921172977542,1.9428989291568821,True,-3.7234620648255228,3.3244398210048627,True,expanding_residual_calibrated_gaussian
ar,exact,pre_third,DELTA_MT,2015:Q1:pre_third:exact,2015-06-23,2015:Q1,0.6358367482773168,3.8228,-3.186963251722683,40,4.482988142120996,2.1173068134120276,-2.801892012651689,2.115040973691788,0.9338632447410433,0.3819724533497638,0.581543955233228,0.34650849063384165,False,True,False,-1.4814700651347108,2.7531435616893445,False,-2.8468230431325208,4.118496539687154,True,expanding_residual_calibrated_gaussian
ar,exact,pre_third,DELTA_MT,2015:Q2:pre_third:exact,2015-09-24,2015:Q2,1.173500632020969,-1.4206999999999996,2.5942006320209687,41,4.724189726290471,2.1735201232770933,-2.407564996954001,1.6150478079636261,0.11632740939419452,0.29463028320670326,0.6728841560687794,0.2637181043535446,True,False,True,-1.0000194912561242,3.3470207552980624,False,-2.401621826003369,4.748623090045307,True,expanding_residual_calibrated_gaussian
ar,exact,pre_third,DELTA_MT,2015:Q3:pre_third:exact,2015-12-21,2015:Q3,-1.0382128035491247,-0.3723000000000001,-0.6659128035491246,42,4.710805805603045,2.1704390812927796,-1.7409342649392847,0.5880947345625219,0.6205060700987436,0.6837966998906971,0.2841728556621611,0.6503238858419397,True,False,True,-3.2086518848419043,1.132226277743655,True,-4.608267398490774,2.531841791392525,True,expanding_residual_calibrated_gaussian
ar,exact,pre_third,DELTA_MT,2015:Q4:pre_third:exact,2016-03-24,2015:Q4,-0.240254393282667,-0.6463000000000001,0.406045606717333,43,4.634470829454959,2.1527821137901904,-1.7034872324352723,0.5335575145697181,0.4251975411184526,0.5444304339572864,0.4189794993477811,0.5074592981636303,True,False,True,-2.3930365070728574,1.9125277205075233,True,-3.7812658611867187,3.3007570746213846,True,expanding_residual_calibrated_gaussian
ar,exact,pre_third,DELTA_MT,2016:Q1:pre_third:exact,2016-06-27,2016:Q1,1.1881172366799224,1.2657999999999998,-0.0776827633200774,44,4.527140257521183,2.1277077472061765,-1.6746502510967356,0.4983659693272651,0.5145621761663192,0.2882847972543525,0.6788210476825607,0.25707147572221917,False,True,False,-0.9395905105262541,3.315824983886099,True,-2.311650568404903,4.687885041764748,True,expanding_residual_calibrated_gaussian
ar,exact,pre_third,DELTA_MT,2016:Q2:pre_third:exact,2016-09-28,2016:Q2,0.3712740935413687,-0.1234999999999999,0.4947740935413687,45,4.4328180017714365,2.1054258480819117,-1.6910686735367677,0.5382008385771414,0.40710454738604096,0.43001280390793767,0.5324177600444021,0.39306699234283454,True,False,False,-1.734151754540543,2.47669994162328,True,-3.091843248953543,3.83439143603628,True,expanding_residual_calibrated_gaussian
ar,exact,pre_third,DELTA_MT,2016:Q3:pre_third:exact,2016-12-21,2016:Q3,0.9989944643381364,-0.6490999999999998,1.6480944643381363,46,4.334337042202406,2.0819070685797687,-1.9655597550628467,0.9814529195306094,0.2142890129386205,0.3156685043278891,0.6494292738105428,0.2823374618314098,True,False,True,-1.0829126042416322,3.0809015329179053,True,-2.4254379283912035,4.423426857067477,True,expanding_residual_calibrated_gaussian
ar,exact,pre_third,DELTA_MT,2016:Q4:pre_third:exact,2017-03-29,2016:Q4,0.1040380422599227,0.1576999999999997,-0.0536619577400769,47,4.266774017576946,2.065617103331822,-1.6447049996636596,0.48328046240669076,0.5103628189312014,0.47991513910759914,0.4814730833060139,0.4414910533275823,False,False,False,-1.961579061071899,2.1696551455917445,True,-3.293599742048418,3.5016758265682637,True,expanding_residual_calibrated_gaussian
ar,exact,pre_third,DELTA_MT,2017:Q1:pre_third:exact,2017-06-28,2017:Q1,-0.8654830718520448,0.5367999999999999,-1.4022830718520447,48,4.183646244282709,2.0453963538352924,-1.8695401684820487,0.8471880502659112,0.7535110384369228,0.6639023805270865,0.3012120680398761,0.6275443765199571,False,True,False,-2.9108794256873374,1.1799132819832476,True,-4.229860683011342,2.498894539307253,True,expanding_residual_calibrated_gaussian
ar,exact,pre_third,DELTA_MT,2017:Q2:pre_third:exact,2017-09-27,2017:Q2,1.5616879913834607,-0.8029999999999999,2.3646879913834606,49,4.173465246594149,2.0429060787501094,-2.303228715389457,1.4620300348296598,0.12353165066872368,0.22230124663040593,0.7474684632047632,0.19424909757395017,True,False,True,-0.48121808736664873,3.60459407013357,False,-1.7985934817698666,4.921969464536788,True,expanding_residual_calibrated_gaussian
ar,exact,pre_third,DELTA_MT,2017:Q3:pre_third:exact,2017-12-20,2017:Q3,0.7536980282541998,0.0375999999999998,0.7160980282542,50,4.157816655447545,2.0390724988208597,-1.6931001264706098,0.5758304787215658,0.36272361273614995,0.35582989046374913,0.6070136920223799,0.3199953929335421,False,False,False,-1.2853744705666599,2.7927705270750596,True,-2.6002777670482926,4.107673823556692,True,expanding_residual_calibrated_gaussian
ar,exact,pre_third,DELTA_MT,2017:Q4:pre_third:exact,2018-03-27,2017:Q4,-0.2141667239450817,1.6974,-1.9115667239450815,51,4.075285633461834,2.0187336707604184,-2.069731802444393,1.144407850117883,0.8281586413552026,0.5422443837075135,0.41872291680464047,0.5027996059362889,False,True,False,-2.2329003947055,1.8045669468153367,True,-3.5346881241444152,3.1063546762542518,True,expanding_residual_calibrated_gaussian
ar,exact,pre_third,DELTA_MT,2018:Q1:pre_third:exact,2018-06-27,2018:Q1,0.4135295734801323,1.3022000000000002,-0.8886704265198679,52,4.111054590789875,2.027573572226141,-1.7218285140279332,0.6267803220065552,0.6694128934071485,0.4191951405490528,0.5419362208797719,0.38110002419581074,False,True,False,-1.6140439987460087,2.4411031457062733,True,-2.9215321707069886,3.748591317667253,True,expanding_residual_calibrated_gaussian
ar,exact,pre_third,DELTA_MT,2018:Q2:pre_third:exact,2018-09-26,2018:Q2,0.4427843067490631,-2.0182,2.4609843067490633,53,4.068059522724158,2.01694311340805,-2.364911354910952,1.540158989695637,0.11120295935428197,0.4131176826445949,0.5479059276118339,0.3749799144863635,True,False,True,-1.5741588066589869,2.459727420157113,False,-2.8747918886949626,3.760360502193089,True,expanding_residual_calibrated_gaussian
ar,exact,pre_third,DELTA_MT,2018:Q3:pre_third:exact,2018-12-20,2018:Q3,-0.7922329392393577,-0.8374000000000001,0.0451670607606424,54,4.064876041875277,2.0161537743622824,-1.620381095427143,0.4715686669044012,0.49106340828748385,0.6528191043147122,0.3113096588151343,0.6155232096167644,True,False,True,-2.80838671360164,1.2239208351229247,True,-4.108510787491058,2.5240449090123427,True,expanding_residual_calibrated_gaussian
ar,exact,pre_third,DELTA_MT,2018:Q4:pre_third:exact,2019-04-25,2018:Q4,-0.7287504381451138,-1.5995,0.8707495618548862,55,3.9934396954865212,1.9983592508571928,-1.7061962969855686,0.6160205150104686,0.3315155040604665,0.6423227605979265,0.3210529234971684,0.6043382175302724,True,False,True,-2.7271096890023063,1.269608812712079,True,-4.015758899869594,2.558258023579367,True,expanding_residual_calibrated_gaussian
ar,exact,pre_third,DELTA_MT,2019:Q1:pre_third:exact,2019-06-26,2019:Q1,0.2950732870417027,-0.6073999999999997,0.9024732870417024,56,3.923335153222517,1.9807410616288332,-1.706206224092417,0.6241497605787595,0.3243301688130129,0.44078819630006827,0.5191414192203405,0.4013155342009889,True,False,True,-1.6856677745871305,2.275814348670536,True,-2.962955832230193,3.5531024063135987,True,expanding_residual_calibrated_gaussian
ar,exact,pre_third,DELTA_MT,2019:Q2:pre_third:exact,2019-09-25,2019:Q2,-0.4623798722339782,1.3697,-1.8320798722339784,57,3.8560750626471685,1.963689146134685,-2.0289879516042046,1.0953412846515609,0.8245844809095478,0.5930760413631112,0.3679400974563256,0.5531468003554568,False,True,False,-2.426069018368663,1.5013092739007068,True,-3.6923610864588543,2.767601341990898,True,expanding_residual_calibrated_gaussian
ar,exact,pre_third,DELTA_MT,2019:Q3:pre_third:exact,2019-12-19,2019:Q3,0.5233605281748179,2.6594,-2.1360394718251823,58,3.8830010184524735,1.9705331812614761,-2.1847605146610216,1.3033896137619085,0.860815519629538,0.3952762000555555,0.5651729967255594,0.3567764157725428,False,True,False,-1.4471726530866582,2.493893709436294,False,-2.717878122051344,3.76459917840098,True,expanding_residual_calibrated_gaussian
ar,exact,pre_third,DELTA_MT,2019:Q4:pre_third:exact,2020-03-25,2019:Q4,0.2849310965873983,0.6275,-0.3425689034126016,59,3.9311299992070072,1.9827077442747347,-1.6183281643692664,0.48690306103295633,0.5685871586427409,0.4428655005441462,0.5170838321210404,0.40339074050598134,False,True,False,-1.6977766476873364,2.267638840862133,True,-2.976332927767671,3.5461951209424676,True,expanding_residual_calibrated_gaussian
ar,exact,pre_third,DELTA_MT,2020:Q1:pre_third:exact,2020-06-24,2020:Q1,0.1841743620429881,-0.1679000000000003,0.3520743620429885,60,3.874332194654225,1.9683323384668112,-1.6121223142129606,0.4850461280270135,0.4290201376948542,0.46272587423262895,0.4967924887727324,0.4226269611510342,True,False,False,-1.7841579764238231,2.1525067005097993,True,-3.0534442239300192,3.4217929480159954,True,expanding_residual_calibrated_gaussian
ar,exact,pre_third,DELTA_MT,2020:Q4:pre_third:exact,2021-03-24,2020:Q4,-0.6267577451399444,0.2858999999999998,-0.9126577451399442,61,3.809820193351216,1.951876070182535,-1.6970449466912279,0.6233531607666699,0.679957429251485,0.6259347018453563,0.335939420377223,0.5865346668884,False,True,False,-2.5786338153224797,1.3251183250425906,True,-3.8373081785394736,2.5837926882595847,True,expanding_residual_calibrated_gaussian
ar,exact,pre_third,DELTA_MT,2021:Q1:pre_third:exact,2021-06-23,2021:Q1,0.3306981725669118,-0.6600999999999999,0.9907981725669116,62,3.7756523827457085,1.9431038013306723,-1.7132266349736196,0.651388342466117,0.30505904030569836,0.432430087441241,0.52681366641027,0.3923809489816719,True,False,True,-1.6124056287637605,2.273801973897584,True,-2.8654231625950373,3.526819507728861,True,expanding_residual_calibrated_gaussian
ar,exact,pre_third,DELTA_MT,2021:Q2:pre_third:exact,2021-09-29,2021:Q2,-0.157957585070116,0.2582999999999993,-0.4162575850701153,63,3.720478155603355,1.9288541042814398,-1.5991506675228613,0.4864623536873948,0.5854303721941202,0.53263367404879,0.4263868985437633,0.4913051127781791,False,True,False,-2.086811689351556,1.7708965192113237,True,-3.3306402543576756,3.0147250842174436,True,expanding_residual_calibrated_gaussian
ar,exact,pre_third,DELTA_MT,2021:Q3:pre_third:exact,2021-12-21,2021:Q3,-0.0887519818537052,1.0375,-1.1262519818537051,64,3.671829733264623,1.9162019030531785,-1.742009938844588,0.7045418471917209,0.7216507009016373,0.5184710508452157,0.4401102304039951,0.47685180313840553,False,True,False,-2.0049538849068838,1.8274499211994732,True,-3.2406236320620394,3.063119668354629,True,expanding_residual_calibrated_gaussian
ar,exact,pre_third,DELTA_MT,2021:Q4:pre_third:exact,2022-03-29,2021:Q4,-0.4758059826426706,0.1469000000000004,-0.6227059826426711,65,3.6496917651052376,1.9104166469922832,-1.6193825610333297,0.5267198481075271,0.6277700315249716,0.5983423316613169,0.3617638901002145,0.5573956679083808,False,False,False,-2.386222629634954,1.4346106643496126,True,-3.618161733436398,2.666549768151057,True,expanding_residual_calibrated_gaussian
ar,exact,pre_third,DELTA_MT,2022:Q1:pre_third:exact,2022-06-28,2022:Q1,-0.1190106977561327,0.5592000000000001,-0.6782106977561329,66,3.6082885527039377,1.8995495657402408,-1.6242932594999244,0.5395044945825398,0.6394681869149823,0.5249782144576229,0.4333151696051307,0.48299582641751176,False,True,False,-2.0185602634963735,1.780538867984108,True,-3.243491690538062,3.0054702950257965,True,expanding_residual_calibrated_gaussian
ar,exact,pre_third,DELTA_MT,2022:Q2:pre_third:exact,2022-09-28,2022:Q2,0.6040262600518358,1.2039,-0.5998737399481642,67,3.5693622213978156,1.8892755811151045,-1.6055399538640025,0.5168683606403828,0.6245736513182196,0.3745928926045215,0.5846689490897236,0.3352092036073608,False,True,False,-1.2852493210632687,2.4933018411669403,True,-2.503555531856194,3.7116080519598658,True,expanding_residual_calibrated_gaussian
ar,exact,pre_third,DELTA_MT,2022:Q3:pre_third:exact,2022-12-21,2022:Q3,1.0211250045875602,-0.3241,1.3452250045875602,68,3.5289008435993368,1.8785368890706768,-1.8058331678147719,0.8076955363613526,0.2369640232094284,0.29336710907715025,0.6689837770384104,0.257833039890324,True,False,True,-0.8574118844831167,2.8996618936582372,True,-2.068793210762478,4.111043219937598,True,expanding_residual_calibrated_gaussian
ar,exact,pre_third,DELTA_MT,2022:Q4:pre_third:exact,2023-03-29,2022:Q4,0.1857974722041957,0.2157999999999997,-0.030002527795804,69,3.492243903966305,1.8687546398514454,-1.5443396529171294,0.4369107335673652,0.5064046731584675,0.46040115153350475,0.49696806945040284,0.4182211555947066,False,True,False,-1.6829571676472497,2.054552112055641,True,-2.888030375037846,3.2596253194462377,True,expanding_residual_calibrated_gaussian
ar,exact,pre_third,DELTA_MT,2023:Q1:pre_third:exact,2023-06-28,2023:Q1,-2.3142388313830553,0.9250000000000004,-3.2392388313830556,70,3.443531527218254,1.8556754908168223,-3.0607203627284996,2.2529722371726697,0.9595584326680624,0.8938221446568466,0.0877260742160999,0.8727185863530397,False,True,False,-4.169914322199878,-0.45856334056623305,False,-5.366553392898059,0.738075730131948,False,expanding_residual_calibrated_gaussian
ar,exact,pre_third,DELTA_MT,2023:Q2:pre_third:exact,2023-09-27,2023:Q2,-12.594883125101848,0.4737,-13.06858312510185,71,3.5737135708610572,1.8904268224030936,-25.450754228858035,12.002024003443989,0.999999999997628,0.9999999999865354,6.517453243759519e-12,0.9999999999724866,False,True,False,-14.485309947504941,-10.704456302698755,False,-15.704358540417923,-9.485407709785774,False,expanding_residual_calibrated_gaussian
ar,exact,pre_third,DELTA_MT,2023:Q3:pre_third:exact,2023-12-20,2023:Q3,0.1589788757875312,-0.1657999999999999,0.3247788757875312,72,5.997870782978631,2.44905507961308,-1.823434031872132,0.589489261740199,0.44724934840482666,0.47412108822778076,0.49331811857161856,0.44173235344542533,True,False,False,-2.290076203825549,2.6080339554006113,True,-3.86935825451797,4.187316006093032,True,expanding_residual_calibrated_gaussian
ar,exact,pre_third,DELTA_MT,2023:Q4:pre_third:exact,2024-03-27,2023:Q4,0.1545541656044839,0.0226999999999999,0.131854165604484,73,5.915297759383226,2.432138515665427,-1.8091789900972057,0.5712295938461867,0.4783826268409544,0.474665621111517,0.4925459797137999,0.44204801726375237,False,False,False,-2.277584350060943,2.586692681269911,True,-3.845957693136164,4.155066024345132,True,expanding_residual_calibrated_gaussian
ar,exact,pre_third,DELTA_MT,2024:Q1:pre_third:exact,2024-06-26,2024:Q1,0.2517512521361831,-0.5680999999999999,0.819851252136183,74,5.834282718523031,2.4154259911086142,-1.8584182013464485,0.6744354722003226,0.36714552912713916,0.4584948260755867,0.5085468083781389,0.425819508542317,True,False,True,-2.163674738972431,2.6671772432447973,True,-3.7212709499716756,4.224773454244042,True,expanding_residual_calibrated_gaussian
ar,exact,pre_third,DELTA_MT,2024:Q2:pre_third:exact,2024-09-25,2024:Q2,0.4003926973988654,0.6000000000000001,-0.1996073026011346,75,5.762399217786802,2.4004997850003655,-1.798072652897311,0.5676025041256503,0.5331348169475996,0.4337654575738742,0.5332648905216772,0.4012505460529379,False,True,False,-2.0001070876015,2.800892482399231,True,-3.548078080455215,4.348863475252946,True,expanding_residual_calibrated_gaussian
ar,exact,pre_third,DELTA_MT,2024:Q3:pre_third:exact,2024-12-18,2024:Q3,0.2716681107299452,0.2678000000000002,0.0038681107299449,76,5.686804847565457,2.3847022555374617,-1.7880141248323702,0.557295442441543,0.4993528952156688,0.4546501351971852,0.5119877171592444,0.4216050376758446,False,True,False,-2.1130341448075165,2.656370366267407,True,-3.6508180434902053,4.194154264950096,True,expanding_residual_calibrated_gaussian
ar,exact,pre_third,DELTA_MT,2024:Q4:pre_third:exact,2025-03-26,2024:Q4,0.3361469452895664,-0.5985,0.9346469452895664,77,5.61210621620597,2.3689884373305774,-1.8592301929259438,0.6988518032958295,0.3465933432694772,0.4435815834259174,0.5229147967870202,0.41047668536786597,True,False,True,-2.032841492041011,2.705135382620144,True,-3.5604922780597343,4.232786168638867,True,expanding_residual_calibrated_gaussian
ar,pseudo,pre_advance,DELTA_SA,2008:Q1:pre_advance:pseudo,2008-04-30,2008:Q1,0.1411112771385929,0.3031999999999999,-0.1620887228614069,12,0.4246599209606872,0.6516593596049145,-0.5216391003274016,0.16829114156909322,0.5982160639322176,0.41428285085886285,0.4639976547222556,0.3003304696330272,False,True,False,-0.5105480824663216,0.7927706367435075,True,-0.9307729840444243,1.2129955383216102,True,expanding_residual_calibrated_gaussian
ar,pseudo,pre_advance,DELTA_SA,2008:Q2:pre_advance:pseudo,2008-07-31,2008:Q2,0.282369571934375,1.3898,-1.1074304280656249,13,0.39034904148426913,0.6247791941832483,-2.0194860795511382,0.7740465723702007,0.9618454375419841,0.32565214687657407,0.5524437426826976,0.22003823857643454,False,True,False,-0.34240962224887334,0.9071487661176234,False,-0.7453007516617591,1.3100398955305093,False,expanding_residual_calibrated_gaussian
ar,pseudo,pre_advance,DELTA_SA,2008:Q3:pre_advance:pseudo,2008-10-31,2008:Q3,0.714132038935611,-0.2618,0.975932038935611,14,0.4397619285178273,0.6631454806585259,-1.5910855613659503,0.6432416168089662,0.07055485770722462,0.1407656143763366,0.7809167230844953,0.08402774221794611,True,False,True,0.05098655827708509,1.377277519594137,False,-0.37664521012204255,1.8049092879932644,True,expanding_residual_calibrated_gaussian
ar,pseudo,pre_advance,DELTA_SA,2008:Q4:pre_advance:pseudo,2009-01-31,2008:Q4,0.0793056065031563,-2.4444,2.523705606503156,15,0.489619774192295,0.6997283574304353,-7.065993877277928,2.128979418739733,0.00015506190326214565,0.45488141257423165,0.4315271446928919,0.3448865856738742,True,False,True,-0.6204227509272789,0.7790339639335916,False,-1.0716451200970913,1.230256333103404,False,expanding_residual_calibrated_gaussian
ar,pseudo,pre_advance,DELTA_SA,2009:Q1:pre_advance:pseudo,2009-04-30,2009:Q1,-0.8004772054187677,0.4245000000000001,-1.2249772054187678,16,0.8724453144493385,0.9340478116506341,-1.7106897986157223,0.780994262062496,0.9051507636642305,0.8042770342978589,0.14205775909989526,0.7398478170437643,False,True,False,-1.7345250170694018,0.13357060623186645,False,-2.3368491361583987,0.7358947253208634,True,expanding_residual_calibrated_gaussian
ar,pseudo,pre_advance,DELTA_SA,2009:Q2:pre_advance:pseudo,2009-07-31,2009:Q2,0.6102794438475987,0.0030000000000001,0.6072794438475986,17,0.9222140123109045,0.9603197448302854,-1.0783968070362877,0.3727179747460258,0.2635718699982457,0.2625524577173233,0.6653948670464631,0.1994017496000308,False,False,False,-0.3500403009826867,1.570599188677884,True,-0.9693059714696084,2.189864859164806,True,expanding_residual_calibrated_gaussian
ar,pseudo,pre_advance,DELTA_SA,2009:Q3:pre_advance:pseudo,2009-10-31,2009:Q3,0.1888383411693894,-0.7522000000000002,0.9410383411693896,18,0.8865924051252095,0.9415903595116135,-1.3581674818799925,0.5668761957151592,0.15879715367694366,0.4205242345632513,0.49527102916957677,0.3398182767319277,True,False,True,-0.752752018342224,1.130428700681003,True,-1.3599399767758287,1.7376166591146076,True,expanding_residual_calibrated_gaussian
ar,pseudo,pre_advance,DELTA_SA,2009:Q4:pre_advance:pseudo,2010-01-31,2009:Q4,-0.3373558541688579,0.1962000000000001,-0.5335558541688581,19,0.8781524605607329,0.9370978927309211,-1.0160623635177632,0.3370191538924492,0.715447618861339,0.6405766777250558,0.28317830477890693,0.5582665638673037,False,False,False,-1.274453746899779,0.5997420385620633,True,-1.8787447218358952,1.2040330134981794,True,expanding_residual_calibrated_gaussian
ar,pseudo,pre_advance,DELTA_SA,2010:Q1:pre_advance:pseudo,2010-04-30,2010:Q1,0.0283511514001251,-0.2023000000000001,0.2306511514001252,20,0.8524346657244032,0.9232738844592124,-0.8703138879330322,0.23863310708399726,0.40136374958436594,0.48775152646202025,0.42625639563367823,0.40232733454373865,True,False,True,-0.8949227330590873,0.9516250358593376,True,-1.490299246122185,1.5470015489224351,True,expanding_residual_calibrated_gaussian
ar,pseudo,pre_advance,DELTA_SA,2010:Q2:pre_advance:pseudo,2010-07-31,2010:Q2,-0.0683836223313969,-0.7725,0.704116377668603,21,0.8109702893599383,0.9005388883107371,-1.119847402563579,0.4195430597384302,0.2171415606048919,0.5302651252599597,0.3828418210323462,0.44190033995824335,True,False,True,-0.9689225106421341,0.8321552659793402,True,-1.5496382789801597,1.4128710343173658,True,expanding_residual_calibrated_gaussian
ar,pseudo,pre_advance,DELTA_SA,2010:Q3:pre_advance:pseudo,2010-10-31,2010:Q3,-0.3068047363098523,0.5148000000000001,-0.8216047363098524,22,0.7899349260972257,0.8887828340473424,-1.2283082997812595,0.4908373271508362,0.8223650178799067,0.6350266804700622,0.28426310615818984,0.5478256266795237,False,True,False,-1.1955875703571945,0.5819780977374901,True,-1.7687224044648318,1.1551129318451272,True,expanding_residual_calibrated_gaussian
ar,pseudo,pre_advance,DELTA_SA,2010:Q4:pre_advance:pseudo,2011-01-31,2010:Q4,0.3116384840461248,-0.3850000000000002,0.696638484046125,23,0.791799161277662,0.8898309734312815,-1.1086720253691276,0.41506072418806556,0.21684627977817628,0.3630860061712751,0.5499204339758466,0.2826510925885202,True,False,True,-0.5781924893851567,1.2014694574774063,True,-1.1520032199760777,1.7752801880683273,True,expanding_residual_calibrated_gaussian
ar,pseudo,pre_advance,DELTA_SA,2011:Q1:pre_advance:pseudo,2011-04-30,2011:Q1,-0.1541999785436481,0.0939000000000001,-0.2480999785436481,24,0.773738675420703,0.8796241671422534,-0.8304547245180531,0.23329698515263542,0.6110482781972977,0.5695788757440579,0.3435947858549575,0.4792373684179985,False,False,False,-1.0338241456859016,0.7254241885986054,True,-1.6010529802217517,1.2926530231344555,True,expanding_residual_calibrated_gaussian
ar,pseudo,pre_advance,DELTA_SA,2011:Q2:pre_advance:pseudo,2011-07-31,2011:Q2,0.1222021712976695,-0.2928,0.4150021712976696,25,0.7462367244305209,0.8638499432369727,-0.8879792263438715,0.2799198536520927,0.3154679342689032,0.44375238341098877,0.4641199963697782,0.3545801916097403,True,False,True,-0.7416477719393032,0.9860521145346423,True,-1.2987045409774884,1.5431088835728275,True,expanding_residual_calibrated_gaussian
ar,pseudo,pre_advance,DELTA_SA,2011:Q3:pre_advance:pseudo,2011-10-31,2011:Q3,-0.0436641708390723,-0.4595999999999995,0.4159358291609272,26,0.7206453648374204,0.8489083371232847,-0.8751675826735014,0.27809947979240607,0.31207914299835543,0.5205108199067936,0.3870437679428824,0.4269435671678316,True,False,True,-0.892572507962357,0.8052441662842125,True,-1.4399941281056503,1.3526657864275056,True,expanding_residual_calibrated_gaussian
ar,pseudo,pre_advance,DELTA_SA,2011:Q4:pre_advance:pseudo,2012-01-31,2011:Q4,-0.1664617652864937,0.2299000000000002,-0.3963617652864939,27,0.6967414461618726,0.834710396581876,-0.8510090843233009,0.268773725368105,0.6825528548970748,0.5790346803860846,0.3303203942617622,0.48397501610143684,False,True,False,-1.0011721618683698,0.6682486312953823,True,-1.5394381885582942,1.2065146579853068,True,expanding_residual_calibrated_gaussian
ar,pseudo,pre_advance,DELTA_SA,2012:Q1:pre_advance:pseudo,2012-04-30,2012:Q1,0.146748410605829,-0.3447,0.491448410605829,28,0.679983491168534,0.8246111151133811,-0.9036888332276318,0.30621476713210716,0.27559563941211634,0.4293769012051644,0.4742550718629621,0.3370603641563587,True,False,True,-0.6778627045075521,0.9713595257192101,True,-1.209616172912914,1.503112994124572,True,expanding_residual_calibrated_gaussian
ar,pseudo,pre_advance,DELTA_SA,2012:Q2:pre_advance:pseudo,2012-07-31,2012:Q2,-0.1038122691178062,0.1949,-0.2987122691178063,29,0.6612840302735421,0.8131937224754887,-0.7796191025501159,0.2333282296174999,0.6433143946520312,0.5507909566151604,0.3543495512289927,0.45292135399934796,False,False,False,-0.9170059915932949,0.7093814533576825,True,-1.4413969129457829,1.2337723747101703,True,expanding_residual_calibrated_gaussian
ar,pseudo,pre_advance,DELTA_SA,2012:Q3:pre_advance:pseudo,2012-10-31,2012:Q3,0.1733371102203946,0.6579000000000002,-0.4845628897796055,30,0.6438563178730354,0.8024065789068753,-0.8811384352741132,0.3008349535144477,0.7270406088693881,0.41448547613455494,0.4867461244701212,0.32086843260349873,False,True,False,-0.6290694686864806,0.9757436891272699,True,-1.1465042613843017,1.493178481825091,True,expanding_residual_calibrated_gaussian
ar,pseudo,pre_advance,DELTA_SA,2012:Q4:pre_advance:pseudo,2013-01-31,2012:Q4,0.3745038169834829,0.2694999999999999,0.1050038169834829,31,0.6330238634687501,0.7956279680031051,-0.699023789583475,0.19145478602830163,0.44750162737267873,0.3189267146195405,0.5868028835837016,0.23512389328080177,False,True,False,-0.4211241510196222,1.170131784986588,True,-0.9341877318904543,1.6831953658574201,True,expanding_residual_calibrated_gaussian
ar,pseudo,pre_advance,DELTA_SA,2013:Q1:pre_advance:pseudo,2013-04-30,2013:Q1,0.2735383342584925,-0.1162,0.3897383342584926,32,0.6126399752717877,0.7827132139371277,-0.797917996315205,0.25877542445430474,0.3092658155471392,0.3633665436816145,0.5374267943869613,0.27259083968523407,True,False,False,-0.5091748796786352,1.05625154819562,True,-1.0139103345488356,1.5609870030658206,True,expanding_residual_calibrated_gaussian
ar,pseudo,pre_advance,DELTA_SA,2013:Q2:pre_advance:pseudo,2013-07-31,2013:Q2,-0.006310028729751,0.8419999999999999,-0.8483100287297509,33,0.5965539991783618,0.7723690822258241,-1.263801488289796,0.5188987238475902,0.8639680664911817,0.5032592050952738,0.3946909765859625,0.4009944787158185,False,True,False,-0.7786791109555751,0.7660590534960732,False,-1.2767441149740777,1.2641240575145756,True,expanding_residual_calibrated_gaussian
ar,pseudo,pre_advance,DELTA_SA,2013:Q3:pre_advance:pseudo,2013-10-31,2013:Q3,0.4736264614294589,0.7550000000000003,-0.2813735385705413,34,0.603912299441874,0.7771179443571445,-0.7323238689713444,0.22181365810630127,0.6413513145719705,0.27110801595200706,0.6376199258509733,0.19301852815437973,False,True,False,-0.30349148292768563,1.2507444057866035,True,-0.8046188079154626,1.7518717307743805,True,expanding_residual_calibrated_gaussian
ar,pseudo,pre_advance,DELTA_SA,2013:Q4:pre_advance:pseudo,2014-01-31,2013:Q4,0.3920541653838421,-0.8431000000000002,1.2351541653838425,35,0.5893693534627156,0.7677039490993358,-1.9488571467999536,0.8369678767730119,0.05381977681055331,0.3047861539721368,0.5987708835811637,0.22029385750105493,True,False,True,-0.37564978371549373,1.159758114483178,False,-0.8707064597171688,1.654814790484853,True,expanding_residual_calibrated_gaussian
ar,pseudo,pre_advance,DELTA_SA,2014:Q1:pre_advance:pseudo,2014-04-30,2014:Q1,-0.3707296002667286,-1.0928,0.7220703997332714,36,0.6118962719422345,0.7822379893243708,-1.0993831706801003,0.43132525150904244,0.1779820398903268,0.6822267055364226,0.23281393624365987,0.5863859024373897,True,False,True,-1.1529675895910994,0.41150838905764225,True,-1.657396594146147,0.9159373936126898,True,expanding_residual_calibrated_gaussian
ar,pseudo,pre_advance,DELTA_SA,2014:Q2:pre_advance:pseudo,2014-07-31,2014:Q2,-0.3807469573065625,0.2237999999999997,-0.6045469573065623,37,0.6061187067786769,0.7785362591290639,-0.9700884618422942,0.36034773600917935,0.7812782265435219,0.6875985782797698,0.22784964982621314,0.5917941151258977,False,True,False,-1.1592832164356264,0.3977893018225014,True,-1.6613251468482344,0.8998312322351094,True,expanding_residual_calibrated_gaussian
ar,pseudo,pre_advance,DELTA_SA,2014:Q3:pre_advance:pseudo,2014-10-31,2014:Q3,0.0960389505392824,0.3467000000000002,-0.2506610494607177,38,0.602621916044835,0.776287263868753,-0.7178372194563353,0.2134262828680568,0.6266134835281838,0.4507701757531954,0.4467325818293745,0.3514709171503958,False,True,False,-0.6802483133294707,0.8723262144080354,True,-1.1808399709914705,1.3729178720700355,True,expanding_residual_calibrated_gaussian
ar,pseudo,pre_advance,DELTA_SA,2014:Q4:pre_advance:pseudo,2015-01-31,2014:Q4,0.1688907339298215,-0.4497999999999997,0.6186907339298213,39,0.589512433759291,0.7677971306011054,-0.9793654161063403,0.3682178025575947,0.2101791618546902,0.4129480714314504,0.48384025396341823,0.315452519306341,True,False,True,-0.598906396671284,0.9366878645309269,True,-1.0940231611023399,1.431804628961983,True,expanding_residual_calibrated_gaussian
ar,pseudo,pre_advance,DELTA_SA,2015:Q1:pre_advance:pseudo,2015-04-30,2015:Q1,-0.1664187565321353,-0.9973,0.8308812434678646,40,0.5819679549174603,0.7628682421738765,-1.2413971558008312,0.5074387982689682,0.13804291899882515,0.5863433941091662,0.3155009215726744,0.48244434394875946,True,False,True,-0.9292869987060118,0.5964494856417412,False,-1.42122535155793,1.0883878384936594,True,expanding_residual_calibrated_gaussian
ar,pseudo,pre_advance,DELTA_SA,2015:Q2:pre_advance:pseudo,2015-07-31,2015:Q2,-0.3349089662402753,1.3627000000000002,-1.6976089662402756,41,0.5810925653894671,0.7622942774214346,-3.127220859549192,1.2744286892597698,0.9870254692630422,0.669793637376981,0.24143024320280715,0.5702369843510153,False,True,False,-1.0972032436617098,0.42738531118115936,False,-1.5887714732612739,0.9189535407807232,False,expanding_residual_calibrated_gaussian
ar,pseudo,pre_advance,DELTA_SA,2015:Q3:pre_advance:pseudo,2015-10-31,2015:Q3,0.677687720737902,0.5856999999999999,0.091987720737902,42,0.6438913268592905,0.8024283936023765,-0.7053966593985387,0.19172579676784313,0.4543665555412232,0.19918217423662754,0.7241793957358085,0.1370236635239864,False,True,False,-0.12474067286447454,1.4801161143402783,True,-0.6421895328478104,1.9975649743236144,True,expanding_residual_calibrated_gaussian
ar,pseudo,pre_advance,DELTA_SA,2015:Q4:pre_advance:pseudo,2016-01-31,2015:Q4,0.3567967296908301,0.314,0.04279672969083,43,0.6285881067771159,0.7928354853165415,-0.6882558798461244,0.18620305906183193,0.47847581554900886,0.32634577953522775,0.5783863337234652,0.24125062033941624,False,True,False,-0.43603875562571137,1.1496322150073714,True,-0.9473015939079139,1.660895053289574,True,expanding_residual_calibrated_gaussian
ar,pseudo,pre_advance,DELTA_SA,2016:Q1:pre_advance:pseudo,2016-04-30,2016:Q1,0.2661399341306913,0.3027000000000001,-0.0365600658693087,44,0.6139753007284686,0.7835657603089026,-0.6761267555224536,0.18379579110396738,0.5186073287096765,0.36705918336716054,0.5336343395051832,0.27595658195700956,False,True,False,-0.5174258261782112,1.049705694439594,True,-1.022711048668395,1.5549909169297778,True,expanding_residual_calibrated_gaussian
ar,pseudo,pre_advance,DELTA_SA,2016:Q2:pre_advance:pseudo,2016-07-31,2016:Q2,0.2681291742259852,-0.1195999999999999,0.3877291742259852,45,0.6002201447530114,0.7747387590362389,-0.7889414533631408,0.2568889937278131,0.3083740558361434,0.36463761822301954,0.5350371241973474,0.272841604939965,True,False,False,-0.5066095848102536,1.0428679332622242,True,-1.006202683514655,1.5424610319666254,True,expanding_residual_calibrated_gaussian
ar,pseudo,pre_advance,DELTA_SA,2016:Q3:pre_advance:pseudo,2016-10-31,2016:Q3,0.0452506389225619,0.2565999999999997,-0.2113493610774377,46,0.5892752251909242,0.767642641592378,-0.6924088332221303,0.20246284636944822,0.6084657951207002,0.4764969495261257,0.4201184887116549,0.3746792193177847,False,True,False,-0.7223920026698162,0.8128932805149399,True,-1.2174091443032702,1.3079104221483941,True,expanding_residual_calibrated_gaussian
