haminh109/Revision-Aware-DFM/outputs/full_state_space_release_revision_dfm/frozen/q2_manuscript_best_v1/mature_robustness_runs/mature_latest/evidence_dir/cumulative_loss_point.csv
timing_mode,checkpoint_id,outcome_id,baseline_model,model_id,target_quarter,loss_diff_baseline_minus_model,cumulative_loss_diff
exact,pre_advance,A,ar,bridge,2005:Q1,0.026508366163050925,0.026508366163050925
exact,pre_advance,A,ar,bridge,2005:Q2,0.25605091488063453,0.28255928104368544
exact,pre_advance,A,ar,bridge,2005:Q3,-0.1145844705953406,0.16797481044834484
exact,pre_advance,A,ar,bridge,2005:Q4,-1.067053416924928,-0.8990786064765831
exact,pre_advance,A,ar,bridge,2006:Q1,1.6356501256199305,0.7365715191433474
exact,pre_advance,A,ar,bridge,2006:Q2,0.7676987547042062,1.5042702738475535
exact,pre_advance,A,ar,bridge,2006:Q3,-0.11413741897172125,1.3901328548758323
exact,pre_advance,A,ar,bridge,2006:Q4,-11.42373598428023,-10.033603129404398
exact,pre_advance,A,ar,bridge,2007:Q1,2.9288243316873825,-7.104778797717016
exact,pre_advance,A,ar,bridge,2007:Q2,-0.571880895833992,-7.676659693551008
exact,pre_advance,A,ar,bridge,2007:Q3,-4.421703232049937,-12.098362925600945
exact,pre_advance,A,ar,bridge,2007:Q4,6.981606042021606,-5.116756883579339
exact,pre_advance,A,ar,bridge,2008:Q1,-0.8428265241404642,-5.959583407719803
exact,pre_advance,A,ar,bridge,2008:Q2,-0.5775901807402076,-6.537173588460011
exact,pre_advance,A,ar,bridge,2008:Q3,6.239153415743342,-0.2980201727166687
exact,pre_advance,A,ar,bridge,2008:Q4,18.935021625538596,18.637001452821927
exact,pre_advance,A,ar,bridge,2009:Q1,28.976487905078283,47.61348935790021
exact,pre_advance,A,ar,bridge,2009:Q2,-1.0972978517896448,46.51619150611056
exact,pre_advance,A,ar,bridge,2009:Q3,4.302859584500106,50.819051090610664
exact,pre_advance,A,ar,bridge,2009:Q4,0.8405391500749486,51.65959024068561
exact,pre_advance,A,ar,bridge,2010:Q1,-7.902887294564825,43.75670294612078
exact,pre_advance,A,ar,bridge,2010:Q2,0.011858308232202852,43.76856125435299
exact,pre_advance,A,ar,bridge,2010:Q3,0.18832454713788116,43.95688580149087
exact,pre_advance,A,ar,bridge,2010:Q4,0.2765286183734815,44.23341441986435
exact,pre_advance,A,ar,bridge,2011:Q1,-2.6235720668932383,41.609842352971114
exact,pre_advance,A,ar,bridge,2011:Q2,-1.4729019751695853,40.13694037780153
exact,pre_advance,A,ar,bridge,2011:Q3,-0.0022523077665603797,40.13468807003497
exact,pre_advance,A,ar,bridge,2011:Q4,-1.082757162786356,39.05193090724861
exact,pre_advance,A,ar,bridge,2012:Q1,-1.0541537717065796,37.99777713554203
exact,pre_advance,A,ar,bridge,2012:Q2,-0.4841720924257811,37.51360504311625
exact,pre_advance,A,ar,bridge,2012:Q3,-0.5745739215873314,36.93903112152892
exact,pre_advance,A,ar,bridge,2012:Q4,-8.166100960885938,28.772930160642982
exact,pre_advance,A,ar,bridge,2013:Q1,0.7861555844576769,29.55908574510066
exact,pre_advance,A,ar,bridge,2013:Q2,-0.3824613142293476,29.176624430871314
exact,pre_advance,A,ar,bridge,2013:Q3,-0.46677534104159424,28.70984908982972
exact,pre_advance,A,ar,bridge,2013:Q4,-0.039765412715874415,28.670083677113848
exact,pre_advance,A,ar,bridge,2014:Q1,3.920388840588136,32.59047251770198
exact,pre_advance,A,ar,bridge,2014:Q2,4.106194340754633,36.69666685845662
exact,pre_advance,A,ar,bridge,2014:Q3,-0.056094443733069724,36.64057241472354
exact,pre_advance,A,ar,bridge,2014:Q4,0.1575985164891277,36.798170931212674
exact,pre_advance,A,ar,bridge,2015:Q1,3.3836744740684486,40.18184540528112
exact,pre_advance,A,ar,bridge,2015:Q2,0.8610543008872912,41.04289970616841
exact,pre_advance,A,ar,bridge,2015:Q3,0.6136721270869122,41.65657183325533
exact,pre_advance,A,ar,bridge,2015:Q4,0.6515995292412713,42.3081713624966
exact,pre_advance,A,ar,bridge,2016:Q1,0.7787481652209838,43.08691952771758
exact,pre_advance,A,ar,bridge,2016:Q2,0.059797019294426566,43.14671654701201
exact,pre_advance,A,ar,bridge,2016:Q3,0.36377552260716206,43.510492069619175
exact,pre_advance,A,ar,bridge,2016:Q4,-0.7375381686773962,42.77295390094178
exact,pre_advance,A,ar,bridge,2017:Q1,-0.6640699525926914,42.10888394834909
exact,pre_advance,A,ar,bridge,2017:Q2,-0.12694577975501653,41.98193816859407
exact,pre_advance,A,ar,bridge,2017:Q3,-0.3142545493377593,41.66768361925631
exact,pre_advance,A,ar,bridge,2017:Q4,-1.1500300216843717,40.517653597571936
exact,pre_advance,A,ar,bridge,2018:Q1,-0.8594179119067495,39.65823568566519
exact,pre_advance,A,ar,bridge,2018:Q2,0.39498998888680337,40.053225674551996
exact,pre_advance,A,ar,bridge,2018:Q3,-0.1438588875744695,39.90936678697753
exact,pre_advance,A,ar,bridge,2018:Q4,0.09068553162124533,40.000052318598776
exact,pre_advance,A,ar,bridge,2019:Q1,-0.10760998024848467,39.89244233835029
exact,pre_advance,A,ar,bridge,2019:Q2,0.6089661755654483,40.50140851391574
exact,pre_advance,A,ar,bridge,2019:Q3,-0.33271829282384024,40.1686902210919
exact,pre_advance,A,ar,bridge,2019:Q4,-0.16781559230481113,40.00087462878709
exact,pre_advance,A,ar,bridge,2020:Q1,9.102458446038156,49.103333074825244
exact,pre_advance,A,ar,bridge,2020:Q2,532.6153717534219,581.7187048282472
exact,pre_advance,A,ar,bridge,2020:Q3,1642.8717471955658,2224.5904520238128
exact,pre_advance,A,ar,bridge,2020:Q4,-25.236584640080753,2199.353867383732
exact,pre_advance,A,ar,bridge,2021:Q1,12.991205256378652,2212.3450726401106
exact,pre_advance,A,ar,bridge,2021:Q2,15.009953845689985,2227.3550264858004
exact,pre_advance,A,ar,bridge,2021:Q3,-0.3051338757414128,2227.049892610059
exact,pre_advance,A,ar,bridge,2021:Q4,-0.5416554582639961,2226.508237151795
exact,pre_advance,A,ar,bridge,2022:Q1,-27.24056001814712,2199.267677133648
exact,pre_advance,A,ar,bridge,2022:Q2,2.3168008337014,2201.5844779673494
exact,pre_advance,A,ar,bridge,2022:Q3,-3.0659772522159,2198.5185007151335
exact,pre_advance,A,ar,bridge,2022:Q4,-18.358927656569044,2180.1595730585645
exact,pre_advance,A,ar,bridge,2023:Q1,1.746828477152817,2181.9064015357176
exact,pre_advance,A,ar,bridge,2023:Q2,-1.4069302895362061,2180.499471246181
exact,pre_advance,A,ar,bridge,2023:Q3,0.3615726347753414,2180.8610438809565
exact,pre_advance,A,ar,bridge,2023:Q4,-6.352938995644131,2174.508104885312
exact,pre_advance,A,ar,bridge,2024:Q1,0.7855773239734215,2175.2936822092856
exact,pre_advance,A,ar,bridge,2024:Q2,-0.6561092188970661,2174.6375729903884
exact,pre_advance,A,ar,bridge,2024:Q3,-0.07053545014004475,2174.5670375402483
exact,pre_advance,A,ar,bridge,2024:Q4,-0.00044289376299851135,2174.566594646485
exact,pre_advance,A,ar,indicator_revision_only_dfm_kalman_em,2005:Q1,-2.081071957751879,-2.081071957751879
exact,pre_advance,A,ar,indicator_revision_only_dfm_kalman_em,2005:Q2,-0.31273659044615193,-2.393808548198031
exact,pre_advance,A,ar,indicator_revision_only_dfm_kalman_em,2005:Q3,0.5597290388014093,-1.8340795093966216
exact,pre_advance,A,ar,indicator_revision_only_dfm_kalman_em,2005:Q4,-22.900646968227015,-24.734726477623635
exact,pre_advance,A,ar,indicator_revision_only_dfm_kalman_em,2006:Q1,8.138906243218452,-16.59582023440518
exact,pre_advance,A,ar,indicator_revision_only_dfm_kalman_em,2006:Q2,-3.1664477817178813,-19.762268016123063
exact,pre_advance,A,ar,indicator_revision_only_dfm_kalman_em,2006:Q3,-2.626232785535942,-22.388500801659006
exact,pre_advance,A,ar,indicator_revision_only_dfm_kalman_em,2006:Q4,-16.98338130004466,-39.37188210170366
exact,pre_advance,A,ar,indicator_revision_only_dfm_kalman_em,2007:Q1,2.1600592999189905,-37.21182280178467
exact,pre_advance,A,ar,indicator_revision_only_dfm_kalman_em,2007:Q2,1.9172658896645607,-35.29455691212011
exact,pre_advance,A,ar,indicator_revision_only_dfm_kalman_em,2007:Q3,-32.930590355533546,-68.22514726765365
exact,pre_advance,A,ar,indicator_revision_only_dfm_kalman_em,2007:Q4,1.8491568035442318,-66.37599046410942
exact,pre_advance,A,ar,indicator_revision_only_dfm_kalman_em,2008:Q1,-8.57876884889282,-74.95475931300224
exact,pre_advance,A,ar,indicator_revision_only_dfm_kalman_em,2008:Q2,-0.8509051188373276,-75.80566443183957
exact,pre_advance,A,ar,indicator_revision_only_dfm_kalman_em,2008:Q3,-1.070172253020396,-76.87583668485998
exact,pre_advance,A,ar,indicator_revision_only_dfm_kalman_em,2008:Q4,-18.519253392131436,-95.39509007699141
exact,pre_advance,A,ar,indicator_revision_only_dfm_kalman_em,2009:Q1,1.5528459642841632,-93.84224411270725
exact,pre_advance,A,ar,indicator_revision_only_dfm_kalman_em,2009:Q2,-3.137813060160668,-96.98005717286792
exact,pre_advance,A,ar,indicator_revision_only_dfm_kalman_em,2009:Q3,1.2115965802974422,-95.76846059257048
exact,pre_advance,A,ar,indicator_revision_only_dfm_kalman_em,2009:Q4,-2.056924088123669,-97.82538468069414
exact,pre_advance,A,ar,indicator_revision_only_dfm_kalman_em,2010:Q1,-10.28515478463464,-108.11053946532878
exact,pre_advance,A,ar,indicator_revision_only_dfm_kalman_em,2010:Q2,-2.9468601726396377,-111.05739963796842
exact,pre_advance,A,ar,indicator_revision_only_dfm_kalman_em,2010:Q3,0.1713607027158885,-110.88603893525253
exact,pre_advance,A,ar,indicator_revision_only_dfm_kalman_em,2010:Q4,0.6391347077221374,-110.2469042275304
exact,pre_advance,A,ar,indicator_revision_only_dfm_kalman_em,2011:Q1,-19.38146336890458,-129.62836759643497
exact,pre_advance,A,ar,indicator_revision_only_dfm_kalman_em,2011:Q2,0.5071242167703613,-129.1212433796646
exact,pre_advance,A,ar,indicator_revision_only_dfm_kalman_em,2011:Q3,-1.0543700109258962,-130.1756133905905
exact,pre_advance,A,ar,indicator_revision_only_dfm_kalman_em,2011:Q4,-3.2826530632401787,-133.4582664538307
exact,pre_advance,A,ar,indicator_revision_only_dfm_kalman_em,2012:Q1,-5.627911776960728,-139.08617823079143
exact,pre_advance,A,ar,indicator_revision_only_dfm_kalman_em,2012:Q2,-0.7537483112427683,-139.8399265420342
exact,pre_advance,A,ar,indicator_revision_only_dfm_kalman_em,2012:Q3,-0.1698737681016787,-140.00980031013586
exact,pre_advance,A,ar,indicator_revision_only_dfm_kalman_em,2012:Q4,-12.916815781859833,-152.9266160919957
exact,pre_advance,A,ar,indicator_revision_only_dfm_kalman_em,2013:Q1,1.6875177022164143,-151.2390983897793
exact,pre_advance,A,ar,indicator_revision_only_dfm_kalman_em,2013:Q2,-0.23595709631165074,-151.47505548609092
exact,pre_advance,A,ar,indicator_revision_only_dfm_kalman_em,2013:Q3,0.3748759232523572,-151.10017956283858
exact,pre_advance,A,ar,indicator_revision_only_dfm_kalman_em,2013:Q4,-2.227780687793661,-153.32796025063223
exact,pre_advance,A,ar,indicator_revision_only_dfm_kalman_em,2014:Q1,3.3861383933554547,-149.94182185727678
exact,pre_advance,A,ar,indicator_revision_only_dfm_kalman_em,2014:Q2,6.204347503159677,-143.7374743541171
exact,pre_advance,A,ar,indicator_revision_only_dfm_kalman_em,2014:Q3,-0.06064740405448636,-143.7981217581716
exact,pre_advance,A,ar,indicator_revision_only_dfm_kalman_em,2014:Q4,-0.07596715893765305,-143.87408891710925
exact,pre_advance,A,ar,indicator_revision_only_dfm_kalman_em,2015:Q1,5.070189473012825,-138.80389944409643
exact,pre_advance,A,ar,indicator_revision_only_dfm_kalman_em,2015:Q2,0.5536743313396031,-138.25022511275682
exact,pre_advance,A,ar,indicator_revision_only_dfm_kalman_em,2015:Q3,-2.04022911423574,-140.29045422699255
exact,pre_advance,A,ar,indicator_revision_only_dfm_kalman_em,2015:Q4,0.7189075523208834,-139.57154667467168
exact,pre_advance,A,ar,indicator_revision_only_dfm_kalman_em,2016:Q1,-0.9698615718076316,-140.5414082464793
exact,pre_advance,A,ar,indicator_revision_only_dfm_kalman_em,2016:Q2,-0.5426013248416416,-141.08400957132096
exact,pre_advance,A,ar,indicator_revision_only_dfm_kalman_em,2016:Q3,1.0752082026305545,-140.0088013686904
exact,pre_advance,A,ar,indicator_revision_only_dfm_kalman_em,2016:Q4,-3.314479622333089,-143.3232809910235
exact,pre_advance,A,ar,indicator_revision_only_dfm_kalman_em,2017:Q1,-2.9460709577648996,-146.2693519487884
exact,pre_advance,A,ar,indicator_revision_only_dfm_kalman_em,2017:Q2,0.35165353300875124,-145.91769841577965
exact,pre_advance,A,ar,indicator_revision_only_dfm_kalman_em,2017:Q3,-1.3057127115153657,-147.223411127295
exact,pre_advance,A,ar,indicator_revision_only_dfm_kalman_em,2017:Q4,-10.278221679095788,-157.5016328063908
exact,pre_advance,A,ar,indicator_revision_only_dfm_kalman_em,2018:Q1,-0.8942764822983322,-158.39590928868913
exact,pre_advance,A,ar,indicator_revision_only_dfm_kalman_em,2018:Q2,1.0576022483002756,-157.33830704038886
exact,pre_advance,A,ar,indicator_revision_only_dfm_kalman_em,2018:Q3,0.05060221144596894,-157.28770482894288
exact,pre_advance,A,ar,indicator_revision_only_dfm_kalman_em,2018:Q4,0.1672259326191681,-157.1204788963237
exact,pre_advance,A,ar,indicator_revision_only_dfm_kalman_em,2019:Q1,-2.6426988030149063,-159.7631776993386
exact,pre_advance,A,ar,indicator_revision_only_dfm_kalman_em,2019:Q2,0.1334848872223794,-159.62969281211622
exact,pre_advance,A,ar,indicator_revision_only_dfm_kalman_em,2019:Q3,-0.3580314262112726,-159.9877242383275
exact,pre_advance,A,ar,indicator_revision_only_dfm_kalman_em,2019:Q4,-0.1706052248317455,-160.15832946315925
exact,pre_advance,A,ar,indicator_revision_only_dfm_kalman_em,2020:Q1,34.929497801920334,-125.22883166123891
exact,pre_advance,A,ar,indicator_revision_only_dfm_kalman_em,2020:Q2,954.4846815686791,829.2558499074402
exact,pre_advance,A,ar,indicator_revision_only_dfm_kalman_em,2020:Q3,2101.2893965315066,2930.545246438947
exact,pre_advance,A,ar,indicator_revision_only_dfm_kalman_em,2020:Q4,-18.401197663421936,2912.144048775525
exact,pre_advance,A,ar,indicator_revision_only_dfm_kalman_em,2021:Q1,9.216328642296341,2921.3603774178214
exact,pre_advance,A,ar,indicator_revision_only_dfm_kalman_em,2021:Q2,6.791517062994865,2928.1518944808163
exact,pre_advance,A,ar,indicator_revision_only_dfm_kalman_em,2021:Q3,-5.794967197056078,2922.3569272837603
exact,pre_advance,A,ar,indicator_revision_only_dfm_kalman_em,2021:Q4,13.765827166754123,2936.1227544505145
exact,pre_advance,A,ar,indicator_revision_only_dfm_kalman_em,2022:Q1,-35.59609443776674,2900.526660012748
exact,pre_advance,A,ar,indicator_revision_only_dfm_kalman_em,2022:Q2,-8.788179143483992,2891.738480869264
exact,pre_advance,A,ar,indicator_revision_only_dfm_kalman_em,2022:Q3,-0.08789225380892356,2891.650588615455
exact,pre_advance,A,ar,indicator_revision_only_dfm_kalman_em,2022:Q4,-1.7872763878051379,2889.86331222765
exact,pre_advance,A,ar,indicator_revision_only_dfm_kalman_em,2023:Q1,-1.2680605831118181,2888.595251644538
exact,pre_advance,A,ar,indicator_revision_only_dfm_kalman_em,2023:Q2,-0.3098363635413151,2888.285415280997
exact,pre_advance,A,ar,indicator_revision_only_dfm_kalman_em,2023:Q3,-2.187275585989193,2886.098139695008
exact,pre_advance,A,ar,indicator_revision_only_dfm_kalman_em,2023:Q4,0.09415065370197462,2886.19229034871
exact,pre_advance,A,ar,indicator_revision_only_dfm_kalman_em,2024:Q1,0.8692536109569249,2887.061543959667
exact,pre_advance,A,ar,indicator_revision_only_dfm_kalman_em,2024:Q2,-1.0527219836299733,2886.008821976037
exact,pre_advance,A,ar,indicator_revision_only_dfm_kalman_em,2024:Q3,-0.7887823627552427,2885.2200396132816
exact,pre_advance,A,ar,indicator_revision_only_dfm_kalman_em,2024:Q4,-0.17300315871097618,2885.047036454571
exact,pre_advance,A,ar,joint_indicator_revision_dfm_full_kalman_em,2005:Q1,-0.3605943414705589,-0.3605943414705589
exact,pre_advance,A,ar,joint_indicator_revision_dfm_full_kalman_em,2005:Q2,0.25637535591188626,-0.10421898555867265
exact,pre_advance,A,ar,joint_indicator_revision_dfm_full_kalman_em,2005:Q3,0.47846903363481125,0.3742500480761386
exact,pre_advance,A,ar,joint_indicator_revision_dfm_full_kalman_em,2005:Q4,-17.51711564751981,-17.14286559944367
exact,pre_advance,A,ar,joint_indicator_revision_dfm_full_kalman_em,2006:Q1,6.9652808630458285,-10.177584736397842
exact,pre_advance,A,ar,joint_indicator_revision_dfm_full_kalman_em,2006:Q2,-0.6470727851101108,-10.824657521507952
exact,pre_advance,A,ar,joint_indicator_revision_dfm_full_kalman_em,2006:Q3,-3.2840422598186576,-14.10869978132661
exact,pre_advance,A,ar,joint_indicator_revision_dfm_full_kalman_em,2006:Q4,-17.2756484104432,-31.38434819176981
exact,pre_advance,A,ar,joint_indicator_revision_dfm_full_kalman_em,2007:Q1,-0.060596932966271666,-31.44494512473608
exact,pre_advance,A,ar,joint_indicator_revision_dfm_full_kalman_em,2007:Q2,1.8999589734273945,-29.544986151308684
exact,pre_advance,A,ar,joint_indicator_revision_dfm_full_kalman_em,2007:Q3,-30.188278668733105,-59.73326482004179
exact,pre_advance,A,ar,joint_indicator_revision_dfm_full_kalman_em,2007:Q4,1.665594535840035,-58.06767028420175
exact,pre_advance,A,ar,joint_indicator_revision_dfm_full_kalman_em,2008:Q1,-6.526574657380307,-64.59424494158206
exact,pre_advance,A,ar,joint_indicator_revision_dfm_full_kalman_em,2008:Q2,-0.03977984264641545,-64.63402478422847
exact,pre_advance,A,ar,joint_indicator_revision_dfm_full_kalman_em,2008:Q3,-1.087860128739723,-65.72188491296819
exact,pre_advance,A,ar,joint_indicator_revision_dfm_full_kalman_em,2008:Q4,-6.095551413500342,-71.81743632646854
exact,pre_advance,A,ar,joint_indicator_revision_dfm_full_kalman_em,2009:Q1,-3.9624697681651213,-75.77990609463366
exact,pre_advance,A,ar,joint_indicator_revision_dfm_full_kalman_em,2009:Q2,0.013351282952410726,-75.76655481168125
exact,pre_advance,A,ar,joint_indicator_revision_dfm_full_kalman_em,2009:Q3,4.627696020711205,-71.13885879097005
exact,pre_advance,A,ar,joint_indicator_revision_dfm_full_kalman_em,2009:Q4,-2.3273430881603314,-73.46620187913038
exact,pre_advance,A,ar,joint_indicator_revision_dfm_full_kalman_em,2010:Q1,-8.162292636396193,-81.62849451552657
exact,pre_advance,A,ar,joint_indicator_revision_dfm_full_kalman_em,2010:Q2,-3.6281503720937223,-85.2566448876203
exact,pre_advance,A,ar,joint_indicator_revision_dfm_full_kalman_em,2010:Q3,0.15068306985866364,-85.10596181776164
exact,pre_advance,A,ar,joint_indicator_revision_dfm_full_kalman_em,2010:Q4,0.33301375372470465,-84.77294806403694
exact,pre_advance,A,ar,joint_indicator_revision_dfm_full_kalman_em,2011:Q1,-17.567902626449516,-102.34085069048646
exact,pre_advance,A,ar,joint_indicator_revision_dfm_full_kalman_em,2011:Q2,0.7098096855871818,-101.63104100489927
exact,pre_advance,A,ar,joint_indicator_revision_dfm_full_kalman_em,2011:Q3,-0.4175038000868179,-102.0485448049861
exact,pre_advance,A,ar,joint_indicator_revision_dfm_full_kalman_em,2011:Q4,-2.630462000102942,-104.67900680508903
exact,pre_advance,A,ar,joint_indicator_revision_dfm_full_kalman_em,2012:Q1,-4.732173775808189,-109.41118058089722
exact,pre_advance,A,ar,joint_indicator_revision_dfm_full_kalman_em,2012:Q2,-0.6225418775713161,-110.03372245846855
exact,pre_advance,A,ar,joint_indicator_revision_dfm_full_kalman_em,2012:Q3,-0.03664503489713628,-110.07036749336568
exact,pre_advance,A,ar,joint_indicator_revision_dfm_full_kalman_em,2012:Q4,-8.830933545429792,-118.90130103879547
exact,pre_advance,A,ar,joint_indicator_revision_dfm_full_kalman_em,2013:Q1,1.7436134929438645,-117.1576875458516
exact,pre_advance,A,ar,joint_indicator_revision_dfm_full_kalman_em,2013:Q2,-0.13169552359738823,-117.28938306944899
exact,pre_advance,A,ar,joint_indicator_revision_dfm_full_kalman_em,2013:Q3,0.5568646657459887,-116.732518403703
exact,pre_advance,A,ar,joint_indicator_revision_dfm_full_kalman_em,2013:Q4,-0.7616627811567913,-117.49418118485978
exact,pre_advance,A,ar,joint_indicator_revision_dfm_full_kalman_em,2014:Q1,1.9704333082280057,-115.52374787663177
exact,pre_advance,A,ar,joint_indicator_revision_dfm_full_kalman_em,2014:Q2,6.265443298342745,-109.25830457828903
exact,pre_advance,A,ar,joint_indicator_revision_dfm_full_kalman_em,2014:Q3,-0.23287143376448122,-109.49117601205351
exact,pre_advance,A,ar,joint_indicator_revision_dfm_full_kalman_em,2014:Q4,0.08950818983947435,-109.40166782221404
exact,pre_advance,A,ar,joint_indicator_revision_dfm_full_kalman_em,2015:Q1,4.656452451431363,-104.74521537078267
exact,pre_advance,A,ar,joint_indicator_revision_dfm_full_kalman_em,2015:Q2,0.5949964210053977,-104.15021894977727
exact,pre_advance,A,ar,joint_indicator_revision_dfm_full_kalman_em,2015:Q3,-0.6179450030498779,-104.76816395282715
exact,pre_advance,A,ar,joint_indicator_revision_dfm_full_kalman_em,2015:Q4,1.1352584593199324,-103.63290549350722
exact,pre_advance,A,ar,joint_indicator_revision_dfm_full_kalman_em,2016:Q1,-0.22201532244585676,-103.85492081595308
exact,pre_advance,A,ar,joint_indicator_revision_dfm_full_kalman_em,2016:Q2,-0.16668641681378343,-104.02160723276687
exact,pre_advance,A,ar,joint_indicator_revision_dfm_full_kalman_em,2016:Q3,0.9840079921265023,-103.03759924064036
exact,pre_advance,A,ar,joint_indicator_revision_dfm_full_kalman_em,2016:Q4,-2.2229313490263385,-105.2605305896667
exact,pre_advance,A,ar,joint_indicator_revision_dfm_full_kalman_em,2017:Q1,-2.010562211358493,-107.27109280102519
exact,pre_advance,A,ar,joint_indicator_revision_dfm_full_kalman_em,2017:Q2,0.8476172637398369,-106.42347553728536
exact,pre_advance,A,ar,joint_indicator_revision_dfm_full_kalman_em,2017:Q3,-1.8559034433776014,-108.27937898066295
exact,pre_advance,A,ar,joint_indicator_revision_dfm_full_kalman_em,2017:Q4,-7.256832843777272,-115.53621182444023
exact,pre_advance,A,ar,joint_indicator_revision_dfm_full_kalman_em,2018:Q1,-0.4986322941423477,-116.03484411858258
exact,pre_advance,A,ar,joint_indicator_revision_dfm_full_kalman_em,2018:Q2,0.8104784247303027,-115.22436569385228
exact,pre_advance,A,ar,joint_indicator_revision_dfm_full_kalman_em,2018:Q3,0.044069943645544486,-115.18029575020674
exact,pre_advance,A,ar,joint_indicator_revision_dfm_full_kalman_em,2018:Q4,0.16426570410649893,-115.01603004610024
exact,pre_advance,A,ar,joint_indicator_revision_dfm_full_kalman_em,2019:Q1,-2.151250192238974,-117.16728023833922
exact,pre_advance,A,ar,joint_indicator_revision_dfm_full_kalman_em,2019:Q2,0.08012060415111522,-117.0871596341881
exact,pre_advance,A,ar,joint_indicator_revision_dfm_full_kalman_em,2019:Q3,-0.24422809154189687,-117.33138772573
exact,pre_advance,A,ar,joint_indicator_revision_dfm_full_kalman_em,2019:Q4,-0.24331238886028578,-117.57470011459029
exact,pre_advance,A,ar,joint_indicator_revision_dfm_full_kalman_em,2020:Q1,33.79142038227569,-83.7832797323146
exact,pre_advance,A,ar,joint_indicator_revision_dfm_full_kalman_em,2020:Q2,952.4732430362756,868.689963303961
exact,pre_advance,A,ar,joint_indicator_revision_dfm_full_kalman_em,2020:Q3,2076.8195411347733,2945.5095044387344
exact,pre_advance,A,ar,joint_indicator_revision_dfm_full_kalman_em,2020:Q4,-4.610409077028795,2940.899095361706
exact,pre_advance,A,ar,joint_indicator_revision_dfm_full_kalman_em,2021:Q1,7.001313676584428,2947.90040903829
exact,pre_advance,A,ar,joint_indicator_revision_dfm_full_kalman_em,2021:Q2,6.095818258101479,2953.9962272963917
exact,pre_advance,A,ar,joint_indicator_revision_dfm_full_kalman_em,2021:Q3,-6.061451719288631,2947.934775577103
exact,pre_advance,A,ar,joint_indicator_revision_dfm_full_kalman_em,2021:Q4,13.805555508553002,2961.740331085656
exact,pre_advance,A,ar,joint_indicator_revision_dfm_full_kalman_em,2022:Q1,-27.3314648403884,2934.4088662452677
exact,pre_advance,A,ar,joint_indicator_revision_dfm_full_kalman_em,2022:Q2,-10.144674531686485,2924.264191713581
exact,pre_advance,A,ar,joint_indicator_revision_dfm_full_kalman_em,2022:Q3,0.017626758134844277,2924.281818471716
exact,pre_advance,A,ar,joint_indicator_revision_dfm_full_kalman_em,2022:Q4,-1.3839756199761888,2922.89784285174
exact,pre_advance,A,ar,joint_indicator_revision_dfm_full_kalman_em,2023:Q1,-1.3903761451609968,2921.5074667065787
exact,pre_advance,A,ar,joint_indicator_revision_dfm_full_kalman_em,2023:Q2,-0.08096194065786687,2921.426504765921
exact,pre_advance,A,ar,joint_indicator_revision_dfm_full_kalman_em,2023:Q3,-2.539522658598382,2918.8869821073226
exact,pre_advance,A,ar,joint_indicator_revision_dfm_full_kalman_em,2023:Q4,-0.661412190491101,2918.2255699168313
exact,pre_advance,A,ar,joint_indicator_revision_dfm_full_kalman_em,2024:Q1,0.8692592444679087,2919.094829161299
exact,pre_advance,A,ar,joint_indicator_revision_dfm_full_kalman_em,2024:Q2,-1.2906973254350762,2917.8041318358637
exact,pre_advance,A,ar,joint_indicator_revision_dfm_full_kalman_em,2024:Q3,-1.080052516081039,2916.7240793197825
exact,pre_advance,A,ar,joint_indicator_revision_dfm_full_kalman_em,2024:Q4,-0.06047186986612166,2916.6636074499165
exact,pre_advance,A,ar,midas_umidas,2005:Q1,-187.6199151665184,-187.6199151665184
exact,pre_advance,A,ar,midas_umidas,2005:Q2,-221.40714001951997,-409.0270551860384
exact,pre_advance,A,ar,midas_umidas,2005:Q3,-286.1498872043989,-695.1769423904373
exact,pre_advance,A,ar,midas_umidas,2005:Q4,-121.10249273451387,-816.2794351249511
exact,pre_advance,A,ar,midas_umidas,2006:Q1,-416.6870798629993,-1232.9665149879504
exact,pre_advance,A,ar,midas_umidas,2006:Q2,-219.90095661332757,-1452.8674716012779
exact,pre_advance,A,ar,midas_umidas,2006:Q3,-16.762423352507025,-1469.629894953785
exact,pre_advance,A,ar,midas_umidas,2006:Q4,-19.797858160134435,-1489.4277531139194
exact,pre_advance,A,ar,midas_umidas,2007:Q1,-18.208297323335493,-1507.6360504372549
exact,pre_advance,A,ar,midas_umidas,2007:Q2,-90.46093777998257,-1598.0969882172374
exact,pre_advance,A,ar,midas_umidas,2007:Q3,-331.1259104236887,-1929.2228986409261
exact,pre_advance,A,ar,midas_umidas,2007:Q4,-28.7438112194976,-1957.9667098604236
exact,pre_advance,A,ar,midas_umidas,2008:Q1,-109.21614314991803,-2067.1828530103417
exact,pre_advance,A,ar,midas_umidas,2008:Q2,-565.4112016092611,-2632.5940546196025
exact,pre_advance,A,ar,midas_umidas,2008:Q3,-58.186597073757085,-2690.7806516933597
exact,pre_advance,A,ar,midas_umidas,2008:Q4,-32.728163358606764,-2723.5088150519664
exact,pre_advance,A,ar,midas_umidas,2009:Q1,8.583597191716123,-2714.92521786025
exact,pre_advance,A,ar,midas_umidas,2009:Q2,-53.39885734537558,-2768.324075205626
exact,pre_advance,A,ar,midas_umidas,2009:Q3,-303.9722662121401,-3072.2963414177657
exact,pre_advance,A,ar,midas_umidas,2009:Q4,-64.51058242069575,-3136.8069238384614
exact,pre_advance,A,ar,midas_umidas,2010:Q1,0.5983576798340858,-3136.2085661586275
exact,pre_advance,A,ar,midas_umidas,2010:Q2,-15.990555884620134,-3152.199122043248
exact,pre_advance,A,ar,midas_umidas,2010:Q3,-307.6546954204589,-3459.853817463707
exact,pre_advance,A,ar,midas_umidas,2010:Q4,-38.15978341146515,-3498.013600875172
exact,pre_advance,A,ar,midas_umidas,2011:Q1,-92.03290211782502,-3590.046502992997
exact,pre_advance,A,ar,midas_umidas,2011:Q2,-306.02198228956087,-3896.068485282558
exact,pre_advance,A,ar,midas_umidas,2011:Q3,-32.87401376606293,-3928.942499048621
exact,pre_advance,A,ar,midas_umidas,2011:Q4,-371.54817852718503,-4300.490677575806
exact,pre_advance,A,ar,midas_umidas,2012:Q1,-122.74567380920654,-4423.236351385013
exact,pre_advance,A,ar,midas_umidas,2012:Q2,-29.88797422631989,-4453.124325611333
exact,pre_advance,A,ar,midas_umidas,2012:Q3,-25.05258481143651,-4478.17691042277
exact,pre_advance,A,ar,midas_umidas,2012:Q4,-236.931833593097,-4715.108744015866
exact,pre_advance,A,ar,midas_umidas,2013:Q1,-289.46108812641023,-5004.569832142277
exact,pre_advance,A,ar,midas_umidas,2013:Q2,-166.00409066325903,-5170.573922805536
exact,pre_advance,A,ar,midas_umidas,2013:Q3,-133.94421055689523,-5304.518133362431
exact,pre_advance,A,ar,midas_umidas,2013:Q4,0.1844370828420358,-5304.333696279589
exact,pre_advance,A,ar,midas_umidas,2014:Q1,-24.41104941800282,-5328.744745697592
exact,pre_advance,A,ar,midas_umidas,2014:Q2,-6.904915448098296,-5335.6496611456905
exact,pre_advance,A,ar,midas_umidas,2014:Q3,-128.28898106590654,-5463.938642211597
exact,pre_advance,A,ar,midas_umidas,2014:Q4,0.023543689470378798,-5463.915098522127
exact,pre_advance,A,ar,midas_umidas,2015:Q1,-16.38452558657465,-5480.299624108701
exact,pre_advance,A,ar,midas_umidas,2015:Q2,-85.02922229388085,-5565.328846402582
exact,pre_advance,A,ar,midas_umidas,2015:Q3,-1.344957788895401,-5566.673804191477
exact,pre_advance,A,ar,midas_umidas,2015:Q4,-43.10958890173534,-5609.783393093212
exact,pre_advance,A,ar,midas_umidas,2016:Q1,1.120103032854391,-5608.663290060357
exact,pre_advance,A,ar,midas_umidas,2016:Q2,-0.666491131098135,-5609.329781191455
exact,pre_advance,A,ar,midas_umidas,2016:Q3,-25.335260654313558,-5634.665041845769
exact,pre_advance,A,ar,midas_umidas,2016:Q4,-11.497059059703457,-5646.1621009054725
exact,pre_advance,A,ar,midas_umidas,2017:Q1,-6.0698612183336405,-5652.231962123806
exact,pre_advance,A,ar,midas_umidas,2017:Q2,0.9452815682099636,-5651.286680555596
exact,pre_advance,A,ar,midas_umidas,2017:Q3,-0.41404128561245446,-5651.700721841208
exact,pre_advance,A,ar,midas_umidas,2017:Q4,-0.13420448164651677,-5651.834926322855
exact,pre_advance,A,ar,midas_umidas,2018:Q1,-3.997257024537364,-5655.832183347392
exact,pre_advance,A,ar,midas_umidas,2018:Q2,-18.26889602605065,-5674.101079373442
exact,pre_advance,A,ar,midas_umidas,2018:Q3,-2.021495069425829,-5676.122574442868
exact,pre_advance,A,ar,midas_umidas,2018:Q4,-0.8432647553047836,-5676.965839198173
exact,pre_advance,A,ar,midas_umidas,2019:Q1,-2.440618721248274,-5679.406457919421
exact,pre_advance,A,ar,midas_umidas,2019:Q2,-0.31022506279469664,-5679.716682982215
exact,pre_advance,A,ar,midas_umidas,2019:Q3,-0.5704491640055204,-5680.287132146221
exact,pre_advance,A,ar,midas_umidas,2019:Q4,-3.737028164518225,-5684.024160310739
exact,pre_advance,A,ar,midas_umidas,2020:Q1,-88.42740718615849,-5772.451567496897
exact,pre_advance,A,ar,midas_umidas,2020:Q2,-3056.4598925313708,-8828.911460028268
exact,pre_advance,A,ar,midas_umidas,2020:Q3,-1182.785561973823,-10011.697022002092
exact,pre_advance,A,ar,midas_umidas,2020:Q4,-9.845816644277923,-10021.54283864637
exact,pre_advance,A,ar,midas_umidas,2021:Q1,-8.101390902857082,-10029.644229549227
exact,pre_advance,A,ar,midas_umidas,2021:Q2,12.942854477099132,-10016.701375072127
exact,pre_advance,A,ar,midas_umidas,2021:Q3,-36.10650263151161,-10052.807877703639
exact,pre_advance,A,ar,midas_umidas,2021:Q4,-50.137724068774205,-10102.945601772413
exact,pre_advance,A,ar,midas_umidas,2022:Q1,11.516273142384971,-10091.429328630029
exact,pre_advance,A,ar,midas_umidas,2022:Q2,-81.47208354712295,-10172.901412177152
exact,pre_advance,A,ar,midas_umidas,2022:Q3,-10.828589581410352,-10183.730001758562
exact,pre_advance,A,ar,midas_umidas,2022:Q4,-26.164088543113238,-10209.894090301676
exact,pre_advance,A,ar,midas_umidas,2023:Q1,0.983950925470207,-10208.910139376205
exact,pre_advance,A,ar,midas_umidas,2023:Q2,-4.190128232118229,-10213.100267608323
exact,pre_advance,A,ar,midas_umidas,2023:Q3,5.646110506615621,-10207.454157101707
exact,pre_advance,A,ar,midas_umidas,2023:Q4,-0.5226186986627077,-10207.976775800369
exact,pre_advance,A,ar,midas_umidas,2024:Q1,-6.858121252587646,-10214.834897052957
exact,pre_advance,A,ar,midas_umidas,2024:Q2,-0.00908849640029552,-10214.843985549358
exact,pre_advance,A,ar,midas_umidas,2024:Q3,-3.39415843192423,-10218.238143981282
exact,pre_advance,A,ar,midas_umidas,2024:Q4,0.053104823491226846,-10218.18503915779
exact,pre_advance,A,ar,monthly_mixed_frequency_kalman_em,2005:Q1,-2.176504135196321,-2.176504135196321
exact,pre_advance,A,ar,monthly_mixed_frequency_kalman_em,2005:Q2,0.14806865808578965,-2.028435477110531
exact,pre_advance,A,ar,monthly_mixed_frequency_kalman_em,2005:Q3,-13.82300323095629,-15.851438708066821
exact,pre_advance,A,ar,monthly_mixed_frequency_kalman_em,2005:Q4,-18.313465923384303,-34.16490463145112
exact,pre_advance,A,ar,monthly_mixed_frequency_kalman_em,2006:Q1,6.752723928327995,-27.412180703123127
exact,pre_advance,A,ar,monthly_mixed_frequency_kalman_em,2006:Q2,-3.861691779908072,-31.273872483031198
exact,pre_advance,A,ar,monthly_mixed_frequency_kalman_em,2006:Q3,0.9834091114036401,-30.29046337162756
exact,pre_advance,A,ar,monthly_mixed_frequency_kalman_em,2006:Q4,-2.1272785634659748,-32.41774193509353
exact,pre_advance,A,ar,monthly_mixed_frequency_kalman_em,2007:Q1,-2.055750610311345,-34.47349254540487
exact,pre_advance,A,ar,monthly_mixed_frequency_kalman_em,2007:Q2,1.1214789005609669,-33.35201364484391
exact,pre_advance,A,ar,monthly_mixed_frequency_kalman_em,2007:Q3,0.09641006255431828,-33.25560358228959
exact,pre_advance,A,ar,monthly_mixed_frequency_kalman_em,2007:Q4,6.900748534746764,-26.354855047542824
exact,pre_advance,A,ar,monthly_mixed_frequency_kalman_em,2008:Q1,1.1919601146664929,-25.16289493287633
exact,pre_advance,A,ar,monthly_mixed_frequency_kalman_em,2008:Q2,-1.4521626045340523,-26.615057537410383
exact,pre_advance,A,ar,monthly_mixed_frequency_kalman_em,2008:Q3,-7.103735009137675,-33.71879254654806
exact,pre_advance,A,ar,monthly_mixed_frequency_kalman_em,2008:Q4,18.123243389347973,-15.595549157200086
exact,pre_advance,A,ar,monthly_mixed_frequency_kalman_em,2009:Q1,6.655180490934107,-8.940368666265979
exact,pre_advance,A,ar,monthly_mixed_frequency_kalman_em,2009:Q2,0.8150518277502093,-8.125316838515769
exact,pre_advance,A,ar,monthly_mixed_frequency_kalman_em,2009:Q3,-0.023643618355950302,-8.14896045687172
exact,pre_advance,A,ar,monthly_mixed_frequency_kalman_em,2009:Q4,1.4785725460638988,-6.670387910807821
exact,pre_advance,A,ar,monthly_mixed_frequency_kalman_em,2010:Q1,0.2149291914047018,-6.455458719403119
exact,pre_advance,A,ar,monthly_mixed_frequency_kalman_em,2010:Q2,-1.1696906832144813,-7.625149402617601
exact,pre_advance,A,ar,monthly_mixed_frequency_kalman_em,2010:Q3,0.1999573193985255,-7.425192083219075
exact,pre_advance,A,ar,monthly_mixed_frequency_kalman_em,2010:Q4,0.6638560533052177,-6.761336029913857
exact,pre_advance,A,ar,monthly_mixed_frequency_kalman_em,2011:Q1,-6.516475118149673,-13.277811148063531
exact,pre_advance,A,ar,monthly_mixed_frequency_kalman_em,2011:Q2,-1.2779228016092286,-14.55573394967276
exact,pre_advance,A,ar,monthly_mixed_frequency_kalman_em,2011:Q3,0.23214756668236608,-14.323586382990394
exact,pre_advance,A,ar,monthly_mixed_frequency_kalman_em,2011:Q4,-0.9723640693318566,-15.29595045232225
exact,pre_advance,A,ar,monthly_mixed_frequency_kalman_em,2012:Q1,-2.040283387946063,-17.336233840268314
exact,pre_advance,A,ar,monthly_mixed_frequency_kalman_em,2012:Q2,-0.23677285083048982,-17.573006691098804
exact,pre_advance,A,ar,monthly_mixed_frequency_kalman_em,2012:Q3,-0.8424499206218696,-18.415456611720675
exact,pre_advance,A,ar,monthly_mixed_frequency_kalman_em,2012:Q4,-7.825020960262892,-26.24047757198357
exact,pre_advance,A,ar,monthly_mixed_frequency_kalman_em,2013:Q1,1.4923555891428806,-24.748121982840686
exact,pre_advance,A,ar,monthly_mixed_frequency_kalman_em,2013:Q2,-0.29393954651983734,-25.042061529360524
exact,pre_advance,A,ar,monthly_mixed_frequency_kalman_em,2013:Q3,0.38824373136831947,-24.653817797992204
exact,pre_advance,A,ar,monthly_mixed_frequency_kalman_em,2013:Q4,-0.31862518619276187,-24.972442984184966
exact,pre_advance,A,ar,monthly_mixed_frequency_kalman_em,2014:Q1,-5.238129653911516,-30.21057263809648
exact,pre_advance,A,ar,monthly_mixed_frequency_kalman_em,2014:Q2,6.175003680699493,-24.035568957396986
exact,pre_advance,A,ar,monthly_mixed_frequency_kalman_em,2014:Q3,-0.3164882601241657,-24.352057217521153
exact,pre_advance,A,ar,monthly_mixed_frequency_kalman_em,2014:Q4,-0.5492123527307233,-24.901269570251877
exact,pre_advance,A,ar,monthly_mixed_frequency_kalman_em,2015:Q1,3.5317475250291266,-21.36952204522275
exact,pre_advance,A,ar,monthly_mixed_frequency_kalman_em,2015:Q2,0.8006307856427604,-20.568891259579992
exact,pre_advance,A,ar,monthly_mixed_frequency_kalman_em,2015:Q3,-0.20865279476484822,-20.77754405434484
exact,pre_advance,A,ar,monthly_mixed_frequency_kalman_em,2015:Q4,1.02907314738753,-19.74847090695731
exact,pre_advance,A,ar,monthly_mixed_frequency_kalman_em,2016:Q1,0.16659218474794102,-19.581878722209368
exact,pre_advance,A,ar,monthly_mixed_frequency_kalman_em,2016:Q2,-1.2128499651821252,-20.794728687391494
exact,pre_advance,A,ar,monthly_mixed_frequency_kalman_em,2016:Q3,0.7299527696875138,-20.06477591770398
exact,pre_advance,A,ar,monthly_mixed_frequency_kalman_em,2016:Q4,0.342287168437817,-19.722488749266162
exact,pre_advance,A,ar,monthly_mixed_frequency_kalman_em,2017:Q1,-2.5146525460349403,-22.237141295301104
exact,pre_advance,A,ar,monthly_mixed_frequency_kalman_em,2017:Q2,0.7633847205837165,-21.473756574717388
exact,pre_advance,A,ar,monthly_mixed_frequency_kalman_em,2017:Q3,-0.4545098860005734,-21.92826646071796
exact,pre_advance,A,ar,monthly_mixed_frequency_kalman_em,2017:Q4,-1.7002816596617323,-23.628548120379694
exact,pre_advance,A,ar,monthly_mixed_frequency_kalman_em,2018:Q1,-2.4073230753302735,-26.035871195709966
exact,pre_advance,A,ar,monthly_mixed_frequency_kalman_em,2018:Q2,1.4454706023436525,-24.59040059336631
exact,pre_advance,A,ar,monthly_mixed_frequency_kalman_em,2018:Q3,0.04187870281083329,-24.548521890555477
exact,pre_advance,A,ar,monthly_mixed_frequency_kalman_em,2018:Q4,0.05257301645242515,-24.495948874103053
exact,pre_advance,A,ar,monthly_mixed_frequency_kalman_em,2019:Q1,-1.394439848886062,-25.890388722989115
exact,pre_advance,A,ar,monthly_mixed_frequency_kalman_em,2019:Q2,0.5974027081971847,-25.292986014791932
exact,pre_advance,A,ar,monthly_mixed_frequency_kalman_em,2019:Q3,-0.16438068040404277,-25.457366695195976
exact,pre_advance,A,ar,monthly_mixed_frequency_kalman_em,2019:Q4,0.007290567020002848,-25.450076128175972
exact,pre_advance,A,ar,monthly_mixed_frequency_kalman_em,2020:Q1,33.088655921195716,7.638579793019744
exact,pre_advance,A,ar,monthly_mixed_frequency_kalman_em,2020:Q2,115.68572106165641,123.32430085467615
exact,pre_advance,A,ar,monthly_mixed_frequency_kalman_em,2020:Q3,2290.5355288903993,2413.8598297450753
exact,pre_advance,A,ar,monthly_mixed_frequency_kalman_em,2020:Q4,-3.0832817104493997,2410.776548034626
exact,pre_advance,A,ar,monthly_mixed_frequency_kalman_em,2021:Q1,-65.71632870068993,2345.0602193339364
exact,pre_advance,A,ar,monthly_mixed_frequency_kalman_em,2021:Q2,13.908351552321427,2358.968570886258
exact,pre_advance,A,ar,monthly_mixed_frequency_kalman_em,2021:Q3,-1.5618065450769598,2357.406764341181
exact,pre_advance,A,ar,monthly_mixed_frequency_kalman_em,2021:Q4,7.448989375322631,2364.8557537165034
exact,pre_advance,A,ar,monthly_mixed_frequency_kalman_em,2022:Q1,-37.608964399285966,2327.2467893172175
exact,pre_advance,A,ar,monthly_mixed_frequency_kalman_em,2022:Q2,-15.825109622797205,2311.42167969442
exact,pre_advance,A,ar,monthly_mixed_frequency_kalman_em,2022:Q3,-0.5441360108946864,2310.8775436835253
exact,pre_advance,A,ar,monthly_mixed_frequency_kalman_em,2022:Q4,-1.8159937568853899,2309.06154992664
exact,pre_advance,A,ar,monthly_mixed_frequency_kalman_em,2023:Q1,2.0646379999159,2311.1261879265558
exact,pre_advance,A,ar,monthly_mixed_frequency_kalman_em,2023:Q2,-0.1990019161174561,2310.927186010438
exact,pre_advance,A,ar,monthly_mixed_frequency_kalman_em,2023:Q3,0.6341123023526665,2311.5612983127908
exact,pre_advance,A,ar,monthly_mixed_frequency_kalman_em,2023:Q4,-7.332374210563948,2304.2289241022268
exact,pre_advance,A,ar,monthly_mixed_frequency_kalman_em,2024:Q1,-0.02112905955943667,2304.2077950426674
exact,pre_advance,A,ar,monthly_mixed_frequency_kalman_em,2024:Q2,-1.4774039589166708,2302.730391083751
exact,pre_advance,A,ar,monthly_mixed_frequency_kalman_em,2024:Q3,-1.3782396794988412,2301.3521514042523
exact,pre_advance,A,ar,monthly_mixed_frequency_kalman_em,2024:Q4,-0.9702727674190454,2300.3818786368333
exact,pre_advance,A,ar,no_revision,2005:Q1,0.01829276874886654,0.01829276874886654
exact,pre_advance,A,ar,no_revision,2005:Q2,-0.010434082728868699,0.00785868601999784
exact,pre_advance,A,ar,no_revision,2005:Q3,0.04475723724217473,0.05261592326217257
exact,pre_advance,A,ar,no_revision,2005:Q4,-0.005897102113586961,0.04671882114858561
exact,pre_advance,A,ar,no_revision,2006:Q1,0.14435758559098844,0.19107640673957405
exact,pre_advance,A,ar,no_revision,2006:Q2,0.10645890996238783,0.29753531670196187
exact,pre_advance,A,ar,no_revision,2006:Q3,-0.24152679339726402,0.056008523304697855
exact,pre_advance,A,ar,no_revision,2006:Q4,-0.30824079892148304,-0.2522322756167852
exact,pre_advance,A,ar,no_revision,2007:Q1,-0.23848279984936216,-0.49071507546614734
exact,pre_advance,A,ar,no_revision,2007:Q2,0.05512019812272051,-0.43559487734342683
exact,pre_advance,A,ar,no_revision,2007:Q3,-0.19969014430791188,-0.6352850216513387
exact,pre_advance,A,ar,no_revision,2007:Q4,-0.15567398880635874,-0.7909590104576975
exact,pre_advance,A,ar,no_revision,2008:Q1,0.05559234221203191,-0.7353666682456655
exact,pre_advance,A,ar,no_revision,2008:Q2,0.004622952477093177,-0.7307437157685723
exact,pre_advance,A,ar,no_revision,2008:Q3,-0.15221627551749783,-0.8829599912860702
exact,pre_advance,A,ar,no_revision,2008:Q4,0.5818162017862143,-0.3011437894998559
exact,pre_advance,A,ar,no_revision,2009:Q1,0.45423321116048854,0.15308942166063266
exact,pre_advance,A,ar,no_revision,2009:Q2,0.013307526119774815,0.16639694778040748
exact,pre_advance,A,ar,no_revision,2009:Q3,-1.023992772227114,-0.8575958244467066
exact,pre_advance,A,ar,no_revision,2009:Q4,-1.4621885824992091,-2.3197844069459155
exact,pre_advance,A,ar,no_revision,2010:Q1,0.5154181563893694,-1.804366250556546
exact,pre_advance,A,ar,no_revision,2010:Q2,0.1815894544157976,-1.6227767961407484
exact,pre_advance,A,ar,no_revision,2010:Q3,0.02901155984276077,-1.5937652362979877
exact,pre_advance,A,ar,no_revision,2010:Q4,0.21335030884274386,-1.3804149274552437
exact,pre_advance,A,ar,no_revision,2011:Q1,-0.06757887593352563,-1.4479938033887694
exact,pre_advance,A,ar,no_revision,2011:Q2,0.0202217337142232,-1.4277720696745462
exact,pre_advance,A,ar,no_revision,2011:Q3,-0.052984459561723096,-1.4807565292362692
exact,pre_advance,A,ar,no_revision,2011:Q4,0.01895665554257433,-1.4617998736936948
exact,pre_advance,A,ar,no_revision,2012:Q1,0.02232353618393504,-1.4394763375097597
exact,pre_advance,A,ar,no_revision,2012:Q2,0.11942453052189395,-1.3200518069878657
exact,pre_advance,A,ar,no_revision,2012:Q3,0.0006349170808925357,-1.3194168899069731
exact,pre_advance,A,ar,no_revision,2012:Q4,-0.06262090931865316,-1.3820377992256263
exact,pre_advance,A,ar,no_revision,2013:Q1,-0.008932871015000954,-1.3909706702406273
exact,pre_advance,A,ar,no_revision,2013:Q2,0.06324061631598044,-1.3277300539246468
exact,pre_advance,A,ar,no_revision,2013:Q3,0.0315667756852992,-1.2961632782393475
exact,pre_advance,A,ar,no_revision,2013:Q4,-0.17688786721241778,-1.4730511454517652
exact,pre_advance,A,ar,no_revision,2014:Q1,-0.02480433967617479,-1.49785548512794
exact,pre_advance,A,ar,no_revision,2014:Q2,-0.3039643587409291,-1.801819843868869
exact,pre_advance,A,ar,no_revision,2014:Q3,-0.01009808842494786,-1.811917932293817
exact,pre_advance,A,ar,no_revision,2014:Q4,-0.053005079780955394,-1.8649230120747724
exact,pre_advance,A,ar,no_revision,2015:Q1,0.67193818782102,-1.1929848242537524
exact,pre_advance,A,ar,no_revision,2015:Q2,0.08197493566980374,-1.1110098885839488
exact,pre_advance,A,ar,no_revision,2015:Q3,-0.08264742175217066,-1.1936573103361194
exact,pre_advance,A,ar,no_revision,2015:Q4,-0.12441534043486313,-1.3180726507709826
exact,pre_advance,A,ar,no_revision,2016:Q1,0.2275952927293533,-1.0904773580416292
exact,pre_advance,A,ar,no_revision,2016:Q2,-0.0046545719231812915,-1.0951319299648103
exact,pre_advance,A,ar,no_revision,2016:Q3,-0.04584231925914617,-1.1409742492239565
exact,pre_advance,A,ar,no_revision,2016:Q4,0.10114230910276367,-1.0398319401211928
exact,pre_advance,A,ar,no_revision,2017:Q1,0.246574617300388,-0.7932573228208049
exact,pre_advance,A,ar,no_revision,2017:Q2,-0.15926574147033767,-0.9525230642911425
exact,pre_advance,A,ar,no_revision,2017:Q3,0.022454236955837703,-0.9300688273353048
exact,pre_advance,A,ar,no_revision,2017:Q4,0.004727701091471227,-0.9253411262438336
exact,pre_advance,A,ar,no_revision,2018:Q1,0.03223932073775865,-0.8931018055060749
exact,pre_advance,A,ar,no_revision,2018:Q2,-0.05012498584200742,-0.9432267913480823
exact,pre_advance,A,ar,no_revision,2018:Q3,0.0040716179457951085,-0.9391551734022872
exact,pre_advance,A,ar,no_revision,2018:Q4,0.0107967518642271,-0.92835842153806
exact,pre_advance,A,ar,no_revision,2019:Q1,-0.06475700376940074,-0.9931154253074608
exact,pre_advance,A,ar,no_revision,2019:Q2,-0.08251128198875868,-1.0756267072962196
exact,pre_advance,A,ar,no_revision,2019:Q3,-0.02873654465966108,-1.1043632519558806
exact,pre_advance,A,ar,no_revision,2019:Q4,0.0032282376299231016,-1.1011350143259575
exact,pre_advance,A,ar,no_revision,2020:Q1,-0.47755925650978526,-1.5786942708357428
exact,pre_advance,A,ar,no_revision,2020:Q2,-0.5667662532794111,-2.145460524115154
exact,pre_advance,A,ar,no_revision,2020:Q3,-57.60016029331837,-59.74562081743352
exact,pre_advance,A,ar,no_revision,2020:Q4,-40.65854856282156,-100.40416938025507
exact,pre_advance,A,ar,no_revision,2021:Q1,-27.79553131153419,-128.19970069178925
exact,pre_advance,A,ar,no_revision,2021:Q2,-24.119251842538425,-152.31895253432768
exact,pre_advance,A,ar,no_revision,2021:Q3,-0.30877510409469244,-152.62772763842236
exact,pre_advance,A,ar,no_revision,2021:Q4,3.7679008571371924,-148.85982678128516
exact,pre_advance,A,ar,no_revision,2022:Q1,-0.5234667865097897,-149.38329356779496
exact,pre_advance,A,ar,no_revision,2022:Q2,-1.9855199282110494,-151.36881349600603
exact,pre_advance,A,ar,no_revision,2022:Q3,-0.033925124700511525,-151.40273862070654
exact,pre_advance,A,ar,no_revision,2022:Q4,-0.7384306425890252,-152.14116926329558
exact,pre_advance,A,ar,no_revision,2023:Q1,0.371137610273619,-151.77003165302196
exact,pre_advance,A,ar,no_revision,2023:Q2,-0.00528125482766627,-151.77531290784964
exact,pre_advance,A,ar,no_revision,2023:Q3,-0.5551736828791194,-152.33048659072875
exact,pre_advance,A,ar,no_revision,2023:Q4,-0.20210030709286464,-152.53258689782163
exact,pre_advance,A,ar,no_revision,2024:Q1,-0.31218151521482485,-152.84476841303646
exact,pre_advance,A,ar,no_revision,2024:Q2,0.0978852185130688,-152.7468831945234
exact,pre_advance,A,ar,no_revision,2024:Q3,-0.06291573213851451,-152.80979892666193
exact,pre_advance,A,ar,no_revision,2024:Q4,0.026146771737672124,-152.78365215492425
exact,pre_advance,A,ar,release_dfm,2005:Q1,0.005557468690040701,0.005557468690040701
exact,pre_advance,A,ar,release_dfm,2005:Q2,0.17688600917079522,0.18244347786083592
exact,pre_advance,A,ar,release_dfm,2005:Q3,-0.5496284026543578,-0.3671849247935218
exact,pre_advance,A,ar,release_dfm,2005:Q4,-1.598510703674827,-1.9656956284683487
exact,pre_advance,A,ar,release_dfm,2006:Q1,5.895364834230374,3.9296692057620257
exact,pre_advance,A,ar,release_dfm,2006:Q2,0.6326591475203756,4.5623283532824015
exact,pre_advance,A,ar,release_dfm,2006:Q3,-1.1815536331980458,3.3807747200843554
exact,pre_advance,A,ar,release_dfm,2006:Q4,-0.08961491202374061,3.291159808060615
exact,pre_advance,A,ar,release_dfm,2007:Q1,2.277615211128804,5.5687750191894185
exact,pre_advance,A,ar,release_dfm,2007:Q2,1.5721987404672848,7.140973759656704
exact,pre_advance,A,ar,release_dfm,2007:Q3,-0.9325969815824826,6.208376778074221
exact,pre_advance,A,ar,release_dfm,2007:Q4,5.619451697130961,11.827828475205182
exact,pre_advance,A,ar,release_dfm,2008:Q1,0.4071777558322208,12.235006231037403
exact,pre_advance,A,ar,release_dfm,2008:Q2,-0.1485463181038612,12.086459912933542
exact,pre_advance,A,ar,release_dfm,2008:Q3,5.4603986995371985,17.54685861247074
exact,pre_advance,A,ar,release_dfm,2008:Q4,25.320902423246768,42.86776103571751
exact,pre_advance,A,ar,release_dfm,2009:Q1,26.898920136255693,69.7666811719732
exact,pre_advance,A,ar,release_dfm,2009:Q2,0.6708675600601806,70.43754873203338
exact,pre_advance,A,ar,release_dfm,2009:Q3,7.624685900987867,78.06223463302125
exact,pre_advance,A,ar,release_dfm,2009:Q4,-0.05460311648701044,78.00763151653423
exact,pre_advance,A,ar,release_dfm,2010:Q1,-1.383510722457672,76.62412079407656
exact,pre_advance,A,ar,release_dfm,2010:Q2,-0.9692400609140532,75.65488073316251
exact,pre_advance,A,ar,release_dfm,2010:Q3,-0.16499710555444946,75.48988362760807
exact,pre_advance,A,ar,release_dfm,2010:Q4,0.42205119712596945,75.91193482473403
exact,pre_advance,A,ar,release_dfm,2011:Q1,-7.478070769233071,68.43386405550096
exact,pre_advance,A,ar,release_dfm,2011:Q2,-1.2601790103089012,67.17368504519206
exact,pre_advance,A,ar,release_dfm,2011:Q3,0.169691482379295,67.34337652757135
exact,pre_advance,A,ar,release_dfm,2011:Q4,-0.5786066882143093,66.76476983935704
exact,pre_advance,A,ar,release_dfm,2012:Q1,-2.2457574597114895,64.51901237964556
exact,pre_advance,A,ar,release_dfm,2012:Q2,-0.29124857939303794,64.22776380025252
exact,pre_advance,A,ar,release_dfm,2012:Q3,-0.2875970641695967,63.94016673608292
exact,pre_advance,A,ar,release_dfm,2012:Q4,-7.029358035026668,56.910808701056254
exact,pre_advance,A,ar,release_dfm,2013:Q1,1.5366394988358547,58.44744819989211
exact,pre_advance,A,ar,release_dfm,2013:Q2,-0.6193290521110049,57.8281191477811
exact,pre_advance,A,ar,release_dfm,2013:Q3,0.5116495142349746,58.33976866201608
exact,pre_advance,A,ar,release_dfm,2013:Q4,0.1881211670679197,58.527889829083996
exact,pre_advance,A,ar,release_dfm,2014:Q1,2.2611836602781894,60.78907348936219
exact,pre_advance,A,ar,release_dfm,2014:Q2,6.950285300050513,67.7393587894127
exact,pre_advance,A,ar,release_dfm,2014:Q3,-0.23970610456213043,67.49965268485057
exact,pre_advance,A,ar,release_dfm,2014:Q4,0.15993158149245626,67.65958426634303
exact,pre_advance,A,ar,release_dfm,2015:Q1,3.458441162000213,71.11802542834324
exact,pre_advance,A,ar,release_dfm,2015:Q2,0.608188766440848,71.72621419478409
exact,pre_advance,A,ar,release_dfm,2015:Q3,-0.49388308416577154,71.23233111061832
exact,pre_advance,A,ar,release_dfm,2015:Q4,-0.199694963921353,71.03263614669696
exact,pre_advance,A,ar,release_dfm,2016:Q1,-1.3432215168252546,69.6894146298717
exact,pre_advance,A,ar,release_dfm,2016:Q2,-0.9852587561590919,68.70415587371261
exact,pre_advance,A,ar,release_dfm,2016:Q3,0.8086089264622582,69.51276480017486
exact,pre_advance,A,ar,release_dfm,2016:Q4,-0.9426756961184087,68.57008910405645
exact,pre_advance,A,ar,release_dfm,2017:Q1,-2.1563377782168547,66.4137513258396
exact,pre_advance,A,ar,release_dfm,2017:Q2,0.8839097043219548,67.29766103016155
exact,pre_advance,A,ar,release_dfm,2017:Q3,-0.4498136888489407,66.84784734131262
exact,pre_advance,A,ar,release_dfm,2017:Q4,-1.472453224608988,65.37539411670363
exact,pre_advance,A,ar,release_dfm,2018:Q1,-1.1961916583162755,64.17920245838735
exact,pre_advance,A,ar,release_dfm,2018:Q2,0.7936938430062765,64.97289630139363
exact,pre_advance,A,ar,release_dfm,2018:Q3,-0.1781213138623781,64.79477498753126
exact,pre_advance,A,ar,release_dfm,2018:Q4,0.16398670734271426,64.95876169487397
exact,pre_advance,A,ar,release_dfm,2019:Q1,-1.3737634057761716,63.5849982890978
exact,pre_advance,A,ar,release_dfm,2019:Q2,0.5864738210399745,64.17147211013777
exact,pre_advance,A,ar,release_dfm,2019:Q3,-0.04636784297867397,64.1251042671591
exact,pre_advance,A,ar,release_dfm,2019:Q4,-0.009652078071393923,64.1154521890877
exact,pre_advance,A,ar,release_dfm,2020:Q1,20.78770088725128,84.90315307633898
exact,pre_advance,A,ar,release_dfm,2020:Q2,712.4929959502997,797.3961490266387
exact,pre_advance,A,ar,release_dfm,2020:Q3,2567.0847497712384,3364.480898797877
exact,pre_advance,A,ar,release_dfm,2020:Q4,-9.760194583218505,3354.720704214659
exact,pre_advance,A,ar,release_dfm,2021:Q1,14.717586220885224,3369.438290435544
exact,pre_advance,A,ar,release_dfm,2021:Q2,11.250739364102031,3380.689029799646
exact,pre_advance,A,ar,release_dfm,2021:Q3,-1.552906580913287,3379.136123218733
exact,pre_advance,A,ar,release_dfm,2021:Q4,14.115040173354647,3393.2511633920876
exact,pre_advance,A,ar,release_dfm,2022:Q1,-52.79943459352654,3340.451728798561
exact,pre_advance,A,ar,release_dfm,2022:Q2,-12.669399125677783,3327.782329672883
exact,pre_advance,A,ar,release_dfm,2022:Q3,0.01330019348445774,3327.7956298663676
exact,pre_advance,A,ar,release_dfm,2022:Q4,-1.3244838241014658,3326.471146042266
exact,pre_advance,A,ar,release_dfm,2023:Q1,0.6909286887191397,3327.162074730985
exact,pre_advance,A,ar,release_dfm,2023:Q2,-0.12096587289956348,3327.0411088580854
exact,pre_advance,A,ar,release_dfm,2023:Q3,-2.313832963877977,3324.7272758942077
exact,pre_advance,A,ar,release_dfm,2023:Q4,-1.707528374686477,3323.0197475195214
exact,pre_advance,A,ar,release_dfm,2024:Q1,0.4624004308907374,3323.482147950412
exact,pre_advance,A,ar,release_dfm,2024:Q2,0.12983346758590594,3323.611981417998
exact,pre_advance,A,ar,release_dfm,2024:Q3,-0.8060037928736986,3322.8059776251243
exact,pre_advance,A,ar,release_dfm,2024:Q4,0.033129491051418346,3322.839107116176
exact,pre_advance,A,ar,revision_dfm_kalman_em,2005:Q1,0.026306354403565508,0.026306354403565508
exact,pre_advance,A,ar,revision_dfm_kalman_em,2005:Q2,-0.24681401908524564,-0.22050766468168012
exact,pre_advance,A,ar,revision_dfm_kalman_em,2005:Q3,-0.8503207262399747,-1.0708283909216547
exact,pre_advance,A,ar,revision_dfm_kalman_em,2005:Q4,-5.021734339294299,-6.0925627302159535
exact,pre_advance,A,ar,revision_dfm_kalman_em,2006:Q1,3.2587192457173497,-2.833843484498604
exact,pre_advance,A,ar,revision_dfm_kalman_em,2006:Q2,0.0921656838274485,-2.7416778006711553
exact,pre_advance,A,ar,revision_dfm_kalman_em,2006:Q3,0.9662287188492372,-1.7754490818219182
exact,pre_advance,A,ar,revision_dfm_kalman_em,2006:Q4,-5.7709347745565465,-7.546383856378465
exact,pre_advance,A,ar,revision_dfm_kalman_em,2007:Q1,-0.9641000755641631,-8.510483931942627
exact,pre_advance,A,ar,revision_dfm_kalman_em,2007:Q2,1.9130573856664146,-6.597426546276212
exact,pre_advance,A,ar,revision_dfm_kalman_em,2007:Q3,-1.4790788939240056,-8.076505440200219
exact,pre_advance,A,ar,revision_dfm_kalman_em,2007:Q4,6.9701611189030155,-1.106344321297203
exact,pre_advance,A,ar,revision_dfm_kalman_em,2008:Q1,1.2073975577558114,0.10105323645860831
exact,pre_advance,A,ar,revision_dfm_kalman_em,2008:Q2,-1.729569463081643,-1.6285162266230346
exact,pre_advance,A,ar,revision_dfm_kalman_em,2008:Q3,6.35712312884731,4.728606902224276
exact,pre_advance,A,ar,revision_dfm_kalman_em,2008:Q4,17.683278868883797,22.41188577110807
exact,pre_advance,A,ar,revision_dfm_kalman_em,2009:Q1,6.171104863935788,28.58299063504386
exact,pre_advance,A,ar,revision_dfm_kalman_em,2009:Q2,-15.420231946646311,13.162758688397549
exact,pre_advance,A,ar,revision_dfm_kalman_em,2009:Q3,3.3770680128181922,16.53982670121574
exact,pre_advance,A,ar,revision_dfm_kalman_em,2009:Q4,4.065433792955668,20.60526049417141
exact,pre_advance,A,ar,revision_dfm_kalman_em,2010:Q1,-7.415517053109814,13.189743441061598
exact,pre_advance,A,ar,revision_dfm_kalman_em,2010:Q2,-3.3301951916750676,9.859548249386531
exact,pre_advance,A,ar,revision_dfm_kalman_em,2010:Q3,-0.6620330679332326,9.197515181453298
exact,pre_advance,A,ar,revision_dfm_kalman_em,2010:Q4,-0.9095491836651429,8.287965997788154
exact,pre_advance,A,ar,revision_dfm_kalman_em,2011:Q1,-13.897205679986886,-5.609239682198732
exact,pre_advance,A,ar,revision_dfm_kalman_em,2011:Q2,0.7297007072125131,-4.879538974986219
exact,pre_advance,A,ar,revision_dfm_kalman_em,2011:Q3,-0.11027135387348885,-4.989810328859708
exact,pre_advance,A,ar,revision_dfm_kalman_em,2011:Q4,-0.42395712996886453,-5.4137674588285725
exact,pre_advance,A,ar,revision_dfm_kalman_em,2012:Q1,-2.202393299147705,-7.616160757976278
exact,pre_advance,A,ar,revision_dfm_kalman_em,2012:Q2,0.6607390536987233,-6.955421704277555
exact,pre_advance,A,ar,revision_dfm_kalman_em,2012:Q3,-0.11545669872608869,-7.070878403003643
exact,pre_advance,A,ar,revision_dfm_kalman_em,2012:Q4,-4.1176212151111535,-11.188499618114797
exact,pre_advance,A,ar,revision_dfm_kalman_em,2013:Q1,1.7356935624892413,-9.452806055625555
exact,pre_advance,A,ar,revision_dfm_kalman_em,2013:Q2,0.19037150360464417,-9.26243455202091
exact,pre_advance,A,ar,revision_dfm_kalman_em,2013:Q3,0.33765584736638676,-8.924778704654523
exact,pre_advance,A,ar,revision_dfm_kalman_em,2013:Q4,-0.9776190554116766,-9.902397760066199
exact,pre_advance,A,ar,revision_dfm_kalman_em,2014:Q1,-0.5797197854234621,-10.482117545489661
exact,pre_advance,A,ar,revision_dfm_kalman_em,2014:Q2,6.882740076467348,-3.599377469022313
exact,pre_advance,A,ar,revision_dfm_kalman_em,2014:Q3,-0.7448109606784269,-4.34418842970074
exact,pre_advance,A,ar,revision_dfm_kalman_em,2014:Q4,-0.3360137403172296,-4.680202170017969
exact,pre_advance,A,ar,revision_dfm_kalman_em,2015:Q1,5.211935267211555,0.5317330971935856
exact,pre_advance,A,ar,revision_dfm_kalman_em,2015:Q2,0.38677586662655794,0.9185089638201436
exact,pre_advance,A,ar,revision_dfm_kalman_em,2015:Q3,-1.0949384700688705,-0.1764295062487269
exact,pre_advance,A,ar,revision_dfm_kalman_em,2015:Q4,1.6664965341938975,1.4900670279451707
exact,pre_advance,A,ar,revision_dfm_kalman_em,2016:Q1,0.6306872548074873,2.120754282752658
exact,pre_advance,A,ar,revision_dfm_kalman_em,2016:Q2,-0.31606350203192435,1.8046907807207337
exact,pre_advance,A,ar,revision_dfm_kalman_em,2016:Q3,0.6958594428998586,2.5005502236205923
exact,pre_advance,A,ar,revision_dfm_kalman_em,2016:Q4,-0.1380932391813552,2.362456984439237
exact,pre_advance,A,ar,revision_dfm_kalman_em,2017:Q1,-0.701368708258653,1.661088276180584
exact,pre_advance,A,ar,revision_dfm_kalman_em,2017:Q2,0.790950775725131,2.452039051905715
exact,pre_advance,A,ar,revision_dfm_kalman_em,2017:Q3,-4.755709956524036,-2.3036709046183215
exact,pre_advance,A,ar,revision_dfm_kalman_em,2017:Q4,-9.867879279063745,-12.171550183682067
exact,pre_advance,A,ar,revision_dfm_kalman_em,2018:Q1,-0.5689770314683066,-12.740527215150374
exact,pre_advance,A,ar,revision_dfm_kalman_em,2018:Q2,2.1997164832236593,-10.540810731926715
exact,pre_advance,A,ar,revision_dfm_kalman_em,2018:Q3,0.04198905373759962,-10.498821678189115
exact,pre_advance,A,ar,revision_dfm_kalman_em,2018:Q4,0.04389356140258151,-10.454928116786533
exact,pre_advance,A,ar,revision_dfm_kalman_em,2019:Q1,-3.4201299305660497,-13.875058047352583
exact,pre_advance,A,ar,revision_dfm_kalman_em,2019:Q2,0.5692380581684001,-13.305819989184183
exact,pre_advance,A,ar,revision_dfm_kalman_em,2019:Q3,-0.32952726162196666,-13.63534725080615
exact,pre_advance,A,ar,revision_dfm_kalman_em,2019:Q4,-0.5057734834482485,-14.141120734254399
exact,pre_advance,A,ar,revision_dfm_kalman_em,2020:Q1,37.715991334603494,23.574870600349094
exact,pre_advance,A,ar,revision_dfm_kalman_em,2020:Q2,879.2883627523631,902.8632333527122
exact,pre_advance,A,ar,revision_dfm_kalman_em,2020:Q3,2180.34224358562,3083.205476938332
exact,pre_advance,A,ar,revision_dfm_kalman_em,2020:Q4,0.2900778537015439,3083.4955547920335
exact,pre_advance,A,ar,revision_dfm_kalman_em,2021:Q1,0.39319565858727046,3083.8887504506206
exact,pre_advance,A,ar,revision_dfm_kalman_em,2021:Q2,10.21706278485889,3094.1058132354797
exact,pre_advance,A,ar,revision_dfm_kalman_em,2021:Q3,-2.4194506201927886,3091.6863626152867
exact,pre_advance,A,ar,revision_dfm_kalman_em,2021:Q4,9.419325195807879,3101.1056878110944
exact,pre_advance,A,ar,revision_dfm_kalman_em,2022:Q1,-35.266533967850954,3065.8391538432434
exact,pre_advance,A,ar,revision_dfm_kalman_em,2022:Q2,-7.975990375231545,3057.863163468012
exact,pre_advance,A,ar,revision_dfm_kalman_em,2022:Q3,-0.21281038502626753,3057.6503530829855
exact,pre_advance,A,ar,revision_dfm_kalman_em,2022:Q4,-3.865318232097714,3053.7850348508878
exact,pre_advance,A,ar,revision_dfm_kalman_em,2023:Q1,0.1233037376910211,3053.9083385885788
exact,pre_advance,A,ar,revision_dfm_kalman_em,2023:Q2,-0.001235625118707235,3053.90710296346
exact,pre_advance,A,ar,revision_dfm_kalman_em,2023:Q3,0.7498087391915931,3054.6569117026515
exact,pre_advance,A,ar,revision_dfm_kalman_em,2023:Q4,-5.425851468367854,3049.2310602342836
exact,pre_advance,A,ar,revision_dfm_kalman_em,2024:Q1,0.8370793635089612,3050.0681395977927
exact,pre_advance,A,ar,revision_dfm_kalman_em,2024:Q2,-1.5551833537890265,3048.512956244004
exact,pre_advance,A,ar,revision_dfm_kalman_em,2024:Q3,-1.3317942603965351,3047.181161983607
exact,pre_advance,A,ar,revision_dfm_kalman_em,2024:Q4,-0.035221177262740586,3047.1459408063442
exact,pre_advance,A,ar,standard_dfm,2005:Q1,0.005557468690040701,0.005557468690040701
exact,pre_advance,A,ar,standard_dfm,2005:Q2,0.17688600917079522,0.18244347786083592
exact,pre_advance,A,ar,standard_dfm,2005:Q3,-0.5496284026543578,-0.3671849247935218
exact,pre_advance,A,ar,standard_dfm,2005:Q4,-1.598510703674827,-1.9656956284683487
exact,pre_advance,A,ar,standard_dfm,2006:Q1,5.895364834230374,3.9296692057620257
exact,pre_advance,A,ar,standard_dfm,2006:Q2,0.6326591475203756,4.5623283532824015
exact,pre_advance,A,ar,standard_dfm,2006:Q3,-1.1815536331980458,3.3807747200843554
exact,pre_advance,A,ar,standard_dfm,2006:Q4,-0.08961491202374061,3.291159808060615
exact,pre_advance,A,ar,standard_dfm,2007:Q1,2.277615211128804,5.5687750191894185
exact,pre_advance,A,ar,standard_dfm,2007:Q2,1.5721987404672848,7.140973759656704
exact,pre_advance,A,ar,standard_dfm,2007:Q3,-0.9325969815824826,6.208376778074221
exact,pre_advance,A,ar,standard_dfm,2007:Q4,5.619451697130961,11.827828475205182
exact,pre_advance,A,ar,standard_dfm,2008:Q1,0.4071777558322208,12.235006231037403
exact,pre_advance,A,ar,standard_dfm,2008:Q2,-0.1485463181038612,12.086459912933542
exact,pre_advance,A,ar,standard_dfm,2008:Q3,5.4603986995371985,17.54685861247074
exact,pre_advance,A,ar,standard_dfm,2008:Q4,25.320902423246768,42.86776103571751
exact,pre_advance,A,ar,standard_dfm,2009:Q1,26.898920136255693,69.7666811719732
exact,pre_advance,A,ar,standard_dfm,2009:Q2,0.6708675600601806,70.43754873203338
exact,pre_advance,A,ar,standard_dfm,2009:Q3,7.624685900987867,78.06223463302125
exact,pre_advance,A,ar,standard_dfm,2009:Q4,-0.05460311648701044,78.00763151653423
exact,pre_advance,A,ar,standard_dfm,2010:Q1,-1.383510722457672,76.62412079407656
exact,pre_advance,A,ar,standard_dfm,2010:Q2,-0.9692400609140532,75.65488073316251
exact,pre_advance,A,ar,standard_dfm,2010:Q3,-0.16499710555444946,75.48988362760807
exact,pre_advance,A,ar,standard_dfm,2010:Q4,0.42205119712596945,75.91193482473403
exact,pre_advance,A,ar,standard_dfm,2011:Q1,-7.478070769233071,68.43386405550096
exact,pre_advance,A,ar,standard_dfm,2011:Q2,-1.2601790103089012,67.17368504519206
exact,pre_advance,A,ar,standard_dfm,2011:Q3,0.169691482379295,67.34337652757135
exact,pre_advance,A,ar,standard_dfm,2011:Q4,-0.5786066882143093,66.76476983935704
exact,pre_advance,A,ar,standard_dfm,2012:Q1,-2.2457574597114895,64.51901237964556
exact,pre_advance,A,ar,standard_dfm,2012:Q2,-0.29124857939303794,64.22776380025252
exact,pre_advance,A,ar,standard_dfm,2012:Q3,-0.2875970641695967,63.94016673608292
exact,pre_advance,A,ar,standard_dfm,2012:Q4,-7.029358035026668,56.910808701056254
exact,pre_advance,A,ar,standard_dfm,2013:Q1,1.5366394988358547,58.44744819989211
exact,pre_advance,A,ar,standard_dfm,2013:Q2,-0.6193290521110049,57.8281191477811
exact,pre_advance,A,ar,standard_dfm,2013:Q3,0.5116495142349746,58.33976866201608
exact,pre_advance,A,ar,standard_dfm,2013:Q4,0.1881211670679197,58.527889829083996
exact,pre_advance,A,ar,standard_dfm,2014:Q1,2.2611836602781894,60.78907348936219
exact,pre_advance,A,ar,standard_dfm,2014:Q2,6.950285300050513,67.7393587894127
exact,pre_advance,A,ar,standard_dfm,2014:Q3,-0.23970610456213043,67.49965268485057
exact,pre_advance,A,ar,standard_dfm,2014:Q4,0.15993158149245626,67.65958426634303
exact,pre_advance,A,ar,standard_dfm,2015:Q1,3.458441162000213,71.11802542834324
exact,pre_advance,A,ar,standard_dfm,2015:Q2,0.608188766440848,71.72621419478409
exact,pre_advance,A,ar,standard_dfm,2015:Q3,-0.49388308416577154,71.23233111061832
exact,pre_advance,A,ar,standard_dfm,2015:Q4,-0.199694963921353,71.03263614669696
exact,pre_advance,A,ar,standard_dfm,2016:Q1,-1.3432215168252546,69.6894146298717
exact,pre_advance,A,ar,standard_dfm,2016:Q2,-0.9852587561590919,68.70415587371261
exact,pre_advance,A,ar,standard_dfm,2016:Q3,0.8086089264622582,69.51276480017486
exact,pre_advance,A,ar,standard_dfm,2016:Q4,-0.9426756961184087,68.57008910405645
exact,pre_advance,A,ar,standard_dfm,2017:Q1,-2.1563377782168547,66.4137513258396
exact,pre_advance,A,ar,standard_dfm,2017:Q2,0.8839097043219548,67.29766103016155
exact,pre_advance,A,ar,standard_dfm,2017:Q3,-0.4498136888489407,66.84784734131262
exact,pre_advance,A,ar,standard_dfm,2017:Q4,-1.472453224608988,65.37539411670363
exact,pre_advance,A,ar,standard_dfm,2018:Q1,-1.1961916583162755,64.17920245838735
exact,pre_advance,A,ar,standard_dfm,2018:Q2,0.7936938430062765,64.97289630139363
exact,pre_advance,A,ar,standard_dfm,2018:Q3,-0.1781213138623781,64.79477498753126
exact,pre_advance,A,ar,standard_dfm,2018:Q4,0.16398670734271426,64.95876169487397
exact,pre_advance,A,ar,standard_dfm,2019:Q1,-1.3737634057761716,63.5849982890978
exact,pre_advance,A,ar,standard_dfm,2019:Q2,0.5864738210399745,64.17147211013777
exact,pre_advance,A,ar,standard_dfm,2019:Q3,-0.04636784297867397,64.1251042671591
exact,pre_advance,A,ar,standard_dfm,2019:Q4,-0.009652078071393923,64.1154521890877
exact,pre_advance,A,ar,standard_dfm,2020:Q1,20.78770088725128,84.90315307633898
exact,pre_advance,A,ar,standard_dfm,2020:Q2,712.4929959502997,797.3961490266387
exact,pre_advance,A,ar,standard_dfm,2020:Q3,2567.0847497712384,3364.480898797877
exact,pre_advance,A,ar,standard_dfm,2020:Q4,-9.760194583218505,3354.720704214659
exact,pre_advance,A,ar,standard_dfm,2021:Q1,14.717586220885224,3369.438290435544
exact,pre_advance,A,ar,standard_dfm,2021:Q2,11.250739364102031,3380.689029799646
exact,pre_advance,A,ar,standard_dfm,2021:Q3,-1.552906580913287,3379.136123218733
exact,pre_advance,A,ar,standard_dfm,2021:Q4,14.115040173354647,3393.2511633920876
exact,pre_advance,A,ar,standard_dfm,2022:Q1,-52.79943459352654,3340.451728798561
exact,pre_advance,A,ar,standard_dfm,2022:Q2,-12.669399125677783,3327.782329672883
exact,pre_advance,A,ar,standard_dfm,2022:Q3,0.01330019348445774,3327.7956298663676
exact,pre_advance,A,ar,standard_dfm,2022:Q4,-1.3244838241014658,3326.471146042266
exact,pre_advance,A,ar,standard_dfm,2023:Q1,0.6909286887191397,3327.162074730985
exact,pre_advance,A,ar,standard_dfm,2023:Q2,-0.12096587289956348,3327.0411088580854
exact,pre_advance,A,ar,standard_dfm,2023:Q3,-2.313832963877977,3324.7272758942077
exact,pre_advance,A,ar,standard_dfm,2023:Q4,-1.707528374686477,3323.0197475195214
exact,pre_advance,A,ar,standard_dfm,2024:Q1,0.4624004308907374,3323.482147950412
exact,pre_advance,A,ar,standard_dfm,2024:Q2,0.12983346758590594,3323.611981417998
exact,pre_advance,A,ar,standard_dfm,2024:Q3,-0.8060037928736986,3322.8059776251243
exact,pre_advance,A,ar,standard_dfm,2024:Q4,0.033129491051418346,3322.839107116176
exact,pre_advance,A,no_revision,ar,2005:Q1,-0.01829276874886654,-0.01829276874886654
exact,pre_advance,A,no_revision,ar,2005:Q2,0.010434082728868699,-0.00785868601999784
exact,pre_advance,A,no_revision,ar,2005:Q3,-0.04475723724217473,-0.05261592326217257
exact,pre_advance,A,no_revision,ar,2005:Q4,0.005897102113586961,-0.04671882114858561
exact,pre_advance,A,no_revision,ar,2006:Q1,-0.14435758559098844,-0.19107640673957405
exact,pre_advance,A,no_revision,ar,2006:Q2,-0.10645890996238783,-0.29753531670196187
exact,pre_advance,A,no_revision,ar,2006:Q3,0.24152679339726402,-0.056008523304697855
exact,pre_advance,A,no_revision,ar,2006:Q4,0.30824079892148304,0.2522322756167852
exact,pre_advance,A,no_revision,ar,2007:Q1,0.23848279984936216,0.49071507546614734
exact,pre_advance,A,no_revision,ar,2007:Q2,-0.05512019812272051,0.43559487734342683
exact,pre_advance,A,no_revision,ar,2007:Q3,0.19969014430791188,0.6352850216513387
exact,pre_advance,A,no_revision,ar,2007:Q4,0.15567398880635874,0.7909590104576975
exact,pre_advance,A,no_revision,ar,2008:Q1,-0.05559234221203191,0.7353666682456655
exact,pre_advance,A,no_revision,ar,2008:Q2,-0.004622952477093177,0.7307437157685723
exact,pre_advance,A,no_revision,ar,2008:Q3,0.15221627551749783,0.8829599912860702
exact,pre_advance,A,no_revision,ar,2008:Q4,-0.5818162017862143,0.3011437894998559
exact,pre_advance,A,no_revision,ar,2009:Q1,-0.45423321116048854,-0.15308942166063266
exact,pre_advance,A,no_revision,ar,2009:Q2,-0.013307526119774815,-0.16639694778040748
exact,pre_advance,A,no_revision,ar,2009:Q3,1.023992772227114,0.8575958244467066
exact,pre_advance,A,no_revision,ar,2009:Q4,1.4621885824992091,2.3197844069459155
exact,pre_advance,A,no_revision,ar,2010:Q1,-0.5154181563893694,1.804366250556546
exact,pre_advance,A,no_revision,ar,2010:Q2,-0.1815894544157976,1.6227767961407484
exact,pre_advance,A,no_revision,ar,2010:Q3,-0.02901155984276077,1.5937652362979877
exact,pre_advance,A,no_revision,ar,2010:Q4,-0.21335030884274386,1.3804149274552437
exact,pre_advance,A,no_revision,ar,2011:Q1,0.06757887593352563,1.4479938033887694
exact,pre_advance,A,no_revision,ar,2011:Q2,-0.0202217337142232,1.4277720696745462
exact,pre_advance,A,no_revision,ar,2011:Q3,0.052984459561723096,1.4807565292362692
exact,pre_advance,A,no_revision,ar,2011:Q4,-0.01895665554257433,1.4617998736936948
exact,pre_advance,A,no_revision,ar,2012:Q1,-0.02232353618393504,1.4394763375097597
exact,pre_advance,A,no_revision,ar,2012:Q2,-0.11942453052189395,1.3200518069878657
exact,pre_advance,A,no_revision,ar,2012:Q3,-0.0006349170808925357,1.3194168899069731
exact,pre_advance,A,no_revision,ar,2012:Q4,0.06262090931865316,1.3820377992256263
exact,pre_advance,A,no_revision,ar,2013:Q1,0.008932871015000954,1.3909706702406273
exact,pre_advance,A,no_revision,ar,2013:Q2,-0.06324061631598044,1.3277300539246468
exact,pre_advance,A,no_revision,ar,2013:Q3,-0.0315667756852992,1.2961632782393475
exact,pre_advance,A,no_revision,ar,2013:Q4,0.17688786721241778,1.4730511454517652
exact,pre_advance,A,no_revision,ar,2014:Q1,0.02480433967617479,1.49785548512794
exact,pre_advance,A,no_revision,ar,2014:Q2,0.3039643587409291,1.801819843868869
exact,pre_advance,A,no_revision,ar,2014:Q3,0.01009808842494786,1.811917932293817
exact,pre_advance,A,no_revision,ar,2014:Q4,0.053005079780955394,1.8649230120747724
exact,pre_advance,A,no_revision,ar,2015:Q1,-0.67193818782102,1.1929848242537524
exact,pre_advance,A,no_revision,ar,2015:Q2,-0.08197493566980374,1.1110098885839488
exact,pre_advance,A,no_revision,ar,2015:Q3,0.08264742175217066,1.1936573103361194
exact,pre_advance,A,no_revision,ar,2015:Q4,0.12441534043486313,1.3180726507709826
exact,pre_advance,A,no_revision,ar,2016:Q1,-0.2275952927293533,1.0904773580416292
exact,pre_advance,A,no_revision,ar,2016:Q2,0.0046545719231812915,1.0951319299648103
exact,pre_advance,A,no_revision,ar,2016:Q3,0.04584231925914617,1.1409742492239565
exact,pre_advance,A,no_revision,ar,2016:Q4,-0.10114230910276367,1.0398319401211928
exact,pre_advance,A,no_revision,ar,2017:Q1,-0.246574617300388,0.7932573228208049
exact,pre_advance,A,no_revision,ar,2017:Q2,0.15926574147033767,0.9525230642911425
exact,pre_advance,A,no_revision,ar,2017:Q3,-0.022454236955837703,0.9300688273353048
exact,pre_advance,A,no_revision,ar,2017:Q4,-0.004727701091471227,0.9253411262438336
exact,pre_advance,A,no_revision,ar,2018:Q1,-0.03223932073775865,0.8931018055060749
exact,pre_advance,A,no_revision,ar,2018:Q2,0.05012498584200742,0.9432267913480823
exact,pre_advance,A,no_revision,ar,2018:Q3,-0.0040716179457951085,0.9391551734022872
exact,pre_advance,A,no_revision,ar,2018:Q4,-0.0107967518642271,0.92835842153806
exact,pre_advance,A,no_revision,ar,2019:Q1,0.06475700376940074,0.9931154253074608
exact,pre_advance,A,no_revision,ar,2019:Q2,0.08251128198875868,1.0756267072962196
exact,pre_advance,A,no_revision,ar,2019:Q3,0.02873654465966108,1.1043632519558806
exact,pre_advance,A,no_revision,ar,2019:Q4,-0.0032282376299231016,1.1011350143259575
exact,pre_advance,A,no_revision,ar,2020:Q1,0.47755925650978526,1.5786942708357428
exact,pre_advance,A,no_revision,ar,2020:Q2,0.5667662532794111,2.145460524115154
exact,pre_advance,A,no_revision,ar,2020:Q3,57.60016029331837,59.74562081743352
exact,pre_advance,A,no_revision,ar,2020:Q4,40.65854856282156,100.40416938025507
exact,pre_advance,A,no_revision,ar,2021:Q1,27.79553131153419,128.19970069178925
exact,pre_advance,A,no_revision,ar,2021:Q2,24.119251842538425,152.31895253432768
exact,pre_advance,A,no_revision,ar,2021:Q3,0.30877510409469244,152.62772763842236
exact,pre_advance,A,no_revision,ar,2021:Q4,-3.7679008571371924,148.85982678128516
exact,pre_advance,A,no_revision,ar,2022:Q1,0.5234667865097897,149.38329356779496
exact,pre_advance,A,no_revision,ar,2022:Q2,1.9855199282110494,151.36881349600603
exact,pre_advance,A,no_revision,ar,2022:Q3,0.033925124700511525,151.40273862070654
exact,pre_advance,A,no_revision,ar,2022:Q4,0.7384306425890252,152.14116926329558
exact,pre_advance,A,no_revision,ar,2023:Q1,-0.371137610273619,151.77003165302196
exact,pre_advance,A,no_revision,ar,2023:Q2,0.00528125482766627,151.77531290784964
exact,pre_advance,A,no_revision,ar,2023:Q3,0.5551736828791194,152.33048659072875
exact,pre_advance,A,no_revision,ar,2023:Q4,0.20210030709286464,152.53258689782163
exact,pre_advance,A,no_revision,ar,2024:Q1,0.31218151521482485,152.84476841303646
exact,pre_advance,A,no_revision,ar,2024:Q2,-0.0978852185130688,152.7468831945234
exact,pre_advance,A,no_revision,ar,2024:Q3,0.06291573213851451,152.80979892666193
exact,pre_advance,A,no_revision,ar,2024:Q4,-0.026146771737672124,152.78365215492425
exact,pre_advance,A,no_revision,bridge,2005:Q1,0.008215597414184386,0.008215597414184386
exact,pre_advance,A,no_revision,bridge,2005:Q2,0.2664849976095032,0.2747005950236876
exact,pre_advance,A,no_revision,bridge,2005:Q3,-0.15934170783751533,0.11535888718617227
exact,pre_advance,A,no_revision,bridge,2005:Q4,-1.061156314811341,-0.9457974276251687
exact,pre_advance,A,no_revision,bridge,2006:Q1,1.491292540028942,0.5454951124037734
exact,pre_advance,A,no_revision,bridge,2006:Q2,0.6612398447418184,1.2067349571455916
exact,pre_advance,A,no_revision,bridge,2006:Q3,0.12738937442554277,1.3341243315711344
exact,pre_advance,A,no_revision,bridge,2006:Q4,-11.115495185358746,-9.781370853787612
exact,pre_advance,A,no_revision,bridge,2007:Q1,3.1673071315367447,-6.614063722250867
exact,pre_advance,A,no_revision,bridge,2007:Q2,-0.6270010939567126,-7.2410648162075795
exact,pre_advance,A,no_revision,bridge,2007:Q3,-4.222013087742026,-11.463077903949605
exact,pre_advance,A,no_revision,bridge,2007:Q4,7.137280030827965,-4.32579787312164
exact,pre_advance,A,no_revision,bridge,2008:Q1,-0.8984188663524961,-5.224216739474136
exact,pre_advance,A,no_revision,bridge,2008:Q2,-0.5822131332173008,-5.806429872691437
exact,pre_advance,A,no_revision,bridge,2008:Q3,6.39136969126084,0.5849398185694028
exact,pre_advance,A,no_revision,bridge,2008:Q4,18.35320542375238,18.938145242321784
exact,pre_advance,A,no_revision,bridge,2009:Q1,28.522254693917795,47.46039993623958
exact,pre_advance,A,no_revision,bridge,2009:Q2,-1.1106053779094194,46.34979455833016
exact,pre_advance,A,no_revision,bridge,2009:Q3,5.32685235672722,51.67664691505738
exact,pre_advance,A,no_revision,bridge,2009:Q4,2.3027277325741577,53.97937464763154
exact,pre_advance,A,no_revision,bridge,2010:Q1,-8.418305450954193,45.561069196677344
exact,pre_advance,A,no_revision,bridge,2010:Q2,-0.16973114618359475,45.39133805049375
exact,pre_advance,A,no_revision,bridge,2010:Q3,0.1593129872951204,45.550651037788874
exact,pre_advance,A,no_revision,bridge,2010:Q4,0.06317830953073766,45.61382934731961
exact,pre_advance,A,no_revision,bridge,2011:Q1,-2.555993190959713,43.0578361563599
exact,pre_advance,A,no_revision,bridge,2011:Q2,-1.4931237088838087,41.56471244747609
exact,pre_advance,A,no_revision,bridge,2011:Q3,0.05073215179516272,41.61544459927125
exact,pre_advance,A,no_revision,bridge,2011:Q4,-1.1017138183289303,40.51373078094232
exact,pre_advance,A,no_revision,bridge,2012:Q1,-1.0764773078905148,39.437253473051804
exact,pre_advance,A,no_revision,bridge,2012:Q2,-0.603596622947675,38.83365685010413
exact,pre_advance,A,no_revision,bridge,2012:Q3,-0.575208838668224,38.2584480114359
exact,pre_advance,A,no_revision,bridge,2012:Q4,-8.103480051567285,30.154967959868618
exact,pre_advance,A,no_revision,bridge,2013:Q1,0.7950884554726778,30.950056415341294
exact,pre_advance,A,no_revision,bridge,2013:Q2,-0.44570193054532803,30.504354484795964
exact,pre_advance,A,no_revision,bridge,2013:Q3,-0.49834211672689344,30.006012368069072
exact,pre_advance,A,no_revision,bridge,2013:Q4,0.13712245449654337,30.143134822565617
exact,pre_advance,A,no_revision,bridge,2014:Q1,3.9451931802643108,34.088328002829925
exact,pre_advance,A,no_revision,bridge,2014:Q2,4.410158699495562,38.498486702325486
exact,pre_advance,A,no_revision,bridge,2014:Q3,-0.045996355308121864,38.45249034701737
exact,pre_advance,A,no_revision,bridge,2014:Q4,0.2106035962700831,38.66309394328745
exact,pre_advance,A,no_revision,bridge,2015:Q1,2.7117362862474286,41.37483022953488
exact,pre_advance,A,no_revision,bridge,2015:Q2,0.7790793652174874,42.15390959475236
exact,pre_advance,A,no_revision,bridge,2015:Q3,0.6963195488390829,42.85022914359145
exact,pre_advance,A,no_revision,bridge,2015:Q4,0.7760148696761344,43.62624401326758
exact,pre_advance,A,no_revision,bridge,2016:Q1,0.5511528724916305,44.17739688575921
exact,pre_advance,A,no_revision,bridge,2016:Q2,0.06445159121760785,44.24184847697681
exact,pre_advance,A,no_revision,bridge,2016:Q3,0.40961784186630823,44.65146631884312
exact,pre_advance,A,no_revision,bridge,2016:Q4,-0.8386804777801599,43.81278584106296
exact,pre_advance,A,no_revision,bridge,2017:Q1,-0.9106445698930794,42.90214127116988
exact,pre_advance,A,no_revision,bridge,2017:Q2,0.032319961715321144,42.934461232885205
exact,pre_advance,A,no_revision,bridge,2017:Q3,-0.336708786293597,42.597752446591606
exact,pre_advance,A,no_revision,bridge,2017:Q4,-1.154757722775843,41.442994723815765
exact,pre_advance,A,no_revision,bridge,2018:Q1,-0.8916572326445082,40.55133749117126
exact,pre_advance,A,no_revision,bridge,2018:Q2,0.4451149747288108,40.99645246590007
exact,pre_advance,A,no_revision,bridge,2018:Q3,-0.1479305055202646,40.848521960379806
exact,pre_advance,A,no_revision,bridge,2018:Q4,0.07988877975701823,40.928410740136826
exact,pre_advance,A,no_revision,bridge,2019:Q1,-0.042852976479083926,40.885557763657744
exact,pre_advance,A,no_revision,bridge,2019:Q2,0.691477457554207,41.57703522121195
exact,pre_advance,A,no_revision,bridge,2019:Q3,-0.3039817481641791,41.273053473047774
exact,pre_advance,A,no_revision,bridge,2019:Q4,-0.17104382993473424,41.10200964311304
exact,pre_advance,A,no_revision,bridge,2020:Q1,9.580017702547941,50.682027345660984
exact,pre_advance,A,no_revision,bridge,2020:Q2,533.1821380067013,583.8641653523623
exact,pre_advance,A,no_revision,bridge,2020:Q3,1700.4719074888842,2284.3360728412463
exact,pre_advance,A,no_revision,bridge,2020:Q4,15.421963922740805,2299.758036763987
exact,pre_advance,A,no_revision,bridge,2021:Q1,40.78673656791285,2340.5447733319
exact,pre_advance,A,no_revision,bridge,2021:Q2,39.12920568822841,2379.6739790201286
exact,pre_advance,A,no_revision,bridge,2021:Q3,0.003641228353279624,2379.677620248482
exact,pre_advance,A,no_revision,bridge,2021:Q4,-4.309556315401188,2375.368063933081
exact,pre_advance,A,no_revision,bridge,2022:Q1,-26.71709323163733,2348.650970701444
exact,pre_advance,A,no_revision,bridge,2022:Q2,4.3023207619124495,2352.9532914633564
exact,pre_advance,A,no_revision,bridge,2022:Q3,-3.032052127515388,2349.921239335841
exact,pre_advance,A,no_revision,bridge,2022:Q4,-17.62049701398002,2332.300742321861
exact,pre_advance,A,no_revision,bridge,2023:Q1,1.375690866879198,2333.6764331887402
exact,pre_advance,A,no_revision,bridge,2023:Q2,-1.4016490347085397,2332.2747841540317
exact,pre_advance,A,no_revision,bridge,2023:Q3,0.9167463176544608,2333.1915304716863
exact,pre_advance,A,no_revision,bridge,2023:Q4,-6.150838688551266,2327.040691783135
exact,pre_advance,A,no_revision,bridge,2024:Q1,1.0977588391882465,2328.1384506223235
exact,pre_advance,A,no_revision,bridge,2024:Q2,-0.7539944374101349,2327.3844561849132
exact,pre_advance,A,no_revision,bridge,2024:Q3,-0.007619718001530246,2327.3768364669118
exact,pre_advance,A,no_revision,bridge,2024:Q4,-0.026589665500670635,2327.3502468014112
exact,pre_advance,A,no_revision,indicator_revision_only_dfm_kalman_em,2005:Q1,-2.0993647265007453,-2.0993647265007453
exact,pre_advance,A,no_revision,indicator_revision_only_dfm_kalman_em,2005:Q2,-0.30230250771728323,-2.4016672342180287
exact,pre_advance,A,no_revision,indicator_revision_only_dfm_kalman_em,2005:Q3,0.5149718015592346,-1.8866954326587941
exact,pre_advance,A,no_revision,indicator_revision_only_dfm_kalman_em,2005:Q4,-22.89474986611343,-24.781445298772223
exact,pre_advance,A,no_revision,indicator_revision_only_dfm_kalman_em,2006:Q1,7.994548657627464,-16.786896641144757
exact,pre_advance,A,no_revision,indicator_revision_only_dfm_kalman_em,2006:Q2,-3.2729066916802694,-20.059803332825027
exact,pre_advance,A,no_revision,indicator_revision_only_dfm_kalman_em,2006:Q3,-2.384705992138678,-22.444509324963704
exact,pre_advance,A,no_revision,indicator_revision_only_dfm_kalman_em,2006:Q4,-16.675140501123174,-39.11964982608688
exact,pre_advance,A,no_revision,indicator_revision_only_dfm_kalman_em,2007:Q1,2.3985420997683526,-36.72110772631852
exact,pre_advance,A,no_revision,indicator_revision_only_dfm_kalman_em,2007:Q2,1.8621456915418402,-34.85896203477668
exact,pre_advance,A,no_revision,indicator_revision_only_dfm_kalman_em,2007:Q3,-32.73090021122564,-67.58986224600233
exact,pre_advance,A,no_revision,indicator_revision_only_dfm_kalman_em,2007:Q4,2.0048307923505906,-65.58503145365174
exact,pre_advance,A,no_revision,indicator_revision_only_dfm_kalman_em,2008:Q1,-8.634361191104851,-74.2193926447566
exact,pre_advance,A,no_revision,indicator_revision_only_dfm_kalman_em,2008:Q2,-0.8555280713144207,-75.07492071607102
exact,pre_advance,A,no_revision,indicator_revision_only_dfm_kalman_em,2008:Q3,-0.9179559775028983,-75.99287669357392
exact,pre_advance,A,no_revision,indicator_revision_only_dfm_kalman_em,2008:Q4,-19.10106959391765,-95.09394628749158
exact,pre_advance,A,no_revision,indicator_revision_only_dfm_kalman_em,2009:Q1,1.0986127531236747,-93.9953335343679
exact,pre_advance,A,no_revision,indicator_revision_only_dfm_kalman_em,2009:Q2,-3.1511205862804426,-97.14645412064834
exact,pre_advance,A,no_revision,indicator_revision_only_dfm_kalman_em,2009:Q3,2.2355893525245563,-94.91086476812379
exact,pre_advance,A,no_revision,indicator_revision_only_dfm_kalman_em,2009:Q4,-0.5947355056244596,-95.50560027374824
exact,pre_advance,A,no_revision,indicator_revision_only_dfm_kalman_em,2010:Q1,-10.80057294102401,-106.30617321477226
exact,pre_advance,A,no_revision,indicator_revision_only_dfm_kalman_em,2010:Q2,-3.1284496270554354,-109.43462284182769
exact,pre_advance,A,no_revision,indicator_revision_only_dfm_kalman_em,2010:Q3,0.14234914287312772,-109.29227369895456
exact,pre_advance,A,no_revision,indicator_revision_only_dfm_kalman_em,2010:Q4,0.42578439887939357,-108.86648930007517
exact,pre_advance,A,no_revision,indicator_revision_only_dfm_kalman_em,2011:Q1,-19.313884492971056,-128.18037379304621
exact,pre_advance,A,no_revision,indicator_revision_only_dfm_kalman_em,2011:Q2,0.48690248305613815,-127.69347130999007
exact,pre_advance,A,no_revision,indicator_revision_only_dfm_kalman_em,2011:Q3,-1.001385551364173,-128.69485686135425
exact,pre_advance,A,no_revision,indicator_revision_only_dfm_kalman_em,2011:Q4,-3.301609718782753,-131.996466580137
exact,pre_advance,A,no_revision,indicator_revision_only_dfm_kalman_em,2012:Q1,-5.6502353131446625,-137.64670189328166
exact,pre_advance,A,no_revision,indicator_revision_only_dfm_kalman_em,2012:Q2,-0.8731728417646623,-138.51987473504633
exact,pre_advance,A,no_revision,indicator_revision_only_dfm_kalman_em,2012:Q3,-0.17050868518257123,-138.6903834202289
exact,pre_advance,A,no_revision,indicator_revision_only_dfm_kalman_em,2012:Q4,-12.85419487254118,-151.54457829277007
exact,pre_advance,A,no_revision,indicator_revision_only_dfm_kalman_em,2013:Q1,1.6964505732314152,-149.84812771953867
exact,pre_advance,A,no_revision,indicator_revision_only_dfm_kalman_em,2013:Q2,-0.2991977126276312,-150.1473254321663
exact,pre_advance,A,no_revision,indicator_revision_only_dfm_kalman_em,2013:Q3,0.343309147567058,-149.80401628459924
exact,pre_advance,A,no_revision,indicator_revision_only_dfm_kalman_em,2013:Q4,-2.0508928205812427,-151.8549091051805
exact,pre_advance,A,no_revision,indicator_revision_only_dfm_kalman_em,2014:Q1,3.4109427330316295,-148.44396637214888
exact,pre_advance,A,no_revision,indicator_revision_only_dfm_kalman_em,2014:Q2,6.508311861900606,-141.93565451024827
exact,pre_advance,A,no_revision,indicator_revision_only_dfm_kalman_em,2014:Q3,-0.0505493156295385,-141.9862038258778
exact,pre_advance,A,no_revision,indicator_revision_only_dfm_kalman_em,2014:Q4,-0.02296207915669765,-142.00916590503448
exact,pre_advance,A,no_revision,indicator_revision_only_dfm_kalman_em,2015:Q1,4.398251285191805,-137.61091461984267
exact,pre_advance,A,no_revision,indicator_revision_only_dfm_kalman_em,2015:Q2,0.4716993956697993,-137.1392152241729
exact,pre_advance,A,no_revision,indicator_revision_only_dfm_kalman_em,2015:Q3,-1.9575816924835694,-139.09679691665644
exact,pre_advance,A,no_revision,indicator_revision_only_dfm_kalman_em,2015:Q4,0.8433228927557466,-138.2534740239007
exact,pre_advance,A,no_revision,indicator_revision_only_dfm_kalman_em,2016:Q1,-1.197456864536985,-139.45093088843768
exact,pre_advance,A,no_revision,indicator_revision_only_dfm_kalman_em,2016:Q2,-0.5379467529184603,-139.98887764135614
exact,pre_advance,A,no_revision,indicator_revision_only_dfm_kalman_em,2016:Q3,1.1210505218897007,-138.86782711946643
exact,pre_advance,A,no_revision,indicator_revision_only_dfm_kalman_em,2016:Q4,-3.4156219314358527,-142.28344905090228
exact,pre_advance,A,no_revision,indicator_revision_only_dfm_kalman_em,2017:Q1,-3.1926455750652876,-145.47609462596756
exact,pre_advance,A,no_revision,indicator_revision_only_dfm_kalman_em,2017:Q2,0.5109192744790889,-144.96517535148848
exact,pre_advance,A,no_revision,indicator_revision_only_dfm_kalman_em,2017:Q3,-1.3281669484712035,-146.29334229995968
exact,pre_advance,A,no_revision,indicator_revision_only_dfm_kalman_em,2017:Q4,-10.28294938018726,-156.57629168014694
exact,pre_advance,A,no_revision,indicator_revision_only_dfm_kalman_em,2018:Q1,-0.9265158030360909,-157.50280748318303
exact,pre_advance,A,no_revision,indicator_revision_only_dfm_kalman_em,2018:Q2,1.107727234142283,-156.39508024904075
exact,pre_advance,A,no_revision,indicator_revision_only_dfm_kalman_em,2018:Q3,0.046530593500173835,-156.34854965554058
exact,pre_advance,A,no_revision,indicator_revision_only_dfm_kalman_em,2018:Q4,0.156429180754941,-156.19212047478564
exact,pre_advance,A,no_revision,indicator_revision_only_dfm_kalman_em,2019:Q1,-2.577941799245506,-158.77006227403115
exact,pre_advance,A,no_revision,indicator_revision_only_dfm_kalman_em,2019:Q2,0.21599616921113807,-158.55406610482
exact,pre_advance,A,no_revision,indicator_revision_only_dfm_kalman_em,2019:Q3,-0.3292948815516116,-158.88336098637163
exact,pre_advance,A,no_revision,indicator_revision_only_dfm_kalman_em,2019:Q4,-0.1738334624616686,-159.0571944488333
exact,pre_advance,A,no_revision,indicator_revision_only_dfm_kalman_em,2020:Q1,35.40705705843013,-123.65013739040316
exact,pre_advance,A,no_revision,indicator_revision_only_dfm_kalman_em,2020:Q2,955.0514478219585,831.4013104315553
exact,pre_advance,A,no_revision,indicator_revision_only_dfm_kalman_em,2020:Q3,2158.889556824825,2990.2908672563804
exact,pre_advance,A,no_revision,indicator_revision_only_dfm_kalman_em,2020:Q4,22.257350899399622,3012.54821815578
exact,pre_advance,A,no_revision,indicator_revision_only_dfm_kalman_em,2021:Q1,37.01185995383054,3049.5600781096105
exact,pre_advance,A,no_revision,indicator_revision_only_dfm_kalman_em,2021:Q2,30.91076890553329,3080.4708470151436
exact,pre_advance,A,no_revision,indicator_revision_only_dfm_kalman_em,2021:Q3,-5.486192092961385,3074.984654922182
exact,pre_advance,A,no_revision,indicator_revision_only_dfm_kalman_em,2021:Q4,9.99792630961693,3084.982581231799
exact,pre_advance,A,no_revision,indicator_revision_only_dfm_kalman_em,2022:Q1,-35.07262765125695,3049.909953580542
exact,pre_advance,A,no_revision,indicator_revision_only_dfm_kalman_em,2022:Q2,-6.802659215272943,3043.1072943652694
exact,pre_advance,A,no_revision,indicator_revision_only_dfm_kalman_em,2022:Q3,-0.05396712910841203,3043.053327236161
exact,pre_advance,A,no_revision,indicator_revision_only_dfm_kalman_em,2022:Q4,-1.0488457452161124,3042.0044814909447
exact,pre_advance,A,no_revision,indicator_revision_only_dfm_kalman_em,2023:Q1,-1.6391981933854372,3040.3652832975595
exact,pre_advance,A,no_revision,indicator_revision_only_dfm_kalman_em,2023:Q2,-0.3045551087136488,3040.060728188846
exact,pre_advance,A,no_revision,indicator_revision_only_dfm_kalman_em,2023:Q3,-1.6321019031100734,3038.428626285736
exact,pre_advance,A,no_revision,indicator_revision_only_dfm_kalman_em,2023:Q4,0.29625096079483926,3038.7248772465305
exact,pre_advance,A,no_revision,indicator_revision_only_dfm_kalman_em,2024:Q1,1.1814351261717497,3039.9063123727024
exact,pre_advance,A,no_revision,indicator_revision_only_dfm_kalman_em,2024:Q2,-1.150607202143042,3038.7557051705594
exact,pre_advance,A,no_revision,indicator_revision_only_dfm_kalman_em,2024:Q3,-0.7258666306167283,3038.029838539943
exact,pre_advance,A,no_revision,indicator_revision_only_dfm_kalman_em,2024:Q4,-0.19914993044864832,3037.8306886094942
exact,pre_advance,A,no_revision,joint_indicator_revision_dfm_full_kalman_em,2005:Q1,-0.3788871102194254,-0.3788871102194254
exact,pre_advance,A,no_revision,joint_indicator_revision_dfm_full_kalman_em,2005:Q2,0.26680943864075496,-0.11207767157867043
exact,pre_advance,A,no_revision,joint_indicator_revision_dfm_full_kalman_em,2005:Q3,0.4337117963926365,0.3216341248139661
exact,pre_advance,A,no_revision,joint_indicator_revision_dfm_full_kalman_em,2005:Q4,-17.511218545406223,-17.189584420592258
exact,pre_advance,A,no_revision,joint_indicator_revision_dfm_full_kalman_em,2006:Q1,6.82092327745484,-10.368661143137418
exact,pre_advance,A,no_revision,joint_indicator_revision_dfm_full_kalman_em,2006:Q2,-0.7535316950724986,-11.122192838209916
exact,pre_advance,A,no_revision,joint_indicator_revision_dfm_full_kalman_em,2006:Q3,-3.0425154664213934,-14.16470830463131
exact,pre_advance,A,no_revision,joint_indicator_revision_dfm_full_kalman_em,2006:Q4,-16.967407611521715,-31.132115916153026
exact,pre_advance,A,no_revision,joint_indicator_revision_dfm_full_kalman_em,2007:Q1,0.1778858668830905,-30.954230049269935
exact,pre_advance,A,no_revision,joint_indicator_revision_dfm_full_kalman_em,2007:Q2,1.844838775304674,-29.10939127396526
exact,pre_advance,A,no_revision,joint_indicator_revision_dfm_full_kalman_em,2007:Q3,-29.988588524425193,-59.097979798390455
exact,pre_advance,A,no_revision,joint_indicator_revision_dfm_full_kalman_em,2007:Q4,1.8212685246463938,-57.27671127374406
exact,pre_advance,A,no_revision,joint_indicator_revision_dfm_full_kalman_em,2008:Q1,-6.582166999592339,-63.8588782733364
exact,pre_advance,A,no_revision,joint_indicator_revision_dfm_full_kalman_em,2008:Q2,-0.04440279512350863,-63.90328106845991
exact,pre_advance,A,no_revision,joint_indicator_revision_dfm_full_kalman_em,2008:Q3,-0.9356438532222251,-64.83892492168214
exact,pre_advance,A,no_revision,joint_indicator_revision_dfm_full_kalman_em,2008:Q4,-6.677367615286556,-71.51629253696869
exact,pre_advance,A,no_revision,joint_indicator_revision_dfm_full_kalman_em,2009:Q1,-4.41670297932561,-75.9329955162943
exact,pre_advance,A,no_revision,joint_indicator_revision_dfm_full_kalman_em,2009:Q2,4.375683263591057e-05,-75.93295175946166
exact,pre_advance,A,no_revision,joint_indicator_revision_dfm_full_kalman_em,2009:Q3,5.651688792938319,-70.28126296652334
exact,pre_advance,A,no_revision,joint_indicator_revision_dfm_full_kalman_em,2009:Q4,-0.8651545056611223,-71.14641747218447
exact,pre_advance,A,no_revision,joint_indicator_revision_dfm_full_kalman_em,2010:Q1,-8.677710792785563,-79.82412826497003
exact,pre_advance,A,no_revision,joint_indicator_revision_dfm_full_kalman_em,2010:Q2,-3.80973982650952,-83.63386809147954
exact,pre_advance,A,no_revision,joint_indicator_revision_dfm_full_kalman_em,2010:Q3,0.12167151001590287,-83.51219658146364
exact,pre_advance,A,no_revision,joint_indicator_revision_dfm_full_kalman_em,2010:Q4,0.11966344488196079,-83.39253313658168
exact,pre_advance,A,no_revision,joint_indicator_revision_dfm_full_kalman_em,2011:Q1,-17.500323750515992,-100.89285688709766
exact,pre_advance,A,no_revision,joint_indicator_revision_dfm_full_kalman_em,2011:Q2,0.6895879518729586,-100.20326893522471
exact,pre_advance,A,no_revision,joint_indicator_revision_dfm_full_kalman_em,2011:Q3,-0.3645193405250948,-100.5677882757498
exact,pre_advance,A,no_revision,joint_indicator_revision_dfm_full_kalman_em,2011:Q4,-2.6494186556455164,-103.21720693139532
exact,pre_advance,A,no_revision,joint_indicator_revision_dfm_full_kalman_em,2012:Q1,-4.754497311992123,-107.97170424338745
exact,pre_advance,A,no_revision,joint_indicator_revision_dfm_full_kalman_em,2012:Q2,-0.74196640809321,-108.71367065148065
exact,pre_advance,A,no_revision,joint_indicator_revision_dfm_full_kalman_em,2012:Q3,-0.03727995197802882,-108.75095060345869
exact,pre_advance,A,no_revision,joint_indicator_revision_dfm_full_kalman_em,2012:Q4,-8.768312636111139,-117.51926323956982
exact,pre_advance,A,no_revision,joint_indicator_revision_dfm_full_kalman_em,2013:Q1,1.7525463639588654,-115.76671687561095
exact,pre_advance,A,no_revision,joint_indicator_revision_dfm_full_kalman_em,2013:Q2,-0.19493613991336867,-115.96165301552432
exact,pre_advance,A,no_revision,joint_indicator_revision_dfm_full_kalman_em,2013:Q3,0.5252978900606895,-115.43635512546363
exact,pre_advance,A,no_revision,joint_indicator_revision_dfm_full_kalman_em,2013:Q4,-0.5847749139443736,-116.021130039408
exact,pre_advance,A,no_revision,joint_indicator_revision_dfm_full_kalman_em,2014:Q1,1.9952376479041805,-114.02589239150383
exact,pre_advance,A,no_revision,joint_indicator_revision_dfm_full_kalman_em,2014:Q2,6.569407657083674,-107.45648473442016
exact,pre_advance,A,no_revision,joint_indicator_revision_dfm_full_kalman_em,2014:Q3,-0.22277334533953336,-107.67925807975969
exact,pre_advance,A,no_revision,joint_indicator_revision_dfm_full_kalman_em,2014:Q4,0.14251326962042976,-107.53674481013927
exact,pre_advance,A,no_revision,joint_indicator_revision_dfm_full_kalman_em,2015:Q1,3.9845142636103437,-103.55223054652892
exact,pre_advance,A,no_revision,joint_indicator_revision_dfm_full_kalman_em,2015:Q2,0.513021485335594,-103.03920906119332
exact,pre_advance,A,no_revision,joint_indicator_revision_dfm_full_kalman_em,2015:Q3,-0.5352975812977072,-103.57450664249103
exact,pre_advance,A,no_revision,joint_indicator_revision_dfm_full_kalman_em,2015:Q4,1.2596737997547955,-102.31483284273624
exact,pre_advance,A,no_revision,joint_indicator_revision_dfm_full_kalman_em,2016:Q1,-0.44961061517521006,-102.76444345791144
exact,pre_advance,A,no_revision,joint_indicator_revision_dfm_full_kalman_em,2016:Q2,-0.16203184489060216,-102.92647530280205
exact,pre_advance,A,no_revision,joint_indicator_revision_dfm_full_kalman_em,2016:Q3,1.0298503113856483,-101.8966249914164
exact,pre_advance,A,no_revision,joint_indicator_revision_dfm_full_kalman_em,2016:Q4,-2.324073658129102,-104.22069864954551
exact,pre_advance,A,no_revision,joint_indicator_revision_dfm_full_kalman_em,2017:Q1,-2.257136828658881,-106.4778354782044
exact,pre_advance,A,no_revision,joint_indicator_revision_dfm_full_kalman_em,2017:Q2,1.0068830052101745,-105.47095247299423
exact,pre_advance,A,no_revision,joint_indicator_revision_dfm_full_kalman_em,2017:Q3,-1.8783576803334392,-107.34931015332766
exact,pre_advance,A,no_revision,joint_indicator_revision_dfm_full_kalman_em,2017:Q4,-7.261560544868743,-114.61087069819641
exact,pre_advance,A,no_revision,joint_indicator_revision_dfm_full_kalman_em,2018:Q1,-0.5308716148801064,-115.14174231307652
exact,pre_advance,A,no_revision,joint_indicator_revision_dfm_full_kalman_em,2018:Q2,0.8606034105723102,-114.28113890250421
exact,pre_advance,A,no_revision,joint_indicator_revision_dfm_full_kalman_em,2018:Q3,0.03999832569974938,-114.24114057680445
exact,pre_advance,A,no_revision,joint_indicator_revision_dfm_full_kalman_em,2018:Q4,0.15346895224227183,-114.08767162456218
exact,pre_advance,A,no_revision,joint_indicator_revision_dfm_full_kalman_em,2019:Q1,-2.0864931884695737,-116.17416481303175
exact,pre_advance,A,no_revision,joint_indicator_revision_dfm_full_kalman_em,2019:Q2,0.1626318861398739,-116.01153292689187
exact,pre_advance,A,no_revision,joint_indicator_revision_dfm_full_kalman_em,2019:Q3,-0.2154915468822358,-116.22702447377411
exact,pre_advance,A,no_revision,joint_indicator_revision_dfm_full_kalman_em,2019:Q4,-0.2465406264902089,-116.47356510026432
exact,pre_advance,A,no_revision,joint_indicator_revision_dfm_full_kalman_em,2020:Q1,34.268979638785474,-82.20458546147884
exact,pre_advance,A,no_revision,joint_indicator_revision_dfm_full_kalman_em,2020:Q2,953.040009289555,870.8354238280762
exact,pre_advance,A,no_revision,joint_indicator_revision_dfm_full_kalman_em,2020:Q3,2134.4197014280917,3005.255125256168
exact,pre_advance,A,no_revision,joint_indicator_revision_dfm_full_kalman_em,2020:Q4,36.04813948579276,3041.303264741961
exact,pre_advance,A,no_revision,joint_indicator_revision_dfm_full_kalman_em,2021:Q1,34.79684498811862,3076.1001097300796
exact,pre_advance,A,no_revision,joint_indicator_revision_dfm_full_kalman_em,2021:Q2,30.215070100639903,3106.3151798307194
exact,pre_advance,A,no_revision,joint_indicator_revision_dfm_full_kalman_em,2021:Q3,-5.752676615193939,3100.5625032155253
exact,pre_advance,A,no_revision,joint_indicator_revision_dfm_full_kalman_em,2021:Q4,10.03765465141581,3110.600157866941
exact,pre_advance,A,no_revision,joint_indicator_revision_dfm_full_kalman_em,2022:Q1,-26.80799805387861,3083.7921598130624
exact,pre_advance,A,no_revision,joint_indicator_revision_dfm_full_kalman_em,2022:Q2,-8.159154603475436,3075.633005209587
exact,pre_advance,A,no_revision,joint_indicator_revision_dfm_full_kalman_em,2022:Q3,0.051551882835355806,3075.684557092422
exact,pre_advance,A,no_revision,joint_indicator_revision_dfm_full_kalman_em,2022:Q4,-0.6455449773871634,3075.039012115035
exact,pre_advance,A,no_revision,joint_indicator_revision_dfm_full_kalman_em,2023:Q1,-1.7615137554346159,3073.2774983596005
exact,pre_advance,A,no_revision,joint_indicator_revision_dfm_full_kalman_em,2023:Q2,-0.0756806858302006,3073.20181767377
exact,pre_advance,A,no_revision,joint_indicator_revision_dfm_full_kalman_em,2023:Q3,-1.9843489757192625,3071.217468698051
exact,pre_advance,A,no_revision,joint_indicator_revision_dfm_full_kalman_em,2023:Q4,-0.45931188339823636,3070.758156814653
exact,pre_advance,A,no_revision,joint_indicator_revision_dfm_full_kalman_em,2024:Q1,1.1814407596827337,3071.9395975743355
exact,pre_advance,A,no_revision,joint_indicator_revision_dfm_full_kalman_em,2024:Q2,-1.388582543948145,3070.551015030387
exact,pre_advance,A,no_revision,joint_indicator_revision_dfm_full_kalman_em,2024:Q3,-1.0171367839425245,3069.5338782464446
exact,pre_advance,A,no_revision,joint_indicator_revision_dfm_full_kalman_em,2024:Q4,-0.08661864160379379,3069.447259604841
exact,pre_advance,A,no_revision,midas_umidas,2005:Q1,-187.63820793526727,-187.63820793526727
exact,pre_advance,A,no_revision,midas_umidas,2005:Q2,-221.3967059367911,-409.0349138720584
exact,pre_advance,A,no_revision,midas_umidas,2005:Q3,-286.19464444164106,-695.2295583136995
exact,pre_advance,A,no_revision,midas_umidas,2005:Q4,-121.09659563240028,-816.3261539460998
exact,pre_advance,A,no_revision,midas_umidas,2006:Q1,-416.8314374485903,-1233.1575913946901
exact,pre_advance,A,no_revision,midas_umidas,2006:Q2,-220.00741552328995,-1453.16500691798
exact,pre_advance,A,no_revision,midas_umidas,2006:Q3,-16.52089655910976,-1469.6859034770898
exact,pre_advance,A,no_revision,midas_umidas,2006:Q4,-19.48961736121295,-1489.1755208383029
exact,pre_advance,A,no_revision,midas_umidas,2007:Q1,-17.969814523486132,-1507.145335361789
exact,pre_advance,A,no_revision,midas_umidas,2007:Q2,-90.5160579781053,-1597.6613933398942
exact,pre_advance,A,no_revision,midas_umidas,2007:Q3,-330.9262202793808,-1928.587613619275
exact,pre_advance,A,no_revision,midas_umidas,2007:Q4,-28.588137230691242,-1957.1757508499663
exact,pre_advance,A,no_revision,midas_umidas,2008:Q1,-109.27173549213006,-2066.4474863420965
exact,pre_advance,A,no_revision,midas_umidas,2008:Q2,-565.4158245617381,-2631.8633109038346
exact,pre_advance,A,no_revision,midas_umidas,2008:Q3,-58.03438079823959,-2689.897691702074
exact,pre_advance,A,no_revision,midas_umidas,2008:Q4,-33.30997956039298,-2723.207671262467
