haminh109/Revision-Aware-DFM/outputs/full_state_space_release_revision_dfm/frozen/q2_manuscript_best_v1/mature_robustness_runs/mature_latest/evidence_dir/cumulative_loss_revision.csv
timing_mode,checkpoint_id,outcome_id,baseline_model,model_id,target_quarter,loss_diff_baseline_minus_model,cumulative_loss_diff
exact,pre_advance,DELTA_SA,ar,bridge,2005:Q1,-0.013846057404504467,-0.013846057404504467
exact,pre_advance,DELTA_SA,ar,bridge,2005:Q2,-0.0016502791972834857,-0.015496336601787952
exact,pre_advance,DELTA_SA,ar,bridge,2005:Q3,-0.11888984019706639,-0.13438617679885434
exact,pre_advance,DELTA_SA,ar,bridge,2005:Q4,-0.0033836766731660667,-0.13776985347202042
exact,pre_advance,DELTA_SA,ar,bridge,2006:Q1,-0.04844188468453305,-0.18621173815655348
exact,pre_advance,DELTA_SA,ar,bridge,2006:Q2,-0.1371256323997568,-0.3233373705563103
exact,pre_advance,DELTA_SA,ar,bridge,2006:Q3,-0.06429144563741201,-0.3876288161937223
exact,pre_advance,DELTA_SA,ar,bridge,2006:Q4,0.34557919085510314,-0.04204962533861917
exact,pre_advance,DELTA_SA,ar,bridge,2007:Q1,-0.007824031136799381,-0.04987365647541855
exact,pre_advance,DELTA_SA,ar,bridge,2007:Q2,0.06896631884463494,0.019092662369216397
exact,pre_advance,DELTA_SA,ar,bridge,2007:Q3,0.059803740894770696,0.07889640326398709
exact,pre_advance,DELTA_SA,ar,bridge,2007:Q4,-0.012197856569414689,0.0666985466945724
exact,pre_advance,DELTA_SA,ar,bridge,2008:Q1,-0.004344598103960942,0.062353948590611455
exact,pre_advance,DELTA_SA,ar,bridge,2008:Q2,-0.574407111363402,-0.5120531627727904
exact,pre_advance,DELTA_SA,ar,bridge,2008:Q3,0.6190200450590351,0.10696688228624462
exact,pre_advance,DELTA_SA,ar,bridge,2008:Q4,3.9506126973357483,4.057579579621993
exact,pre_advance,DELTA_SA,ar,bridge,2009:Q1,-6.0988802018433,-2.041300622221307
exact,pre_advance,DELTA_SA,ar,bridge,2009:Q2,0.1268137068232697,-1.9144869153980373
exact,pre_advance,DELTA_SA,ar,bridge,2009:Q3,-0.06823089199505694,-1.9827178073930942
exact,pre_advance,DELTA_SA,ar,bridge,2009:Q4,-0.034868451184789206,-2.017586258577883
exact,pre_advance,DELTA_SA,ar,bridge,2010:Q1,-0.0886727021965403,-2.1062589607744235
exact,pre_advance,DELTA_SA,ar,bridge,2010:Q2,-0.09358245387922659,-2.1998414146536502
exact,pre_advance,DELTA_SA,ar,bridge,2010:Q3,0.0949221697737268,-2.104919244879923
exact,pre_advance,DELTA_SA,ar,bridge,2010:Q4,-0.5663990366542817,-2.671318281534205
exact,pre_advance,DELTA_SA,ar,bridge,2011:Q1,0.006841226592887183,-2.664477054941318
exact,pre_advance,DELTA_SA,ar,bridge,2011:Q2,-0.10501821756764976,-2.769495272508968
exact,pre_advance,DELTA_SA,ar,bridge,2011:Q3,-0.12148482455549353,-2.8909800970644612
exact,pre_advance,DELTA_SA,ar,bridge,2011:Q4,0.0628784200154297,-2.8281016770490317
exact,pre_advance,DELTA_SA,ar,bridge,2012:Q1,-0.035887713043292774,-2.8639893900923243
exact,pre_advance,DELTA_SA,ar,bridge,2012:Q2,-0.048823982105551195,-2.9128133721978755
exact,pre_advance,DELTA_SA,ar,bridge,2012:Q3,0.007775069522669126,-2.9050383026752065
exact,pre_advance,DELTA_SA,ar,bridge,2012:Q4,0.004271385099178611,-2.900766917576028
exact,pre_advance,DELTA_SA,ar,bridge,2013:Q1,0.08666220076802922,-2.8141047168079987
exact,pre_advance,DELTA_SA,ar,bridge,2013:Q2,0.025496976212487366,-2.7886077405955114
exact,pre_advance,DELTA_SA,ar,bridge,2013:Q3,-0.06520892381398495,-2.8538166644094964
exact,pre_advance,DELTA_SA,ar,bridge,2013:Q4,-0.4483601219941036,-3.3021767864036002
exact,pre_advance,DELTA_SA,ar,bridge,2014:Q1,0.08408982928438968,-3.2180869571192106
exact,pre_advance,DELTA_SA,ar,bridge,2014:Q2,0.1627494765353877,-3.0553374805838227
exact,pre_advance,DELTA_SA,ar,bridge,2014:Q3,0.02095518071252716,-3.0343822998712957
exact,pre_advance,DELTA_SA,ar,bridge,2014:Q4,0.04340036392903157,-2.9909819359422642
exact,pre_advance,DELTA_SA,ar,bridge,2015:Q1,0.09722612747043735,-2.893755808471827
exact,pre_advance,DELTA_SA,ar,bridge,2015:Q2,0.5270016182401931,-2.366754190231634
exact,pre_advance,DELTA_SA,ar,bridge,2015:Q3,0.00641361838518265,-2.360340571846451
exact,pre_advance,DELTA_SA,ar,bridge,2015:Q4,0.0004635473514232574,-2.359877024495028
exact,pre_advance,DELTA_SA,ar,bridge,2016:Q1,-0.02869336754687048,-2.388570392041898
exact,pre_advance,DELTA_SA,ar,bridge,2016:Q2,-0.006980417169187014,-2.3955508092110853
exact,pre_advance,DELTA_SA,ar,bridge,2016:Q3,0.008611368466015026,-2.38693944074507
exact,pre_advance,DELTA_SA,ar,bridge,2016:Q4,-0.0009847649917325008,-2.3879242057368026
exact,pre_advance,DELTA_SA,ar,bridge,2017:Q1,0.006128595802208259,-2.3817956099345943
exact,pre_advance,DELTA_SA,ar,bridge,2017:Q2,-0.02510746702309855,-2.406903076957693
exact,pre_advance,DELTA_SA,ar,bridge,2017:Q3,0.0015224765331057744,-2.405380600424587
exact,pre_advance,DELTA_SA,ar,bridge,2017:Q4,-0.012532396692822412,-2.4179129971174094
exact,pre_advance,DELTA_SA,ar,bridge,2018:Q1,-0.001025526276306192,-2.4189385233937157
exact,pre_advance,DELTA_SA,ar,bridge,2018:Q2,0.02459572516719082,-2.394342798226525
exact,pre_advance,DELTA_SA,ar,bridge,2018:Q3,-0.0028625928778965534,-2.3972053911044213
exact,pre_advance,DELTA_SA,ar,bridge,2019:Q1,-0.3022766661113528,-2.699482057215774
exact,pre_advance,DELTA_SA,ar,bridge,2019:Q2,-0.004735905859539644,-2.7042179630753136
exact,pre_advance,DELTA_SA,ar,bridge,2019:Q3,0.015341164816805796,-2.688876798258508
exact,pre_advance,DELTA_SA,ar,bridge,2019:Q4,-0.044503658959924405,-2.7333804572184324
exact,pre_advance,DELTA_SA,ar,bridge,2020:Q1,0.044386080987889376,-2.688994376230543
exact,pre_advance,DELTA_SA,ar,bridge,2020:Q2,-3.0940398410540673,-5.7830342172846105
exact,pre_advance,DELTA_SA,ar,bridge,2020:Q3,1.4176473053505392,-4.365386911934071
exact,pre_advance,DELTA_SA,ar,bridge,2020:Q4,0.3499640349292389,-4.015422877004832
exact,pre_advance,DELTA_SA,ar,bridge,2021:Q1,-0.013363060193281033,-4.028785937198113
exact,pre_advance,DELTA_SA,ar,bridge,2021:Q2,-0.03577411651444864,-4.064560053712562
exact,pre_advance,DELTA_SA,ar,bridge,2021:Q3,0.0032954658604867817,-4.061264587852075
exact,pre_advance,DELTA_SA,ar,bridge,2021:Q4,-0.001890367406223347,-4.063154955258298
exact,pre_advance,DELTA_SA,ar,bridge,2022:Q1,-0.034155159355693535,-4.097310114613991
exact,pre_advance,DELTA_SA,ar,bridge,2022:Q2,-0.017409303051805713,-4.114719417665797
exact,pre_advance,DELTA_SA,ar,bridge,2022:Q3,0.009108149975887866,-4.105611267689909
exact,pre_advance,DELTA_SA,ar,bridge,2022:Q4,-0.07401877594323583,-4.179630043633145
exact,pre_advance,DELTA_SA,ar,bridge,2023:Q1,0.002725620713285002,-4.1769044229198595
exact,pre_advance,DELTA_SA,ar,bridge,2023:Q2,-0.21283992077671957,-4.389744343696579
exact,pre_advance,DELTA_SA,ar,bridge,2023:Q3,-0.02913487901324642,-4.418879222709825
exact,pre_advance,DELTA_SA,ar,bridge,2023:Q4,-0.05489730055734936,-4.4737765232671745
exact,pre_advance,DELTA_SA,ar,bridge,2024:Q1,0.08308195917709739,-4.390694564090077
exact,pre_advance,DELTA_SA,ar,bridge,2024:Q2,-0.04089950912320364,-4.43159407321328
exact,pre_advance,DELTA_SA,ar,bridge,2024:Q3,0.002078917593568988,-4.429515155619711
exact,pre_advance,DELTA_SA,ar,bridge,2024:Q4,-0.00014364795373976344,-4.429658803573451
exact,pre_advance,DELTA_SA,ar,indicator_revision_only_dfm_kalman_em,2005:Q1,-0.15257503321613658,-0.15257503321613658
exact,pre_advance,DELTA_SA,ar,indicator_revision_only_dfm_kalman_em,2005:Q2,0.10304262774761302,-0.049532405468523555
exact,pre_advance,DELTA_SA,ar,indicator_revision_only_dfm_kalman_em,2005:Q3,0.03151683579611303,-0.018015569672410525
exact,pre_advance,DELTA_SA,ar,indicator_revision_only_dfm_kalman_em,2005:Q4,-0.17958946757420496,-0.1976050372466155
exact,pre_advance,DELTA_SA,ar,indicator_revision_only_dfm_kalman_em,2006:Q1,-0.22225097588053042,-0.41985601312714593
exact,pre_advance,DELTA_SA,ar,indicator_revision_only_dfm_kalman_em,2006:Q2,-0.1338214718146227,-0.5536774849417686
exact,pre_advance,DELTA_SA,ar,indicator_revision_only_dfm_kalman_em,2006:Q3,-0.2655324769569707,-0.8192099618987393
exact,pre_advance,DELTA_SA,ar,indicator_revision_only_dfm_kalman_em,2006:Q4,1.1280810824986391,0.30887112059989985
exact,pre_advance,DELTA_SA,ar,indicator_revision_only_dfm_kalman_em,2007:Q1,-0.36488258133290913,-0.05601146073300928
exact,pre_advance,DELTA_SA,ar,indicator_revision_only_dfm_kalman_em,2007:Q2,0.2101220628635298,0.15411060213052052
exact,pre_advance,DELTA_SA,ar,indicator_revision_only_dfm_kalman_em,2007:Q3,-0.5038879623481906,-0.34977736021767003
exact,pre_advance,DELTA_SA,ar,indicator_revision_only_dfm_kalman_em,2007:Q4,0.23194641324995732,-0.11783094696771271
exact,pre_advance,DELTA_SA,ar,indicator_revision_only_dfm_kalman_em,2008:Q1,-0.06565748592115798,-0.18348843288887068
exact,pre_advance,DELTA_SA,ar,indicator_revision_only_dfm_kalman_em,2008:Q2,-0.7051418869943866,-0.8886303198832572
exact,pre_advance,DELTA_SA,ar,indicator_revision_only_dfm_kalman_em,2008:Q3,0.8839041046210189,-0.004726215262238376
exact,pre_advance,DELTA_SA,ar,indicator_revision_only_dfm_kalman_em,2008:Q4,0.39399862829546173,0.38927241303322335
exact,pre_advance,DELTA_SA,ar,indicator_revision_only_dfm_kalman_em,2009:Q1,1.3203689037955737,1.709641316828797
exact,pre_advance,DELTA_SA,ar,indicator_revision_only_dfm_kalman_em,2009:Q2,0.36877932291984866,2.0784206397486455
exact,pre_advance,DELTA_SA,ar,indicator_revision_only_dfm_kalman_em,2009:Q3,0.31974831955083616,2.3981689592994817
exact,pre_advance,DELTA_SA,ar,indicator_revision_only_dfm_kalman_em,2009:Q4,0.2461874095178597,2.6443563688173413
exact,pre_advance,DELTA_SA,ar,indicator_revision_only_dfm_kalman_em,2010:Q1,0.012274663642203441,2.656631032459545
exact,pre_advance,DELTA_SA,ar,indicator_revision_only_dfm_kalman_em,2010:Q2,-0.10097637669884518,2.5556546557606996
exact,pre_advance,DELTA_SA,ar,indicator_revision_only_dfm_kalman_em,2010:Q3,0.41001530272678194,2.9656699584874815
exact,pre_advance,DELTA_SA,ar,indicator_revision_only_dfm_kalman_em,2010:Q4,0.33708017745408314,3.3027501359415647
exact,pre_advance,DELTA_SA,ar,indicator_revision_only_dfm_kalman_em,2011:Q1,0.05273638935335863,3.3554865252949235
exact,pre_advance,DELTA_SA,ar,indicator_revision_only_dfm_kalman_em,2011:Q2,0.0864949621817803,3.4419814874767036
exact,pre_advance,DELTA_SA,ar,indicator_revision_only_dfm_kalman_em,2011:Q3,-0.03822954602021156,3.403751941456492
exact,pre_advance,DELTA_SA,ar,indicator_revision_only_dfm_kalman_em,2011:Q4,0.1042486389810256,3.5080005804375176
exact,pre_advance,DELTA_SA,ar,indicator_revision_only_dfm_kalman_em,2012:Q1,0.12270345028699549,3.6307040307245133
exact,pre_advance,DELTA_SA,ar,indicator_revision_only_dfm_kalman_em,2012:Q2,0.05124300972150874,3.681947040446022
exact,pre_advance,DELTA_SA,ar,indicator_revision_only_dfm_kalman_em,2012:Q3,-0.19803121584843814,3.483915824597584
exact,pre_advance,DELTA_SA,ar,indicator_revision_only_dfm_kalman_em,2012:Q4,-0.06160444841889918,3.4223113761786847
exact,pre_advance,DELTA_SA,ar,indicator_revision_only_dfm_kalman_em,2013:Q1,0.13839352919058448,3.560704905369269
exact,pre_advance,DELTA_SA,ar,indicator_revision_only_dfm_kalman_em,2013:Q2,0.010665904843470964,3.5713708102127404
exact,pre_advance,DELTA_SA,ar,indicator_revision_only_dfm_kalman_em,2013:Q3,-0.49085393179229264,3.0805168784204477
exact,pre_advance,DELTA_SA,ar,indicator_revision_only_dfm_kalman_em,2013:Q4,0.8147882022650561,3.895305080685504
exact,pre_advance,DELTA_SA,ar,indicator_revision_only_dfm_kalman_em,2014:Q1,-0.6728261778290336,3.22247890285647
exact,pre_advance,DELTA_SA,ar,indicator_revision_only_dfm_kalman_em,2014:Q2,0.3153905835886226,3.537869486445093
exact,pre_advance,DELTA_SA,ar,indicator_revision_only_dfm_kalman_em,2014:Q3,-0.05736992828325174,3.480499558161841
exact,pre_advance,DELTA_SA,ar,indicator_revision_only_dfm_kalman_em,2014:Q4,0.18045818425062124,3.6609577424124624
exact,pre_advance,DELTA_SA,ar,indicator_revision_only_dfm_kalman_em,2015:Q1,-0.30424364925329495,3.3567140931591677
exact,pre_advance,DELTA_SA,ar,indicator_revision_only_dfm_kalman_em,2015:Q2,1.0249249122593762,4.381639005418544
exact,pre_advance,DELTA_SA,ar,indicator_revision_only_dfm_kalman_em,2015:Q3,-0.3345827492334456,4.0470562561850985
exact,pre_advance,DELTA_SA,ar,indicator_revision_only_dfm_kalman_em,2015:Q4,-0.09676443992777004,3.9502918162573284
exact,pre_advance,DELTA_SA,ar,indicator_revision_only_dfm_kalman_em,2016:Q1,-0.09029065158363185,3.8600011646736965
exact,pre_advance,DELTA_SA,ar,indicator_revision_only_dfm_kalman_em,2016:Q2,0.1360297525459644,3.996030917219661
exact,pre_advance,DELTA_SA,ar,indicator_revision_only_dfm_kalman_em,2016:Q3,-0.021175007572158712,3.974855909647502
exact,pre_advance,DELTA_SA,ar,indicator_revision_only_dfm_kalman_em,2016:Q4,0.02734587565242416,4.002201785299926
exact,pre_advance,DELTA_SA,ar,indicator_revision_only_dfm_kalman_em,2017:Q1,-0.056295362083760514,3.945906423216165
exact,pre_advance,DELTA_SA,ar,indicator_revision_only_dfm_kalman_em,2017:Q2,-0.1998229027002102,3.746083520515955
exact,pre_advance,DELTA_SA,ar,indicator_revision_only_dfm_kalman_em,2017:Q3,-0.09239460605426397,3.653688914461691
exact,pre_advance,DELTA_SA,ar,indicator_revision_only_dfm_kalman_em,2017:Q4,0.035699658663772574,3.6893885731254636
exact,pre_advance,DELTA_SA,ar,indicator_revision_only_dfm_kalman_em,2018:Q1,0.012703611098869368,3.702092184224333
exact,pre_advance,DELTA_SA,ar,indicator_revision_only_dfm_kalman_em,2018:Q2,0.0030213569949030655,3.705113541219236
exact,pre_advance,DELTA_SA,ar,indicator_revision_only_dfm_kalman_em,2018:Q3,0.0032310710133240618,3.70834461223256
exact,pre_advance,DELTA_SA,ar,indicator_revision_only_dfm_kalman_em,2019:Q1,0.3134694480182471,4.021814060250807
exact,pre_advance,DELTA_SA,ar,indicator_revision_only_dfm_kalman_em,2019:Q2,-0.00020861065790184213,4.021605449592905
exact,pre_advance,DELTA_SA,ar,indicator_revision_only_dfm_kalman_em,2019:Q3,-0.020795440927072837,4.000810008665832
exact,pre_advance,DELTA_SA,ar,indicator_revision_only_dfm_kalman_em,2019:Q4,0.022807340587339162,4.023617349253171
exact,pre_advance,DELTA_SA,ar,indicator_revision_only_dfm_kalman_em,2020:Q1,0.04374626691208146,4.067363616165252
exact,pre_advance,DELTA_SA,ar,indicator_revision_only_dfm_kalman_em,2020:Q2,-0.4848885887598303,3.582475027405422
exact,pre_advance,DELTA_SA,ar,indicator_revision_only_dfm_kalman_em,2020:Q3,6.6030936783793335,10.185568705784755
exact,pre_advance,DELTA_SA,ar,indicator_revision_only_dfm_kalman_em,2020:Q4,0.3494364241901803,10.535005129974936
exact,pre_advance,DELTA_SA,ar,indicator_revision_only_dfm_kalman_em,2021:Q1,0.010481372036795358,10.54548650201173
exact,pre_advance,DELTA_SA,ar,indicator_revision_only_dfm_kalman_em,2021:Q2,0.005674643654305938,10.551161145666036
exact,pre_advance,DELTA_SA,ar,indicator_revision_only_dfm_kalman_em,2021:Q3,-0.00428446848418562,10.546876677181851
exact,pre_advance,DELTA_SA,ar,indicator_revision_only_dfm_kalman_em,2021:Q4,-0.009636975615624089,10.537239701566227
exact,pre_advance,DELTA_SA,ar,indicator_revision_only_dfm_kalman_em,2022:Q1,0.05376352283472801,10.591003224400955
exact,pre_advance,DELTA_SA,ar,indicator_revision_only_dfm_kalman_em,2022:Q2,-0.01747374549873487,10.57352947890222
exact,pre_advance,DELTA_SA,ar,indicator_revision_only_dfm_kalman_em,2022:Q3,-0.038912176234116996,10.534617302668103
exact,pre_advance,DELTA_SA,ar,indicator_revision_only_dfm_kalman_em,2022:Q4,0.058622083054108,10.59323938572221
exact,pre_advance,DELTA_SA,ar,indicator_revision_only_dfm_kalman_em,2023:Q1,-0.02740533844308022,10.56583404727913
exact,pre_advance,DELTA_SA,ar,indicator_revision_only_dfm_kalman_em,2023:Q2,0.06172819389498699,10.627562241174118
exact,pre_advance,DELTA_SA,ar,indicator_revision_only_dfm_kalman_em,2023:Q3,-0.03194758936873526,10.595614651805382
exact,pre_advance,DELTA_SA,ar,indicator_revision_only_dfm_kalman_em,2023:Q4,0.03690159867203891,10.63251625047742
exact,pre_advance,DELTA_SA,ar,indicator_revision_only_dfm_kalman_em,2024:Q1,0.07155817897030346,10.704074429447724
exact,pre_advance,DELTA_SA,ar,indicator_revision_only_dfm_kalman_em,2024:Q2,-0.009033581491366181,10.695040847956358
exact,pre_advance,DELTA_SA,ar,indicator_revision_only_dfm_kalman_em,2024:Q3,0.00727617350536104,10.702317021461718
exact,pre_advance,DELTA_SA,ar,indicator_revision_only_dfm_kalman_em,2024:Q4,-0.008788760628669104,10.69352826083305
exact,pre_advance,DELTA_SA,ar,joint_indicator_revision_dfm_full_kalman_em,2005:Q1,-0.01475474080284487,-0.01475474080284487
exact,pre_advance,DELTA_SA,ar,joint_indicator_revision_dfm_full_kalman_em,2005:Q2,-0.08022686014964572,-0.09498160095249059
exact,pre_advance,DELTA_SA,ar,joint_indicator_revision_dfm_full_kalman_em,2005:Q3,0.21873803327085,0.12375643231835942
exact,pre_advance,DELTA_SA,ar,joint_indicator_revision_dfm_full_kalman_em,2005:Q4,0.041049171668794814,0.16480560398715424
exact,pre_advance,DELTA_SA,ar,joint_indicator_revision_dfm_full_kalman_em,2006:Q1,0.011389024308631108,0.17619462829578536
exact,pre_advance,DELTA_SA,ar,joint_indicator_revision_dfm_full_kalman_em,2006:Q2,0.047044435599577744,0.2232390638953631
exact,pre_advance,DELTA_SA,ar,joint_indicator_revision_dfm_full_kalman_em,2006:Q3,-0.709402920957312,-0.486163857061949
exact,pre_advance,DELTA_SA,ar,joint_indicator_revision_dfm_full_kalman_em,2006:Q4,1.639063838740309,1.15289998167836
exact,pre_advance,DELTA_SA,ar,joint_indicator_revision_dfm_full_kalman_em,2007:Q1,-0.3463983745335613,0.8065016071447988
exact,pre_advance,DELTA_SA,ar,joint_indicator_revision_dfm_full_kalman_em,2007:Q2,0.4055937280416957,1.2120953351864945
exact,pre_advance,DELTA_SA,ar,joint_indicator_revision_dfm_full_kalman_em,2007:Q3,-1.4670609111871156,-0.2549655760006211
exact,pre_advance,DELTA_SA,ar,joint_indicator_revision_dfm_full_kalman_em,2007:Q4,0.0006724256600548206,-0.25429315034056627
exact,pre_advance,DELTA_SA,ar,joint_indicator_revision_dfm_full_kalman_em,2008:Q1,-0.22947722918439953,-0.4837703795249658
exact,pre_advance,DELTA_SA,ar,joint_indicator_revision_dfm_full_kalman_em,2008:Q2,-0.4393387966410722,-0.923109176166038
exact,pre_advance,DELTA_SA,ar,joint_indicator_revision_dfm_full_kalman_em,2008:Q3,0.9473749968856029,0.024265820719564846
exact,pre_advance,DELTA_SA,ar,joint_indicator_revision_dfm_full_kalman_em,2008:Q4,3.3837436223650443,3.4080094430846093
exact,pre_advance,DELTA_SA,ar,joint_indicator_revision_dfm_full_kalman_em,2009:Q1,1.4161736576153439,4.824183100699953
exact,pre_advance,DELTA_SA,ar,joint_indicator_revision_dfm_full_kalman_em,2009:Q2,-0.11835731161322804,4.705825789086725
exact,pre_advance,DELTA_SA,ar,joint_indicator_revision_dfm_full_kalman_em,2009:Q3,-1.8778194117157287,2.828006377370996
exact,pre_advance,DELTA_SA,ar,joint_indicator_revision_dfm_full_kalman_em,2009:Q4,0.22882099176123447,3.0568273691322303
exact,pre_advance,DELTA_SA,ar,joint_indicator_revision_dfm_full_kalman_em,2010:Q1,-0.39837290676595016,2.6584544623662802
exact,pre_advance,DELTA_SA,ar,joint_indicator_revision_dfm_full_kalman_em,2010:Q2,-0.3044576156053206,2.3539968467609595
exact,pre_advance,DELTA_SA,ar,joint_indicator_revision_dfm_full_kalman_em,2010:Q3,0.5629234225172522,2.916920269278212
exact,pre_advance,DELTA_SA,ar,joint_indicator_revision_dfm_full_kalman_em,2010:Q4,0.23142828834023405,3.148348557618446
exact,pre_advance,DELTA_SA,ar,joint_indicator_revision_dfm_full_kalman_em,2011:Q1,0.0013089026989623609,3.1496574603174086
exact,pre_advance,DELTA_SA,ar,joint_indicator_revision_dfm_full_kalman_em,2011:Q2,-0.07276224355503613,3.0768952167623724
exact,pre_advance,DELTA_SA,ar,joint_indicator_revision_dfm_full_kalman_em,2011:Q3,-0.4003022546585052,2.676592962103867
exact,pre_advance,DELTA_SA,ar,joint_indicator_revision_dfm_full_kalman_em,2011:Q4,0.1422770945078023,2.8188700566116696
exact,pre_advance,DELTA_SA,ar,joint_indicator_revision_dfm_full_kalman_em,2012:Q1,-0.05051644798116697,2.7683536086305027
exact,pre_advance,DELTA_SA,ar,joint_indicator_revision_dfm_full_kalman_em,2012:Q2,0.08870733215155199,2.8570609407820546
exact,pre_advance,DELTA_SA,ar,joint_indicator_revision_dfm_full_kalman_em,2012:Q3,-0.013402443884712567,2.843658496897342
exact,pre_advance,DELTA_SA,ar,joint_indicator_revision_dfm_full_kalman_em,2012:Q4,0.009322151171269326,2.8529806480686113
exact,pre_advance,DELTA_SA,ar,joint_indicator_revision_dfm_full_kalman_em,2013:Q1,0.08750030131334544,2.9404809493819566
exact,pre_advance,DELTA_SA,ar,joint_indicator_revision_dfm_full_kalman_em,2013:Q2,0.19493805954958943,3.135419008931546
exact,pre_advance,DELTA_SA,ar,joint_indicator_revision_dfm_full_kalman_em,2013:Q3,-0.2949675324868381,2.840451476444708
exact,pre_advance,DELTA_SA,ar,joint_indicator_revision_dfm_full_kalman_em,2013:Q4,0.3370653603286875,3.1775168367733952
exact,pre_advance,DELTA_SA,ar,joint_indicator_revision_dfm_full_kalman_em,2014:Q1,-0.9289459898673251,2.24857084690607
exact,pre_advance,DELTA_SA,ar,joint_indicator_revision_dfm_full_kalman_em,2014:Q2,0.3052974726990003,2.5538683196050704
exact,pre_advance,DELTA_SA,ar,joint_indicator_revision_dfm_full_kalman_em,2014:Q3,0.01481290464558531,2.5686812242506556
exact,pre_advance,DELTA_SA,ar,joint_indicator_revision_dfm_full_kalman_em,2014:Q4,0.07995746445337654,2.648638688704032
exact,pre_advance,DELTA_SA,ar,joint_indicator_revision_dfm_full_kalman_em,2015:Q1,-0.17534727118032623,2.473291417523706
exact,pre_advance,DELTA_SA,ar,joint_indicator_revision_dfm_full_kalman_em,2015:Q2,1.6934373618738243,4.1667287793975305
exact,pre_advance,DELTA_SA,ar,joint_indicator_revision_dfm_full_kalman_em,2015:Q3,-0.2736312058751601,3.8930975735223705
exact,pre_advance,DELTA_SA,ar,joint_indicator_revision_dfm_full_kalman_em,2015:Q4,-0.06037304550726559,3.8327245280151048
exact,pre_advance,DELTA_SA,ar,joint_indicator_revision_dfm_full_kalman_em,2016:Q1,-0.03486691742850866,3.797857610586596
exact,pre_advance,DELTA_SA,ar,joint_indicator_revision_dfm_full_kalman_em,2016:Q2,0.09054524197321281,3.8884028525598087
exact,pre_advance,DELTA_SA,ar,joint_indicator_revision_dfm_full_kalman_em,2016:Q3,0.0417941727586966,3.9301970253185052
exact,pre_advance,DELTA_SA,ar,joint_indicator_revision_dfm_full_kalman_em,2016:Q4,-0.035486725317296575,3.8947103000012087
exact,pre_advance,DELTA_SA,ar,joint_indicator_revision_dfm_full_kalman_em,2017:Q1,0.10145287847377057,3.9961631784749794
exact,pre_advance,DELTA_SA,ar,joint_indicator_revision_dfm_full_kalman_em,2017:Q2,-0.04128266659363493,3.9548805118813446
exact,pre_advance,DELTA_SA,ar,joint_indicator_revision_dfm_full_kalman_em,2017:Q3,-0.053589514608431976,3.9012909972729126
exact,pre_advance,DELTA_SA,ar,joint_indicator_revision_dfm_full_kalman_em,2017:Q4,-0.13943896360714597,3.761852033665767
exact,pre_advance,DELTA_SA,ar,joint_indicator_revision_dfm_full_kalman_em,2018:Q1,-0.11527653445632291,3.646575499209444
exact,pre_advance,DELTA_SA,ar,joint_indicator_revision_dfm_full_kalman_em,2018:Q2,0.03071513800866393,3.677290637218108
exact,pre_advance,DELTA_SA,ar,joint_indicator_revision_dfm_full_kalman_em,2018:Q3,-0.008919988018201052,3.6683706491999066
exact,pre_advance,DELTA_SA,ar,joint_indicator_revision_dfm_full_kalman_em,2019:Q1,0.3059784604887756,3.9743491096886823
exact,pre_advance,DELTA_SA,ar,joint_indicator_revision_dfm_full_kalman_em,2019:Q2,-0.011287456211649349,3.963061653477033
exact,pre_advance,DELTA_SA,ar,joint_indicator_revision_dfm_full_kalman_em,2019:Q3,0.01935403489723867,3.982415688374272
exact,pre_advance,DELTA_SA,ar,joint_indicator_revision_dfm_full_kalman_em,2019:Q4,0.020666842812041987,4.003082531186314
exact,pre_advance,DELTA_SA,ar,joint_indicator_revision_dfm_full_kalman_em,2020:Q1,0.07462134162192946,4.077703872808243
exact,pre_advance,DELTA_SA,ar,joint_indicator_revision_dfm_full_kalman_em,2020:Q2,-1.9706696015135954,2.1070342712946477
exact,pre_advance,DELTA_SA,ar,joint_indicator_revision_dfm_full_kalman_em,2020:Q3,6.228982471496464,8.336016742791113
exact,pre_advance,DELTA_SA,ar,joint_indicator_revision_dfm_full_kalman_em,2020:Q4,0.29093518024562715,8.62695192303674
exact,pre_advance,DELTA_SA,ar,joint_indicator_revision_dfm_full_kalman_em,2021:Q1,-0.3900225056965553,8.236929417340185
exact,pre_advance,DELTA_SA,ar,joint_indicator_revision_dfm_full_kalman_em,2021:Q2,0.005495034512943111,8.242424451853129
exact,pre_advance,DELTA_SA,ar,joint_indicator_revision_dfm_full_kalman_em,2021:Q3,-0.06885765063177687,8.173566801221352
exact,pre_advance,DELTA_SA,ar,joint_indicator_revision_dfm_full_kalman_em,2021:Q4,-0.014826341805922995,8.158740459415428
exact,pre_advance,DELTA_SA,ar,joint_indicator_revision_dfm_full_kalman_em,2022:Q1,-0.46380033943915944,7.694940119976269
exact,pre_advance,DELTA_SA,ar,joint_indicator_revision_dfm_full_kalman_em,2022:Q2,-0.0029843770835018824,7.691955742892767
exact,pre_advance,DELTA_SA,ar,joint_indicator_revision_dfm_full_kalman_em,2022:Q3,0.004134928097393728,7.696090670990161
exact,pre_advance,DELTA_SA,ar,joint_indicator_revision_dfm_full_kalman_em,2022:Q4,0.10468410711140676,7.800774778101568
exact,pre_advance,DELTA_SA,ar,joint_indicator_revision_dfm_full_kalman_em,2023:Q1,-0.1210723443992435,7.6797024337023245
exact,pre_advance,DELTA_SA,ar,joint_indicator_revision_dfm_full_kalman_em,2023:Q2,-0.4262879677605763,7.2534144659417485
exact,pre_advance,DELTA_SA,ar,joint_indicator_revision_dfm_full_kalman_em,2023:Q3,0.0039956976792887705,7.257410163621038
exact,pre_advance,DELTA_SA,ar,joint_indicator_revision_dfm_full_kalman_em,2023:Q4,0.041827817961247744,7.299237981582285
exact,pre_advance,DELTA_SA,ar,joint_indicator_revision_dfm_full_kalman_em,2024:Q1,0.06074957486127233,7.359987556443558
exact,pre_advance,DELTA_SA,ar,joint_indicator_revision_dfm_full_kalman_em,2024:Q2,-0.003239676532314937,7.356747879911243
exact,pre_advance,DELTA_SA,ar,joint_indicator_revision_dfm_full_kalman_em,2024:Q3,0.00610106593277983,7.362848945844023
exact,pre_advance,DELTA_SA,ar,joint_indicator_revision_dfm_full_kalman_em,2024:Q4,-0.005872589041732052,7.356976356802291
exact,pre_advance,DELTA_SA,ar,midas_umidas,2005:Q1,-39.797824425064846,-39.797824425064846
exact,pre_advance,DELTA_SA,ar,midas_umidas,2005:Q2,-10.838923677608678,-50.63674810267352
exact,pre_advance,DELTA_SA,ar,midas_umidas,2005:Q3,-2.2266161401798246,-52.86336424285334
exact,pre_advance,DELTA_SA,ar,midas_umidas,2005:Q4,-76.51074939331531,-129.37411363616866
exact,pre_advance,DELTA_SA,ar,midas_umidas,2006:Q1,-624.8393306229966,-754.2134442591653
exact,pre_advance,DELTA_SA,ar,midas_umidas,2006:Q2,-51.60484976710727,-805.8182940262725
exact,pre_advance,DELTA_SA,ar,midas_umidas,2006:Q3,-2.896052548813862,-808.7143465750863
exact,pre_advance,DELTA_SA,ar,midas_umidas,2006:Q4,-20.201108426843934,-828.9154550019302
exact,pre_advance,DELTA_SA,ar,midas_umidas,2007:Q1,-339.242528006535,-1168.1579830084652
exact,pre_advance,DELTA_SA,ar,midas_umidas,2007:Q2,-454.63351199969196,-1622.7914950081572
exact,pre_advance,DELTA_SA,ar,midas_umidas,2007:Q3,-1445.2558135562338,-3068.0473085643907
exact,pre_advance,DELTA_SA,ar,midas_umidas,2007:Q4,-109.85550522469542,-3177.902813789086
exact,pre_advance,DELTA_SA,ar,midas_umidas,2008:Q1,-0.353653234035842,-3178.256467023122
exact,pre_advance,DELTA_SA,ar,midas_umidas,2008:Q2,-411.6733521385076,-3589.9298191616294
exact,pre_advance,DELTA_SA,ar,midas_umidas,2008:Q3,-16.457374174265517,-3606.387193335895
exact,pre_advance,DELTA_SA,ar,midas_umidas,2008:Q4,-658.2226269871077,-4264.609820323003
exact,pre_advance,DELTA_SA,ar,midas_umidas,2009:Q1,-1734.2252989296749,-5998.835119252678
exact,pre_advance,DELTA_SA,ar,midas_umidas,2009:Q2,0.22143764520565734,-5998.613681607472
exact,pre_advance,DELTA_SA,ar,midas_umidas,2009:Q3,-124.17561613051467,-6122.789297737987
exact,pre_advance,DELTA_SA,ar,midas_umidas,2009:Q4,-110.45342341372383,-6233.242721151711
exact,pre_advance,DELTA_SA,ar,midas_umidas,2010:Q1,-275.029314951508,-6508.272036103219
exact,pre_advance,DELTA_SA,ar,midas_umidas,2010:Q2,-53.83744935649098,-6562.1094854597095
exact,pre_advance,DELTA_SA,ar,midas_umidas,2010:Q3,-504.1498345524276,-7066.259320012137
exact,pre_advance,DELTA_SA,ar,midas_umidas,2010:Q4,-149.34422941051264,-7215.60354942265
exact,pre_advance,DELTA_SA,ar,midas_umidas,2011:Q1,-76.18270495073548,-7291.786254373385
exact,pre_advance,DELTA_SA,ar,midas_umidas,2011:Q2,-451.8456247833127,-7743.631879156698
exact,pre_advance,DELTA_SA,ar,midas_umidas,2011:Q3,0.1306085067816537,-7743.5012706499165
exact,pre_advance,DELTA_SA,ar,midas_umidas,2011:Q4,-178.48758528534628,-7921.988855935263
exact,pre_advance,DELTA_SA,ar,midas_umidas,2012:Q1,-165.6814547360206,-8087.670310671284
exact,pre_advance,DELTA_SA,ar,midas_umidas,2012:Q2,-47.673541919418405,-8135.343852590702
exact,pre_advance,DELTA_SA,ar,midas_umidas,2012:Q3,-52.97128713103753,-8188.31513972174
exact,pre_advance,DELTA_SA,ar,midas_umidas,2012:Q4,-35.87250645476155,-8224.1876461765
exact,pre_advance,DELTA_SA,ar,midas_umidas,2013:Q1,-78.68787456069492,-8302.875520737196
exact,pre_advance,DELTA_SA,ar,midas_umidas,2013:Q2,-223.52534495255938,-8526.400865689755
exact,pre_advance,DELTA_SA,ar,midas_umidas,2013:Q3,-20.60176487992064,-8547.002630569676
exact,pre_advance,DELTA_SA,ar,midas_umidas,2013:Q4,-23.131777229382795,-8570.134407799058
exact,pre_advance,DELTA_SA,ar,midas_umidas,2014:Q1,-86.83478800644464,-8656.969195805503
exact,pre_advance,DELTA_SA,ar,midas_umidas,2014:Q2,-148.1537614966031,-8805.122957302106
exact,pre_advance,DELTA_SA,ar,midas_umidas,2014:Q3,-21.563616269848954,-8826.686573571955
exact,pre_advance,DELTA_SA,ar,midas_umidas,2014:Q4,-15.719381848728865,-8842.405955420683
exact,pre_advance,DELTA_SA,ar,midas_umidas,2015:Q1,-3.2433959454790857,-8845.649351366163
exact,pre_advance,DELTA_SA,ar,midas_umidas,2015:Q2,2.8534791315047743,-8842.795872234658
exact,pre_advance,DELTA_SA,ar,midas_umidas,2015:Q3,-43.68811698390953,-8886.483989218566
exact,pre_advance,DELTA_SA,ar,midas_umidas,2015:Q4,-24.973768284074954,-8911.457757502641
exact,pre_advance,DELTA_SA,ar,midas_umidas,2016:Q1,-25.74251643989438,-8937.200273942535
exact,pre_advance,DELTA_SA,ar,midas_umidas,2016:Q2,-7.702559624924386,-8944.90283356746
exact,pre_advance,DELTA_SA,ar,midas_umidas,2016:Q3,-0.418644520766393,-8945.321478088226
exact,pre_advance,DELTA_SA,ar,midas_umidas,2016:Q4,-1.6878248577371244,-8947.009302945964
exact,pre_advance,DELTA_SA,ar,midas_umidas,2017:Q1,-1.396469369919674,-8948.405772315884
exact,pre_advance,DELTA_SA,ar,midas_umidas,2017:Q2,-0.2386418337185627,-8948.644414149603
exact,pre_advance,DELTA_SA,ar,midas_umidas,2017:Q3,-9.894772171958993,-8958.539186321563
exact,pre_advance,DELTA_SA,ar,midas_umidas,2017:Q4,-0.06785400372463576,-8958.607040325287
exact,pre_advance,DELTA_SA,ar,midas_umidas,2018:Q1,-0.8285480132736229,-8959.435588338562
exact,pre_advance,DELTA_SA,ar,midas_umidas,2018:Q2,-12.28694297591866,-8971.72253131448
exact,pre_advance,DELTA_SA,ar,midas_umidas,2018:Q3,-4.533494700401147,-8976.256026014882
exact,pre_advance,DELTA_SA,ar,midas_umidas,2019:Q1,0.29472275296400674,-8975.961303261918
exact,pre_advance,DELTA_SA,ar,midas_umidas,2019:Q2,-0.43696293477333575,-8976.398266196691
exact,pre_advance,DELTA_SA,ar,midas_umidas,2019:Q3,-1.073933679541503,-8977.472199876232
exact,pre_advance,DELTA_SA,ar,midas_umidas,2019:Q4,-0.7868392335367862,-8978.25903910977
exact,pre_advance,DELTA_SA,ar,midas_umidas,2020:Q1,-1.0551657413501645,-8979.31420485112
exact,pre_advance,DELTA_SA,ar,midas_umidas,2020:Q2,-2064.435032508436,-11043.749237359556
exact,pre_advance,DELTA_SA,ar,midas_umidas,2020:Q3,-4078.7524783179065,-15122.501715677463
exact,pre_advance,DELTA_SA,ar,midas_umidas,2020:Q4,-6.506950483246372,-15129.00866616071
exact,pre_advance,DELTA_SA,ar,midas_umidas,2021:Q1,-4.596760703580678,-15133.60542686429
exact,pre_advance,DELTA_SA,ar,midas_umidas,2021:Q2,-8.28713987226398,-15141.892566736553
exact,pre_advance,DELTA_SA,ar,midas_umidas,2021:Q3,-0.14777608474138854,-15142.040342821294
exact,pre_advance,DELTA_SA,ar,midas_umidas,2021:Q4,-0.6833823726336089,-15142.723725193928
exact,pre_advance,DELTA_SA,ar,midas_umidas,2022:Q1,-0.35382729002974433,-15143.077552483957
exact,pre_advance,DELTA_SA,ar,midas_umidas,2022:Q2,0.08787319677964962,-15142.989679287177
exact,pre_advance,DELTA_SA,ar,midas_umidas,2022:Q3,0.09018879892357301,-15142.899490488253
exact,pre_advance,DELTA_SA,ar,midas_umidas,2022:Q4,-4.967035646849074,-15147.866526135102
exact,pre_advance,DELTA_SA,ar,midas_umidas,2023:Q1,-0.7470003290390006,-15148.61352646414
exact,pre_advance,DELTA_SA,ar,midas_umidas,2023:Q2,-3.5272575221531675,-15152.140783986293
exact,pre_advance,DELTA_SA,ar,midas_umidas,2023:Q3,-0.22947939040660967,-15152.3702633767
exact,pre_advance,DELTA_SA,ar,midas_umidas,2023:Q4,-0.11970627412488263,-15152.489969650826
exact,pre_advance,DELTA_SA,ar,midas_umidas,2024:Q1,0.1867492213036634,-15152.303220429521
exact,pre_advance,DELTA_SA,ar,midas_umidas,2024:Q2,0.0029975257085396354,-15152.300222903812
exact,pre_advance,DELTA_SA,ar,midas_umidas,2024:Q3,-0.20633145236123396,-15152.506554356174
exact,pre_advance,DELTA_SA,ar,midas_umidas,2024:Q4,-1.63604893282211,-15154.142603288996
exact,pre_advance,DELTA_SA,ar,monthly_mixed_frequency_kalman_em,2005:Q1,-0.16687557707205664,-0.16687557707205664
exact,pre_advance,DELTA_SA,ar,monthly_mixed_frequency_kalman_em,2005:Q2,0.029169336663149012,-0.1377062404089076
exact,pre_advance,DELTA_SA,ar,monthly_mixed_frequency_kalman_em,2005:Q3,-0.5411459096054936,-0.6788521500144011
exact,pre_advance,DELTA_SA,ar,monthly_mixed_frequency_kalman_em,2005:Q4,0.06962658076484533,-0.6092255692495558
exact,pre_advance,DELTA_SA,ar,monthly_mixed_frequency_kalman_em,2006:Q1,-0.17318414418226072,-0.7824097134318165
exact,pre_advance,DELTA_SA,ar,monthly_mixed_frequency_kalman_em,2006:Q2,0.055999763696897784,-0.7264099497349188
exact,pre_advance,DELTA_SA,ar,monthly_mixed_frequency_kalman_em,2006:Q3,-0.2527236220810415,-0.9791335718159603
exact,pre_advance,DELTA_SA,ar,monthly_mixed_frequency_kalman_em,2006:Q4,0.6444065406791637,-0.3347270311367966
exact,pre_advance,DELTA_SA,ar,monthly_mixed_frequency_kalman_em,2007:Q1,-0.2534069651942775,-0.5881339963310741
exact,pre_advance,DELTA_SA,ar,monthly_mixed_frequency_kalman_em,2007:Q2,0.47475643849839744,-0.11337755783267667
exact,pre_advance,DELTA_SA,ar,monthly_mixed_frequency_kalman_em,2007:Q3,-0.13083317246754644,-0.2442107303002231
exact,pre_advance,DELTA_SA,ar,monthly_mixed_frequency_kalman_em,2007:Q4,0.20523676217773684,-0.03897396812248627
exact,pre_advance,DELTA_SA,ar,monthly_mixed_frequency_kalman_em,2008:Q1,0.02508396512223468,-0.013890003000251588
exact,pre_advance,DELTA_SA,ar,monthly_mixed_frequency_kalman_em,2008:Q2,-0.4293848804759359,-0.4432748834761875
exact,pre_advance,DELTA_SA,ar,monthly_mixed_frequency_kalman_em,2008:Q3,0.9523410509138479,0.5090661674376604
exact,pre_advance,DELTA_SA,ar,monthly_mixed_frequency_kalman_em,2008:Q4,1.6632340794349059,2.1723002468725663
exact,pre_advance,DELTA_SA,ar,monthly_mixed_frequency_kalman_em,2009:Q1,1.5005187829047433,3.6728190297773096
exact,pre_advance,DELTA_SA,ar,monthly_mixed_frequency_kalman_em,2009:Q2,0.3062934140415685,3.9791124438188783
exact,pre_advance,DELTA_SA,ar,monthly_mixed_frequency_kalman_em,2009:Q3,0.21707752521561863,4.196189969034497
exact,pre_advance,DELTA_SA,ar,monthly_mixed_frequency_kalman_em,2009:Q4,0.2843162606407153,4.480506229675212
exact,pre_advance,DELTA_SA,ar,monthly_mixed_frequency_kalman_em,2010:Q1,-0.04368685692963173,4.436819372745581
exact,pre_advance,DELTA_SA,ar,monthly_mixed_frequency_kalman_em,2010:Q2,-0.27986923542121767,4.156950137324364
exact,pre_advance,DELTA_SA,ar,monthly_mixed_frequency_kalman_em,2010:Q3,0.4812361885310071,4.63818632585537
exact,pre_advance,DELTA_SA,ar,monthly_mixed_frequency_kalman_em,2010:Q4,0.12807292661242053,4.7662592524677905
exact,pre_advance,DELTA_SA,ar,monthly_mixed_frequency_kalman_em,2011:Q1,0.041650544958009364,4.8079097974258
exact,pre_advance,DELTA_SA,ar,monthly_mixed_frequency_kalman_em,2011:Q2,-0.011033580504125312,4.7968762169216745
exact,pre_advance,DELTA_SA,ar,monthly_mixed_frequency_kalman_em,2011:Q3,-0.20324132335443962,4.593634893567235
exact,pre_advance,DELTA_SA,ar,monthly_mixed_frequency_kalman_em,2011:Q4,0.15666511004410272,4.750300003611338
exact,pre_advance,DELTA_SA,ar,monthly_mixed_frequency_kalman_em,2012:Q1,0.01752599027762544,4.767825993888963
exact,pre_advance,DELTA_SA,ar,monthly_mixed_frequency_kalman_em,2012:Q2,0.0866087428693416,4.8544347367583045
exact,pre_advance,DELTA_SA,ar,monthly_mixed_frequency_kalman_em,2012:Q3,0.059447282754024805,4.91388201951233
exact,pre_advance,DELTA_SA,ar,monthly_mixed_frequency_kalman_em,2012:Q4,-0.013251426712230074,4.900630592800099
exact,pre_advance,DELTA_SA,ar,monthly_mixed_frequency_kalman_em,2013:Q1,0.0784461611097718,4.9790767539098715
exact,pre_advance,DELTA_SA,ar,monthly_mixed_frequency_kalman_em,2013:Q2,0.20217920145532242,5.181255955365194
exact,pre_advance,DELTA_SA,ar,monthly_mixed_frequency_kalman_em,2013:Q3,-0.28937951035493953,4.891876445010254
exact,pre_advance,DELTA_SA,ar,monthly_mixed_frequency_kalman_em,2013:Q4,0.68617419568952,5.578050640699774
exact,pre_advance,DELTA_SA,ar,monthly_mixed_frequency_kalman_em,2014:Q1,-1.157424724018478,4.4206259166812965
exact,pre_advance,DELTA_SA,ar,monthly_mixed_frequency_kalman_em,2014:Q2,0.36323504015260727,4.783860956833903
exact,pre_advance,DELTA_SA,ar,monthly_mixed_frequency_kalman_em,2014:Q3,0.05829300257579221,4.842153959409695
exact,pre_advance,DELTA_SA,ar,monthly_mixed_frequency_kalman_em,2014:Q4,0.14697148810116975,4.989125447510865
exact,pre_advance,DELTA_SA,ar,monthly_mixed_frequency_kalman_em,2015:Q1,-0.21564579170593312,4.773479655804932
exact,pre_advance,DELTA_SA,ar,monthly_mixed_frequency_kalman_em,2015:Q2,1.5745586514232754,6.348038307228208
exact,pre_advance,DELTA_SA,ar,monthly_mixed_frequency_kalman_em,2015:Q3,-0.3379060776469368,6.010132229581271
exact,pre_advance,DELTA_SA,ar,monthly_mixed_frequency_kalman_em,2015:Q4,-0.05936110102898302,5.9507711285522875
exact,pre_advance,DELTA_SA,ar,monthly_mixed_frequency_kalman_em,2016:Q1,-0.06312727928117254,5.887643849271115
exact,pre_advance,DELTA_SA,ar,monthly_mixed_frequency_kalman_em,2016:Q2,0.07189473931101481,5.95953858858213
exact,pre_advance,DELTA_SA,ar,monthly_mixed_frequency_kalman_em,2016:Q3,0.04464305044806162,6.004181639030191
exact,pre_advance,DELTA_SA,ar,monthly_mixed_frequency_kalman_em,2016:Q4,-0.0750627699055537,5.929118869124638
exact,pre_advance,DELTA_SA,ar,monthly_mixed_frequency_kalman_em,2017:Q1,0.07581014249954178,6.00492901162418
exact,pre_advance,DELTA_SA,ar,monthly_mixed_frequency_kalman_em,2017:Q2,-0.06140985637776651,5.943519155246413
exact,pre_advance,DELTA_SA,ar,monthly_mixed_frequency_kalman_em,2017:Q3,-0.03662819480761444,5.9068909604387985
exact,pre_advance,DELTA_SA,ar,monthly_mixed_frequency_kalman_em,2017:Q4,-0.0020015547607363238,5.9048894056780625
exact,pre_advance,DELTA_SA,ar,monthly_mixed_frequency_kalman_em,2018:Q1,-0.04418515307958222,5.86070425259848
exact,pre_advance,DELTA_SA,ar,monthly_mixed_frequency_kalman_em,2018:Q2,0.03064811807428412,5.891352370672764
exact,pre_advance,DELTA_SA,ar,monthly_mixed_frequency_kalman_em,2018:Q3,-0.007383267315458809,5.883969103357305
exact,pre_advance,DELTA_SA,ar,monthly_mixed_frequency_kalman_em,2019:Q1,0.28444676344095166,6.168415866798257
exact,pre_advance,DELTA_SA,ar,monthly_mixed_frequency_kalman_em,2019:Q2,-0.0003744361555007054,6.168041430642756
exact,pre_advance,DELTA_SA,ar,monthly_mixed_frequency_kalman_em,2019:Q3,-0.0986576876910157,6.06938374295174
exact,pre_advance,DELTA_SA,ar,monthly_mixed_frequency_kalman_em,2019:Q4,-0.0059635787190842025,6.063420164232656
exact,pre_advance,DELTA_SA,ar,monthly_mixed_frequency_kalman_em,2020:Q1,-0.1611051301454935,5.902315034087162
exact,pre_advance,DELTA_SA,ar,monthly_mixed_frequency_kalman_em,2020:Q2,-0.31957404453773897,5.582740989549423
exact,pre_advance,DELTA_SA,ar,monthly_mixed_frequency_kalman_em,2020:Q3,5.12620654751427,10.708947537063693
exact,pre_advance,DELTA_SA,ar,monthly_mixed_frequency_kalman_em,2020:Q4,0.3546793674386402,11.063626904502334
exact,pre_advance,DELTA_SA,ar,monthly_mixed_frequency_kalman_em,2021:Q1,-0.18783715013872604,10.875789754363607
exact,pre_advance,DELTA_SA,ar,monthly_mixed_frequency_kalman_em,2021:Q2,0.004630132866059444,10.880419887229667
exact,pre_advance,DELTA_SA,ar,monthly_mixed_frequency_kalman_em,2021:Q3,-0.0021823422565843513,10.878237544973082
exact,pre_advance,DELTA_SA,ar,monthly_mixed_frequency_kalman_em,2021:Q4,-0.007428600456395386,10.870808944516687
exact,pre_advance,DELTA_SA,ar,monthly_mixed_frequency_kalman_em,2022:Q1,0.005022197558059188,10.875831142074746
exact,pre_advance,DELTA_SA,ar,monthly_mixed_frequency_kalman_em,2022:Q2,0.05660587995924427,10.93243702203399
exact,pre_advance,DELTA_SA,ar,monthly_mixed_frequency_kalman_em,2022:Q3,0.052628094319357416,10.985065116353349
exact,pre_advance,DELTA_SA,ar,monthly_mixed_frequency_kalman_em,2022:Q4,0.0005403243596302926,10.985605440712979
exact,pre_advance,DELTA_SA,ar,monthly_mixed_frequency_kalman_em,2023:Q1,-0.012021039757214896,10.973584400955763
exact,pre_advance,DELTA_SA,ar,monthly_mixed_frequency_kalman_em,2023:Q2,-0.017365640645798736,10.956218760309964
exact,pre_advance,DELTA_SA,ar,monthly_mixed_frequency_kalman_em,2023:Q3,0.025473918124242604,10.981692678434207
exact,pre_advance,DELTA_SA,ar,monthly_mixed_frequency_kalman_em,2023:Q4,0.021153390379995047,11.002846068814202
exact,pre_advance,DELTA_SA,ar,monthly_mixed_frequency_kalman_em,2024:Q1,0.025460006686152975,11.028306075500355
exact,pre_advance,DELTA_SA,ar,monthly_mixed_frequency_kalman_em,2024:Q2,0.0030416763631536223,11.031347751863509
exact,pre_advance,DELTA_SA,ar,monthly_mixed_frequency_kalman_em,2024:Q3,0.005369730426088217,11.036717482289596
exact,pre_advance,DELTA_SA,ar,monthly_mixed_frequency_kalman_em,2024:Q4,-0.001429471121790194,11.035288011167806
exact,pre_advance,DELTA_SA,ar,no_revision,2005:Q1,-0.15257503321613658,-0.15257503321613658
exact,pre_advance,DELTA_SA,ar,no_revision,2005:Q2,0.10304262774761302,-0.049532405468523555
exact,pre_advance,DELTA_SA,ar,no_revision,2005:Q3,0.03151683579611303,-0.018015569672410525
exact,pre_advance,DELTA_SA,ar,no_revision,2005:Q4,-0.17958946757420496,-0.1976050372466155
exact,pre_advance,DELTA_SA,ar,no_revision,2006:Q1,-0.22225097588053042,-0.41985601312714593
exact,pre_advance,DELTA_SA,ar,no_revision,2006:Q2,-0.1338214718146227,-0.5536774849417686
exact,pre_advance,DELTA_SA,ar,no_revision,2006:Q3,-0.2655324769569707,-0.8192099618987393
exact,pre_advance,DELTA_SA,ar,no_revision,2006:Q4,1.1280810824986391,0.30887112059989985
exact,pre_advance,DELTA_SA,ar,no_revision,2007:Q1,-0.36488258133290913,-0.05601146073300928
exact,pre_advance,DELTA_SA,ar,no_revision,2007:Q2,0.2101220628635298,0.15411060213052052
exact,pre_advance,DELTA_SA,ar,no_revision,2007:Q3,-0.5038879623481906,-0.34977736021767003
exact,pre_advance,DELTA_SA,ar,no_revision,2007:Q4,0.23194641324995732,-0.11783094696771271
exact,pre_advance,DELTA_SA,ar,no_revision,2008:Q1,-0.06565748592115798,-0.18348843288887068
exact,pre_advance,DELTA_SA,ar,no_revision,2008:Q2,-0.7051418869943866,-0.8886303198832572
exact,pre_advance,DELTA_SA,ar,no_revision,2008:Q3,0.8839041046210189,-0.004726215262238376
exact,pre_advance,DELTA_SA,ar,no_revision,2008:Q4,0.39399862829546173,0.38927241303322335
exact,pre_advance,DELTA_SA,ar,no_revision,2009:Q1,1.3203689037955737,1.709641316828797
exact,pre_advance,DELTA_SA,ar,no_revision,2009:Q2,0.36877932291984866,2.0784206397486455
exact,pre_advance,DELTA_SA,ar,no_revision,2009:Q3,0.31974831955083616,2.3981689592994817
exact,pre_advance,DELTA_SA,ar,no_revision,2009:Q4,0.2461874095178597,2.6443563688173413
exact,pre_advance,DELTA_SA,ar,no_revision,2010:Q1,0.012274663642203441,2.656631032459545
exact,pre_advance,DELTA_SA,ar,no_revision,2010:Q2,-0.10097637669884518,2.5556546557606996
exact,pre_advance,DELTA_SA,ar,no_revision,2010:Q3,0.41001530272678194,2.9656699584874815
exact,pre_advance,DELTA_SA,ar,no_revision,2010:Q4,0.33708017745408314,3.3027501359415647
exact,pre_advance,DELTA_SA,ar,no_revision,2011:Q1,0.05273638935335863,3.3554865252949235
exact,pre_advance,DELTA_SA,ar,no_revision,2011:Q2,0.0864949621817803,3.4419814874767036
exact,pre_advance,DELTA_SA,ar,no_revision,2011:Q3,-0.03822954602021156,3.403751941456492
exact,pre_advance,DELTA_SA,ar,no_revision,2011:Q4,0.1042486389810256,3.5080005804375176
exact,pre_advance,DELTA_SA,ar,no_revision,2012:Q1,0.12270345028699549,3.6307040307245133
exact,pre_advance,DELTA_SA,ar,no_revision,2012:Q2,0.05124300972150874,3.681947040446022
exact,pre_advance,DELTA_SA,ar,no_revision,2012:Q3,-0.19803121584843814,3.483915824597584
exact,pre_advance,DELTA_SA,ar,no_revision,2012:Q4,-0.06160444841889918,3.4223113761786847
exact,pre_advance,DELTA_SA,ar,no_revision,2013:Q1,0.13839352919058448,3.560704905369269
exact,pre_advance,DELTA_SA,ar,no_revision,2013:Q2,0.010665904843470964,3.5713708102127404
exact,pre_advance,DELTA_SA,ar,no_revision,2013:Q3,-0.49085393179229264,3.0805168784204477
exact,pre_advance,DELTA_SA,ar,no_revision,2013:Q4,0.8147882022650561,3.895305080685504
exact,pre_advance,DELTA_SA,ar,no_revision,2014:Q1,-0.6728261778290336,3.22247890285647
exact,pre_advance,DELTA_SA,ar,no_revision,2014:Q2,0.3153905835886226,3.537869486445093
exact,pre_advance,DELTA_SA,ar,no_revision,2014:Q3,-0.05736992828325174,3.480499558161841
exact,pre_advance,DELTA_SA,ar,no_revision,2014:Q4,0.18045818425062124,3.6609577424124624
exact,pre_advance,DELTA_SA,ar,no_revision,2015:Q1,-0.30424364925329495,3.3567140931591677
exact,pre_advance,DELTA_SA,ar,no_revision,2015:Q2,1.0249249122593762,4.381639005418544
exact,pre_advance,DELTA_SA,ar,no_revision,2015:Q3,-0.3345827492334456,4.0470562561850985
exact,pre_advance,DELTA_SA,ar,no_revision,2015:Q4,-0.09676443992777004,3.9502918162573284
exact,pre_advance,DELTA_SA,ar,no_revision,2016:Q1,-0.09029065158363185,3.8600011646736965
exact,pre_advance,DELTA_SA,ar,no_revision,2016:Q2,0.1360297525459644,3.996030917219661
exact,pre_advance,DELTA_SA,ar,no_revision,2016:Q3,-0.021175007572158712,3.974855909647502
exact,pre_advance,DELTA_SA,ar,no_revision,2016:Q4,0.02734587565242416,4.002201785299926
exact,pre_advance,DELTA_SA,ar,no_revision,2017:Q1,-0.056295362083760514,3.945906423216165
exact,pre_advance,DELTA_SA,ar,no_revision,2017:Q2,-0.1998229027002102,3.746083520515955
exact,pre_advance,DELTA_SA,ar,no_revision,2017:Q3,-0.09239460605426397,3.653688914461691
exact,pre_advance,DELTA_SA,ar,no_revision,2017:Q4,0.035699658663772574,3.6893885731254636
exact,pre_advance,DELTA_SA,ar,no_revision,2018:Q1,0.012703611098869368,3.702092184224333
exact,pre_advance,DELTA_SA,ar,no_revision,2018:Q2,0.0030213569949030655,3.705113541219236
exact,pre_advance,DELTA_SA,ar,no_revision,2018:Q3,0.0032310710133240618,3.70834461223256
exact,pre_advance,DELTA_SA,ar,no_revision,2019:Q1,0.3134694480182471,4.021814060250807
exact,pre_advance,DELTA_SA,ar,no_revision,2019:Q2,-0.00020861065790184213,4.021605449592905
exact,pre_advance,DELTA_SA,ar,no_revision,2019:Q3,-0.020795440927072837,4.000810008665832
exact,pre_advance,DELTA_SA,ar,no_revision,2019:Q4,0.022807340587339162,4.023617349253171
exact,pre_advance,DELTA_SA,ar,no_revision,2020:Q1,0.04374626691208146,4.067363616165252
exact,pre_advance,DELTA_SA,ar,no_revision,2020:Q2,-0.4848885887598303,3.582475027405422
exact,pre_advance,DELTA_SA,ar,no_revision,2020:Q3,6.6030936783793335,10.185568705784755
exact,pre_advance,DELTA_SA,ar,no_revision,2020:Q4,0.3494364241901803,10.535005129974936
exact,pre_advance,DELTA_SA,ar,no_revision,2021:Q1,0.010481372036795358,10.54548650201173
exact,pre_advance,DELTA_SA,ar,no_revision,2021:Q2,0.005674643654305938,10.551161145666036
exact,pre_advance,DELTA_SA,ar,no_revision,2021:Q3,-0.00428446848418562,10.546876677181851
exact,pre_advance,DELTA_SA,ar,no_revision,2021:Q4,-0.009636975615624089,10.537239701566227
exact,pre_advance,DELTA_SA,ar,no_revision,2022:Q1,0.05376352283472801,10.591003224400955
exact,pre_advance,DELTA_SA,ar,no_revision,2022:Q2,-0.01747374549873487,10.57352947890222
exact,pre_advance,DELTA_SA,ar,no_revision,2022:Q3,-0.038912176234116996,10.534617302668103
exact,pre_advance,DELTA_SA,ar,no_revision,2022:Q4,0.058622083054108,10.59323938572221
exact,pre_advance,DELTA_SA,ar,no_revision,2023:Q1,-0.02740533844308022,10.56583404727913
exact,pre_advance,DELTA_SA,ar,no_revision,2023:Q2,0.06172819389498699,10.627562241174118
exact,pre_advance,DELTA_SA,ar,no_revision,2023:Q3,-0.03194758936873526,10.595614651805382
exact,pre_advance,DELTA_SA,ar,no_revision,2023:Q4,0.03690159867203891,10.63251625047742
exact,pre_advance,DELTA_SA,ar,no_revision,2024:Q1,0.07155817897030346,10.704074429447724
exact,pre_advance,DELTA_SA,ar,no_revision,2024:Q2,-0.009033581491366181,10.695040847956358
exact,pre_advance,DELTA_SA,ar,no_revision,2024:Q3,0.00727617350536104,10.702317021461718
exact,pre_advance,DELTA_SA,ar,no_revision,2024:Q4,-0.008788760628669104,10.69352826083305
exact,pre_advance,DELTA_SA,ar,release_dfm,2005:Q1,-0.06457257404199196,-0.06457257404199196
exact,pre_advance,DELTA_SA,ar,release_dfm,2005:Q2,0.05392100705411307,-0.010651566987878891
exact,pre_advance,DELTA_SA,ar,release_dfm,2005:Q3,0.12191070539466523,0.11125913840678633
exact,pre_advance,DELTA_SA,ar,release_dfm,2005:Q4,-0.03851182739693809,0.07274731100984824
exact,pre_advance,DELTA_SA,ar,release_dfm,2006:Q1,-0.09630907940028732,-0.02356176839043908
exact,pre_advance,DELTA_SA,ar,release_dfm,2006:Q2,-0.006343046395281451,-0.029904814785720532
exact,pre_advance,DELTA_SA,ar,release_dfm,2006:Q3,-0.1027035776815714,-0.13260839246729195
exact,pre_advance,DELTA_SA,ar,release_dfm,2006:Q4,1.0276047402758972,0.8949963478086053
exact,pre_advance,DELTA_SA,ar,release_dfm,2007:Q1,-0.41408575323464875,0.4809105945739565
exact,pre_advance,DELTA_SA,ar,release_dfm,2007:Q2,0.3272665697635969,0.8081771643375535
exact,pre_advance,DELTA_SA,ar,release_dfm,2007:Q3,-0.3348463681699476,0.47333079616760587
exact,pre_advance,DELTA_SA,ar,release_dfm,2007:Q4,0.23170019018880766,0.7050309863564135
exact,pre_advance,DELTA_SA,ar,release_dfm,2008:Q1,-0.09998664863071874,0.6050443377256948
exact,pre_advance,DELTA_SA,ar,release_dfm,2008:Q2,-0.7880304720767588,-0.18298613435106403
exact,pre_advance,DELTA_SA,ar,release_dfm,2008:Q3,0.9004291296287449,0.7174429952776809
exact,pre_advance,DELTA_SA,ar,release_dfm,2008:Q4,2.0518569757106633,2.769299970988344
exact,pre_advance,DELTA_SA,ar,release_dfm,2009:Q1,-1.309095775368377,1.4602041956199672
exact,pre_advance,DELTA_SA,ar,release_dfm,2009:Q2,0.29556918667558446,1.7557733822955517
exact,pre_advance,DELTA_SA,ar,release_dfm,2009:Q3,0.06344779921680854,1.8192211815123602
exact,pre_advance,DELTA_SA,ar,release_dfm,2009:Q4,0.2826198032348088,2.101840984747169
exact,pre_advance,DELTA_SA,ar,release_dfm,2010:Q1,-0.23945245033583445,1.8623885344113345
exact,pre_advance,DELTA_SA,ar,release_dfm,2010:Q2,-0.43427508410354076,1.4281134503077937
exact,pre_advance,DELTA_SA,ar,release_dfm,2010:Q3,0.5008024804713807,1.9289159307791743
exact,pre_advance,DELTA_SA,ar,release_dfm,2010:Q4,0.25584879905282176,2.184764729831996
exact,pre_advance,DELTA_SA,ar,release_dfm,2011:Q1,0.016558704882427375,2.2013234347144235
exact,pre_advance,DELTA_SA,ar,release_dfm,2011:Q2,0.014075986477936259,2.2153994211923598
exact,pre_advance,DELTA_SA,ar,release_dfm,2011:Q3,-0.15806562807392172,2.057333793118438
exact,pre_advance,DELTA_SA,ar,release_dfm,2011:Q4,0.1550867166435113,2.2124205097619494
exact,pre_advance,DELTA_SA,ar,release_dfm,2012:Q1,-0.06456927922788744,2.147851230534062
exact,pre_advance,DELTA_SA,ar,release_dfm,2012:Q2,0.07649001778942476,2.2243412483234866
exact,pre_advance,DELTA_SA,ar,release_dfm,2012:Q3,-0.09411694703936069,2.1302243012841258
exact,pre_advance,DELTA_SA,ar,release_dfm,2012:Q4,0.0020050161951079247,2.1322293174792337
exact,pre_advance,DELTA_SA,ar,release_dfm,2013:Q1,0.09100039082084721,2.2232297083000807
exact,pre_advance,DELTA_SA,ar,release_dfm,2013:Q2,0.19390107916547772,2.4171307874655583
exact,pre_advance,DELTA_SA,ar,release_dfm,2013:Q3,-0.3479050431917394,2.069225744273819
exact,pre_advance,DELTA_SA,ar,release_dfm,2013:Q4,0.4497329579020104,2.518958702175829
exact,pre_advance,DELTA_SA,ar,release_dfm,2014:Q1,-0.8583308373830141,1.660627864792815
exact,pre_advance,DELTA_SA,ar,release_dfm,2014:Q2,0.3652294107029636,2.0258572754957784
exact,pre_advance,DELTA_SA,ar,release_dfm,2014:Q3,0.01403490485174793,2.0398921803475263
exact,pre_advance,DELTA_SA,ar,release_dfm,2014:Q4,0.08228803521466005,2.1221802155621865
exact,pre_advance,DELTA_SA,ar,release_dfm,2015:Q1,-0.31184236052820247,1.8103378550339841
exact,pre_advance,DELTA_SA,ar,release_dfm,2015:Q2,1.3035716979369338,3.113909552970918
exact,pre_advance,DELTA_SA,ar,release_dfm,2015:Q3,-0.23002657645394253,2.8838829765169756
exact,pre_advance,DELTA_SA,ar,release_dfm,2015:Q4,-0.07014253561235265,2.8137404409046227
exact,pre_advance,DELTA_SA,ar,release_dfm,2016:Q1,-0.06222528198854299,2.75151515891608
exact,pre_advance,DELTA_SA,ar,release_dfm,2016:Q2,0.11559094826535313,2.8671061071814328
exact,pre_advance,DELTA_SA,ar,release_dfm,2016:Q3,0.012368181166111498,2.879474288347544
exact,pre_advance,DELTA_SA,ar,release_dfm,2016:Q4,-2.457762946924194e-05,2.8794497107180748
exact,pre_advance,DELTA_SA,ar,release_dfm,2017:Q1,0.03677153658568007,2.916221247303755
exact,pre_advance,DELTA_SA,ar,release_dfm,2017:Q2,-0.10011724287491425,2.8161040044288406
exact,pre_advance,DELTA_SA,ar,release_dfm,2017:Q3,-0.05757220247213498,2.7585318019567056
exact,pre_advance,DELTA_SA,ar,release_dfm,2017:Q4,-0.018795635845599436,2.739736166111106
exact,pre_advance,DELTA_SA,ar,release_dfm,2018:Q1,-0.07137453950156954,2.6683616266095362
exact,pre_advance,DELTA_SA,ar,release_dfm,2018:Q2,0.02732140167321683,2.695683028282753
exact,pre_advance,DELTA_SA,ar,release_dfm,2018:Q3,-0.01517884791799765,2.680504180364755
exact,pre_advance,DELTA_SA,ar,release_dfm,2019:Q1,0.3056651959381533,2.9861693763029082
exact,pre_advance,DELTA_SA,ar,release_dfm,2019:Q2,-0.006542066970037425,2.9796273093328707
exact,pre_advance,DELTA_SA,ar,release_dfm,2019:Q3,0.0045591534171501615,2.9841864627500208
exact,pre_advance,DELTA_SA,ar,release_dfm,2019:Q4,0.022458742746033496,3.006645205496054
exact,pre_advance,DELTA_SA,ar,release_dfm,2020:Q1,0.07929702576198386,3.0859422312580382
exact,pre_advance,DELTA_SA,ar,release_dfm,2020:Q2,-6.343919910050812,-3.257977678792774
exact,pre_advance,DELTA_SA,ar,release_dfm,2020:Q3,6.585229036056758,3.3272513572639837
exact,pre_advance,DELTA_SA,ar,release_dfm,2020:Q4,0.3553294223382184,3.682580779602202
exact,pre_advance,DELTA_SA,ar,release_dfm,2021:Q1,0.0024895334042018043,3.685070313006404
exact,pre_advance,DELTA_SA,ar,release_dfm,2021:Q2,0.006350212614450523,3.6914205256208543
exact,pre_advance,DELTA_SA,ar,release_dfm,2021:Q3,0.003397448164514412,3.694817973785369
exact,pre_advance,DELTA_SA,ar,release_dfm,2021:Q4,0.00022254856130138077,3.69504052234667
exact,pre_advance,DELTA_SA,ar,release_dfm,2022:Q1,0.02398197233090931,3.719022494677579
exact,pre_advance,DELTA_SA,ar,release_dfm,2022:Q2,0.04202620704813996,3.761048701725719
exact,pre_advance,DELTA_SA,ar,release_dfm,2022:Q3,0.021558902901119156,3.782607604626838
exact,pre_advance,DELTA_SA,ar,release_dfm,2022:Q4,0.007549276239000424,3.7901568808658386
exact,pre_advance,DELTA_SA,ar,release_dfm,2023:Q1,0.0036429627516610056,3.7937998436175
exact,pre_advance,DELTA_SA,ar,release_dfm,2023:Q2,-0.015892029036106203,3.7779078145813934
exact,pre_advance,DELTA_SA,ar,release_dfm,2023:Q3,0.011327669946062588,3.789235484527456
exact,pre_advance,DELTA_SA,ar,release_dfm,2023:Q4,0.01429794297308309,3.8035334275005392
exact,pre_advance,DELTA_SA,ar,release_dfm,2024:Q1,-0.001782041940785073,3.8017513855597542
exact,pre_advance,DELTA_SA,ar,release_dfm,2024:Q2,0.0030115301445589647,3.804762915704313
exact,pre_advance,DELTA_SA,ar,release_dfm,2024:Q3,0.0003461342174390092,3.805109049921752
exact,pre_advance,DELTA_SA,ar,release_dfm,2024:Q4,2.5610952888988313e-05,3.805134660874641
exact,pre_advance,DELTA_SA,ar,revision_dfm_kalman_em,2005:Q1,-0.09508536621101293,-0.09508536621101293
exact,pre_advance,DELTA_SA,ar,revision_dfm_kalman_em,2005:Q2,0.07606907308853131,-0.019016293122481626
exact,pre_advance,DELTA_SA,ar,revision_dfm_kalman_em,2005:Q3,0.1425545748953324,0.12353828177285078
exact,pre_advance,DELTA_SA,ar,revision_dfm_kalman_em,2005:Q4,-0.01815487500118762,0.10538340677166316
exact,pre_advance,DELTA_SA,ar,revision_dfm_kalman_em,2006:Q1,-0.11165903460740578,-0.00627562783574262
exact,pre_advance,DELTA_SA,ar,revision_dfm_kalman_em,2006:Q2,-0.06825546697244492,-0.07453109480818754
exact,pre_advance,DELTA_SA,ar,revision_dfm_kalman_em,2006:Q3,-0.21679624394812175,-0.2913273387563093
exact,pre_advance,DELTA_SA,ar,revision_dfm_kalman_em,2006:Q4,1.169946665401713,0.8786193266454037
exact,pre_advance,DELTA_SA,ar,revision_dfm_kalman_em,2007:Q1,-0.9093837321429341,-0.030764405497530456
exact,pre_advance,DELTA_SA,ar,revision_dfm_kalman_em,2007:Q2,0.4935582309759848,0.4627938254784543
exact,pre_advance,DELTA_SA,ar,revision_dfm_kalman_em,2007:Q3,-0.38696851801939647,0.07582530745905786
exact,pre_advance,DELTA_SA,ar,revision_dfm_kalman_em,2007:Q4,0.21650721029913458,0.29233251775819247
exact,pre_advance,DELTA_SA,ar,revision_dfm_kalman_em,2008:Q1,-0.01168826419002646,0.280644253568166
exact,pre_advance,DELTA_SA,ar,revision_dfm_kalman_em,2008:Q2,-0.42330037452199853,-0.1426561209538325
exact,pre_advance,DELTA_SA,ar,revision_dfm_kalman_em,2008:Q3,0.9133964126465238,0.7707402916926913
exact,pre_advance,DELTA_SA,ar,revision_dfm_kalman_em,2008:Q4,2.260314458298309,3.031054749991
exact,pre_advance,DELTA_SA,ar,revision_dfm_kalman_em,2009:Q1,1.3864956146949512,4.417550364685951
exact,pre_advance,DELTA_SA,ar,revision_dfm_kalman_em,2009:Q2,-0.34601108793247437,4.071539276753477
exact,pre_advance,DELTA_SA,ar,revision_dfm_kalman_em,2009:Q3,-1.4845766589384812,2.5869626178149954
exact,pre_advance,DELTA_SA,ar,revision_dfm_kalman_em,2009:Q4,0.27058173602112806,2.8575443538361234
exact,pre_advance,DELTA_SA,ar,revision_dfm_kalman_em,2010:Q1,-0.21944990524136293,2.6380944485947606
exact,pre_advance,DELTA_SA,ar,revision_dfm_kalman_em,2010:Q2,-0.8181972759389865,1.8198971726557742
exact,pre_advance,DELTA_SA,ar,revision_dfm_kalman_em,2010:Q3,0.6328264701308903,2.4527236427866645
exact,pre_advance,DELTA_SA,ar,revision_dfm_kalman_em,2010:Q4,0.26522288847136966,2.7179465312580344
exact,pre_advance,DELTA_SA,ar,revision_dfm_kalman_em,2011:Q1,-0.03315374961810191,2.6847927816399326
exact,pre_advance,DELTA_SA,ar,revision_dfm_kalman_em,2011:Q2,-0.05874780020500675,2.626044981434926
exact,pre_advance,DELTA_SA,ar,revision_dfm_kalman_em,2011:Q3,-0.39924322888198016,2.2268017525529458
exact,pre_advance,DELTA_SA,ar,revision_dfm_kalman_em,2011:Q4,0.15361181045734654,2.3804135630102925
exact,pre_advance,DELTA_SA,ar,revision_dfm_kalman_em,2012:Q1,-0.13420755050257008,2.2462060125077223
exact,pre_advance,DELTA_SA,ar,revision_dfm_kalman_em,2012:Q2,0.08845574487435676,2.334661757382079
exact,pre_advance,DELTA_SA,ar,revision_dfm_kalman_em,2012:Q3,-0.06172622528614674,2.272935532095932
exact,pre_advance,DELTA_SA,ar,revision_dfm_kalman_em,2012:Q4,-1.0244022382121729e-05,2.27292528807355
exact,pre_advance,DELTA_SA,ar,revision_dfm_kalman_em,2013:Q1,0.02028998909159785,2.293215277165148
exact,pre_advance,DELTA_SA,ar,revision_dfm_kalman_em,2013:Q2,0.26248029973451975,2.555695576899668
exact,pre_advance,DELTA_SA,ar,revision_dfm_kalman_em,2013:Q3,-0.3222996978009163,2.233395879098752
exact,pre_advance,DELTA_SA,ar,revision_dfm_kalman_em,2013:Q4,0.3465173932672345,2.579913272365986
exact,pre_advance,DELTA_SA,ar,revision_dfm_kalman_em,2014:Q1,-1.224007019687349,1.3559062526786372
exact,pre_advance,DELTA_SA,ar,revision_dfm_kalman_em,2014:Q2,0.32941509284993814,1.6853213455285754
exact,pre_advance,DELTA_SA,ar,revision_dfm_kalman_em,2014:Q3,-0.015039268856243473,1.6702820766723319
exact,pre_advance,DELTA_SA,ar,revision_dfm_kalman_em,2014:Q4,0.03447230124437278,1.7047543779167047
exact,pre_advance,DELTA_SA,ar,revision_dfm_kalman_em,2015:Q1,-0.36202247319224956,1.342731904724455
exact,pre_advance,DELTA_SA,ar,revision_dfm_kalman_em,2015:Q2,1.5370761720410315,2.8798080767654866
exact,pre_advance,DELTA_SA,ar,revision_dfm_kalman_em,2015:Q3,-0.23333528060613667,2.6464727961593497
exact,pre_advance,DELTA_SA,ar,revision_dfm_kalman_em,2015:Q4,-0.09970317906923362,2.546769617090116
exact,pre_advance,DELTA_SA,ar,revision_dfm_kalman_em,2016:Q1,-0.03523208053003855,2.511537536560078
exact,pre_advance,DELTA_SA,ar,revision_dfm_kalman_em,2016:Q2,0.06725267466872728,2.5787902112288053
exact,pre_advance,DELTA_SA,ar,revision_dfm_kalman_em,2016:Q3,0.04073019273241564,2.619520403961221
exact,pre_advance,DELTA_SA,ar,revision_dfm_kalman_em,2016:Q4,0.004750805285930033,2.624271209247151
exact,pre_advance,DELTA_SA,ar,revision_dfm_kalman_em,2017:Q1,0.07518076513907537,2.699451974386226
exact,pre_advance,DELTA_SA,ar,revision_dfm_kalman_em,2017:Q2,-0.02195209715570667,2.6774998772305194
exact,pre_advance,DELTA_SA,ar,revision_dfm_kalman_em,2017:Q3,-0.10297449751680647,2.574525379713713
exact,pre_advance,DELTA_SA,ar,revision_dfm_kalman_em,2017:Q4,-0.11930141174831688,2.455223967965396
exact,pre_advance,DELTA_SA,ar,revision_dfm_kalman_em,2018:Q1,-0.10707218305444041,2.3481517849109554
exact,pre_advance,DELTA_SA,ar,revision_dfm_kalman_em,2018:Q2,0.024635680386864117,2.3727874652978196
exact,pre_advance,DELTA_SA,ar,revision_dfm_kalman_em,2018:Q3,-0.014667138267034219,2.3581203270307856
exact,pre_advance,DELTA_SA,ar,revision_dfm_kalman_em,2019:Q1,0.30019705882163195,2.6583173858524174
exact,pre_advance,DELTA_SA,ar,revision_dfm_kalman_em,2019:Q2,-0.008154439310170947,2.6501629465422463
exact,pre_advance,DELTA_SA,ar,revision_dfm_kalman_em,2019:Q3,0.019427004409922944,2.669589950952169
exact,pre_advance,DELTA_SA,ar,revision_dfm_kalman_em,2019:Q4,0.019770712137181904,2.689360663089351
exact,pre_advance,DELTA_SA,ar,revision_dfm_kalman_em,2020:Q1,0.09932495242475799,2.788685615514109
exact,pre_advance,DELTA_SA,ar,revision_dfm_kalman_em,2020:Q2,-3.9227870756495276,-1.1341014601354185
exact,pre_advance,DELTA_SA,ar,revision_dfm_kalman_em,2020:Q3,6.166657565057703,5.032556104922284
exact,pre_advance,DELTA_SA,ar,revision_dfm_kalman_em,2020:Q4,0.20745148942358332,5.240007594345867
exact,pre_advance,DELTA_SA,ar,revision_dfm_kalman_em,2021:Q1,-0.04315620067888709,5.19685139366698
exact,pre_advance,DELTA_SA,ar,revision_dfm_kalman_em,2021:Q2,0.00267921918438089,5.19953061285136
exact,pre_advance,DELTA_SA,ar,revision_dfm_kalman_em,2021:Q3,0.0020810287178107505,5.201611641569171
exact,pre_advance,DELTA_SA,ar,revision_dfm_kalman_em,2021:Q4,-0.012644526528951611,5.188967115040219
exact,pre_advance,DELTA_SA,ar,revision_dfm_kalman_em,2022:Q1,0.02125625043806887,5.210223365478288
exact,pre_advance,DELTA_SA,ar,revision_dfm_kalman_em,2022:Q2,0.11123574884974219,5.32145911432803
exact,pre_advance,DELTA_SA,ar,revision_dfm_kalman_em,2022:Q3,0.08712190091024526,5.4085810152382745
exact,pre_advance,DELTA_SA,ar,revision_dfm_kalman_em,2022:Q4,-0.0047180657720788804,5.403862949466196
exact,pre_advance,DELTA_SA,ar,revision_dfm_kalman_em,2023:Q1,0.0018364082221660437,5.405699357688362
exact,pre_advance,DELTA_SA,ar,revision_dfm_kalman_em,2023:Q2,-0.06412823885238308,5.3415711188359785
exact,pre_advance,DELTA_SA,ar,revision_dfm_kalman_em,2023:Q3,0.03287487665200363,5.374445995487982
exact,pre_advance,DELTA_SA,ar,revision_dfm_kalman_em,2023:Q4,0.028013291026477392,5.40245928651446
exact,pre_advance,DELTA_SA,ar,revision_dfm_kalman_em,2024:Q1,0.01848969627836969,5.420948982792829
exact,pre_advance,DELTA_SA,ar,revision_dfm_kalman_em,2024:Q2,0.0019824926172536256,5.422931475410083
exact,pre_advance,DELTA_SA,ar,revision_dfm_kalman_em,2024:Q3,-0.008494038878908162,5.414437436531175
exact,pre_advance,DELTA_SA,ar,revision_dfm_kalman_em,2024:Q4,-3.504564559267382e-05,5.4144023908855825
exact,pre_advance,DELTA_SA,ar,standard_dfm,2005:Q1,-0.06457257404199196,-0.06457257404199196
exact,pre_advance,DELTA_SA,ar,standard_dfm,2005:Q2,0.05392100705411307,-0.010651566987878891
exact,pre_advance,DELTA_SA,ar,standard_dfm,2005:Q3,0.12191070539466523,0.11125913840678633
exact,pre_advance,DELTA_SA,ar,standard_dfm,2005:Q4,-0.03851182739693809,0.07274731100984824
exact,pre_advance,DELTA_SA,ar,standard_dfm,2006:Q1,-0.09630907940028732,-0.02356176839043908
exact,pre_advance,DELTA_SA,ar,standard_dfm,2006:Q2,-0.006343046395281451,-0.029904814785720532
exact,pre_advance,DELTA_SA,ar,standard_dfm,2006:Q3,-0.1027035776815714,-0.13260839246729195
exact,pre_advance,DELTA_SA,ar,standard_dfm,2006:Q4,1.0276047402758972,0.8949963478086053
exact,pre_advance,DELTA_SA,ar,standard_dfm,2007:Q1,-0.41408575323464875,0.4809105945739565
exact,pre_advance,DELTA_SA,ar,standard_dfm,2007:Q2,0.3272665697635969,0.8081771643375535
exact,pre_advance,DELTA_SA,ar,standard_dfm,2007:Q3,-0.3348463681699476,0.47333079616760587
exact,pre_advance,DELTA_SA,ar,standard_dfm,2007:Q4,0.23170019018880766,0.7050309863564135
exact,pre_advance,DELTA_SA,ar,standard_dfm,2008:Q1,-0.09998664863071874,0.6050443377256948
exact,pre_advance,DELTA_SA,ar,standard_dfm,2008:Q2,-0.7880304720767588,-0.18298613435106403
exact,pre_advance,DELTA_SA,ar,standard_dfm,2008:Q3,0.9004291296287449,0.7174429952776809
exact,pre_advance,DELTA_SA,ar,standard_dfm,2008:Q4,2.0518569757106633,2.769299970988344
exact,pre_advance,DELTA_SA,ar,standard_dfm,2009:Q1,-1.309095775368377,1.4602041956199672
exact,pre_advance,DELTA_SA,ar,standard_dfm,2009:Q2,0.29556918667558446,1.7557733822955517
exact,pre_advance,DELTA_SA,ar,standard_dfm,2009:Q3,0.06344779921680854,1.8192211815123602
exact,pre_advance,DELTA_SA,ar,standard_dfm,2009:Q4,0.2826198032348088,2.101840984747169
exact,pre_advance,DELTA_SA,ar,standard_dfm,2010:Q1,-0.23945245033583445,1.8623885344113345
exact,pre_advance,DELTA_SA,ar,standard_dfm,2010:Q2,-0.43427508410354076,1.4281134503077937
exact,pre_advance,DELTA_SA,ar,standard_dfm,2010:Q3,0.5008024804713807,1.9289159307791743
exact,pre_advance,DELTA_SA,ar,standard_dfm,2010:Q4,0.25584879905282176,2.184764729831996
exact,pre_advance,DELTA_SA,ar,standard_dfm,2011:Q1,0.016558704882427375,2.2013234347144235
exact,pre_advance,DELTA_SA,ar,standard_dfm,2011:Q2,0.014075986477936259,2.2153994211923598
exact,pre_advance,DELTA_SA,ar,standard_dfm,2011:Q3,-0.15806562807392172,2.057333793118438
exact,pre_advance,DELTA_SA,ar,standard_dfm,2011:Q4,0.1550867166435113,2.2124205097619494
exact,pre_advance,DELTA_SA,ar,standard_dfm,2012:Q1,-0.06456927922788744,2.147851230534062
exact,pre_advance,DELTA_SA,ar,standard_dfm,2012:Q2,0.07649001778942476,2.2243412483234866
exact,pre_advance,DELTA_SA,ar,standard_dfm,2012:Q3,-0.09411694703936069,2.1302243012841258
exact,pre_advance,DELTA_SA,ar,standard_dfm,2012:Q4,0.0020050161951079247,2.1322293174792337
exact,pre_advance,DELTA_SA,ar,standard_dfm,2013:Q1,0.09100039082084721,2.2232297083000807
exact,pre_advance,DELTA_SA,ar,standard_dfm,2013:Q2,0.19390107916547772,2.4171307874655583
exact,pre_advance,DELTA_SA,ar,standard_dfm,2013:Q3,-0.3479050431917394,2.069225744273819
exact,pre_advance,DELTA_SA,ar,standard_dfm,2013:Q4,0.4497329579020104,2.518958702175829
exact,pre_advance,DELTA_SA,ar,standard_dfm,2014:Q1,-0.8583308373830141,1.660627864792815
exact,pre_advance,DELTA_SA,ar,standard_dfm,2014:Q2,0.3652294107029636,2.0258572754957784
exact,pre_advance,DELTA_SA,ar,standard_dfm,2014:Q3,0.01403490485174793,2.0398921803475263
exact,pre_advance,DELTA_SA,ar,standard_dfm,2014:Q4,0.08228803521466005,2.1221802155621865
exact,pre_advance,DELTA_SA,ar,standard_dfm,2015:Q1,-0.31184236052820247,1.8103378550339841
exact,pre_advance,DELTA_SA,ar,standard_dfm,2015:Q2,1.3035716979369338,3.113909552970918
exact,pre_advance,DELTA_SA,ar,standard_dfm,2015:Q3,-0.23002657645394253,2.8838829765169756
exact,pre_advance,DELTA_SA,ar,standard_dfm,2015:Q4,-0.07014253561235265,2.8137404409046227
exact,pre_advance,DELTA_SA,ar,standard_dfm,2016:Q1,-0.06222528198854299,2.75151515891608
exact,pre_advance,DELTA_SA,ar,standard_dfm,2016:Q2,0.11559094826535313,2.8671061071814328
exact,pre_advance,DELTA_SA,ar,standard_dfm,2016:Q3,0.012368181166111498,2.879474288347544
exact,pre_advance,DELTA_SA,ar,standard_dfm,2016:Q4,-2.457762946924194e-05,2.8794497107180748
exact,pre_advance,DELTA_SA,ar,standard_dfm,2017:Q1,0.03677153658568007,2.916221247303755
exact,pre_advance,DELTA_SA,ar,standard_dfm,2017:Q2,-0.10011724287491425,2.8161040044288406
exact,pre_advance,DELTA_SA,ar,standard_dfm,2017:Q3,-0.05757220247213498,2.7585318019567056
exact,pre_advance,DELTA_SA,ar,standard_dfm,2017:Q4,-0.018795635845599436,2.739736166111106
exact,pre_advance,DELTA_SA,ar,standard_dfm,2018:Q1,-0.07137453950156954,2.6683616266095362
exact,pre_advance,DELTA_SA,ar,standard_dfm,2018:Q2,0.02732140167321683,2.695683028282753
exact,pre_advance,DELTA_SA,ar,standard_dfm,2018:Q3,-0.01517884791799765,2.680504180364755
exact,pre_advance,DELTA_SA,ar,standard_dfm,2019:Q1,0.3056651959381533,2.9861693763029082
exact,pre_advance,DELTA_SA,ar,standard_dfm,2019:Q2,-0.006542066970037425,2.9796273093328707
exact,pre_advance,DELTA_SA,ar,standard_dfm,2019:Q3,0.0045591534171501615,2.9841864627500208
exact,pre_advance,DELTA_SA,ar,standard_dfm,2019:Q4,0.022458742746033496,3.006645205496054
exact,pre_advance,DELTA_SA,ar,standard_dfm,2020:Q1,0.07929702576198386,3.0859422312580382
exact,pre_advance,DELTA_SA,ar,standard_dfm,2020:Q2,-6.343919910050812,-3.257977678792774
exact,pre_advance,DELTA_SA,ar,standard_dfm,2020:Q3,6.585229036056758,3.3272513572639837
exact,pre_advance,DELTA_SA,ar,standard_dfm,2020:Q4,0.3553294223382184,3.682580779602202
exact,pre_advance,DELTA_SA,ar,standard_dfm,2021:Q1,0.0024895334042018043,3.685070313006404
exact,pre_advance,DELTA_SA,ar,standard_dfm,2021:Q2,0.006350212614450523,3.6914205256208543
exact,pre_advance,DELTA_SA,ar,standard_dfm,2021:Q3,0.003397448164514412,3.694817973785369
exact,pre_advance,DELTA_SA,ar,standard_dfm,2021:Q4,0.00022254856130138077,3.69504052234667
exact,pre_advance,DELTA_SA,ar,standard_dfm,2022:Q1,0.02398197233090931,3.719022494677579
exact,pre_advance,DELTA_SA,ar,standard_dfm,2022:Q2,0.04202620704813996,3.761048701725719
exact,pre_advance,DELTA_SA,ar,standard_dfm,2022:Q3,0.021558902901119156,3.782607604626838
exact,pre_advance,DELTA_SA,ar,standard_dfm,2022:Q4,0.007549276239000424,3.7901568808658386
exact,pre_advance,DELTA_SA,ar,standard_dfm,2023:Q1,0.0036429627516610056,3.7937998436175
exact,pre_advance,DELTA_SA,ar,standard_dfm,2023:Q2,-0.015892029036106203,3.7779078145813934
exact,pre_advance,DELTA_SA,ar,standard_dfm,2023:Q3,0.011327669946062588,3.789235484527456
exact,pre_advance,DELTA_SA,ar,standard_dfm,2023:Q4,0.01429794297308309,3.8035334275005392
exact,pre_advance,DELTA_SA,ar,standard_dfm,2024:Q1,-0.001782041940785073,3.8017513855597542
exact,pre_advance,DELTA_SA,ar,standard_dfm,2024:Q2,0.0030115301445589647,3.804762915704313
exact,pre_advance,DELTA_SA,ar,standard_dfm,2024:Q3,0.0003461342174390092,3.805109049921752
exact,pre_advance,DELTA_SA,ar,standard_dfm,2024:Q4,2.5610952888988313e-05,3.805134660874641
exact,pre_advance,DELTA_SA,no_revision,ar,2005:Q1,0.15257503321613658,0.15257503321613658
exact,pre_advance,DELTA_SA,no_revision,ar,2005:Q2,-0.10304262774761302,0.049532405468523555
exact,pre_advance,DELTA_SA,no_revision,ar,2005:Q3,-0.03151683579611303,0.018015569672410525
exact,pre_advance,DELTA_SA,no_revision,ar,2005:Q4,0.17958946757420496,0.1976050372466155
exact,pre_advance,DELTA_SA,no_revision,ar,2006:Q1,0.22225097588053042,0.41985601312714593
exact,pre_advance,DELTA_SA,no_revision,ar,2006:Q2,0.1338214718146227,0.5536774849417686
exact,pre_advance,DELTA_SA,no_revision,ar,2006:Q3,0.2655324769569707,0.8192099618987393
exact,pre_advance,DELTA_SA,no_revision,ar,2006:Q4,-1.1280810824986391,-0.30887112059989985
exact,pre_advance,DELTA_SA,no_revision,ar,2007:Q1,0.36488258133290913,0.05601146073300928
exact,pre_advance,DELTA_SA,no_revision,ar,2007:Q2,-0.2101220628635298,-0.15411060213052052
exact,pre_advance,DELTA_SA,no_revision,ar,2007:Q3,0.5038879623481906,0.34977736021767003
exact,pre_advance,DELTA_SA,no_revision,ar,2007:Q4,-0.23194641324995732,0.11783094696771271
exact,pre_advance,DELTA_SA,no_revision,ar,2008:Q1,0.06565748592115798,0.18348843288887068
exact,pre_advance,DELTA_SA,no_revision,ar,2008:Q2,0.7051418869943866,0.8886303198832572
exact,pre_advance,DELTA_SA,no_revision,ar,2008:Q3,-0.8839041046210189,0.004726215262238376
exact,pre_advance,DELTA_SA,no_revision,ar,2008:Q4,-0.39399862829546173,-0.38927241303322335
exact,pre_advance,DELTA_SA,no_revision,ar,2009:Q1,-1.3203689037955737,-1.709641316828797
exact,pre_advance,DELTA_SA,no_revision,ar,2009:Q2,-0.36877932291984866,-2.0784206397486455
exact,pre_advance,DELTA_SA,no_revision,ar,2009:Q3,-0.31974831955083616,-2.3981689592994817
exact,pre_advance,DELTA_SA,no_revision,ar,2009:Q4,-0.2461874095178597,-2.6443563688173413
exact,pre_advance,DELTA_SA,no_revision,ar,2010:Q1,-0.012274663642203441,-2.656631032459545
exact,pre_advance,DELTA_SA,no_revision,ar,2010:Q2,0.10097637669884518,-2.5556546557606996
exact,pre_advance,DELTA_SA,no_revision,ar,2010:Q3,-0.41001530272678194,-2.9656699584874815
exact,pre_advance,DELTA_SA,no_revision,ar,2010:Q4,-0.33708017745408314,-3.3027501359415647
exact,pre_advance,DELTA_SA,no_revision,ar,2011:Q1,-0.05273638935335863,-3.3554865252949235
exact,pre_advance,DELTA_SA,no_revision,ar,2011:Q2,-0.0864949621817803,-3.4419814874767036
exact,pre_advance,DELTA_SA,no_revision,ar,2011:Q3,0.03822954602021156,-3.403751941456492
exact,pre_advance,DELTA_SA,no_revision,ar,2011:Q4,-0.1042486389810256,-3.5080005804375176
exact,pre_advance,DELTA_SA,no_revision,ar,2012:Q1,-0.12270345028699549,-3.6307040307245133
exact,pre_advance,DELTA_SA,no_revision,ar,2012:Q2,-0.05124300972150874,-3.681947040446022
exact,pre_advance,DELTA_SA,no_revision,ar,2012:Q3,0.19803121584843814,-3.483915824597584
exact,pre_advance,DELTA_SA,no_revision,ar,2012:Q4,0.06160444841889918,-3.4223113761786847
exact,pre_advance,DELTA_SA,no_revision,ar,2013:Q1,-0.13839352919058448,-3.560704905369269
exact,pre_advance,DELTA_SA,no_revision,ar,2013:Q2,-0.010665904843470964,-3.5713708102127404
exact,pre_advance,DELTA_SA,no_revision,ar,2013:Q3,0.49085393179229264,-3.0805168784204477
exact,pre_advance,DELTA_SA,no_revision,ar,2013:Q4,-0.8147882022650561,-3.895305080685504
exact,pre_advance,DELTA_SA,no_revision,ar,2014:Q1,0.6728261778290336,-3.22247890285647
exact,pre_advance,DELTA_SA,no_revision,ar,2014:Q2,-0.3153905835886226,-3.537869486445093
exact,pre_advance,DELTA_SA,no_revision,ar,2014:Q3,0.05736992828325174,-3.480499558161841
exact,pre_advance,DELTA_SA,no_revision,ar,2014:Q4,-0.18045818425062124,-3.6609577424124624
exact,pre_advance,DELTA_SA,no_revision,ar,2015:Q1,0.30424364925329495,-3.3567140931591677
exact,pre_advance,DELTA_SA,no_revision,ar,2015:Q2,-1.0249249122593762,-4.381639005418544
exact,pre_advance,DELTA_SA,no_revision,ar,2015:Q3,0.3345827492334456,-4.0470562561850985
exact,pre_advance,DELTA_SA,no_revision,ar,2015:Q4,0.09676443992777004,-3.9502918162573284
exact,pre_advance,DELTA_SA,no_revision,ar,2016:Q1,0.09029065158363185,-3.8600011646736965
exact,pre_advance,DELTA_SA,no_revision,ar,2016:Q2,-0.1360297525459644,-3.996030917219661
exact,pre_advance,DELTA_SA,no_revision,ar,2016:Q3,0.021175007572158712,-3.974855909647502
exact,pre_advance,DELTA_SA,no_revision,ar,2016:Q4,-0.02734587565242416,-4.002201785299926
exact,pre_advance,DELTA_SA,no_revision,ar,2017:Q1,0.056295362083760514,-3.945906423216165
exact,pre_advance,DELTA_SA,no_revision,ar,2017:Q2,0.1998229027002102,-3.746083520515955
exact,pre_advance,DELTA_SA,no_revision,ar,2017:Q3,0.09239460605426397,-3.653688914461691
exact,pre_advance,DELTA_SA,no_revision,ar,2017:Q4,-0.035699658663772574,-3.6893885731254636
exact,pre_advance,DELTA_SA,no_revision,ar,2018:Q1,-0.012703611098869368,-3.702092184224333
exact,pre_advance,DELTA_SA,no_revision,ar,2018:Q2,-0.0030213569949030655,-3.705113541219236
exact,pre_advance,DELTA_SA,no_revision,ar,2018:Q3,-0.0032310710133240618,-3.70834461223256
exact,pre_advance,DELTA_SA,no_revision,ar,2019:Q1,-0.3134694480182471,-4.021814060250807
exact,pre_advance,DELTA_SA,no_revision,ar,2019:Q2,0.00020861065790184213,-4.021605449592905
exact,pre_advance,DELTA_SA,no_revision,ar,2019:Q3,0.020795440927072837,-4.000810008665832
exact,pre_advance,DELTA_SA,no_revision,ar,2019:Q4,-0.022807340587339162,-4.023617349253171
exact,pre_advance,DELTA_SA,no_revision,ar,2020:Q1,-0.04374626691208146,-4.067363616165252
exact,pre_advance,DELTA_SA,no_revision,ar,2020:Q2,0.4848885887598303,-3.582475027405422
exact,pre_advance,DELTA_SA,no_revision,ar,2020:Q3,-6.6030936783793335,-10.185568705784755
exact,pre_advance,DELTA_SA,no_revision,ar,2020:Q4,-0.3494364241901803,-10.535005129974936
exact,pre_advance,DELTA_SA,no_revision,ar,2021:Q1,-0.010481372036795358,-10.54548650201173
exact,pre_advance,DELTA_SA,no_revision,ar,2021:Q2,-0.005674643654305938,-10.551161145666036
exact,pre_advance,DELTA_SA,no_revision,ar,2021:Q3,0.00428446848418562,-10.546876677181851
exact,pre_advance,DELTA_SA,no_revision,ar,2021:Q4,0.009636975615624089,-10.537239701566227
exact,pre_advance,DELTA_SA,no_revision,ar,2022:Q1,-0.05376352283472801,-10.591003224400955
exact,pre_advance,DELTA_SA,no_revision,ar,2022:Q2,0.01747374549873487,-10.57352947890222
exact,pre_advance,DELTA_SA,no_revision,ar,2022:Q3,0.038912176234116996,-10.534617302668103
exact,pre_advance,DELTA_SA,no_revision,ar,2022:Q4,-0.058622083054108,-10.59323938572221
exact,pre_advance,DELTA_SA,no_revision,ar,2023:Q1,0.02740533844308022,-10.56583404727913
exact,pre_advance,DELTA_SA,no_revision,ar,2023:Q2,-0.06172819389498699,-10.627562241174118
exact,pre_advance,DELTA_SA,no_revision,ar,2023:Q3,0.03194758936873526,-10.595614651805382
exact,pre_advance,DELTA_SA,no_revision,ar,2023:Q4,-0.03690159867203891,-10.63251625047742
exact,pre_advance,DELTA_SA,no_revision,ar,2024:Q1,-0.07155817897030346,-10.704074429447724
exact,pre_advance,DELTA_SA,no_revision,ar,2024:Q2,0.009033581491366181,-10.695040847956358
exact,pre_advance,DELTA_SA,no_revision,ar,2024:Q3,-0.00727617350536104,-10.702317021461718
exact,pre_advance,DELTA_SA,no_revision,ar,2024:Q4,0.008788760628669104,-10.69352826083305
exact,pre_advance,DELTA_SA,no_revision,bridge,2005:Q1,0.13872897581163213,0.13872897581163213
exact,pre_advance,DELTA_SA,no_revision,bridge,2005:Q2,-0.10469290694489651,0.034036068866735616
exact,pre_advance,DELTA_SA,no_revision,bridge,2005:Q3,-0.15040667599317942,-0.1163706071264438
exact,pre_advance,DELTA_SA,no_revision,bridge,2005:Q4,0.1762057909010389,0.05983518377459511
exact,pre_advance,DELTA_SA,no_revision,bridge,2006:Q1,0.17380909119599736,0.23364427497059248
exact,pre_advance,DELTA_SA,no_revision,bridge,2006:Q2,-0.0033041605851341083,0.23034011438545837
exact,pre_advance,DELTA_SA,no_revision,bridge,2006:Q3,0.20124103131955867,0.43158114570501704
exact,pre_advance,DELTA_SA,no_revision,bridge,2006:Q4,-0.782501891643536,-0.35092074593851896
exact,pre_advance,DELTA_SA,no_revision,bridge,2007:Q1,0.35705855019610977,0.0061378042575908065
exact,pre_advance,DELTA_SA,no_revision,bridge,2007:Q2,-0.14115574401889486,-0.13501793976130405
exact,pre_advance,DELTA_SA,no_revision,bridge,2007:Q3,0.5636917032429613,0.4286737634816572
exact,pre_advance,DELTA_SA,no_revision,bridge,2007:Q4,-0.244144269819372,0.1845294936622852
exact,pre_advance,DELTA_SA,no_revision,bridge,2008:Q1,0.06131288781719704,0.24584238147948223
exact,pre_advance,DELTA_SA,no_revision,bridge,2008:Q2,0.13073477563098468,0.3765771571104669
exact,pre_advance,DELTA_SA,no_revision,bridge,2008:Q3,-0.2648840595619838,0.11169309754848311
exact,pre_advance,DELTA_SA,no_revision,bridge,2008:Q4,3.5566140690402865,3.66830716658877
exact,pre_advance,DELTA_SA,no_revision,bridge,2009:Q1,-7.419249105638873,-3.7509419390501035
exact,pre_advance,DELTA_SA,no_revision,bridge,2009:Q2,-0.24196561609657893,-3.9929075551466826
exact,pre_advance,DELTA_SA,no_revision,bridge,2009:Q3,-0.3879792115458931,-4.3808867666925755
exact,pre_advance,DELTA_SA,no_revision,bridge,2009:Q4,-0.28105586070264893,-4.6619426273952245
exact,pre_advance,DELTA_SA,no_revision,bridge,2010:Q1,-0.10094736583874375,-4.762889993233968
exact,pre_advance,DELTA_SA,no_revision,bridge,2010:Q2,0.0073939228196185924,-4.75549607041435
exact,pre_advance,DELTA_SA,no_revision,bridge,2010:Q3,-0.31509313295305513,-5.070589203367405
exact,pre_advance,DELTA_SA,no_revision,bridge,2010:Q4,-0.9034792141083648,-5.974068417475769
exact,pre_advance,DELTA_SA,no_revision,bridge,2011:Q1,-0.045895162760471446,-6.019963580236241
exact,pre_advance,DELTA_SA,no_revision,bridge,2011:Q2,-0.19151317974943005,-6.211476759985671
exact,pre_advance,DELTA_SA,no_revision,bridge,2011:Q3,-0.08325527853528197,-6.294732038520953
exact,pre_advance,DELTA_SA,no_revision,bridge,2011:Q4,-0.0413702189655959,-6.336102257486549
exact,pre_advance,DELTA_SA,no_revision,bridge,2012:Q1,-0.15859116333028828,-6.494693420816837
exact,pre_advance,DELTA_SA,no_revision,bridge,2012:Q2,-0.10006699182705994,-6.594760412643897
exact,pre_advance,DELTA_SA,no_revision,bridge,2012:Q3,0.20580628537110726,-6.38895412727279
exact,pre_advance,DELTA_SA,no_revision,bridge,2012:Q4,0.06587583351807778,-6.323078293754712
exact,pre_advance,DELTA_SA,no_revision,bridge,2013:Q1,-0.05173132842255527,-6.374809622177267
exact,pre_advance,DELTA_SA,no_revision,bridge,2013:Q2,0.014831071369016402,-6.3599785508082505
exact,pre_advance,DELTA_SA,no_revision,bridge,2013:Q3,0.42564500797830773,-5.934333542829942
exact,pre_advance,DELTA_SA,no_revision,bridge,2013:Q4,-1.2631483242591597,-7.1974818670891025
exact,pre_advance,DELTA_SA,no_revision,bridge,2014:Q1,0.7569160071134233,-6.440565859975679
exact,pre_advance,DELTA_SA,no_revision,bridge,2014:Q2,-0.15264110705323486,-6.593206967028914
exact,pre_advance,DELTA_SA,no_revision,bridge,2014:Q3,0.07832510899577891,-6.514881858033135
exact,pre_advance,DELTA_SA,no_revision,bridge,2014:Q4,-0.13705782032158967,-6.651939678354725
exact,pre_advance,DELTA_SA,no_revision,bridge,2015:Q1,0.4014697767237323,-6.250469901630993
exact,pre_advance,DELTA_SA,no_revision,bridge,2015:Q2,-0.4979232940191831,-6.748393195650176
exact,pre_advance,DELTA_SA,no_revision,bridge,2015:Q3,0.3409963676186283,-6.407396828031548
exact,pre_advance,DELTA_SA,no_revision,bridge,2015:Q4,0.0972279872791933,-6.310168840752354
exact,pre_advance,DELTA_SA,no_revision,bridge,2016:Q1,0.061597284036761374,-6.248571556715593
exact,pre_advance,DELTA_SA,no_revision,bridge,2016:Q2,-0.1430101697151514,-6.391581726430744
exact,pre_advance,DELTA_SA,no_revision,bridge,2016:Q3,0.02978637603817374,-6.361795350392571
exact,pre_advance,DELTA_SA,no_revision,bridge,2016:Q4,-0.02833064064415666,-6.390125991036728
exact,pre_advance,DELTA_SA,no_revision,bridge,2017:Q1,0.06242395788596877,-6.327702033150759
exact,pre_advance,DELTA_SA,no_revision,bridge,2017:Q2,0.17471543567711162,-6.152986597473648
exact,pre_advance,DELTA_SA,no_revision,bridge,2017:Q3,0.09391708258736975,-6.059069514886278
exact,pre_advance,DELTA_SA,no_revision,bridge,2017:Q4,-0.048232055356594986,-6.107301570242873
exact,pre_advance,DELTA_SA,no_revision,bridge,2018:Q1,-0.01372913737517556,-6.121030707618049
exact,pre_advance,DELTA_SA,no_revision,bridge,2018:Q2,0.021574368172287754,-6.099456339445761
exact,pre_advance,DELTA_SA,no_revision,bridge,2018:Q3,-0.006093663891220615,-6.105550003336982
exact,pre_advance,DELTA_SA,no_revision,bridge,2019:Q1,-0.6157461141295999,-6.721296117466582
exact,pre_advance,DELTA_SA,no_revision,bridge,2019:Q2,-0.004527295201637802,-6.72582341266822
exact,pre_advance,DELTA_SA,no_revision,bridge,2019:Q3,0.036136605743878635,-6.689686806924341
exact,pre_advance,DELTA_SA,no_revision,bridge,2019:Q4,-0.06731099954726356,-6.756997806471604
exact,pre_advance,DELTA_SA,no_revision,bridge,2020:Q1,0.0006398140758079179,-6.756357992395796
exact,pre_advance,DELTA_SA,no_revision,bridge,2020:Q2,-2.609151252294237,-9.365509244690033
exact,pre_advance,DELTA_SA,no_revision,bridge,2020:Q3,-5.185446373028794,-14.550955617718827
exact,pre_advance,DELTA_SA,no_revision,bridge,2020:Q4,0.0005276107390586081,-14.550428006979768
exact,pre_advance,DELTA_SA,no_revision,bridge,2021:Q1,-0.02384443223007639,-14.574272439209844
exact,pre_advance,DELTA_SA,no_revision,bridge,2021:Q2,-0.04144876016875458,-14.6157211993786
exact,pre_advance,DELTA_SA,no_revision,bridge,2021:Q3,0.007579934344672402,-14.608141265033927
exact,pre_advance,DELTA_SA,no_revision,bridge,2021:Q4,0.007746608209400742,-14.600394656824527
exact,pre_advance,DELTA_SA,no_revision,bridge,2022:Q1,-0.08791868219042155,-14.688313339014949
exact,pre_advance,DELTA_SA,no_revision,bridge,2022:Q2,6.444244692915824e-05,-14.68824889656802
exact,pre_advance,DELTA_SA,no_revision,bridge,2022:Q3,0.04802032621000486,-14.640228570358016
exact,pre_advance,DELTA_SA,no_revision,bridge,2022:Q4,-0.13264085899734385,-14.77286942935536
exact,pre_advance,DELTA_SA,no_revision,bridge,2023:Q1,0.03013095915636522,-14.742738470198995
exact,pre_advance,DELTA_SA,no_revision,bridge,2023:Q2,-0.27456811467170655,-15.017306584870703
exact,pre_advance,DELTA_SA,no_revision,bridge,2023:Q3,0.0028127103554888427,-15.014493874515214
exact,pre_advance,DELTA_SA,no_revision,bridge,2023:Q4,-0.09179889922938826,-15.106292773744602
exact,pre_advance,DELTA_SA,no_revision,bridge,2024:Q1,0.011523780206793927,-15.094768993537809
exact,pre_advance,DELTA_SA,no_revision,bridge,2024:Q2,-0.03186592763183746,-15.126634921169646
exact,pre_advance,DELTA_SA,no_revision,bridge,2024:Q3,-0.005197255911792052,-15.131832177081439
exact,pre_advance,DELTA_SA,no_revision,bridge,2024:Q4,0.008645112674929342,-15.12318706440651
exact,pre_advance,DELTA_SA,no_revision,indicator_revision_only_dfm_kalman_em,2005:Q1,0.0,0.0
exact,pre_advance,DELTA_SA,no_revision,indicator_revision_only_dfm_kalman_em,2005:Q2,0.0,0.0
exact,pre_advance,DELTA_SA,no_revision,indicator_revision_only_dfm_kalman_em,2005:Q3,0.0,0.0
exact,pre_advance,DELTA_SA,no_revision,indicator_revision_only_dfm_kalman_em,2005:Q4,0.0,0.0
exact,pre_advance,DELTA_SA,no_revision,indicator_revision_only_dfm_kalman_em,2006:Q1,0.0,0.0
exact,pre_advance,DELTA_SA,no_revision,indicator_revision_only_dfm_kalman_em,2006:Q2,0.0,0.0
exact,pre_advance,DELTA_SA,no_revision,indicator_revision_only_dfm_kalman_em,2006:Q3,0.0,0.0
exact,pre_advance,DELTA_SA,no_revision,indicator_revision_only_dfm_kalman_em,2006:Q4,0.0,0.0
exact,pre_advance,DELTA_SA,no_revision,indicator_revision_only_dfm_kalman_em,2007:Q1,0.0,0.0
exact,pre_advance,DELTA_SA,no_revision,indicator_revision_only_dfm_kalman_em,2007:Q2,0.0,0.0
exact,pre_advance,DELTA_SA,no_revision,indicator_revision_only_dfm_kalman_em,2007:Q3,0.0,0.0
exact,pre_advance,DELTA_SA,no_revision,indicator_revision_only_dfm_kalman_em,2007:Q4,0.0,0.0
exact,pre_advance,DELTA_SA,no_revision,indicator_revision_only_dfm_kalman_em,2008:Q1,0.0,0.0
exact,pre_advance,DELTA_SA,no_revision,indicator_revision_only_dfm_kalman_em,2008:Q2,0.0,0.0
exact,pre_advance,DELTA_SA,no_revision,indicator_revision_only_dfm_kalman_em,2008:Q3,0.0,0.0
exact,pre_advance,DELTA_SA,no_revision,indicator_revision_only_dfm_kalman_em,2008:Q4,0.0,0.0
exact,pre_advance,DELTA_SA,no_revision,indicator_revision_only_dfm_kalman_em,2009:Q1,0.0,0.0
exact,pre_advance,DELTA_SA,no_revision,indicator_revision_only_dfm_kalman_em,2009:Q2,0.0,0.0
exact,pre_advance,DELTA_SA,no_revision,indicator_revision_only_dfm_kalman_em,2009:Q3,0.0,0.0
exact,pre_advance,DELTA_SA,no_revision,indicator_revision_only_dfm_kalman_em,2009:Q4,0.0,0.0
exact,pre_advance,DELTA_SA,no_revision,indicator_revision_only_dfm_kalman_em,2010:Q1,0.0,0.0
exact,pre_advance,DELTA_SA,no_revision,indicator_revision_only_dfm_kalman_em,2010:Q2,0.0,0.0
exact,pre_advance,DELTA_SA,no_revision,indicator_revision_only_dfm_kalman_em,2010:Q3,0.0,0.0
exact,pre_advance,DELTA_SA,no_revision,indicator_revision_only_dfm_kalman_em,2010:Q4,0.0,0.0
exact,pre_advance,DELTA_SA,no_revision,indicator_revision_only_dfm_kalman_em,2011:Q1,0.0,0.0
exact,pre_advance,DELTA_SA,no_revision,indicator_revision_only_dfm_kalman_em,2011:Q2,0.0,0.0
exact,pre_advance,DELTA_SA,no_revision,indicator_revision_only_dfm_kalman_em,2011:Q3,0.0,0.0
exact,pre_advance,DELTA_SA,no_revision,indicator_revision_only_dfm_kalman_em,2011:Q4,0.0,0.0
exact,pre_advance,DELTA_SA,no_revision,indicator_revision_only_dfm_kalman_em,2012:Q1,0.0,0.0
exact,pre_advance,DELTA_SA,no_revision,indicator_revision_only_dfm_kalman_em,2012:Q2,0.0,0.0
exact,pre_advance,DELTA_SA,no_revision,indicator_revision_only_dfm_kalman_em,2012:Q3,0.0,0.0
exact,pre_advance,DELTA_SA,no_revision,indicator_revision_only_dfm_kalman_em,2012:Q4,0.0,0.0
exact,pre_advance,DELTA_SA,no_revision,indicator_revision_only_dfm_kalman_em,2013:Q1,0.0,0.0
exact,pre_advance,DELTA_SA,no_revision,indicator_revision_only_dfm_kalman_em,2013:Q2,0.0,0.0
exact,pre_advance,DELTA_SA,no_revision,indicator_revision_only_dfm_kalman_em,2013:Q3,0.0,0.0
exact,pre_advance,DELTA_SA,no_revision,indicator_revision_only_dfm_kalman_em,2013:Q4,0.0,0.0
exact,pre_advance,DELTA_SA,no_revision,indicator_revision_only_dfm_kalman_em,2014:Q1,0.0,0.0
exact,pre_advance,DELTA_SA,no_revision,indicator_revision_only_dfm_kalman_em,2014:Q2,0.0,0.0
exact,pre_advance,DELTA_SA,no_revision,indicator_revision_only_dfm_kalman_em,2014:Q3,0.0,0.0
exact,pre_advance,DELTA_SA,no_revision,indicator_revision_only_dfm_kalman_em,2014:Q4,0.0,0.0
exact,pre_advance,DELTA_SA,no_revision,indicator_revision_only_dfm_kalman_em,2015:Q1,0.0,0.0
exact,pre_advance,DELTA_SA,no_revision,indicator_revision_only_dfm_kalman_em,2015:Q2,0.0,0.0
exact,pre_advance,DELTA_SA,no_revision,indicator_revision_only_dfm_kalman_em,2015:Q3,0.0,0.0
exact,pre_advance,DELTA_SA,no_revision,indicator_revision_only_dfm_kalman_em,2015:Q4,0.0,0.0
exact,pre_advance,DELTA_SA,no_revision,indicator_revision_only_dfm_kalman_em,2016:Q1,0.0,0.0
exact,pre_advance,DELTA_SA,no_revision,indicator_revision_only_dfm_kalman_em,2016:Q2,0.0,0.0
exact,pre_advance,DELTA_SA,no_revision,indicator_revision_only_dfm_kalman_em,2016:Q3,0.0,0.0
exact,pre_advance,DELTA_SA,no_revision,indicator_revision_only_dfm_kalman_em,2016:Q4,0.0,0.0
exact,pre_advance,DELTA_SA,no_revision,indicator_revision_only_dfm_kalman_em,2017:Q1,0.0,0.0
exact,pre_advance,DELTA_SA,no_revision,indicator_revision_only_dfm_kalman_em,2017:Q2,0.0,0.0
exact,pre_advance,DELTA_SA,no_revision,indicator_revision_only_dfm_kalman_em,2017:Q3,0.0,0.0
exact,pre_advance,DELTA_SA,no_revision,indicator_revision_only_dfm_kalman_em,2017:Q4,0.0,0.0
exact,pre_advance,DELTA_SA,no_revision,indicator_revision_only_dfm_kalman_em,2018:Q1,0.0,0.0
exact,pre_advance,DELTA_SA,no_revision,indicator_revision_only_dfm_kalman_em,2018:Q2,0.0,0.0
exact,pre_advance,DELTA_SA,no_revision,indicator_revision_only_dfm_kalman_em,2018:Q3,0.0,0.0
exact,pre_advance,DELTA_SA,no_revision,indicator_revision_only_dfm_kalman_em,2019:Q1,0.0,0.0
exact,pre_advance,DELTA_SA,no_revision,indicator_revision_only_dfm_kalman_em,2019:Q2,0.0,0.0
exact,pre_advance,DELTA_SA,no_revision,indicator_revision_only_dfm_kalman_em,2019:Q3,0.0,0.0
exact,pre_advance,DELTA_SA,no_revision,indicator_revision_only_dfm_kalman_em,2019:Q4,0.0,0.0
exact,pre_advance,DELTA_SA,no_revision,indicator_revision_only_dfm_kalman_em,2020:Q1,0.0,0.0
exact,pre_advance,DELTA_SA,no_revision,indicator_revision_only_dfm_kalman_em,2020:Q2,0.0,0.0
exact,pre_advance,DELTA_SA,no_revision,indicator_revision_only_dfm_kalman_em,2020:Q3,0.0,0.0
exact,pre_advance,DELTA_SA,no_revision,indicator_revision_only_dfm_kalman_em,2020:Q4,0.0,0.0
exact,pre_advance,DELTA_SA,no_revision,indicator_revision_only_dfm_kalman_em,2021:Q1,0.0,0.0
exact,pre_advance,DELTA_SA,no_revision,indicator_revision_only_dfm_kalman_em,2021:Q2,0.0,0.0
exact,pre_advance,DELTA_SA,no_revision,indicator_revision_only_dfm_kalman_em,2021:Q3,0.0,0.0
exact,pre_advance,DELTA_SA,no_revision,indicator_revision_only_dfm_kalman_em,2021:Q4,0.0,0.0
exact,pre_advance,DELTA_SA,no_revision,indicator_revision_only_dfm_kalman_em,2022:Q1,0.0,0.0
exact,pre_advance,DELTA_SA,no_revision,indicator_revision_only_dfm_kalman_em,2022:Q2,0.0,0.0
exact,pre_advance,DELTA_SA,no_revision,indicator_revision_only_dfm_kalman_em,2022:Q3,0.0,0.0
exact,pre_advance,DELTA_SA,no_revision,indicator_revision_only_dfm_kalman_em,2022:Q4,0.0,0.0
exact,pre_advance,DELTA_SA,no_revision,indicator_revision_only_dfm_kalman_em,2023:Q1,0.0,0.0
exact,pre_advance,DELTA_SA,no_revision,indicator_revision_only_dfm_kalman_em,2023:Q2,0.0,0.0
exact,pre_advance,DELTA_SA,no_revision,indicator_revision_only_dfm_kalman_em,2023:Q3,0.0,0.0
exact,pre_advance,DELTA_SA,no_revision,indicator_revision_only_dfm_kalman_em,2023:Q4,0.0,0.0
exact,pre_advance,DELTA_SA,no_revision,indicator_revision_only_dfm_kalman_em,2024:Q1,0.0,0.0
exact,pre_advance,DELTA_SA,no_revision,indicator_revision_only_dfm_kalman_em,2024:Q2,0.0,0.0
exact,pre_advance,DELTA_SA,no_revision,indicator_revision_only_dfm_kalman_em,2024:Q3,0.0,0.0
exact,pre_advance,DELTA_SA,no_revision,indicator_revision_only_dfm_kalman_em,2024:Q4,0.0,0.0
exact,pre_advance,DELTA_SA,no_revision,joint_indicator_revision_dfm_full_kalman_em,2005:Q1,0.13782029241329172,0.13782029241329172
exact,pre_advance,DELTA_SA,no_revision,joint_indicator_revision_dfm_full_kalman_em,2005:Q2,-0.18326948789725875,-0.04544919548396703
exact,pre_advance,DELTA_SA,no_revision,joint_indicator_revision_dfm_full_kalman_em,2005:Q3,0.18722119747473698,0.14177200199076995
exact,pre_advance,DELTA_SA,no_revision,joint_indicator_revision_dfm_full_kalman_em,2005:Q4,0.22063863924299978,0.36241064123376976
exact,pre_advance,DELTA_SA,no_revision,joint_indicator_revision_dfm_full_kalman_em,2006:Q1,0.2336400001891615,0.5960506414229313
exact,pre_advance,DELTA_SA,no_revision,joint_indicator_revision_dfm_full_kalman_em,2006:Q2,0.18086590741420044,0.7769165488371317
exact,pre_advance,DELTA_SA,no_revision,joint_indicator_revision_dfm_full_kalman_em,2006:Q3,-0.4438704440003413,0.33304610483679037
exact,pre_advance,DELTA_SA,no_revision,joint_indicator_revision_dfm_full_kalman_em,2006:Q4,0.5109827562416698,0.8440288610784601
exact,pre_advance,DELTA_SA,no_revision,joint_indicator_revision_dfm_full_kalman_em,2007:Q1,0.018484206799347813,0.8625130678778079
exact,pre_advance,DELTA_SA,no_revision,joint_indicator_revision_dfm_full_kalman_em,2007:Q2,0.19547166517816586,1.0579847330559737
exact,pre_advance,DELTA_SA,no_revision,joint_indicator_revision_dfm_full_kalman_em,2007:Q3,-0.9631729488389249,0.09481178421704883
exact,pre_advance,DELTA_SA,no_revision,joint_indicator_revision_dfm_full_kalman_em,2007:Q4,-0.2312739875899025,-0.13646220337285367
exact,pre_advance,DELTA_SA,no_revision,joint_indicator_revision_dfm_full_kalman_em,2008:Q1,-0.16381974326324156,-0.3002819466360952
exact,pre_advance,DELTA_SA,no_revision,joint_indicator_revision_dfm_full_kalman_em,2008:Q2,0.2658030903533144,-0.0344788562827808
exact,pre_advance,DELTA_SA,no_revision,joint_indicator_revision_dfm_full_kalman_em,2008:Q3,0.06347089226458404,0.028992035981803235
exact,pre_advance,DELTA_SA,no_revision,joint_indicator_revision_dfm_full_kalman_em,2008:Q4,2.9897449940695826,3.018737030051386
exact,pre_advance,DELTA_SA,no_revision,joint_indicator_revision_dfm_full_kalman_em,2009:Q1,0.0958047538197701,3.114541783871156
exact,pre_advance,DELTA_SA,no_revision,joint_indicator_revision_dfm_full_kalman_em,2009:Q2,-0.4871366345330767,2.6274051493380792
exact,pre_advance,DELTA_SA,no_revision,joint_indicator_revision_dfm_full_kalman_em,2009:Q3,-2.197567731266565,0.4298374180715143
exact,pre_advance,DELTA_SA,no_revision,joint_indicator_revision_dfm_full_kalman_em,2009:Q4,-0.017366417756625237,0.4124710003148891
exact,pre_advance,DELTA_SA,no_revision,joint_indicator_revision_dfm_full_kalman_em,2010:Q1,-0.4106475704081536,0.0018234299067355075
exact,pre_advance,DELTA_SA,no_revision,joint_indicator_revision_dfm_full_kalman_em,2010:Q2,-0.2034812389064754,-0.2016578089997399
exact,pre_advance,DELTA_SA,no_revision,joint_indicator_revision_dfm_full_kalman_em,2010:Q3,0.15290811979047034,-0.04874968920926956
exact,pre_advance,DELTA_SA,no_revision,joint_indicator_revision_dfm_full_kalman_em,2010:Q4,-0.10565188911384907,-0.15440157832311863
exact,pre_advance,DELTA_SA,no_revision,joint_indicator_revision_dfm_full_kalman_em,2011:Q1,-0.05142748665439627,-0.2058290649775149
exact,pre_advance,DELTA_SA,no_revision,joint_indicator_revision_dfm_full_kalman_em,2011:Q2,-0.15925720573681643,-0.3650862707143313
exact,pre_advance,DELTA_SA,no_revision,joint_indicator_revision_dfm_full_kalman_em,2011:Q3,-0.36207270863829366,-0.727158979352625
exact,pre_advance,DELTA_SA,no_revision,joint_indicator_revision_dfm_full_kalman_em,2011:Q4,0.038028455526776694,-0.6891305238258483
exact,pre_advance,DELTA_SA,no_revision,joint_indicator_revision_dfm_full_kalman_em,2012:Q1,-0.17321989826816248,-0.8623504220940108
exact,pre_advance,DELTA_SA,no_revision,joint_indicator_revision_dfm_full_kalman_em,2012:Q2,0.037464322430043245,-0.8248860996639675
exact,pre_advance,DELTA_SA,no_revision,joint_indicator_revision_dfm_full_kalman_em,2012:Q3,0.18462877196372557,-0.6402573277002419
exact,pre_advance,DELTA_SA,no_revision,joint_indicator_revision_dfm_full_kalman_em,2012:Q4,0.0709265995901685,-0.5693307281100735
exact,pre_advance,DELTA_SA,no_revision,joint_indicator_revision_dfm_full_kalman_em,2013:Q1,-0.05089322787723905,-0.6202239559873125
exact,pre_advance,DELTA_SA,no_revision,joint_indicator_revision_dfm_full_kalman_em,2013:Q2,0.18427215470611846,-0.43595180128119404
exact,pre_advance,DELTA_SA,no_revision,joint_indicator_revision_dfm_full_kalman_em,2013:Q3,0.19588639930545454,-0.2400654019757395
exact,pre_advance,DELTA_SA,no_revision,joint_indicator_revision_dfm_full_kalman_em,2013:Q4,-0.4777228419363686,-0.7177882439121082
exact,pre_advance,DELTA_SA,no_revision,joint_indicator_revision_dfm_full_kalman_em,2014:Q1,-0.2561198120382915,-0.9739080559503996
exact,pre_advance,DELTA_SA,no_revision,joint_indicator_revision_dfm_full_kalman_em,2014:Q2,-0.01009311088962226,-0.9840011668400219
exact,pre_advance,DELTA_SA,no_revision,joint_indicator_revision_dfm_full_kalman_em,2014:Q3,0.07218283292883705,-0.9118183339111848
exact,pre_advance,DELTA_SA,no_revision,joint_indicator_revision_dfm_full_kalman_em,2014:Q4,-0.1005007197972447,-1.0123190537084295
exact,pre_advance,DELTA_SA,no_revision,joint_indicator_revision_dfm_full_kalman_em,2015:Q1,0.12889637807296872,-0.8834226756354607
exact,pre_advance,DELTA_SA,no_revision,joint_indicator_revision_dfm_full_kalman_em,2015:Q2,0.6685124496144481,-0.21491022602101262
exact,pre_advance,DELTA_SA,no_revision,joint_indicator_revision_dfm_full_kalman_em,2015:Q3,0.06095154335828551,-0.1539586826627271
exact,pre_advance,DELTA_SA,no_revision,joint_indicator_revision_dfm_full_kalman_em,2015:Q4,0.036391394420504444,-0.11756728824222266
exact,pre_advance,DELTA_SA,no_revision,joint_indicator_revision_dfm_full_kalman_em,2016:Q1,0.05542373415512319,-0.06214355408709948
exact,pre_advance,DELTA_SA,no_revision,joint_indicator_revision_dfm_full_kalman_em,2016:Q2,-0.04548451057275158,-0.10762806465985106
exact,pre_advance,DELTA_SA,no_revision,joint_indicator_revision_dfm_full_kalman_em,2016:Q3,0.06296918033085531,-0.04465888432899574
exact,pre_advance,DELTA_SA,no_revision,joint_indicator_revision_dfm_full_kalman_em,2016:Q4,-0.06283260096972074,-0.10749148529871648
exact,pre_advance,DELTA_SA,no_revision,joint_indicator_revision_dfm_full_kalman_em,2017:Q1,0.1577482405575311,0.05025675525881461
exact,pre_advance,DELTA_SA,no_revision,joint_indicator_revision_dfm_full_kalman_em,2017:Q2,0.15854023610657525,0.20879699136538987
exact,pre_advance,DELTA_SA,no_revision,joint_indicator_revision_dfm_full_kalman_em,2017:Q3,0.038805091445832,0.24760208281122187
exact,pre_advance,DELTA_SA,no_revision,joint_indicator_revision_dfm_full_kalman_em,2017:Q4,-0.17513862227091856,0.07246346054030331
exact,pre_advance,DELTA_SA,no_revision,joint_indicator_revision_dfm_full_kalman_em,2018:Q1,-0.12798014555519227,-0.05551668501488896
exact,pre_advance,DELTA_SA,no_revision,joint_indicator_revision_dfm_full_kalman_em,2018:Q2,0.027693781013760865,-0.027822904001128097
exact,pre_advance,DELTA_SA,no_revision,joint_indicator_revision_dfm_full_kalman_em,2018:Q3,-0.012151059031525113,-0.03997396303265321
exact,pre_advance,DELTA_SA,no_revision,joint_indicator_revision_dfm_full_kalman_em,2019:Q1,-0.007490987529471542,-0.04746495056212475
exact,pre_advance,DELTA_SA,no_revision,joint_indicator_revision_dfm_full_kalman_em,2019:Q2,-0.011078845553747507,-0.05854379611587225
