haminh109/Revision-Aware-DFM/outputs/full_state_space_release_revision_dfm/frozen/q2_manuscript_best_v1/mature_robustness_runs/mature_latest/evidence_dir/density_revision_records.csv
model_id,timing_mode,checkpoint_id,outcome_id,forecast_origin,forecast_origin_date,target_quarter,forecast_value,realized_value,forecast_error,calibration_n,predictive_variance,predictive_sd,log_score,crps,lower_68,upper_68,covered_68,lower_90,upper_90,covered_90,density_method
ar,exact,pre_advance,DELTA_SA,2008:Q1:pre_advance:exact,2008-04-29,2008:Q1,0.1411112771385929,0.3031999999999999,-0.1620887228614069,12,0.4246599209606872,0.6516593596049145,-0.5216391003274016,0.16829114156909322,-0.5105480824663216,0.7927706367435075,True,-0.9307729840444243,1.2129955383216102,True,expanding_residual_calibrated_gaussian
ar,exact,pre_advance,DELTA_SA,2008:Q2:pre_advance:exact,2008-07-30,2008:Q2,0.282369571934375,1.3898,-1.1074304280656249,13,0.39034904148426913,0.6247791941832483,-2.0194860795511382,0.7740465723702007,-0.34240962224887334,0.9071487661176234,False,-0.7453007516617591,1.3100398955305093,False,expanding_residual_calibrated_gaussian
ar,exact,pre_advance,DELTA_SA,2008:Q3:pre_advance:exact,2008-10-29,2008:Q3,0.714132038935611,-0.2618,0.975932038935611,14,0.4397619285178273,0.6631454806585259,-1.5910855613659503,0.6432416168089662,0.05098655827708509,1.377277519594137,False,-0.37664521012204255,1.8049092879932644,True,expanding_residual_calibrated_gaussian
ar,exact,pre_advance,DELTA_SA,2008:Q4:pre_advance:exact,2009-01-29,2008:Q4,0.0793056065031563,-2.4444,2.523705606503156,15,0.489619774192295,0.6997283574304353,-7.065993877277928,2.128979418739733,-0.6204227509272789,0.7790339639335916,False,-1.0716451200970913,1.230256333103404,False,expanding_residual_calibrated_gaussian
ar,exact,pre_advance,DELTA_SA,2009:Q1:pre_advance:exact,2009-04-28,2009:Q1,-0.8004772054187677,0.4245000000000001,-1.2249772054187678,16,0.8724453144493385,0.9340478116506341,-1.7106897986157223,0.780994262062496,-1.7345250170694018,0.13357060623186645,False,-2.3368491361583987,0.7358947253208634,True,expanding_residual_calibrated_gaussian
ar,exact,pre_advance,DELTA_SA,2009:Q2:pre_advance:exact,2009-07-30,2009:Q2,0.6102794438475987,0.0030000000000001,0.6072794438475986,17,0.9222140123109045,0.9603197448302854,-1.0783968070362877,0.3727179747460258,-0.3500403009826867,1.570599188677884,True,-0.9693059714696084,2.189864859164806,True,expanding_residual_calibrated_gaussian
ar,exact,pre_advance,DELTA_SA,2009:Q3:pre_advance:exact,2009-10-28,2009:Q3,0.1888383411693894,-0.7522000000000002,0.9410383411693896,18,0.8865924051252095,0.9415903595116135,-1.3581674818799925,0.5668761957151592,-0.752752018342224,1.130428700681003,True,-1.3599399767758287,1.7376166591146076,True,expanding_residual_calibrated_gaussian
ar,exact,pre_advance,DELTA_SA,2009:Q4:pre_advance:exact,2010-01-28,2009:Q4,-0.3373558541688579,0.1962000000000001,-0.5335558541688581,19,0.8781524605607329,0.9370978927309211,-1.0160623635177632,0.3370191538924492,-1.274453746899779,0.5997420385620633,True,-1.8787447218358952,1.2040330134981794,True,expanding_residual_calibrated_gaussian
ar,exact,pre_advance,DELTA_SA,2010:Q1:pre_advance:exact,2010-04-29,2010:Q1,0.0283511514001251,-0.2023000000000001,0.2306511514001252,20,0.8524346657244032,0.9232738844592124,-0.8703138879330322,0.23863310708399726,-0.8949227330590873,0.9516250358593376,True,-1.490299246122185,1.5470015489224351,True,expanding_residual_calibrated_gaussian
ar,exact,pre_advance,DELTA_SA,2010:Q2:pre_advance:exact,2010-07-29,2010:Q2,-0.0683836223313969,-0.7725,0.704116377668603,21,0.8109702893599383,0.9005388883107371,-1.119847402563579,0.4195430597384302,-0.9689225106421341,0.8321552659793402,True,-1.5496382789801597,1.4128710343173658,True,expanding_residual_calibrated_gaussian
ar,exact,pre_advance,DELTA_SA,2010:Q3:pre_advance:exact,2010-10-28,2010:Q3,-0.3068047363098523,0.5148000000000001,-0.8216047363098524,22,0.7899349260972257,0.8887828340473424,-1.2283082997812595,0.4908373271508362,-1.1955875703571945,0.5819780977374901,True,-1.7687224044648318,1.1551129318451272,True,expanding_residual_calibrated_gaussian
ar,exact,pre_advance,DELTA_SA,2010:Q4:pre_advance:exact,2011-01-27,2010:Q4,0.3116384840461248,-0.3850000000000002,0.696638484046125,23,0.791799161277662,0.8898309734312815,-1.1086720253691276,0.41506072418806556,-0.5781924893851567,1.2014694574774063,True,-1.1520032199760777,1.7752801880683273,True,expanding_residual_calibrated_gaussian
ar,exact,pre_advance,DELTA_SA,2011:Q1:pre_advance:exact,2011-04-27,2011:Q1,-0.1541999785436481,0.0939000000000001,-0.2480999785436481,24,0.773738675420703,0.8796241671422534,-0.8304547245180531,0.23329698515263542,-1.0338241456859016,0.7254241885986054,True,-1.6010529802217517,1.2926530231344555,True,expanding_residual_calibrated_gaussian
ar,exact,pre_advance,DELTA_SA,2011:Q2:pre_advance:exact,2011-07-28,2011:Q2,0.1222021712976695,-0.2928,0.4150021712976696,25,0.7462367244305209,0.8638499432369727,-0.8879792263438715,0.2799198536520927,-0.7416477719393032,0.9860521145346423,True,-1.2987045409774884,1.5431088835728275,True,expanding_residual_calibrated_gaussian
ar,exact,pre_advance,DELTA_SA,2011:Q3:pre_advance:exact,2011-10-26,2011:Q3,-0.0436641708390723,-0.4595999999999995,0.4159358291609272,26,0.7206453648374204,0.8489083371232847,-0.8751675826735014,0.27809947979240607,-0.892572507962357,0.8052441662842125,True,-1.4399941281056503,1.3526657864275056,True,expanding_residual_calibrated_gaussian
ar,exact,pre_advance,DELTA_SA,2011:Q4:pre_advance:exact,2012-01-26,2011:Q4,-0.1664617652864937,0.2299000000000002,-0.3963617652864939,27,0.6967414461618726,0.834710396581876,-0.8510090843233009,0.268773725368105,-1.0011721618683698,0.6682486312953823,True,-1.5394381885582942,1.2065146579853068,True,expanding_residual_calibrated_gaussian
ar,exact,pre_advance,DELTA_SA,2012:Q1:pre_advance:exact,2012-04-26,2012:Q1,0.146748410605829,-0.3447,0.491448410605829,28,0.679983491168534,0.8246111151133811,-0.9036888332276318,0.30621476713210716,-0.6778627045075521,0.9713595257192101,True,-1.209616172912914,1.503112994124572,True,expanding_residual_calibrated_gaussian
ar,exact,pre_advance,DELTA_SA,2012:Q2:pre_advance:exact,2012-07-26,2012:Q2,-0.1038122691178062,0.1949,-0.2987122691178063,29,0.6612840302735421,0.8131937224754887,-0.7796191025501159,0.2333282296174999,-0.9170059915932949,0.7093814533576825,True,-1.4413969129457829,1.2337723747101703,True,expanding_residual_calibrated_gaussian
ar,exact,pre_advance,DELTA_SA,2012:Q3:pre_advance:exact,2012-10-25,2012:Q3,0.1733371102203946,0.6579000000000002,-0.4845628897796055,30,0.6438563178730354,0.8024065789068753,-0.8811384352741132,0.3008349535144477,-0.6290694686864806,0.9757436891272699,True,-1.1465042613843017,1.493178481825091,True,expanding_residual_calibrated_gaussian
ar,exact,pre_advance,DELTA_SA,2012:Q4:pre_advance:exact,2013-01-29,2012:Q4,0.3745038169834829,0.2694999999999999,0.1050038169834829,31,0.6330238634687501,0.7956279680031051,-0.699023789583475,0.19145478602830163,-0.4211241510196222,1.170131784986588,True,-0.9341877318904543,1.6831953658574201,True,expanding_residual_calibrated_gaussian
ar,exact,pre_advance,DELTA_SA,2013:Q1:pre_advance:exact,2013-04-25,2013:Q1,0.2735383342584925,-0.1162,0.3897383342584926,32,0.6126399752717877,0.7827132139371277,-0.797917996315205,0.25877542445430474,-0.5091748796786352,1.05625154819562,True,-1.0139103345488356,1.5609870030658206,True,expanding_residual_calibrated_gaussian
ar,exact,pre_advance,DELTA_SA,2013:Q2:pre_advance:exact,2013-07-30,2013:Q2,-0.006310028729751,0.8419999999999999,-0.8483100287297509,33,0.5965539991783618,0.7723690822258241,-1.263801488289796,0.5188987238475902,-0.7786791109555751,0.7660590534960732,False,-1.2767441149740777,1.2641240575145756,True,expanding_residual_calibrated_gaussian
ar,exact,pre_advance,DELTA_SA,2013:Q3:pre_advance:exact,2013-11-06,2013:Q3,0.4736264614294589,0.7550000000000003,-0.2813735385705413,34,0.603912299441874,0.7771179443571445,-0.7323238689713444,0.22181365810630127,-0.30349148292768563,1.2507444057866035,True,-0.8046188079154626,1.7518717307743805,True,expanding_residual_calibrated_gaussian
ar,exact,pre_advance,DELTA_SA,2013:Q4:pre_advance:exact,2014-01-29,2013:Q4,0.3920541653838421,-0.8431000000000002,1.2351541653838425,35,0.5893693534627156,0.7677039490993358,-1.9488571467999536,0.8369678767730119,-0.37564978371549373,1.159758114483178,False,-0.8707064597171688,1.654814790484853,True,expanding_residual_calibrated_gaussian
ar,exact,pre_advance,DELTA_SA,2014:Q1:pre_advance:exact,2014-04-29,2014:Q1,-0.3707296002667286,-1.0928,0.7220703997332714,36,0.6118962719422345,0.7822379893243708,-1.0993831706801003,0.43132525150904244,-1.1529675895910994,0.41150838905764225,True,-1.657396594146147,0.9159373936126898,True,expanding_residual_calibrated_gaussian
ar,exact,pre_advance,DELTA_SA,2014:Q2:pre_advance:exact,2014-07-29,2014:Q2,-0.3807469573065625,0.2237999999999997,-0.6045469573065623,37,0.6061187067786769,0.7785362591290639,-0.9700884618422942,0.36034773600917935,-1.1592832164356264,0.3977893018225014,True,-1.6613251468482344,0.8998312322351094,True,expanding_residual_calibrated_gaussian
ar,exact,pre_advance,DELTA_SA,2014:Q3:pre_advance:exact,2014-10-29,2014:Q3,0.0960389505392824,0.3467000000000002,-0.2506610494607177,38,0.602621916044835,0.776287263868753,-0.7178372194563353,0.2134262828680568,-0.6802483133294707,0.8723262144080354,True,-1.1808399709914705,1.3729178720700355,True,expanding_residual_calibrated_gaussian
ar,exact,pre_advance,DELTA_SA,2014:Q4:pre_advance:exact,2015-01-29,2014:Q4,0.1688907339298215,-0.4497999999999997,0.6186907339298213,39,0.589512433759291,0.7677971306011054,-0.9793654161063403,0.3682178025575947,-0.598906396671284,0.9366878645309269,True,-1.0940231611023399,1.431804628961983,True,expanding_residual_calibrated_gaussian
ar,exact,pre_advance,DELTA_SA,2015:Q1:pre_advance:exact,2015-04-28,2015:Q1,-0.1664187565321353,-0.9973,0.8308812434678646,40,0.5819679549174603,0.7628682421738765,-1.2413971558008312,0.5074387982689682,-0.9292869987060118,0.5964494856417412,False,-1.42122535155793,1.0883878384936594,True,expanding_residual_calibrated_gaussian
ar,exact,pre_advance,DELTA_SA,2015:Q2:pre_advance:exact,2015-07-29,2015:Q2,-0.3349089662402753,1.3627000000000002,-1.6976089662402756,41,0.5810925653894671,0.7622942774214346,-3.127220859549192,1.2744286892597698,-1.0972032436617098,0.42738531118115936,False,-1.5887714732612739,0.9189535407807232,False,expanding_residual_calibrated_gaussian
ar,exact,pre_advance,DELTA_SA,2015:Q3:pre_advance:exact,2015-10-28,2015:Q3,0.677687720737902,0.5856999999999999,0.091987720737902,42,0.6438913268592905,0.8024283936023765,-0.7053966593985387,0.19172579676784313,-0.12474067286447454,1.4801161143402783,True,-0.6421895328478104,1.9975649743236144,True,expanding_residual_calibrated_gaussian
ar,exact,pre_advance,DELTA_SA,2015:Q4:pre_advance:exact,2016-01-28,2015:Q4,0.3567967296908301,0.314,0.04279672969083,43,0.6285881067771159,0.7928354853165415,-0.6882558798461244,0.18620305906183193,-0.43603875562571137,1.1496322150073714,True,-0.9473015939079139,1.660895053289574,True,expanding_residual_calibrated_gaussian
ar,exact,pre_advance,DELTA_SA,2016:Q1:pre_advance:exact,2016-04-27,2016:Q1,0.2661399341306913,0.3027000000000001,-0.0365600658693087,44,0.6139753007284686,0.7835657603089026,-0.6761267555224536,0.18379579110396738,-0.5174258261782112,1.049705694439594,True,-1.022711048668395,1.5549909169297778,True,expanding_residual_calibrated_gaussian
ar,exact,pre_advance,DELTA_SA,2016:Q2:pre_advance:exact,2016-07-28,2016:Q2,0.2681291742259852,-0.1195999999999999,0.3877291742259852,45,0.6002201447530114,0.7747387590362389,-0.7889414533631408,0.2568889937278131,-0.5066095848102536,1.0428679332622242,True,-1.006202683514655,1.5424610319666254,True,expanding_residual_calibrated_gaussian
ar,exact,pre_advance,DELTA_SA,2016:Q3:pre_advance:exact,2016-10-27,2016:Q3,0.0452506389225619,0.2565999999999997,-0.2113493610774377,46,0.5892752251909242,0.767642641592378,-0.6924088332221303,0.20246284636944822,-0.7223920026698162,0.8128932805149399,True,-1.2174091443032702,1.3079104221483941,True,expanding_residual_calibrated_gaussian
ar,exact,pre_advance,DELTA_SA,2016:Q4:pre_advance:exact,2017-01-26,2016:Q4,0.1492374075003102,-0.0169999999999999,0.1662374075003101,47,0.5780679783539887,0.7603078181591905,-0.6688094199741477,0.19212296478211155,-0.6110704106588802,0.9095452256595007,True,-1.1013576647983947,1.3998324797990152,True,expanding_residual_calibrated_gaussian
ar,exact,pre_advance,DELTA_SA,2017:Q1:pre_advance:exact,2017-04-27,2017:Q1,0.0659129056715515,0.4599999999999998,-0.3940870943284483,48,0.5660158927960915,0.7523402772656077,-0.7715630298030036,0.2563386952535299,-0.6864273715940562,0.8182531829371592,True,-1.1715767280904597,1.3034025394335627,True,expanding_residual_calibrated_gaussian
ar,exact,pre_advance,DELTA_SA,2017:Q2:pre_advance:exact,2017-07-27,2017:Q2,0.3338386109932738,0.4662000000000001,-0.1323613890067263,49,0.5584239974626165,0.747277724452306,-0.6433067473119927,0.18396366867472547,-0.4134391134590322,1.0811163354455797,True,-0.8953238644121446,1.5630010863986923,True,expanding_residual_calibrated_gaussian
ar,exact,pre_advance,DELTA_SA,2017:Q3:pre_advance:exact,2017-10-26,2017:Q3,0.259901632394651,0.3077000000000001,-0.047798367605349,50,0.5476949804923225,0.7400641732257565,-0.62000588380572,0.1741804440563133,-0.48016254083110543,0.9999658056204075,True,-0.9573956071125771,1.4771988719018792,True,expanding_residual_calibrated_gaussian
ar,exact,pre_advance,DELTA_SA,2017:Q4:pre_advance:exact,2018-01-25,2017:Q4,0.1708964419460579,-0.0190000000000001,0.189896441946058,51,0.5369160240366202,0.7327455383942096,-0.641563028654198,0.1907629760218069,-0.5618490964481517,0.9036419803402675,True,-1.034362714514167,1.3761555984062828,True,expanding_residual_calibrated_gaussian
ar,exact,pre_advance,DELTA_SA,2018:Q1:pre_advance:exact,2018-04-26,2018:Q1,0.0389715350373021,-0.1434999999999999,0.182471535037302,52,0.5267930880403595,0.7258051308997199,-0.6300672271324429,0.18782245572880818,-0.6868335958624178,0.764776665937022,True,-1.15487166698309,1.2328147370576943,True,expanding_residual_calibrated_gaussian
ar,exact,pre_advance,DELTA_SA,2018:Q2:pre_advance:exact,2018-07-26,2018:Q2,-0.0088385496543845,0.1665000000000001,-0.1753385496543846,53,0.5170056828139263,0.7190310722172766,-0.6188201954267755,0.18500749559632343,-0.727869621871661,0.7101925225628921,True,-1.1915394166817779,1.1738623173730087,True,expanding_residual_calibrated_gaussian
ar,exact,pre_advance,DELTA_SA,2018:Q3:pre_advance:exact,2018-10-25,2018:Q3,0.0614125513665548,0.0043999999999999,0.0570125513665549,54,0.5081923625633052,0.7128761200680699,-0.5836889470322514,0.1684136175513826,-0.6514635687015151,0.7742886714346247,True,-1.111164320294503,1.2339894230276127,True,expanding_residual_calibrated_gaussian
ar,exact,pre_advance,DELTA_SA,2019:Q1:pre_advance:exact,2019-04-25,2019:Q1,0.4648889202031996,-0.1047000000000002,0.5695889202031998,55,0.49878361160320517,0.7062461409474782,-0.8963698048573119,0.338986945399842,-0.24135722074427857,1.171135061150678,True,-0.6967826062547404,1.6265604466611396,True,expanding_residual_calibrated_gaussian
ar,exact,pre_advance,DELTA_SA,2019:Q2:pre_advance:exact,2019-07-25,2019:Q2,-0.026254198058714,-0.0171000000000001,-0.0091541980587139,56,0.49460715461731874,0.7032831255030357,-0.5670275169664123,0.1644012691111298,-0.7295373235617497,0.6770289274443217,True,-1.1830519978161498,1.1305436016987216,True,expanding_residual_calibrated_gaussian
ar,exact,pre_advance,DELTA_SA,2019:Q3:pre_advance:exact,2019-10-29,2019:Q3,0.0592963312990124,0.205,-0.1457036687009876,57,0.4858482509348452,0.6970281564864114,-0.5798569928225081,0.17499861097318486,-0.637731825187399,0.7563244877854237,True,-1.0872129599849596,1.2058056225829845,True,expanding_residual_calibrated_gaussian
ar,exact,pre_advance,DELTA_SA,2019:Q4:pre_advance:exact,2020-01-29,2019:Q4,0.1665444581766966,0.0148000000000001,0.1517444581766964,58,0.47801482290201397,0.6913861604790871,-0.573967190113861,0.17480702992157698,-0.5248417023023905,0.8579306186557837,True,-0.9706845755113824,1.3037734918647756,True,expanding_residual_calibrated_gaussian
ar,exact,pre_advance,DELTA_SA,2020:Q1:pre_advance:exact,2020-04-28,2020:Q1,0.0727039693006021,-0.2644999999999999,0.3372039693006021,59,0.4699454540287458,0.6855256771476513,-0.6623476299446294,0.2250728918055988,-0.6128217078470493,0.7582296464482534,True,-1.054885427124076,1.2002933657252803,True,expanding_residual_calibrated_gaussian
ar,exact,pre_advance,DELTA_SA,2020:Q2:pre_advance:exact,2020-07-29,2020:Q2,0.2227703703745247,1.1996999999999964,-0.9769296296254716,60,0.4633299063050595,0.6806834112163007,-1.564207068240888,0.6390663462374115,-0.457913040841776,0.9034537815908255,False,-0.8968542073703079,1.3423949481193573,True,expanding_residual_calibrated_gaussian
ar,exact,pre_advance,DELTA_SA,2020:Q3:pre_advance:exact,2020-10-28,2020:Q3,2.555388340709694,-0.0142999999999986,2.5696883407096927,61,0.4731454145990595,0.6878556640742733,-7.522847625660335,2.1816380500082992,1.8675326766354208,3.2432440047839672,False,1.423966456838012,3.686810224581376,False,expanding_residual_calibrated_gaussian
ar,exact,pre_advance,DELTA_SA,2020:Q4:pre_advance:exact,2021-01-27,2020:Q4,0.6762934737196877,0.0797999999999996,0.5964934737196881,62,0.5685691512043828,0.7540352453329903,-0.9495169919172453,0.3552266664301345,-0.07774177161330253,1.430328719052678,True,-0.5639841344155245,1.9165710818549,True,expanding_residual_calibrated_gaussian
ar,exact,pre_advance,DELTA_SA,2021:Q1:pre_advance:exact,2021-04-28,2021:Q1,0.1141893782717202,0.0112000000000005,0.1029893782717197,63,0.5636130826110703,0.7507416883396515,-0.6416545472906743,0.1810721726427309,-0.6365523100679313,0.8649310666113716,True,-1.1206708106974272,1.3490495672408678,True,expanding_residual_calibrated_gaussian
ar,exact,pre_advance,DELTA_SA,2021:Q2:pre_advance:exact,2021-07-28,2021:Q2,0.1447917586216602,0.0527999999999995,0.0919917586216607,64,0.5546697293624968,0.7447615251625831,-0.6318757195786155,0.178574324882565,-0.5999697665409229,0.8895532837842433,True,-1.0802319372559246,1.3698154544992451,True,expanding_residual_calibrated_gaussian
ar,exact,pre_advance,DELTA_SA,2021:Q3:pre_advance:exact,2021-10-27,2021:Q3,0.1470672919152162,0.0880999999999998,0.0589672919152164,65,0.5460031020574964,0.7389202271270535,-0.6195573997266206,0.17455825520115806,-0.5918529352118373,0.8859875190422697,True,-1.0683483237025233,1.3624829075329559,True,expanding_residual_calibrated_gaussian
ar,exact,pre_advance,DELTA_SA,2021:Q4:pre_advance:exact,2022-01-26,2021:Q4,0.0843496025345156,0.0993000000000003,-0.0149503974654847,66,0.5376173159953284,0.7332239194102497,-0.608842267951364,0.17147235565309304,-0.648874316875734,0.8175735219447653,True,-1.1216964206750075,1.2903956257440388,True,expanding_residual_calibrated_gaussian
ar,exact,pre_advance,DELTA_SA,2022:Q1:pre_advance:exact,2022-04-27,2022:Q1,0.1550189766333507,-0.0959000000000001,0.2509189766333508,67,0.5296334449502283,0.7277591943426261,-0.6605911189768326,0.20424931942728886,-0.5727402177092754,0.8827781709759769,True,-1.0420383737283991,1.3520763269951006,True,expanding_residual_calibrated_gaussian
ar,exact,pre_advance,DELTA_SA,2022:Q2:pre_advance:exact,2022-07-27,2022:Q2,0.0252303062888912,0.3589,-0.3336696937111088,68,0.5221205833509792,0.7225791190942201,-0.7006287116837964,0.22926296027888418,-0.6973488128053289,0.7478094253831113,True,-1.1633065785126364,1.2137671910904189,True,expanding_residual_calibrated_gaussian
ar,exact,pre_advance,DELTA_SA,2022:Q3:pre_advance:exact,2022-10-26,2022:Q3,0.0582376027017708,0.3631999999999999,-0.3049623972982291,69,0.5170440952862215,0.7190577829953734,-0.6790612725907783,0.21887916290806014,-0.6608201802936026,0.7772953856971442,True,-1.1245071996458538,1.2409824050493954,True,expanding_residual_calibrated_gaussian
ar,exact,pre_advance,DELTA_SA,2022:Q4:pre_advance:exact,2023-01-25,2022:Q4,0.1085327350948528,-0.2158000000000002,0.324332735094853,70,0.5117107809798078,0.7153396263173234,-0.686725038944003,0.22485162629936795,-0.6068068912224706,0.8238723614121762,True,-1.0680962437553074,1.285161713945013,True,expanding_residual_calibrated_gaussian
ar,exact,pre_advance,DELTA_SA,2023:Q1:pre_advance:exact,2023-04-26,2023:Q1,0.0808547693367951,0.2098999999999999,-0.1290452306632048,71,0.5052529556877762,0.7108114768964948,-0.5940700358033237,0.1754337822678137,-0.6299567075596997,0.79166624623329,True,-1.0883260665151369,1.2500356051887271,True,expanding_residual_calibrated_gaussian
ar,exact,pre_advance,DELTA_SA,2023:Q2:pre_advance:exact,2023-07-26,2023:Q2,0.0786861488683192,-0.3529,0.4315861488683192,72,0.49875415056219585,0.7062252831513439,-0.7578494222821266,0.2671058040228351,-0.6275391342830248,0.7849114320196631,True,-1.0829510695679991,1.2403233673046377,True,expanding_residual_calibrated_gaussian
ar,exact,pre_advance,DELTA_SA,2023:Q3:pre_advance:exact,2023-10-25,2023:Q3,0.0656009239904817,0.2763,-0.2106990760095182,73,0.4935312336732911,0.702517781748826,-0.6108299460340085,0.18919788661757594,-0.6369168577583443,0.7681187057393076,True,-1.0899379973169774,1.221139845297941,True,expanding_residual_calibrated_gaussian
ar,exact,pre_advance,DELTA_SA,2023:Q4:pre_advance:exact,2024-01-24,2023:Q4,0.1337989225363234,-0.0709999999999997,0.2047989225363231,74,0.4879417764281283,0.6985282932194861,-0.6031380396936661,0.18702661406173296,-0.5647293706831626,0.8323272157558095,True,-1.0151778740939696,1.2827757191666165,True,expanding_residual_calibrated_gaussian
ar,exact,pre_advance,DELTA_SA,2024:Q1:pre_advance:exact,2024-04-24,2024:Q1,0.092510887819583,-0.3404999999999998,0.4330108878195828,75,0.4815565525077868,0.6939427588121276,-0.7482522844348619,0.26659644124024073,-0.6014318709925446,0.7864536466317107,True,-1.0489233759092558,1.2339451515484219,True,expanding_residual_calibrated_gaussian
ar,exact,pre_advance,DELTA_SA,2024:Q2:pre_advance:exact,2024-07-24,2024:Q2,0.0533853342525936,0.1112999999999999,-0.0579146657474063,76,0.4767625909354181,0.6904799714223564,-0.5520878085058887,0.1632984869684089,-0.6370946371697628,0.74386530567495,True,-1.0823531510788182,1.1891238195840055,True,expanding_residual_calibrated_gaussian
ar,exact,pre_advance,DELTA_SA,2024:Q3:pre_advance:exact,2024-10-29,2024:Q3,0.0945532127990609,0.0087999999999999,0.085753212799061,77,0.47075844595313016,0.6861183906244827,-0.5500438374932397,0.16461260959286741,-0.5915651778254217,0.7806716034235436,True,-1.0340111105377263,1.2231175361358482,True,expanding_residual_calibrated_gaussian
ar,exact,pre_advance,DELTA_SA,2024:Q4:pre_advance:exact,2025-01-29,2024:Q4,0.0885662047910598,0.0939000000000001,-0.0053337952089402,78,0.46464473290488045,0.6816485406020323,-0.5357280569854314,0.1593144904134395,-0.5930823358109725,0.7702147453930921,True,-1.0326458695243708,1.2097782791064904,True,expanding_residual_calibrated_gaussian
ar,exact,pre_second,DELTA_TS,2008:Q1:pre_second:exact,2008-05-28,2008:Q1,0.0600251098958206,0.0587,0.0013251098958205,12,0.05163235358648373,0.22722753703388093,0.5628478605106191,0.053105016943716485,-0.16720242713806033,0.28725264692970154,True,-0.3137309285376084,0.43378114832924963,True,expanding_residual_calibrated_gaussian
ar,exact,pre_second,DELTA_TS,2008:Q2:pre_second:exact,2008-08-27,2008:Q2,0.100772173228941,-0.4531,0.5538721732289411,13,0.04746467013458396,0.21786387983000755,-2.626661389178188,0.4317210799179194,-0.11709170660106655,0.31863605305894854,False,-0.2575820196911666,0.4591263661490486,False,expanding_residual_calibrated_gaussian
ar,exact,pre_second,DELTA_TS,2008:Q3:pre_second:exact,2008-11-24,2008:Q3,-0.1583427007994933,0.0033999999999999,-0.1617427007994932,14,0.0626755102994184,0.2503507745133184,0.25725416590968936,0.09880196316323268,-0.4086934753128117,0.09200807371382508,True,-0.5701330802678353,0.2534476786688486,True,expanding_residual_calibrated_gaussian
ar,exact,pre_second,DELTA_TS,2008:Q4:pre_second:exact,2009-02-26,2008:Q4,0.0931111879520567,-0.0942999999999996,0.1874111879520563,15,0.06198909538547986,0.24897609400398235,0.1881604110330149,0.11194906717547887,-0.15586490605192566,0.34208728195603905,True,-0.3164180432946044,0.5026404191987177,True,expanding_residual_calibrated_gaussian
ar,exact,pre_second,DELTA_TS,2009:Q1:pre_second:exact,2009-05-28,2009:Q1,0.1325678027393972,0.2259999999999999,-0.0934321972606027,16,0.05885829135750111,0.24260727803901744,0.4232151815776731,0.07087615222568355,-0.11003947529962024,0.37517508077841466,True,-0.26648565846790484,0.5316212639466993,True,expanding_residual_calibrated_gaussian
ar,exact,pre_second,DELTA_TS,2009:Q2:pre_second:exact,2009-08-26,2009:Q2,0.2749823419517103,0.2766999999999999,-0.0017176580482896,17,0.05672629505267802,0.2381728260164833,0.5157941707708975,0.05566473500679489,0.036809515935226994,0.5131551679681936,True,-0.1167770947627842,0.6667417786662048,True,expanding_residual_calibrated_gaussian
ar,exact,pre_second,DELTA_TS,2009:Q3:pre_second:exact,2009-11-23,2009:Q3,0.2248763601779096,-0.5463999999999998,0.7712763601779095,18,0.05359548775522431,0.2315069928862286,-5.005395070078936,0.640714775976085,-0.006630632708319012,0.45638335306413824,False,-0.15591875673563219,0.6056714770914514,False,expanding_residual_calibrated_gaussian
ar,exact,pre_second,DELTA_TS,2009:Q4:pre_second:exact,2010-02-25,2009:Q4,-0.2121082936084128,-0.3730000000000002,0.1608917063915873,19,0.07756059854534765,0.2784970350746084,0.1925324538513868,0.10116689856159168,-0.4906053286830212,0.06638874146619558,True,-0.6701951518461138,0.24597856462928816,True,expanding_residual_calibrated_gaussian
ar,exact,pre_second,DELTA_TS,2010:Q1:pre_second:exact,2010-05-26,2010:Q1,-0.1805736028353486,-0.2984,0.1178263971646513,20,0.07370585262747227,0.27148821821116337,0.29071918649301176,0.08353180887789231,-0.45206182104651194,0.09091461537581477,True,-0.6271319832345734,0.2659847775638762,True,expanding_residual_calibrated_gaussian
ar,exact,pre_second,DELTA_TS,2010:Q2:pre_second:exact,2010-08-26,2010:Q2,-0.1040265308932921,0.1048,-0.2088265308932921,21,0.0700415606353572,0.26465366167003473,0.09909011187963435,0.12437470579677638,-0.36868019256332685,0.16062713077674262,True,-0.5393430661772365,0.3312900043906523,True,expanding_residual_calibrated_gaussian
ar,exact,pre_second,DELTA_TS,2010:Q3:pre_second:exact,2010-11-22,2010:Q3,0.0998453241604311,0.0339999999999998,0.0658453241604313,22,0.07098060420561815,0.2664218538438958,0.3731949917430748,0.06872077705514933,-0.16657652968346467,0.36626717800432684,True,-0.33837962843383584,0.5380702767546981,True,expanding_residual_calibrated_gaussian
ar,exact,pre_second,DELTA_TS,2010:Q4:pre_second:exact,2011-02-24,2010:Q4,0.0543732040476938,0.3264,-0.2720267959523061,23,0.06776836589807013,0.26032357922030447,-0.11907560904074532,0.1649447553761277,-0.20595037517261067,0.31469678326799827,False,-0.3738209794138129,0.48256738750920053,True,expanding_residual_calibrated_gaussian
ar,exact,pre_second,DELTA_TS,2011:Q1:pre_second:exact,2011-05-25,2011:Q1,0.1840968521247026,0.0726999999999999,0.1113968521247026,24,0.0700767944659788,0.264720219223955,0.3216028266462603,0.08029379847534159,-0.08062336709925241,0.44881707134865756,True,-0.25132916059320864,0.6195228648426138,True,expanding_residual_calibrated_gaussian
ar,exact,pre_second,DELTA_TS,2011:Q2:pre_second:exact,2011-08-25,2011:Q2,0.0826892785471069,0.3447000000000001,-0.2620107214528931,25,0.06723120147378164,0.25928980210139707,-0.07967841508900364,0.15807132817787437,-0.17660052355429018,0.34197908064850396,False,-0.34380449287090553,0.5091830499651193,True,expanding_residual_calibrated_gaussian
ar,exact,pre_second,DELTA_TS,2011:Q3:pre_second:exact,2011-11-21,2011:Q3,0.2196184979915967,-0.1896000000000002,0.4092184979915969,26,0.0687823645686042,0.26226392159159867,-0.7978508272343043,0.27462997961339586,-0.04264542360000198,0.48188241958319533,False,-0.21176726465686088,0.6510042606400542,True,expanding_residual_calibrated_gaussian
ar,exact,pre_second,DELTA_TS,2011:Q4:pre_second:exact,2012-02-28,2011:Q4,-0.0390680507254161,-0.0276,-0.0114680507254161,27,0.07072487799945637,0.26594149356476204,0.404610637026921,0.062346449860018395,-0.3050095442901781,0.22687344283934593,True,-0.47650288097230653,0.39836677952147437,True,expanding_residual_calibrated_gaussian
ar,exact,pre_second,DELTA_TS,2012:Q1:pre_second:exact,2012-05-30,2012:Q1,0.0201593821295551,0.0121,0.0080593821295551,28,0.06834419067188502,0.26142721868980096,0.42218562838517315,0.061193340410660345,-0.24126783656024586,0.28158660081935605,True,-0.4098501267161997,0.4501688909753099,True,expanding_residual_calibrated_gaussian
ar,exact,pre_second,DELTA_TS,2012:Q2:pre_second:exact,2012-08-28,2012:Q2,0.0542284222174149,-0.4791000000000001,0.533328422217415,29,0.0660246454454121,0.2569526132293892,-1.7141130551230463,0.39191347773713875,-0.20272419101197434,0.31118103544680414,False,-0.36842101560760476,0.4768778600424346,False,expanding_residual_calibrated_gaussian
ar,exact,pre_second,DELTA_TS,2012:Q3:pre_second:exact,2012-11-28,2012:Q3,-0.1690199464195982,0.4342999999999999,-0.6033199464195982,30,0.07104872098788102,0.2665496595155976,-2.158330803572821,0.4551067689720561,-0.4355696059351958,0.09752971309599942,False,-0.607455120636509,0.26941522779731253,False,expanding_residual_calibrated_gaussian
ar,exact,pre_second,DELTA_TS,2012:Q4:pre_second:exact,2013-02-27,2012:Q4,0.2334352574488747,0.2525,-0.0190647425511252,31,0.08378353873722587,0.2894538628818518,0.31865176161176306,0.06814468083535447,-0.056018605432977125,0.5228891203307265,True,-0.24267397874745336,0.7095444936452028,True,expanding_residual_calibrated_gaussian
ar,exact,pre_second,DELTA_TS,2013:Q1:pre_second:exact,2013-05-29,2013:Q1,0.1899848579887264,-0.6094000000000002,0.7993848579887266,32,0.0812705840721508,0.2850799608393245,-3.595364050458443,0.6389737591489406,-0.0950951028505981,0.47506481882805096,False,-0.2789299495690202,0.6588996655464731,False,expanding_residual_calibrated_gaussian
ar,exact,pre_second,DELTA_TS,2013:Q2:pre_second:exact,2013-08-28,2013:Q2,-0.2371281731179624,-0.0339999999999998,-0.2031281731179626,33,0.09545799770109731,0.30896277720964593,0.03947442035874607,0.12364138035506043,-0.5460909503276083,0.07183460409168355,True,-0.7453267178042482,0.27107037156832336,True,expanding_residual_calibrated_gaussian
ar,exact,pre_second,DELTA_TS,2013:Q3:pre_second:exact,2013-12-04,2013:Q3,0.0214258366188206,0.5327999999999999,-0.5113741633811792,34,0.09490532510322071,0.3080670789020156,-1.119208189406339,0.3499810768410606,-0.28664124228319504,0.3294929155208362,False,-0.4852994154575052,0.5281510886951464,False,expanding_residual_calibrated_gaussian
ar,exact,pre_second,DELTA_TS,2013:Q4:pre_second:exact,2014-02-27,2013:Q4,0.2638284005265996,0.2418,0.0220284005265996,35,0.10179226846287516,0.31904900636559763,0.2210884969798185,0.0751666716739282,-0.055220605838998016,0.5828774068921972,True,-0.26096051476911697,0.7886173158223162,True,expanding_residual_calibrated_gaussian
ar,exact,pre_second,DELTA_TS,2014:Q1:pre_second:exact,2014-05-28,2014:Q1,0.1500423574002036,-1.9455,2.0955423574002037,36,0.09891233029446758,0.3145033072870102,-21.960106853684337,1.9181028674387677,-0.1644609498868066,0.4645456646872138,False,-0.3672695482790685,0.6673542630794758,False,expanding_residual_calibrated_gaussian
ar,exact,pre_second,DELTA_TS,2014:Q2:pre_second:exact,2014-08-27,2014:Q2,-0.7957150664800472,0.4200999999999997,-1.215815066480047,37,0.20890749744655665,0.4570639971016714,-3.673951203083005,0.9590478704207419,-1.2527790635817186,-0.3386510693783758,False,-1.5475184398616686,-0.0439116930984258,False,expanding_residual_calibrated_gaussian
ar,exact,pre_second,DELTA_TS,2014:Q3:pre_second:exact,2014-11-24,2014:Q3,0.18616178702778,1.0710000000000002,-0.8848382129722201,38,0.24940188373217378,0.4994015255605191,-1.7942263043341802,0.6183835907356846,-0.3132397385327391,0.6855633125882991,False,-0.6352806235955382,1.007604197651098,False,expanding_residual_calibrated_gaussian
ar,exact,pre_second,DELTA_TS,2014:Q4:pre_second:exact,2015-02-26,2014:Q4,0.4841223334290574,0.0249999999999999,0.4591223334290575,39,0.26638656437892777,0.5161265003649084,-0.6531882023533115,0.2735992402740629,-0.03200416693585095,1.000248833793966,True,-0.3648302126619325,1.3330748795200473,True,expanding_residual_calibrated_gaussian
ar,exact,pre_second,DELTA_TS,2015:Q1:pre_second:exact,2015-05-28,2015:Q1,0.0561086229840617,0.5774,-0.5212913770159383,40,0.2637631042463154,0.513578722540484,-0.7677168126679716,0.31469429688913486,-0.45747009955642226,0.5696873455245457,False,-0.7886532015117571,0.9008704474798805,True,expanding_residual_calibrated_gaussian
ar,exact,pre_second,DELTA_TS,2015:Q2:pre_second:exact,2015-08-26,2015:Q2,0.3625495083294923,0.2363999999999997,0.1261495083294925,41,0.26538668172090285,0.515156948629156,-0.28563696004767425,0.1326520913798773,-0.15260744029966367,0.8777064569586482,True,-0.4848082670724281,1.2099072837314127,True,expanding_residual_calibrated_gaussian
ar,exact,pre_second,DELTA_TS,2015:Q3:pre_second:exact,2015-11-23,2015:Q3,0.1202330462125123,-0.0944999999999998,0.2147330462125121,42,0.25907061689474675,0.508989800383806,-0.33260295500161696,0.1545625937710238,-0.38875675417129374,0.6292228465963183,True,-0.7169806730300969,0.9574467654551215,True,expanding_residual_calibrated_gaussian
ar,exact,pre_second,DELTA_TS,2015:Q4:pre_second:exact,2016-02-25,2015:Q4,0.0072572058068582,0.3811,-0.3738427941931417,43,0.2535570656965029,0.5035445022006525,-0.5084509707760168,0.2235831457038956,-0.4962872963937943,0.5108017080075107,True,-0.8209997949693587,0.8355142065830751,True,expanding_residual_calibrated_gaussian
ar,exact,pre_second,DELTA_TS,2016:Q1:pre_second:exact,2016-05-26,2016:Q1,0.2376238772222749,0.2323999999999999,0.005223877222275,44,0.2517593208876505,0.501756236520933,-0.2293518677513138,0.11727960926123304,-0.26413235929865814,0.7393801137432079,True,-0.5876916882647025,1.0629394427092524,True,expanding_residual_calibrated_gaussian
ar,exact,pre_second,DELTA_TS,2016:Q2:pre_second:exact,2016-08-25,2016:Q2,0.1766591280750276,0.3151999999999999,-0.1385408719249723,45,0.2460662563463859,0.49605065905246604,-0.25686213427130694,0.13126116862113596,-0.31939153097743844,0.6727097871274936,True,-0.6392715976190892,0.9925898537691444,True,expanding_residual_calibrated_gaussian
ar,exact,pre_second,DELTA_TS,2016:Q3:pre_second:exact,2016-11-28,2016:Q3,0.2085726636292308,0.3584,-0.1498273363707691,46,0.24129409251548758,0.49121695055798675,-0.2545854677956068,0.13288624602575394,-0.282644286928756,0.6997896141872175,True,-0.5994073191161158,1.0165526463745773,True,expanding_residual_calibrated_gaussian
ar,exact,pre_second,DELTA_TS,2016:Q4:pre_second:exact,2017-02-27,2016:Q4,0.1857855496112392,0.2233,-0.0375144503887607,47,0.2367872182612091,0.48660786909092324,-0.2016135831236965,0.11487103734884474,-0.3008223194796841,0.6723934187021624,True,-0.6146131687660931,0.9861842679885714,True,expanding_residual_calibrated_gaussian
ar,exact,pre_second,DELTA_TS,2017:Q1:pre_second:exact,2017-05-25,2017:Q1,0.1537243117302007,0.2690000000000001,-0.1152756882697993,48,0.2318514113250413,0.48150951322382124,-0.21676657165166183,0.12348389992986362,-0.32778520149362056,0.6352338249540219,True,-0.6382883575076395,0.9457369809680409,True,expanding_residual_calibrated_gaussian
ar,exact,pre_second,DELTA_TS,2017:Q2:pre_second:exact,2017-08-29,2017:Q2,0.1888077505774061,0.0266999999999999,0.1621077505774062,49,0.22745827282961703,0.4769258567425518,-0.2363107660131393,0.13322793784225903,-0.28811810616514566,0.6657336073199579,True,-0.5956654746725185,0.9732809758273306,True,expanding_residual_calibrated_gaussian
ar,exact,pre_second,DELTA_TS,2017:Q3:pre_second:exact,2017-11-28,2017:Q3,0.0439172242577536,-0.1394999999999999,0.1834172242577536,50,0.22317550364793337,0.4724145463974764,-0.2444110328971197,0.1384590624817563,-0.4284973221397228,0.51633177065523,True,-0.73313555580877,0.8209700043242771,True,expanding_residual_calibrated_gaussian
ar,exact,pre_second,DELTA_TS,2017:Q4:pre_second:exact,2018-02-27,2017:Q4,-0.0345783611468029,0.3519000000000001,-0.386478361146803,51,0.21916890047584336,0.46815478260490234,-0.5007366030526792,0.22992405524329002,-0.5027331437517052,0.43357642145809944,True,-0.8046244532891546,0.7354677309955487,True,expanding_residual_calibrated_gaussian
ar,exact,pre_second,DELTA_TS,2018:Q1:pre_second:exact,2018-05-29,2018:Q1,0.1964108625937384,-0.1833000000000002,0.3797108625937386,52,0.21826762422320553,0.46719120734791825,-0.48820524985274394,0.22594348558860722,-0.27078034475417984,0.6636020699416567,True,-0.5720502892923222,0.964872014479799,True,expanding_residual_calibrated_gaussian
ar,exact,pre_second,DELTA_TS,2018:Q2:pre_second:exact,2018-08-28,2018:Q2,-0.0306561516332095,-0.0674999999999999,0.0368438483667903,53,0.21643506008666558,0.4652258162297806,-0.15684214158590182,0.10988439083290294,-0.4958819678629901,0.4345696645965711,True,-0.7958845228102231,0.7345722195438043,True,expanding_residual_calibrated_gaussian
ar,exact,pre_second,DELTA_TS,2018:Q3:pre_second:exact,2018-11-27,2018:Q3,-0.022605780705315,-0.1484999999999998,0.1258942192946848,54,0.21235175235477546,0.4608163976626434,-0.18150158170801217,0.12132701859610806,-0.48342217836795837,0.4382106169573284,True,-0.7805813037594259,0.7353697423487958,True,expanding_residual_calibrated_gaussian
ar,exact,pre_second,DELTA_TS,2019:Q1:pre_second:exact,2019-05-29,2019:Q1,-0.5635001866146694,0.0609999999999999,-0.6245001866146693,55,0.20857810327972326,0.4567035179191455,-1.0701204234341113,0.4028035885402158,-1.0202037045338148,-0.1067966686955239,False,-1.3147106245054725,0.18771025127613372,True,expanding_residual_calibrated_gaussian
ar,exact,pre_second,DELTA_TS,2019:Q2:pre_second:exact,2019-08-28,2019:Q2,0.0553867231403613,-0.0236,0.0789867231403613,56,0.21253233072143982,0.46101228912192765,-0.15928549171684772,0.11312199387282265,-0.40562556598156635,0.5163990122622889,True,-0.7029110126910422,0.8136844589717648,True,expanding_residual_calibrated_gaussian
ar,exact,pre_second,DELTA_TS,2019:Q3:pre_second:exact,2019-11-26,2019:Q3,0.0400819187290437,-0.0214000000000003,0.061481918729044,57,0.20879332912841236,0.4569390868905968,-0.14478542354478735,0.11007964753767821,-0.4168571681615531,0.4970210056196405,True,-0.7115159956388484,0.7916798330969357,True,expanding_residual_calibrated_gaussian
ar,exact,pre_second,DELTA_TS,2019:Q4:pre_second:exact,2020-02-26,2019:Q4,0.0389260285033676,0.0318999999999998,0.0070260285033678,58,0.20515532919709886,0.45294075682929974,-0.1270649029921758,0.10589345888753937,-0.4140147283259321,0.49186678533266737,True,-0.7060952181614509,0.7839472751681861,True,expanding_residual_calibrated_gaussian
ar,exact,pre_second,DELTA_TS,2020:Q1:pre_second:exact,2020-05-27,2020:Q1,0.0626050123543775,0.0540000000000002,0.0086050123543772,59,0.2016230683454751,0.44902457432246967,-0.1184444971086222,0.10500057310473883,-0.3864195619680922,0.5116295866768472,True,-0.6759746873102775,0.8011847120190326,True,expanding_residual_calibrated_gaussian
ar,exact,pre_second,DELTA_TS,2020:Q2:pre_second:exact,2020-08-26,2020:Q2,0.2226642124584019,0.3214000000000006,-0.0987357875415986,60,0.19820954639415053,0.44520730721109075,-0.13431533073376267,0.1127427672537812,-0.22254309475268885,0.6678715196694927,True,-0.5096366415530591,0.9549650664698628,True,expanding_residual_calibrated_gaussian
ar,exact,pre_second,DELTA_TS,2020:Q3:pre_second:exact,2020-11-24,2020:Q3,1.0697573673306875,0.3727000000000018,0.6970573673306859,61,0.1951509519909051,0.4417589297240126,-1.346853044860015,0.4694498052851576,0.627998437606675,1.5115162970547,False,0.34312858953594483,1.7963861451254302,True,expanding_residual_calibrated_gaussian
ar,exact,pre_second,DELTA_TS,2020:Q4:pre_second:exact,2021-02-24,2020:Q4,-0.0619677598879055,0.2328999999999998,-0.2948677598879055,62,0.19931301802343382,0.4464448656031714,-0.33061586638710216,0.1793217096729213,-0.5084126254910769,0.38447710571526594,True,-0.7963042163091446,0.6723686965333336,True,expanding_residual_calibrated_gaussian
ar,exact,pre_second,DELTA_TS,2021:Q1:pre_second:exact,2021-05-26,2021:Q1,0.0741194561374736,-0.0379000000000004,0.1120194561374741,63,0.1977981627476692,0.4447450536517176,-0.14040456804036788,0.11513159940420202,-0.370625597514244,0.5188645097891912,True,-0.6574210584302812,0.8056599707052284,True,expanding_residual_calibrated_gaussian
ar,exact,pre_second,DELTA_TS,2021:Q2:pre_second:exact,2021-08-25,2021:Q2,0.0542172340461517,0.1697000000000006,-0.1154827659538488,64,0.19477095607992942,0.4413286259466175,-0.13520881064513052,0.11512338292431931,-0.3871113919004658,0.4955458599927692,True,-0.6717037570196516,0.7801382251119551,True,expanding_residual_calibrated_gaussian
ar,exact,pre_second,DELTA_TS,2021:Q3:pre_second:exact,2021-11-23,2021:Q3,0.0647130031895999,0.1993999999999998,-0.1346869968103998,65,0.1920466532069789,0.4382312782161708,-0.14115969384649107,0.11879789154453695,-0.3735182750265709,0.5029442814057707,True,-0.6561133042278483,0.7855393106070482,True,expanding_residual_calibrated_gaussian
ar,exact,pre_second,DELTA_TS,2021:Q4:pre_second:exact,2022-02-23,2021:Q4,0.0785903836922474,-0.0928000000000004,0.1713903836922479,66,0.18948475339593748,0.4352984647295893,-0.16472712099491824,0.12830588360755563,-0.35670808103734186,0.5138888484218367,True,-0.637411874824625,0.7945926422091197,True,expanding_residual_calibrated_gaussian
ar,exact,pre_second,DELTA_TS,2022:Q1:pre_second:exact,2022-05-25,2022:Q1,0.0505502027361366,-0.0639,0.1144502027361367,67,0.18693863593858515,0.43236400860685104,-0.11548625715015426,0.11305752249098727,-0.38181380587071445,0.4829142113429876,True,-0.6606253049841199,0.7617257104563931,True,expanding_residual_calibrated_gaussian
ar,exact,pre_second,DELTA_TS,2022:Q2:pre_second:exact,2022-08-24,2022:Q2,0.0719132614688264,-0.0022999999999999,0.0742132614688264,68,0.18426340216141537,0.429259131715815,-0.08818895982650019,0.1054216193340154,-0.3573458702469886,0.5011723931846414,True,-0.6341551782359717,0.7779817011736244,True,expanding_residual_calibrated_gaussian
ar,exact,pre_second,DELTA_TS,2022:Q3:pre_second:exact,2022-11-29,2022:Q3,0.0720417926744967,0.3147000000000002,-0.2426582073255034,69,0.18158546164621112,0.4261284567430473,-0.2280598895221308,0.1532677444311284,-0.3540866640685506,0.49817024941754395,True,-0.6288771449465381,0.7729607302955316,True,expanding_residual_calibrated_gaussian
ar,exact,pre_second,DELTA_TS,2022:Q4:pre_second:exact,2023-02-22,2022:Q4,0.0816900767583872,-0.1016999999999996,0.1833900767583869,70,0.18000059971529436,0.42426477548259217,-0.1549626744779048,0.130289771530442,-0.342574698724205,0.5059548522409794,True,-0.6161633779819066,0.779543531498681,True,expanding_residual_calibrated_gaussian
ar,exact,pre_second,DELTA_TS,2023:Q1:pre_second:exact,2023-05-24,2023:Q1,0.0603343116893237,0.7302,-0.6698656883106762,71,0.17778621232408265,0.4216470233786581,-1.317317021229071,0.4521053994033158,-0.36131271168933443,0.4819813350679818,False,-0.6332133240083543,0.7538819473870016,True,expanding_residual_calibrated_gaussian
ar,exact,pre_second,DELTA_TS,2023:Q2:pre_second:exact,2023-08-29,2023:Q2,0.1087417862766018,0.0009000000000001,0.1078417862766016,72,0.18201559123540537,0.4266328529724421,-0.09905447141681467,0.11051943428773629,-0.3178910666958403,0.5353746392490439,True,-0.5930068093117737,0.8104903818649773,True,expanding_residual_calibrated_gaussian
ar,exact,pre_second,DELTA_TS,2023:Q3:pre_second:exact,2023-11-28,2023:Q3,0.0694852593005626,-0.2930999999999999,0.3625852593005625,73,0.17960128035813674,0.42379391260155774,-0.4264303496931727,0.2157663533263277,-0.35430865330099515,0.49327917190212034,True,-0.6275936949220648,0.76656421352319,True,expanding_residual_calibrated_gaussian
ar,exact,pre_second,DELTA_TS,2023:Q4:pre_second:exact,2024-02-27,2023:Q4,0.0457694123409471,0.1876999999999999,-0.1419305876590528,74,0.17874564951655075,0.42278321811130437,-0.11439185573979256,0.11763413526882684,-0.37701380577035726,0.4685526304522515,True,-0.6496470973836472,0.7411859220655415,True,expanding_residual_calibrated_gaussian
ar,exact,pre_second,DELTA_TS,2024:Q1:pre_second:exact,2024-05-29,2024:Q1,0.0752473310114067,0.1602999999999999,-0.0850526689885931,75,0.17669131648409309,0.42034666227304945,-0.07273361701101388,0.10507517316651371,-0.34509933126164277,0.49559399328445614,True,-0.6161614010053643,0.7666560630281777,True,expanding_residual_calibrated_gaussian
ar,exact,pre_second,DELTA_TS,2024:Q2:pre_second:exact,2024-08-28,2024:Q2,0.0787934106925951,0.0381,0.0406934106925951,76,0.17448190073188005,0.4177103071889417,-0.050716746602249445,0.09919710156533919,-0.3389168964963466,0.4965037178815368,True,-0.6082789031021492,0.7658657244873395,True,expanding_residual_calibrated_gaussian
ar,exact,pre_second,DELTA_TS,2024:Q3:pre_second:exact,2024-11-26,2024:Q3,0.0684695138011854,0.2393999999999998,-0.1709304861988143,77,0.1721921611365497,0.4149604332180957,-0.1242054561256252,0.12467302606905718,-0.34649091941691035,0.4834299470192811,True,-0.6140796598189535,0.7510186874213243,True,expanding_residual_calibrated_gaussian
ar,exact,pre_second,DELTA_TS,2024:Q4:pre_second:exact,2025-02-26,2024:Q4,0.0796362276898672,0.1044,-0.0247637723101328,78,0.17042006966033174,0.41281965755076605,-0.03599330149312971,0.09706633238224974,-0.3331834298608989,0.4924558852406332,True,-0.599391683309375,0.7586641386891094,True,expanding_residual_calibrated_gaussian
ar,exact,pre_third,DELTA_MT,2008:Q1:pre_third:exact,2008-06-25,2008:Q1,1.875134366650957,-2.670294308611191,4.545428675262148,12,2.7438237225356716,1.6564491306815528,-5.188601866913325,3.6139153057551465,0.21868523596940426,3.5315834973325098,False,-0.8494819938112081,4.599750727113122,False,expanding_residual_calibrated_gaussian
ar,exact,pre_third,DELTA_MT,2008:Q2:pre_third:exact,2008-09-25,2008:Q2,0.890970018194535,-0.4503659078417015,1.3413359260362363,13,3.6402700574901687,1.907949175814222,-1.812089527823217,0.8073165133705741,-1.016979157619687,2.798919194008757,True,-2.24732710368256,4.02926714007163,True,expanding_residual_calibrated_gaussian
ar,exact,pre_third,DELTA_MT,2008:Q3:pre_third:exact,2008-12-22,2008:Q3,0.4833562347466182,-1.5960633304400282,2.0794195651866465,14,3.3678475036691795,1.8351696116896605,-2.1680263798838695,1.2798466090646785,-1.3518133769430423,2.3185258464362786,False,-2.5352291571122447,3.5019416266054813,True,expanding_residual_calibrated_gaussian
ar,exact,pre_third,DELTA_MT,2008:Q4:pre_third:exact,2009-03-25,2008:Q4,1.6073259236667488,-2.5098705633458547,4.117196487012603,15,3.199523900769185,1.7887213032692335,-4.149475373398252,3.1210505310390535,-0.18139537960248475,3.3960472269359823,False,-1.3348587996210144,4.549510646954512,False,expanding_residual_calibrated_gaussian
ar,exact,pre_third,DELTA_MT,2009:Q1:pre_third:exact,2009-06-24,2009:Q1,5.31193596012332,0.9274668731847252,4.384469086938594,16,3.552222731015673,1.8847341274078084,-4.258576060715501,3.3338967468044873,3.427201832715511,7.196670087531128,False,2.2118241948173676,8.412047725429272,False,expanding_residual_calibrated_gaussian
ar,exact,pre_third,DELTA_MT,2009:Q2:pre_third:exact,2009-09-29,2009:Q2,3.6720150522329913,0.020318108916157,3.6516969433168343,17,3.8913202548114043,1.9726429618183328,-3.311727470461104,2.5882154684224394,1.6993720904146585,5.644658014051324,False,0.4273061218058123,6.91672398266017,False,expanding_residual_calibrated_gaussian
ar,exact,pre_third,DELTA_MT,2009:Q3:pre_third:exact,2009-12-21,2009:Q3,1.3332082798437828,-0.8314194839561018,2.1646277637998845,18,3.925004658166233,1.981162451230649,-2.1995150149525338,1.3227682746546534,-0.6479541713868662,3.3143707310744315,False,-1.9255139636430192,4.591930523330585,True,expanding_residual_calibrated_gaussian
ar,exact,pre_third,DELTA_MT,2009:Q4:pre_third:exact,2010-03-25,2009:Q4,0.9220888399591628,-1.2529963912849045,2.175085231244067,19,3.7238222319997285,1.929720765292152,-2.211547680612166,1.33728093137819,-1.0076319253329893,2.8518096052513147,False,-2.252019359835204,4.0961970397535294,True,expanding_residual_calibrated_gaussian
ar,exact,pre_third,DELTA_MT,2010:Q1:pre_third:exact,2010-06-24,2010:Q1,-1.3530172686651838,-0.8060320907623584,-0.5469851779028254,20,3.54278478873982,1.8822286759955125,-1.5936207244302263,0.5028393743616126,-3.2352459446606963,0.5292114073303287,True,-4.44900793312847,1.7429733957981024,True,expanding_residual_calibrated_gaussian
ar,exact,pre_third,DELTA_MT,2010:Q2:pre_third:exact,2010-09-29,2010:Q2,0.3437015252666588,2.13398897648266,-1.7902874512160012,21,3.5966555651427434,1.8964850553438968,-2.0045115022502396,1.0714868338575319,-1.552783530077238,2.2401865806105556,True,-2.775738796475013,3.463141847008331,True,expanding_residual_calibrated_gaussian
ar,exact,pre_third,DELTA_MT,2010:Q3:pre_third:exact,2010-12-21,2010:Q3,0.7590897343687248,0.5139073054386736,0.2451824289300512,22,3.9327521660803484,1.983116780747001,-1.6112510652097505,0.4755222286891514,-1.224027046378276,2.7422065151157256,True,-2.502847095111307,4.021026563848757,True,expanding_residual_calibrated_gaussian
ar,exact,pre_third,DELTA_MT,2010:Q4:pre_third:exact,2011-03-24,2010:Q4,0.445174553189033,-1.0194115854747103,1.464586138663743,23,3.811854627826634,1.9523971491032848,-1.8693572085072896,0.8751131871969358,-1.5072225959142518,2.3975717022923178,True,-2.7662329787632194,3.6565820851412854,True,expanding_residual_calibrated_gaussian
ar,exact,pre_third,DELTA_MT,2011:Q1:pre_third:exact,2011-06-23,2011:Q1,-1.245766667280642,-2.866352180512749,1.6205855132321072,24,3.6466817906359013,1.909628704915147,-1.9259414899539966,0.9642316014553219,-3.1553953721957892,0.663862037634505,True,-4.386826368690964,1.89529303412968,True,expanding_residual_calibrated_gaussian
ar,exact,pre_third,DELTA_MT,2011:Q2:pre_third:exact,2011-09-28,2011:Q2,0.6779465881295121,1.363542728215044,-0.6855961400855317,25,3.497590353086991,1.870184577277599,-1.6121707922508295,0.5362127269431131,-1.1922379891480868,2.548131165407111,True,-2.398233296874252,3.7541264731332764,True,expanding_residual_calibrated_gaussian
ar,exact,pre_third,DELTA_MT,2011:Q3:pre_third:exact,2011-12-21,2011:Q3,-0.5836872435796199,-1.9037374895087755,1.3200502459291557,26,3.5192848221417314,1.8759756987076701,-1.7956365724975325,0.7944053650140042,-2.4596629422872898,1.2922884551280502,True,-3.6693926756717534,2.5020181885125137,True,expanding_residual_calibrated_gaussian
ar,exact,pre_third,DELTA_MT,2011:Q4:pre_third:exact,2012-03-28,2011:Q4,-3.2975932827849372,1.5132588749178515,-4.810852157702788,27,3.383972348884296,1.8395576503290936,-4.948157462815203,3.778123344177055,-5.137150933114031,-1.4580356324558437,False,-6.323396355915075,-0.2717902096547995,False,expanding_residual_calibrated_gaussian
ar,exact,pre_third,DELTA_MT,2012:Q1:pre_third:exact,2012-06-27,2012:Q1,-2.4121636981564,1.468051575462913,-3.8802152736193127,28,4.58646772210271,2.1416040068375644,-3.321851573208492,2.7312932876481315,-4.553767704993964,-0.2705596913188355,False,-5.934788816296972,1.1104614199841731,False,expanding_residual_calibrated_gaussian
ar,exact,pre_third,DELTA_MT,2012:Q2:pre_third:exact,2012-09-26,2012:Q2,-0.5340262380279912,0.5283235821663412,-1.0623498201943324,29,5.267261327772035,2.295051486954494,-1.8568260633082005,0.7290918916860498,-2.8290777249824854,1.7610252489265028,True,-4.30905000038546,3.2409975243294777,True,expanding_residual_calibrated_gaussian
ar,exact,pre_third,DELTA_MT,2012:Q3:pre_third:exact,2012-12-19,2012:Q3,0.5247711347996953,-2.5285844068942875,3.053355541693983,30,5.2137563228261,2.2833651312976864,-2.63866398541208,1.9570995639627757,-1.758593996497991,2.8081362660973817,False,-3.2310302830698285,4.280572552669219,True,expanding_residual_calibrated_gaussian
ar,exact,pre_third,DELTA_MT,2012:Q4:pre_third:exact,2013-03-27,2012:Q4,0.747761453256516,0.083747903248425,0.664013550008091,31,5.199018263098263,2.2801355799816516,-1.7855770213185187,0.6094598226679686,-1.5323741267251356,3.0278970332381676,True,-3.002727825417402,4.498250731930434,True,expanding_residual_calibrated_gaussian
ar,exact,pre_third,DELTA_MT,2013:Q1:pre_third:exact,2013-06-25,2013:Q1,1.119710416518954,2.1490059282687444,-1.0292955117497904,32,5.0331149113159865,2.243460476878518,-1.832205933031638,0.7094450612299363,-1.1237500603595638,3.3631708933974718,True,-2.5704536857969553,4.809874518834864,True,expanding_residual_calibrated_gaussian
ar,exact,pre_third,DELTA_MT,2013:Q2:pre_third:exact,2013-09-25,2013:Q2,1.1929422229694198,-1.4119296851363394,2.604871908105759,33,4.9882682262114235,2.2334431325223894,-2.402614529310438,1.6132091926435952,-1.0405009095529696,3.426385355491809,False,-2.48074481414989,4.866629260088729,True,expanding_residual_calibrated_gaussian
ar,exact,pre_third,DELTA_MT,2013:Q3:pre_third:exact,2013-12-19,2013:Q3,0.5883739057762449,-0.7424765967624687,1.3308505025387136,34,4.928866161691741,2.2201049888894313,-1.8961654846803668,0.827898021547958,-1.6317310831131864,2.8084788946656762,True,-3.063373837411594,4.2401216489640845,True,expanding_residual_calibrated_gaussian
ar,exact,pre_third,DELTA_MT,2013:Q4:pre_third:exact,2014-03-26,2013:Q4,-0.5241347076608607,0.8430927945368829,-1.3672275021977436,35,4.789438802277672,2.188478650176344,-1.8972944327392494,0.8415317789393584,-2.7126133578372045,1.6643439425154831,True,-4.123861752909281,3.0755923375875605,True,expanding_residual_calibrated_gaussian
ar,exact,pre_third,DELTA_MT,2014:Q1:pre_third:exact,2014-06-24,2014:Q1,-0.9703486167429533,1.5492515083810556,-2.5196001251240085,36,4.795777406128726,2.1899263471926917,-2.364678781159606,1.5557746153485346,-3.160274963935645,1.2195777304497386,False,-4.572456911679441,2.631759678193535,True,expanding_residual_calibrated_gaussian
ar,exact,pre_third,DELTA_MT,2014:Q2:pre_third:exact,2014-09-25,2014:Q2,2.897413843256467,0.541454887526057,2.35595895573041,37,4.967622703859705,2.228816435658106,-2.279081148770521,1.4312516737500285,0.668597407598361,5.126230278914573,False,-0.7686629547448214,6.563490641257756,True,expanding_residual_calibrated_gaussian
ar,exact,pre_third,DELTA_MT,2014:Q3:pre_third:exact,2014-12-22,2014:Q3,-1.517938559725989,-0.1350896933197107,-1.382848866406278,38,4.901297064566672,2.213887319753802,-1.9087665258225286,0.8511840433223166,-3.731825879479791,0.6959487600278129,True,-5.159459147284903,2.123582027832926,True,expanding_residual_calibrated_gaussian
ar,exact,pre_third,DELTA_MT,2014:Q4:pre_third:exact,2015-03-26,2014:Q4,-0.0240211776357908,-0.1993448942940596,0.1753237166582688,39,4.893544746914268,2.2121357885342996,-1.7160377117709846,0.5225055663285056,-2.2361569661700904,2.188114610898509,True,-3.6626607527155883,3.6146183974440067,True,expanding_residual_calibrated_gaussian
ar,exact,pre_third,DELTA_MT,2015:Q1:pre_third:exact,2015-06-23,2015:Q1,0.7813738759389142,3.757739419124631,-2.9763655431857168,40,4.775922021567968,2.1853882999522005,-2.6281709695809483,1.9175773426639444,-1.4040144240132864,2.9667621758911147,False,-2.8132699955347746,4.376017747412603,True,expanding_residual_calibrated_gaussian
ar,exact,pre_third,DELTA_MT,2015:Q2:pre_third:exact,2015-09-24,2015:Q2,1.2728383147526832,-1.4514871252497206,2.7243254400024037,41,4.990089728323357,2.2338508742356455,-2.4663343812961482,1.7047657064740769,-0.9610125594829624,3.5066891889883287,False,-2.4015193978025353,4.947196027307902,True,expanding_residual_calibrated_gaussian
ar,exact,pre_third,DELTA_MT,2015:Q3:pre_third:exact,2015-12-21,2015:Q3,-0.9777727217192308,-0.3851812068986724,-0.5925915148205585,42,4.972656997018486,2.229945514360942,-1.7562252496040431,0.5835841024027955,-3.207718236080173,1.2521727926417112,True,-4.645706688919993,2.690161245481531,True,expanding_residual_calibrated_gaussian
ar,exact,pre_third,DELTA_MT,2015:Q4:pre_third:exact,2016-03-24,2015:Q4,-0.180176688648554,-0.6490085328988633,0.4688318442503092,43,4.892005716257464,2.211787900377761,-1.735205286597861,0.5563820712401832,-2.391964589026315,2.031611211729207,True,-3.8182440386322956,3.4578906613351874,True,expanding_residual_calibrated_gaussian
ar,exact,pre_third,DELTA_MT,2016:Q1:pre_third:exact,2016-06-27,2016:Q1,1.3522417852172537,1.2388241514590603,0.1134176337581933,44,4.778998741116852,2.186092116338388,-1.7023999038368025,0.5132257057004301,-0.8338503311211345,3.538333901555642,True,-2.243559761191964,4.948043331626471,True,expanding_residual_calibrated_gaussian
ar,exact,pre_third,DELTA_MT,2016:Q2:pre_third:exact,2016-09-28,2016:Q2,0.449634772202635,-0.1317610928997419,0.581395865102377,45,4.676726555649812,2.1625740578416757,-1.7263763870978701,0.5673664871352428,-1.7129392856390406,2.6122088300443105,True,-3.107483010389408,4.006752554794678,True,expanding_residual_calibrated_gaussian
ar,exact,pre_third,DELTA_MT,2016:Q3:pre_third:exact,2016-12-21,2016:Q3,1.1499601483650652,-0.6894592256065502,1.8394193739716151,46,4.572863503927359,2.1384254730823233,-2.0489585418682412,1.094734659417047,-0.9884653247172581,3.2883856214473886,True,-2.367436746999812,4.667357043729942,True,expanding_residual_calibrated_gaussian
ar,exact,pre_third,DELTA_MT,2016:Q4:pre_third:exact,2017-03-29,2016:Q4,0.2557921902799296,0.1330604601086009,0.1227317301713286,47,4.504340369377553,2.1223431318657107,-1.673131324967766,0.4988115864517671,-1.866550941585781,2.3781353221456403,True,-3.2351516078049314,3.7467359883647906,True,expanding_residual_calibrated_gaussian
ar,exact,pre_third,DELTA_MT,2017:Q1:pre_third:exact,2017-06-28,2017:Q1,-0.887020774763414,0.5178536646179503,-1.4048744393813644,48,4.414521403403552,2.1010762488314296,-1.8849314130736334,0.8524003416835342,-2.9880970235948436,1.2140554740680156,True,-4.342983663155385,2.568942113628557,True,expanding_residual_calibrated_gaussian
ar,exact,pre_third,DELTA_MT,2017:Q2:pre_third:exact,2017-09-27,2017:Q2,1.765956857870476,-0.8280736915632052,2.5940305494336813,49,4.408641847662308,2.099676605494834,-2.423881445258841,1.6283871839101949,-0.33371974762435785,3.86563346336531,False,-1.6877038221028569,5.219617537843809,True,expanding_residual_calibrated_gaussian
ar,exact,pre_third,DELTA_MT,2017:Q3:pre_third:exact,2017-12-20,2017:Q3,0.945027051401432,-0.0122773934841444,0.9573044448855764,50,4.397628830040843,2.0970524147099527,-1.7636674087299078,0.6614464964673479,-1.1520253633085207,3.042079466111385,True,-2.5043172188415763,4.39437132164444,True,expanding_residual_calibrated_gaussian
ar,exact,pre_third,DELTA_MT,2017:Q4:pre_third:exact,2018-03-27,2017:Q4,-0.1109512909476437,1.5953450547424683,-1.706296345690112,51,4.311566445404449,2.076431180030884,-1.9872213617537462,1.0151512308524844,-2.1873824709785277,1.9654798890832401,True,-3.5263766485365684,3.304474066641281,True,expanding_residual_calibrated_gaussian
ar,exact,pre_third,DELTA_MT,2018:Q1:pre_third:exact,2018-06-27,2018:Q1,0.5687342501687462,1.249171128508756,-0.6804368783400097,52,4.334061518749119,2.0818408965982775,-1.7056045306616763,0.5744576898870887,-1.5131066464295313,2.6505751467670238,True,-2.8555892993368355,3.993057799674328,True,expanding_residual_calibrated_gaussian
ar,exact,pre_third,DELTA_MT,2018:Q2:pre_third:exact,2018-09-26,2018:Q2,0.5604703775213955,-2.0407976514265975,2.601268028947993,53,4.282013881277593,2.0693027524452754,-2.4362685843811533,1.6400735852908976,-1.50883237492388,2.629773129966671,False,-2.8432297600988803,3.9641705151416713,True,expanding_residual_calibrated_gaussian
ar,exact,pre_third,DELTA_MT,2018:Q3:pre_third:exact,2018-12-20,2018:Q3,-0.7057106582979831,-0.8686270162720882,0.162916357974105,54,4.276636787796683,2.06800309182474,-1.6486250938690317,0.4883995048785938,-2.773713750122723,1.3622924335267568,True,-4.107273044432764,2.6958517278367986,True,expanding_residual_calibrated_gaussian
ar,exact,pre_third,DELTA_MT,2018:Q4:pre_third:exact,2019-04-25,2018:Q4,-0.6737676159887558,-1.601119283658365,0.9273516676696092,55,4.201248589417112,2.0496947551811493,-1.7389776931633945,0.6435879463354033,-2.723462371169905,1.3759271391923935,True,-4.045215468191879,2.6976802362143677,True,expanding_residual_calibrated_gaussian
ar,exact,pre_third,DELTA_MT,2019:Q1:pre_third:exact,2019-06-26,2019:Q1,0.4098212173172939,-0.6386057064584318,1.0484269237757258,56,4.126634846842893,2.0314120327601914,-1.7608531271393724,0.6859318272778017,-1.6215908154428975,2.4412332500774854,True,-2.9315542326011697,3.7511966672357575,True,expanding_residual_calibrated_gaussian
ar,exact,pre_third,DELTA_MT,2019:Q2:pre_third:exact,2019-09-25,2019:Q2,-0.3847233637277547,1.3136992335515378,-1.6984225972792926,57,4.0561965452913595,2.014000135375209,-1.974645657800443,1.0104639555661896,-2.398723499102964,1.6292767716474543,True,-3.6974587910804235,2.928012063624914,True,expanding_residual_calibrated_gaussian
ar,exact,pre_third,DELTA_MT,2019:Q3:pre_third:exact,2019-12-19,2019:Q3,0.6565351441832208,2.549533451572177,-1.892998307388956,58,4.078146602396767,2.01944215128752,-2.0611067997498593,1.1322292513962644,-1.3629070071042992,2.675977295470741,True,-2.6651516027807403,3.978221891147182,True,expanding_residual_calibrated_gaussian
ar,exact,pre_third,DELTA_MT,2019:Q4:pre_third:exact,2020-03-25,2019:Q4,0.3967007385915733,0.5902616642624969,-0.1935609256709236,59,4.111943155751019,2.027792680663144,-1.6304421184434537,0.48125029617825477,-1.6310919420715706,2.424493419254717,True,-2.9387214069028476,3.732122884085994,True,expanding_residual_calibrated_gaussian
ar,exact,pre_third,DELTA_MT,2020:Q1:pre_third:exact,2020-06-24,2020:Q1,0.2864182157130854,-0.3058647434066488,0.5922829591197343,60,4.051300884911164,2.012784361254619,-1.6617521758682283,0.5394100448128982,-1.7263661455415336,2.2992025769677045,True,-3.024317441167777,3.597153872593948,True,expanding_residual_calibrated_gaussian
ar,exact,pre_third,DELTA_MT,2020:Q2:pre_third:exact,2020-09-29,2020:Q2,3.5262896300411937,-1.4341829026296296,4.960472532670823,61,3.9838405493426685,1.9959560489506447,-4.698323814559898,3.8427483007409995,1.530333581090549,5.522245678991839,False,0.24323408368899546,6.809345176393392,False,expanding_residual_calibrated_gaussian
ar,exact,pre_third,DELTA_MT,2020:Q3:pre_third:exact,2020-12-21,2020:Q3,19.053031190306616,-3.537760605142807,22.590791795449423,62,4.234827932517012,2.05786975596538,-61.896171864333304,21.42976311483579,16.995161434341234,21.110900946271997,False,15.66813665841322,22.437925722200013,False,expanding_residual_calibrated_gaussian
ar,exact,pre_third,DELTA_MT,2020:Q4:pre_third:exact,2021-03-24,2020:Q4,-0.4447901745707083,0.1827202301333192,-0.6275104047040276,63,11.840164222891296,3.440953969888481,-2.1713158237852257,0.8496609479067869,-3.8857441444591894,2.9961637953177727,True,-6.104655792114843,5.2150754429734265,True,expanding_residual_calibrated_gaussian
ar,exact,pre_third,DELTA_MT,2021:Q1:pre_third:exact,2021-06-23,2021:Q1,0.4737596731700964,-0.8166594323053387,1.290419105475435,64,11.691233959952076,3.419244647572337,-2.219573154470793,0.9910726987345855,-2.9454849744022407,3.8930043207424334,True,-5.1503972868236705,6.097916633163864,True,expanding_residual_calibrated_gaussian
ar,exact,pre_third,DELTA_MT,2021:Q2:pre_third:exact,2021-09-29,2021:Q2,-0.0533540561064178,0.0252894915112991,-0.0786435476177169,65,11.5105807905869,3.392724685350537,-2.1408405312548244,0.7935899421610589,-3.446078741456955,3.339370629244119,True,-5.633889560053041,5.5271814478402055,True,expanding_residual_calibrated_gaussian
ar,exact,pre_third,DELTA_MT,2021:Q3:pre_third:exact,2021-12-21,2021:Q3,0.0288273036376702,0.9828945872292776,-0.9540672835916072,66,11.349014579085992,3.3688298530923153,-2.173606345843299,0.8943565089598972,-3.340002549454645,3.3976571567299856,True,-5.5124046988036195,5.57005930607896,True,expanding_residual_calibrated_gaussian
ar,exact,pre_third,DELTA_MT,2021:Q4:pre_third:exact,2022-03-29,2021:Q4,-0.4298274237011106,-0.0899457452976859,-0.3398816784034246,67,11.229373255285367,3.351025701973258,-2.133348645122132,0.7968587926408066,-3.7808531256743687,2.9211982782721475,True,-5.941774203599428,5.082119356197206,True,expanding_residual_calibrated_gaussian
ar,exact,pre_third,DELTA_MT,2022:Q1:pre_third:exact,2022-06-28,2022:Q1,6.201417379436691e-05,0.5539955311937652,-0.5539335170199708,68,11.084020513275819,3.329267263719724,-2.135532425496975,0.8147170148225753,-3.3292052495459297,3.3293292778935184,True,-5.476095319646397,5.476219347993986,True,expanding_residual_calibrated_gaussian
ar,exact,pre_third,DELTA_MT,2022:Q2:pre_third:exact,2022-09-28,2022:Q2,0.7504922949539341,1.2019613462910337,-0.4514690513370996,69,10.95049085362671,3.3091525884471857,-2.1249373029138128,0.7978667893968922,-2.5586602934932516,4.05964488340112,True,-4.692579342289271,6.19356393219714,True,expanding_residual_calibrated_gaussian
ar,exact,pre_third,DELTA_MT,2022:Q3:pre_third:exact,2022-12-21,2022:Q3,1.2048589782798684,-0.365907224676266,1.5707662029561344,70,10.816037598415415,3.2887744827542393,-2.2235113105101054,1.0623025135491488,-2.083915504474371,4.493633461034108,True,-4.204693657903894,6.614411614463631,True,expanding_residual_calibrated_gaussian
ar,exact,pre_third,DELTA_MT,2022:Q4:pre_third:exact,2023-03-29,2022:Q4,0.3089060259405403,0.1776205447240171,0.1312854812165231,71,10.669193389142846,3.2663731246051553,-2.103426506784447,0.76543983366166,-2.957467098664615,3.5752791505456956,True,-5.063799655043063,5.6816117069241425,True,expanding_residual_calibrated_gaussian
ar,exact,pre_third,DELTA_MT,2023:Q1:pre_third:exact,2023-06-28,2023:Q1,-2.5642692250886068,0.8829578606053063,-3.447227085693913,72,10.52596188038174,3.244373881102753,-2.6603401870601266,2.0960358104661068,-5.80864310619136,0.6801046560141462,False,-7.900789370607094,2.7722509204298804,True,expanding_residual_calibrated_gaussian
ar,exact,pre_third,DELTA_MT,2023:Q2:pre_third:exact,2023-09-27,2023:Q2,-14.958839895292698,0.4420787129946308,-15.400918608287329,73,10.630765995185072,3.2604855459248814,-13.25656270502124,13.561388107217356,-18.219325441217578,-11.698354349367817,False,-20.32186137113009,-9.595818419455306,False,expanding_residual_calibrated_gaussian
ar,exact,pre_third,DELTA_MT,2023:Q3:pre_third:exact,2023-12-20,2023:Q3,4.347392328881623,-0.27271411986841,4.620106448750033,74,14.020939337450086,3.7444544779513724,-3.0004111046341104,2.8993197235977344,0.602937850930251,8.091846806832995,False,-1.8116872001313729,10.50647185789462,True,expanding_residual_calibrated_gaussian
ar,exact,pre_third,DELTA_MT,2023:Q4:pre_third:exact,2024-03-27,2023:Q4,0.5040196952153972,-0.0344857096730963,0.5385054048884936,75,14.051686035133221,3.7485578607156675,-2.250628350665833,0.9068283135116271,-3.2445381655002703,4.252577555931065,True,-5.66180929782022,6.669848688251015,True,expanding_residual_calibrated_gaussian
ar,exact,pre_third,DELTA_MT,2024:Q1:pre_third:exact,2024-06-26,2024:Q1,0.7226336129006823,-0.5716108093099224,1.2942444222106049,76,13.864397957354322,3.7234927094536285,-2.294009653888405,1.0478463304913028,-3.0008590965529462,4.446126322354311,True,-5.401966875171483,6.847234100972847,True,expanding_residual_calibrated_gaussian
ar,exact,pre_third,DELTA_MT,2024:Q2:pre_third:exact,2024-09-25,2024:Q2,1.0069919489289094,0.5370472577755474,0.469944691153362,77,13.68806432456755,3.6997384129918633,-2.2352678258758822,0.8883923278402096,-2.692746464062954,4.706730361920773,True,-5.07853619845244,7.09252009631026,True,expanding_residual_calibrated_gaussian
ar,exact,pre_third,DELTA_MT,2024:Q3:pre_third:exact,2024-12-18,2024:Q3,0.4548395948856583,0.2132297823271547,0.2416098125585035,78,13.51057906735233,3.675673960969924,-2.2228353950709927,0.8653200735316576,-3.2208343660842655,4.1305135558555826,True,-5.591106051306806,6.5007852410781215,True,expanding_residual_calibrated_gaussian
ar,exact,pre_third,DELTA_MT,2024:Q4:pre_third:exact,2025-03-26,2024:Q4,0.937803401356896,-0.615441403939172,1.553244805296068,79,13.339143685236703,3.6522792452435375,-2.3047219019997764,1.1131456050936896,-2.7144758438866416,4.590082646600433,True,-5.069661361821522,6.945268164535314,True,expanding_residual_calibrated_gaussian
ar,pseudo,pre_advance,DELTA_SA,2008:Q1:pre_advance:pseudo,2008-04-30,2008:Q1,0.1411112771385929,0.3031999999999999,-0.1620887228614069,12,0.4246599209606872,0.6516593596049145,-0.5216391003274016,0.16829114156909322,-0.5105480824663216,0.7927706367435075,True,-0.9307729840444243,1.2129955383216102,True,expanding_residual_calibrated_gaussian
ar,pseudo,pre_advance,DELTA_SA,2008:Q2:pre_advance:pseudo,2008-07-31,2008:Q2,0.282369571934375,1.3898,-1.1074304280656249,13,0.39034904148426913,0.6247791941832483,-2.0194860795511382,0.7740465723702007,-0.34240962224887334,0.9071487661176234,False,-0.7453007516617591,1.3100398955305093,False,expanding_residual_calibrated_gaussian
ar,pseudo,pre_advance,DELTA_SA,2008:Q3:pre_advance:pseudo,2008-10-31,2008:Q3,0.714132038935611,-0.2618,0.975932038935611,14,0.4397619285178273,0.6631454806585259,-1.5910855613659503,0.6432416168089662,0.05098655827708509,1.377277519594137,False,-0.37664521012204255,1.8049092879932644,True,expanding_residual_calibrated_gaussian
ar,pseudo,pre_advance,DELTA_SA,2008:Q4:pre_advance:pseudo,2009-01-31,2008:Q4,0.0793056065031563,-2.4444,2.523705606503156,15,0.489619774192295,0.6997283574304353,-7.065993877277928,2.128979418739733,-0.6204227509272789,0.7790339639335916,False,-1.0716451200970913,1.230256333103404,False,expanding_residual_calibrated_gaussian
ar,pseudo,pre_advance,DELTA_SA,2009:Q1:pre_advance:pseudo,2009-04-30,2009:Q1,-0.8004772054187677,0.4245000000000001,-1.2249772054187678,16,0.8724453144493385,0.9340478116506341,-1.7106897986157223,0.780994262062496,-1.7345250170694018,0.13357060623186645,False,-2.3368491361583987,0.7358947253208634,True,expanding_residual_calibrated_gaussian
ar,pseudo,pre_advance,DELTA_SA,2009:Q2:pre_advance:pseudo,2009-07-31,2009:Q2,0.6102794438475987,0.0030000000000001,0.6072794438475986,17,0.9222140123109045,0.9603197448302854,-1.0783968070362877,0.3727179747460258,-0.3500403009826867,1.570599188677884,True,-0.9693059714696084,2.189864859164806,True,expanding_residual_calibrated_gaussian
ar,pseudo,pre_advance,DELTA_SA,2009:Q3:pre_advance:pseudo,2009-10-31,2009:Q3,0.1888383411693894,-0.7522000000000002,0.9410383411693896,18,0.8865924051252095,0.9415903595116135,-1.3581674818799925,0.5668761957151592,-0.752752018342224,1.130428700681003,True,-1.3599399767758287,1.7376166591146076,True,expanding_residual_calibrated_gaussian
ar,pseudo,pre_advance,DELTA_SA,2009:Q4:pre_advance:pseudo,2010-01-31,2009:Q4,-0.3373558541688579,0.1962000000000001,-0.5335558541688581,19,0.8781524605607329,0.9370978927309211,-1.0160623635177632,0.3370191538924492,-1.274453746899779,0.5997420385620633,True,-1.8787447218358952,1.2040330134981794,True,expanding_residual_calibrated_gaussian
ar,pseudo,pre_advance,DELTA_SA,2010:Q1:pre_advance:pseudo,2010-04-30,2010:Q1,0.0283511514001251,-0.2023000000000001,0.2306511514001252,20,0.8524346657244032,0.9232738844592124,-0.8703138879330322,0.23863310708399726,-0.8949227330590873,0.9516250358593376,True,-1.490299246122185,1.5470015489224351,True,expanding_residual_calibrated_gaussian
ar,pseudo,pre_advance,DELTA_SA,2010:Q2:pre_advance:pseudo,2010-07-31,2010:Q2,-0.0683836223313969,-0.7725,0.704116377668603,21,0.8109702893599383,0.9005388883107371,-1.119847402563579,0.4195430597384302,-0.9689225106421341,0.8321552659793402,True,-1.5496382789801597,1.4128710343173658,True,expanding_residual_calibrated_gaussian
ar,pseudo,pre_advance,DELTA_SA,2010:Q3:pre_advance:pseudo,2010-10-31,2010:Q3,-0.3068047363098523,0.5148000000000001,-0.8216047363098524,22,0.7899349260972257,0.8887828340473424,-1.2283082997812595,0.4908373271508362,-1.1955875703571945,0.5819780977374901,True,-1.7687224044648318,1.1551129318451272,True,expanding_residual_calibrated_gaussian
ar,pseudo,pre_advance,DELTA_SA,2010:Q4:pre_advance:pseudo,2011-01-31,2010:Q4,0.3116384840461248,-0.3850000000000002,0.696638484046125,23,0.791799161277662,0.8898309734312815,-1.1086720253691276,0.41506072418806556,-0.5781924893851567,1.2014694574774063,True,-1.1520032199760777,1.7752801880683273,True,expanding_residual_calibrated_gaussian
ar,pseudo,pre_advance,DELTA_SA,2011:Q1:pre_advance:pseudo,2011-04-30,2011:Q1,-0.1541999785436481,0.0939000000000001,-0.2480999785436481,24,0.773738675420703,0.8796241671422534,-0.8304547245180531,0.23329698515263542,-1.0338241456859016,0.7254241885986054,True,-1.6010529802217517,1.2926530231344555,True,expanding_residual_calibrated_gaussian
ar,pseudo,pre_advance,DELTA_SA,2011:Q2:pre_advance:pseudo,2011-07-31,2011:Q2,0.1222021712976695,-0.2928,0.4150021712976696,25,0.7462367244305209,0.8638499432369727,-0.8879792263438715,0.2799198536520927,-0.7416477719393032,0.9860521145346423,True,-1.2987045409774884,1.5431088835728275,True,expanding_residual_calibrated_gaussian
ar,pseudo,pre_advance,DELTA_SA,2011:Q3:pre_advance:pseudo,2011-10-31,2011:Q3,-0.0436641708390723,-0.4595999999999995,0.4159358291609272,26,0.7206453648374204,0.8489083371232847,-0.8751675826735014,0.27809947979240607,-0.892572507962357,0.8052441662842125,True,-1.4399941281056503,1.3526657864275056,True,expanding_residual_calibrated_gaussian
ar,pseudo,pre_advance,DELTA_SA,2011:Q4:pre_advance:pseudo,2012-01-31,2011:Q4,-0.1664617652864937,0.2299000000000002,-0.3963617652864939,27,0.6967414461618726,0.834710396581876,-0.8510090843233009,0.268773725368105,-1.0011721618683698,0.6682486312953823,True,-1.5394381885582942,1.2065146579853068,True,expanding_residual_calibrated_gaussian
ar,pseudo,pre_advance,DELTA_SA,2012:Q1:pre_advance:pseudo,2012-04-30,2012:Q1,0.146748410605829,-0.3447,0.491448410605829,28,0.679983491168534,0.8246111151133811,-0.9036888332276318,0.30621476713210716,-0.6778627045075521,0.9713595257192101,True,-1.209616172912914,1.503112994124572,True,expanding_residual_calibrated_gaussian
ar,pseudo,pre_advance,DELTA_SA,2012:Q2:pre_advance:pseudo,2012-07-31,2012:Q2,-0.1038122691178062,0.1949,-0.2987122691178063,29,0.6612840302735421,0.8131937224754887,-0.7796191025501159,0.2333282296174999,-0.9170059915932949,0.7093814533576825,True,-1.4413969129457829,1.2337723747101703,True,expanding_residual_calibrated_gaussian
ar,pseudo,pre_advance,DELTA_SA,2012:Q3:pre_advance:pseudo,2012-10-31,2012:Q3,0.1733371102203946,0.6579000000000002,-0.4845628897796055,30,0.6438563178730354,0.8024065789068753,-0.8811384352741132,0.3008349535144477,-0.6290694686864806,0.9757436891272699,True,-1.1465042613843017,1.493178481825091,True,expanding_residual_calibrated_gaussian
ar,pseudo,pre_advance,DELTA_SA,2012:Q4:pre_advance:pseudo,2013-01-31,2012:Q4,0.3745038169834829,0.2694999999999999,0.1050038169834829,31,0.6330238634687501,0.7956279680031051,-0.699023789583475,0.19145478602830163,-0.4211241510196222,1.170131784986588,True,-0.9341877318904543,1.6831953658574201,True,expanding_residual_calibrated_gaussian
ar,pseudo,pre_advance,DELTA_SA,2013:Q1:pre_advance:pseudo,2013-04-30,2013:Q1,0.2735383342584925,-0.1162,0.3897383342584926,32,0.6126399752717877,0.7827132139371277,-0.797917996315205,0.25877542445430474,-0.5091748796786352,1.05625154819562,True,-1.0139103345488356,1.5609870030658206,True,expanding_residual_calibrated_gaussian
ar,pseudo,pre_advance,DELTA_SA,2013:Q2:pre_advance:pseudo,2013-07-31,2013:Q2,-0.006310028729751,0.8419999999999999,-0.8483100287297509,33,0.5965539991783618,0.7723690822258241,-1.263801488289796,0.5188987238475902,-0.7786791109555751,0.7660590534960732,False,-1.2767441149740777,1.2641240575145756,True,expanding_residual_calibrated_gaussian
ar,pseudo,pre_advance,DELTA_SA,2013:Q3:pre_advance:pseudo,2013-10-31,2013:Q3,0.4736264614294589,0.7550000000000003,-0.2813735385705413,34,0.603912299441874,0.7771179443571445,-0.7323238689713444,0.22181365810630127,-0.30349148292768563,1.2507444057866035,True,-0.8046188079154626,1.7518717307743805,True,expanding_residual_calibrated_gaussian
ar,pseudo,pre_advance,DELTA_SA,2013:Q4:pre_advance:pseudo,2014-01-31,2013:Q4,0.3920541653838421,-0.8431000000000002,1.2351541653838425,35,0.5893693534627156,0.7677039490993358,-1.9488571467999536,0.8369678767730119,-0.37564978371549373,1.159758114483178,False,-0.8707064597171688,1.654814790484853,True,expanding_residual_calibrated_gaussian
ar,pseudo,pre_advance,DELTA_SA,2014:Q1:pre_advance:pseudo,2014-04-30,2014:Q1,-0.3707296002667286,-1.0928,0.7220703997332714,36,0.6118962719422345,0.7822379893243708,-1.0993831706801003,0.43132525150904244,-1.1529675895910994,0.41150838905764225,True,-1.657396594146147,0.9159373936126898,True,expanding_residual_calibrated_gaussian
ar,pseudo,pre_advance,DELTA_SA,2014:Q2:pre_advance:pseudo,2014-07-31,2014:Q2,-0.3807469573065625,0.2237999999999997,-0.6045469573065623,37,0.6061187067786769,0.7785362591290639,-0.9700884618422942,0.36034773600917935,-1.1592832164356264,0.3977893018225014,True,-1.6613251468482344,0.8998312322351094,True,expanding_residual_calibrated_gaussian
ar,pseudo,pre_advance,DELTA_SA,2014:Q3:pre_advance:pseudo,2014-10-31,2014:Q3,0.0960389505392824,0.3467000000000002,-0.2506610494607177,38,0.602621916044835,0.776287263868753,-0.7178372194563353,0.2134262828680568,-0.6802483133294707,0.8723262144080354,True,-1.1808399709914705,1.3729178720700355,True,expanding_residual_calibrated_gaussian
ar,pseudo,pre_advance,DELTA_SA,2014:Q4:pre_advance:pseudo,2015-01-31,2014:Q4,0.1688907339298215,-0.4497999999999997,0.6186907339298213,39,0.589512433759291,0.7677971306011054,-0.9793654161063403,0.3682178025575947,-0.598906396671284,0.9366878645309269,True,-1.0940231611023399,1.431804628961983,True,expanding_residual_calibrated_gaussian
ar,pseudo,pre_advance,DELTA_SA,2015:Q1:pre_advance:pseudo,2015-04-30,2015:Q1,-0.1664187565321353,-0.9973,0.8308812434678646,40,0.5819679549174603,0.7628682421738765,-1.2413971558008312,0.5074387982689682,-0.9292869987060118,0.5964494856417412,False,-1.42122535155793,1.0883878384936594,True,expanding_residual_calibrated_gaussian
ar,pseudo,pre_advance,DELTA_SA,2015:Q2:pre_advance:pseudo,2015-07-31,2015:Q2,-0.3349089662402753,1.3627000000000002,-1.6976089662402756,41,0.5810925653894671,0.7622942774214346,-3.127220859549192,1.2744286892597698,-1.0972032436617098,0.42738531118115936,False,-1.5887714732612739,0.9189535407807232,False,expanding_residual_calibrated_gaussian
ar,pseudo,pre_advance,DELTA_SA,2015:Q3:pre_advance:pseudo,2015-10-31,2015:Q3,0.677687720737902,0.5856999999999999,0.091987720737902,42,0.6438913268592905,0.8024283936023765,-0.7053966593985387,0.19172579676784313,-0.12474067286447454,1.4801161143402783,True,-0.6421895328478104,1.9975649743236144,True,expanding_residual_calibrated_gaussian
ar,pseudo,pre_advance,DELTA_SA,2015:Q4:pre_advance:pseudo,2016-01-31,2015:Q4,0.3567967296908301,0.314,0.04279672969083,43,0.6285881067771159,0.7928354853165415,-0.6882558798461244,0.18620305906183193,-0.43603875562571137,1.1496322150073714,True,-0.9473015939079139,1.660895053289574,True,expanding_residual_calibrated_gaussian
ar,pseudo,pre_advance,DELTA_SA,2016:Q1:pre_advance:pseudo,2016-04-30,2016:Q1,0.2661399341306913,0.3027000000000001,-0.0365600658693087,44,0.6139753007284686,0.7835657603089026,-0.6761267555224536,0.18379579110396738,-0.5174258261782112,1.049705694439594,True,-1.022711048668395,1.5549909169297778,True,expanding_residual_calibrated_gaussian
ar,pseudo,pre_advance,DELTA_SA,2016:Q2:pre_advance:pseudo,2016-07-31,2016:Q2,0.2681291742259852,-0.1195999999999999,0.3877291742259852,45,0.6002201447530114,0.7747387590362389,-0.7889414533631408,0.2568889937278131,-0.5066095848102536,1.0428679332622242,True,-1.006202683514655,1.5424610319666254,True,expanding_residual_calibrated_gaussian
ar,pseudo,pre_advance,DELTA_SA,2016:Q3:pre_advance:pseudo,2016-10-31,2016:Q3,0.0452506389225619,0.2565999999999997,-0.2113493610774377,46,0.5892752251909242,0.767642641592378,-0.6924088332221303,0.20246284636944822,-0.7223920026698162,0.8128932805149399,True,-1.2174091443032702,1.3079104221483941,True,expanding_residual_calibrated_gaussian
ar,pseudo,pre_advance,DELTA_SA,2016:Q4:pre_advance:pseudo,2017-01-31,2016:Q4,0.1492374075003102,-0.0169999999999999,0.1662374075003101,47,0.5780679783539887,0.7603078181591905,-0.6688094199741477,0.19212296478211155,-0.6110704106588802,0.9095452256595007,True,-1.1013576647983947,1.3998324797990152,True,expanding_residual_calibrated_gaussian
ar,pseudo,pre_advance,DELTA_SA,2017:Q1:pre_advance:pseudo,2017-04-30,2017:Q1,0.0659129056715515,0.4599999999999998,-0.3940870943284483,48,0.5660158927960915,0.7523402772656077,-0.7715630298030036,0.2563386952535299,-0.6864273715940562,0.8182531829371592,True,-1.1715767280904597,1.3034025394335627,True,expanding_residual_calibrated_gaussian
ar,pseudo,pre_advance,DELTA_SA,2017:Q2:pre_advance:pseudo,2017-07-31,2017:Q2,0.3338386109932738,0.4662000000000001,-0.1323613890067263,49,0.5584239974626165,0.747277724452306,-0.6433067473119927,0.18396366867472547,-0.4134391134590322,1.0811163354455797,True,-0.8953238644121446,1.5630010863986923,True,expanding_residual_calibrated_gaussian
ar,pseudo,pre_advance,DELTA_SA,2017:Q3:pre_advance:pseudo,2017-10-31,2017:Q3,0.259901632394651,0.3077000000000001,-0.047798367605349,50,0.5476949804923225,0.7400641732257565,-0.62000588380572,0.1741804440563133,-0.48016254083110543,0.9999658056204075,True,-0.9573956071125771,1.4771988719018792,True,expanding_residual_calibrated_gaussian
ar,pseudo,pre_advance,DELTA_SA,2017:Q4:pre_advance:pseudo,2018-01-31,2017:Q4,0.1708964419460579,-0.0190000000000001,0.189896441946058,51,0.5369160240366202,0.7327455383942096,-0.641563028654198,0.1907629760218069,-0.5618490964481517,0.9036419803402675,True,-1.034362714514167,1.3761555984062828,True,expanding_residual_calibrated_gaussian
ar,pseudo,pre_advance,DELTA_SA,2018:Q1:pre_advance:pseudo,2018-04-30,2018:Q1,0.0389715350373021,-0.1434999999999999,0.182471535037302,52,0.5267930880403595,0.7258051308997199,-0.6300672271324429,0.18782245572880818,-0.6868335958624178,0.764776665937022,True,-1.15487166698309,1.2328147370576943,True,expanding_residual_calibrated_gaussian
ar,pseudo,pre_advance,DELTA_SA,2018:Q2:pre_advance:pseudo,2018-07-31,2018:Q2,-0.0088385496543845,0.1665000000000001,-0.1753385496543846,53,0.5170056828139263,0.7190310722172766,-0.6188201954267755,0.18500749559632343,-0.727869621871661,0.7101925225628921,True,-1.1915394166817779,1.1738623173730087,True,expanding_residual_calibrated_gaussian
ar,pseudo,pre_advance,DELTA_SA,2018:Q3:pre_advance:pseudo,2018-10-31,2018:Q3,0.0614125513665548,0.0043999999999999,0.0570125513665549,54,0.5081923625633052,0.7128761200680699,-0.5836889470322514,0.1684136175513826,-0.6514635687015151,0.7742886714346247,True,-1.111164320294503,1.2339894230276127,True,expanding_residual_calibrated_gaussian
ar,pseudo,pre_advance,DELTA_SA,2019:Q1:pre_advance:pseudo,2019-04-30,2019:Q1,0.4648889202031996,-0.1047000000000002,0.5695889202031998,55,0.49878361160320517,0.7062461409474782,-0.8963698048573119,0.338986945399842,-0.24135722074427857,1.171135061150678,True,-0.6967826062547404,1.6265604466611396,True,expanding_residual_calibrated_gaussian
ar,pseudo,pre_advance,DELTA_SA,2019:Q2:pre_advance:pseudo,2019-07-31,2019:Q2,-0.026254198058714,-0.0171000000000001,-0.0091541980587139,56,0.49460715461731874,0.7032831255030357,-0.5670275169664123,0.1644012691111298,-0.7295373235617497,0.6770289274443217,True,-1.1830519978161498,1.1305436016987216,True,expanding_residual_calibrated_gaussian
ar,pseudo,pre_advance,DELTA_SA,2019:Q3:pre_advance:pseudo,2019-10-31,2019:Q3,0.0592963312990124,0.205,-0.1457036687009876,57,0.4858482509348452,0.6970281564864114,-0.5798569928225081,0.17499861097318486,-0.637731825187399,0.7563244877854237,True,-1.0872129599849596,1.2058056225829845,True,expanding_residual_calibrated_gaussian
ar,pseudo,pre_advance,DELTA_SA,2019:Q4:pre_advance:pseudo,2020-01-31,2019:Q4,0.1665444581766966,0.0148000000000001,0.1517444581766964,58,0.47801482290201397,0.6913861604790871,-0.573967190113861,0.17480702992157698,-0.5248417023023905,0.8579306186557837,True,-0.9706845755113824,1.3037734918647756,True,expanding_residual_calibrated_gaussian
ar,pseudo,pre_advance,DELTA_SA,2020:Q1:pre_advance:pseudo,2020-04-30,2020:Q1,0.0727039693006021,-0.2644999999999999,0.3372039693006021,59,0.4699454540287458,0.6855256771476513,-0.6623476299446294,0.2250728918055988,-0.6128217078470493,0.7582296464482534,True,-1.054885427124076,1.2002933657252803,True,expanding_residual_calibrated_gaussian
ar,pseudo,pre_advance,DELTA_SA,2020:Q2:pre_advance:pseudo,2020-07-31,2020:Q2,0.2227703703745247,1.1996999999999964,-0.9769296296254716,60,0.4633299063050595,0.6806834112163007,-1.564207068240888,0.6390663462374115,-0.457913040841776,0.9034537815908255,False,-0.8968542073703079,1.3423949481193573,True,expanding_residual_calibrated_gaussian
ar,pseudo,pre_advance,DELTA_SA,2020:Q3:pre_advance:pseudo,2020-10-31,2020:Q3,2.555388340709694,-0.0142999999999986,2.5696883407096927,61,0.4731454145990595,0.6878556640742733,-7.522847625660335,2.1816380500082992,1.8675326766354208,3.2432440047839672,False,1.423966456838012,3.686810224581376,False,expanding_residual_calibrated_gaussian
ar,pseudo,pre_advance,DELTA_SA,2020:Q4:pre_advance:pseudo,2021-01-31,2020:Q4,0.6762934737196877,0.0797999999999996,0.5964934737196881,62,0.5685691512043828,0.7540352453329903,-0.9495169919172453,0.3552266664301345,-0.07774177161330253,1.430328719052678,True,-0.5639841344155245,1.9165710818549,True,expanding_residual_calibrated_gaussian
ar,pseudo,pre_advance,DELTA_SA,2021:Q1:pre_advance:pseudo,2021-04-30,2021:Q1,0.1141893782717202,0.0112000000000005,0.1029893782717197,63,0.5636130826110703,0.7507416883396515,-0.6416545472906743,0.1810721726427309,-0.6365523100679313,0.8649310666113716,True,-1.1206708106974272,1.3490495672408678,True,expanding_residual_calibrated_gaussian
ar,pseudo,pre_advance,DELTA_SA,2021:Q2:pre_advance:pseudo,2021-07-31,2021:Q2,0.1447917586216602,0.0527999999999995,0.0919917586216607,64,0.5546697293624968,0.7447615251625831,-0.6318757195786155,0.178574324882565,-0.5999697665409229,0.8895532837842433,True,-1.0802319372559246,1.3698154544992451,True,expanding_residual_calibrated_gaussian
ar,pseudo,pre_advance,DELTA_SA,2021:Q3:pre_advance:pseudo,2021-10-31,2021:Q3,0.1470672919152162,0.0880999999999998,0.0589672919152164,65,0.5460031020574964,0.7389202271270535,-0.6195573997266206,0.17455825520115806,-0.5918529352118373,0.8859875190422697,True,-1.0683483237025233,1.3624829075329559,True,expanding_residual_calibrated_gaussian
ar,pseudo,pre_advance,DELTA_SA,2021:Q4:pre_advance:pseudo,2022-01-31,2021:Q4,0.0843496025345156,0.0993000000000003,-0.0149503974654847,66,0.5376173159953284,0.7332239194102497,-0.608842267951364,0.17147235565309304,-0.648874316875734,0.8175735219447653,True,-1.1216964206750075,1.2903956257440388,True,expanding_residual_calibrated_gaussian
ar,pseudo,pre_advance,DELTA_SA,2022:Q1:pre_advance:pseudo,2022-04-30,2022:Q1,0.1550189766333507,-0.0959000000000001,0.2509189766333508,67,0.5296334449502283,0.7277591943426261,-0.6605911189768326,0.20424931942728886,-0.5727402177092754,0.8827781709759769,True,-1.0420383737283991,1.3520763269951006,True,expanding_residual_calibrated_gaussian
ar,pseudo,pre_advance,DELTA_SA,2022:Q2:pre_advance:pseudo,2022-07-31,2022:Q2,0.0252303062888912,0.3589,-0.3336696937111088,68,0.5221205833509792,0.7225791190942201,-0.7006287116837964,0.22926296027888418,-0.6973488128053289,0.7478094253831113,True,-1.1633065785126364,1.2137671910904189,True,expanding_residual_calibrated_gaussian
ar,pseudo,pre_advance,DELTA_SA,2022:Q3:pre_advance:pseudo,2022-10-31,2022:Q3,0.0582376027017708,0.3631999999999999,-0.3049623972982291,69,0.5170440952862215,0.7190577829953734,-0.6790612725907783,0.21887916290806014,-0.6608201802936026,0.7772953856971442,True,-1.1245071996458538,1.2409824050493954,True,expanding_residual_calibrated_gaussian
ar,pseudo,pre_advance,DELTA_SA,2022:Q4:pre_advance:pseudo,2023-01-31,2022:Q4,0.1085327350948528,-0.2158000000000002,0.324332735094853,70,0.5117107809798078,0.7153396263173234,-0.686725038944003,0.22485162629936795,-0.6068068912224706,0.8238723614121762,True,-1.0680962437553074,1.285161713945013,True,expanding_residual_calibrated_gaussian
ar,pseudo,pre_advance,DELTA_SA,2023:Q1:pre_advance:pseudo,2023-04-30,2023:Q1,0.0808547693367951,0.2098999999999999,-0.1290452306632048,71,0.5052529556877762,0.7108114768964948,-0.5940700358033237,0.1754337822678137,-0.6299567075596997,0.79166624623329,True,-1.0883260665151369,1.2500356051887271,True,expanding_residual_calibrated_gaussian
ar,pseudo,pre_advance,DELTA_SA,2023:Q2:pre_advance:pseudo,2023-07-31,2023:Q2,0.0786861488683192,-0.3529,0.4315861488683192,72,0.49875415056219585,0.7062252831513439,-0.7578494222821266,0.2671058040228351,-0.6275391342830248,0.7849114320196631,True,-1.0829510695679991,1.2403233673046377,True,expanding_residual_calibrated_gaussian
ar,pseudo,pre_advance,DELTA_SA,2023:Q3:pre_advance:pseudo,2023-10-31,2023:Q3,0.0656009239904817,0.2763,-0.2106990760095182,73,0.4935312336732911,0.702517781748826,-0.6108299460340085,0.18919788661757594,-0.6369168577583443,0.7681187057393076,True,-1.0899379973169774,1.221139845297941,True,expanding_residual_calibrated_gaussian
ar,pseudo,pre_advance,DELTA_SA,2023:Q4:pre_advance:pseudo,2024-01-31,2023:Q4,0.1337989225363234,-0.0709999999999997,0.2047989225363231,74,0.4879417764281283,0.6985282932194861,-0.6031380396936661,0.18702661406173296,-0.5647293706831626,0.8323272157558095,True,-1.0151778740939696,1.2827757191666165,True,expanding_residual_calibrated_gaussian
ar,pseudo,pre_advance,DELTA_SA,2024:Q1:pre_advance:pseudo,2024-04-30,2024:Q1,0.092510887819583,-0.3404999999999998,0.4330108878195828,75,0.4815565525077868,0.6939427588121276,-0.7482522844348619,0.26659644124024073,-0.6014318709925446,0.7864536466317107,True,-1.0489233759092558,1.2339451515484219,True,expanding_residual_calibrated_gaussian
ar,pseudo,pre_advance,DELTA_SA,2024:Q2:pre_advance:pseudo,2024-07-31,2024:Q2,0.0533853342525936,0.1112999999999999,-0.0579146657474063,76,0.4767625909354181,0.6904799714223564,-0.5520878085058887,0.1632984869684089,-0.6370946371697628,0.74386530567495,True,-1.0823531510788182,1.1891238195840055,True,expanding_residual_calibrated_gaussian
ar,pseudo,pre_advance,DELTA_SA,2024:Q3:pre_advance:pseudo,2024-10-31,2024:Q3,0.0945532127990609,0.0087999999999999,0.085753212799061,77,0.47075844595313016,0.6861183906244827,-0.5500438374932397,0.16461260959286741,-0.5915651778254217,0.7806716034235436,True,-1.0340111105377263,1.2231175361358482,True,expanding_residual_calibrated_gaussian
ar,pseudo,pre_advance,DELTA_SA,2024:Q4:pre_advance:pseudo,2025-01-31,2024:Q4,0.0885662047910598,0.0939000000000001,-0.0053337952089402,78,0.46464473290488045,0.6816485406020323,-0.5357280569854314,0.1593144904134395,-0.5930823358109725,0.7702147453930921,True,-1.0326458695243708,1.2097782791064904,True,expanding_residual_calibrated_gaussian
ar,pseudo,pre_second,DELTA_TS,2008:Q1:pre_second:pseudo,2008-05-31,2008:Q1,0.0600251098958206,0.0587,0.0013251098958205,12,0.05163235358648373,0.22722753703388093,0.5628478605106191,0.053105016943716485,-0.16720242713806033,0.28725264692970154,True,-0.3137309285376084,0.43378114832924963,True,expanding_residual_calibrated_gaussian
ar,pseudo,pre_second,DELTA_TS,2008:Q2:pre_second:pseudo,2008-08-31,2008:Q2,0.100772173228941,-0.4531,0.5538721732289411,13,0.04746467013458396,0.21786387983000755,-2.626661389178188,0.4317210799179194,-0.11709170660106655,0.31863605305894854,False,-0.2575820196911666,0.4591263661490486,False,expanding_residual_calibrated_gaussian
ar,pseudo,pre_second,DELTA_TS,2008:Q3:pre_second:pseudo,2008-11-30,2008:Q3,-0.1583427007994933,0.0033999999999999,-0.1617427007994932,14,0.0626755102994184,0.2503507745133184,0.25725416590968936,0.09880196316323268,-0.4086934753128117,0.09200807371382508,True,-0.5701330802678353,0.2534476786688486,True,expanding_residual_calibrated_gaussian
ar,pseudo,pre_second,DELTA_TS,2008:Q4:pre_second:pseudo,2009-02-28,2008:Q4,0.0931111879520567,-0.0942999999999996,0.1874111879520563,15,0.06198909538547986,0.24897609400398235,0.1881604110330149,0.11194906717547887,-0.15586490605192566,0.34208728195603905,True,-0.3164180432946044,0.5026404191987177,True,expanding_residual_calibrated_gaussian
ar,pseudo,pre_second,DELTA_TS,2009:Q1:pre_second:pseudo,2009-05-31,2009:Q1,0.1325678027393972,0.2259999999999999,-0.0934321972606027,16,0.05885829135750111,0.24260727803901744,0.4232151815776731,0.07087615222568355,-0.11003947529962024,0.37517508077841466,True,-0.26648565846790484,0.5316212639466993,True,expanding_residual_calibrated_gaussian
ar,pseudo,pre_second,DELTA_TS,2009:Q2:pre_second:pseudo,2009-08-31,2009:Q2,0.2749823419517103,0.2766999999999999,-0.0017176580482896,17,0.05672629505267802,0.2381728260164833,0.5157941707708975,0.05566473500679489,0.036809515935226994,0.5131551679681936,True,-0.1167770947627842,0.6667417786662048,True,expanding_residual_calibrated_gaussian
ar,pseudo,pre_second,DELTA_TS,2009:Q3:pre_second:pseudo,2009-11-30,2009:Q3,0.2248763601779096,-0.5463999999999998,0.7712763601779095,18,0.05359548775522431,0.2315069928862286,-5.005395070078936,0.640714775976085,-0.006630632708319012,0.45638335306413824,False,-0.15591875673563219,0.6056714770914514,False,expanding_residual_calibrated_gaussian
ar,pseudo,pre_second,DELTA_TS,2009:Q4:pre_second:pseudo,2010-02-28,2009:Q4,-0.2121082936084128,-0.3730000000000002,0.1608917063915873,19,0.07756059854534765,0.2784970350746084,0.1925324538513868,0.10116689856159168,-0.4906053286830212,0.06638874146619558,True,-0.6701951518461138,0.24597856462928816,True,expanding_residual_calibrated_gaussian
ar,pseudo,pre_second,DELTA_TS,2010:Q1:pre_second:pseudo,2010-05-31,2010:Q1,-0.1805736028353486,-0.2984,0.1178263971646513,20,0.07370585262747227,0.27148821821116337,0.29071918649301176,0.08353180887789231,-0.45206182104651194,0.09091461537581477,True,-0.6271319832345734,0.2659847775638762,True,expanding_residual_calibrated_gaussian
ar,pseudo,pre_second,DELTA_TS,2010:Q2:pre_second:pseudo,2010-08-31,2010:Q2,-0.1040265308932921,0.1048,-0.2088265308932921,21,0.0700415606353572,0.26465366167003473,0.09909011187963435,0.12437470579677638,-0.36868019256332685,0.16062713077674262,True,-0.5393430661772365,0.3312900043906523,True,expanding_residual_calibrated_gaussian
ar,pseudo,pre_second,DELTA_TS,2010:Q3:pre_second:pseudo,2010-11-30,2010:Q3,0.0998453241604311,0.0339999999999998,0.0658453241604313,22,0.07098060420561815,0.2664218538438958,0.3731949917430748,0.06872077705514933,-0.16657652968346467,0.36626717800432684,True,-0.33837962843383584,0.5380702767546981,True,expanding_residual_calibrated_gaussian
ar,pseudo,pre_second,DELTA_TS,2010:Q4:pre_second:pseudo,2011-02-28,2010:Q4,0.0543732040476938,0.3264,-0.2720267959523061,23,0.06776836589807013,0.26032357922030447,-0.11907560904074532,0.1649447553761277,-0.20595037517261067,0.31469678326799827,False,-0.3738209794138129,0.48256738750920053,True,expanding_residual_calibrated_gaussian
ar,pseudo,pre_second,DELTA_TS,2011:Q1:pre_second:pseudo,2011-05-31,2011:Q1,0.1840968521247026,0.0726999999999999,0.1113968521247026,24,0.0700767944659788,0.264720219223955,0.3216028266462603,0.08029379847534159,-0.08062336709925241,0.44881707134865756,True,-0.25132916059320864,0.6195228648426138,True,expanding_residual_calibrated_gaussian
ar,pseudo,pre_second,DELTA_TS,2011:Q2:pre_second:pseudo,2011-08-31,2011:Q2,0.0826892785471069,0.3447000000000001,-0.2620107214528931,25,0.06723120147378164,0.25928980210139707,-0.07967841508900364,0.15807132817787437,-0.17660052355429018,0.34197908064850396,False,-0.34380449287090553,0.5091830499651193,True,expanding_residual_calibrated_gaussian
ar,pseudo,pre_second,DELTA_TS,2011:Q3:pre_second:pseudo,2011-11-30,2011:Q3,0.2196184979915967,-0.1896000000000002,0.4092184979915969,26,0.0687823645686042,0.26226392159159867,-0.7978508272343043,0.27462997961339586,-0.04264542360000198,0.48188241958319533,False,-0.21176726465686088,0.6510042606400542,True,expanding_residual_calibrated_gaussian
ar,pseudo,pre_second,DELTA_TS,2011:Q4:pre_second:pseudo,2012-02-29,2011:Q4,-0.0390680507254161,-0.0276,-0.0114680507254161,27,0.07072487799945637,0.26594149356476204,0.404610637026921,0.062346449860018395,-0.3050095442901781,0.22687344283934593,True,-0.47650288097230653,0.39836677952147437,True,expanding_residual_calibrated_gaussian
ar,pseudo,pre_second,DELTA_TS,2012:Q1:pre_second:pseudo,2012-05-31,2012:Q1,0.0201593821295551,0.0121,0.0080593821295551,28,0.06834419067188502,0.26142721868980096,0.42218562838517315,0.061193340410660345,-0.24126783656024586,0.28158660081935605,True,-0.4098501267161997,0.4501688909753099,True,expanding_residual_calibrated_gaussian
ar,pseudo,pre_second,DELTA_TS,2012:Q2:pre_second:pseudo,2012-08-31,2012:Q2,0.0542284222174149,-0.4791000000000001,0.533328422217415,29,0.0660246454454121,0.2569526132293892,-1.7141130551230463,0.39191347773713875,-0.20272419101197434,0.31118103544680414,False,-0.36842101560760476,0.4768778600424346,False,expanding_residual_calibrated_gaussian
ar,pseudo,pre_second,DELTA_TS,2012:Q3:pre_second:pseudo,2012-11-30,2012:Q3,-0.1690199464195982,0.4342999999999999,-0.6033199464195982,30,0.07104872098788102,0.2665496595155976,-2.158330803572821,0.4551067689720561,-0.4355696059351958,0.09752971309599942,False,-0.607455120636509,0.26941522779731253,False,expanding_residual_calibrated_gaussian
ar,pseudo,pre_second,DELTA_TS,2012:Q4:pre_second:pseudo,2013-02-28,2012:Q4,0.2334352574488747,0.2525,-0.0190647425511252,31,0.08378353873722587,0.2894538628818518,0.31865176161176306,0.06814468083535447,-0.056018605432977125,0.5228891203307265,True,-0.24267397874745336,0.7095444936452028,True,expanding_residual_calibrated_gaussian
ar,pseudo,pre_second,DELTA_TS,2013:Q1:pre_second:pseudo,2013-05-31,2013:Q1,0.1899848579887264,-0.6094000000000002,0.7993848579887266,32,0.0812705840721508,0.2850799608393245,-3.595364050458443,0.6389737591489406,-0.0950951028505981,0.47506481882805096,False,-0.2789299495690202,0.6588996655464731,False,expanding_residual_calibrated_gaussian
ar,pseudo,pre_second,DELTA_TS,2013:Q2:pre_second:pseudo,2013-08-31,2013:Q2,-0.2371281731179624,-0.0339999999999998,-0.2031281731179626,33,0.09545799770109731,0.30896277720964593,0.03947442035874607,0.12364138035506043,-0.5460909503276083,0.07183460409168355,True,-0.7453267178042482,0.27107037156832336,True,expanding_residual_calibrated_gaussian
ar,pseudo,pre_second,DELTA_TS,2013:Q3:pre_second:pseudo,2013-11-30,2013:Q3,0.0214258366188206,0.5327999999999999,-0.5113741633811792,34,0.09490532510322071,0.3080670789020156,-1.119208189406339,0.3499810768410606,-0.28664124228319504,0.3294929155208362,False,-0.4852994154575052,0.5281510886951464,False,expanding_residual_calibrated_gaussian
ar,pseudo,pre_second,DELTA_TS,2013:Q4:pre_second:pseudo,2014-02-28,2013:Q4,0.2638284005265996,0.2418,0.0220284005265996,35,0.10179226846287516,0.31904900636559763,0.2210884969798185,0.0751666716739282,-0.055220605838998016,0.5828774068921972,True,-0.26096051476911697,0.7886173158223162,True,expanding_residual_calibrated_gaussian
ar,pseudo,pre_second,DELTA_TS,2014:Q1:pre_second:pseudo,2014-05-31,2014:Q1,0.1500423574002036,-1.9455,2.0955423574002037,36,0.09891233029446758,0.3145033072870102,-21.960106853684337,1.9181028674387677,-0.1644609498868066,0.4645456646872138,False,-0.3672695482790685,0.6673542630794758,False,expanding_residual_calibrated_gaussian
ar,pseudo,pre_second,DELTA_TS,2014:Q2:pre_second:pseudo,2014-08-31,2014:Q2,-0.7957150664800472,0.4200999999999997,-1.215815066480047,37,0.20890749744655665,0.4570639971016714,-3.673951203083005,0.9590478704207419,-1.2527790635817186,-0.3386510693783758,False,-1.5475184398616686,-0.0439116930984258,False,expanding_residual_calibrated_gaussian
ar,pseudo,pre_second,DELTA_TS,2014:Q3:pre_second:pseudo,2014-11-30,2014:Q3,0.18616178702778,1.0710000000000002,-0.8848382129722201,38,0.24940188373217378,0.4994015255605191,-1.7942263043341802,0.6183835907356846,-0.3132397385327391,0.6855633125882991,False,-0.6352806235955382,1.007604197651098,False,expanding_residual_calibrated_gaussian
