haminh109/Revision-Aware-DFM/outputs/full_state_space_release_revision_dfm/frozen/q2_manuscript_best_v1/mature_robustness_runs/mature_1y/run_dir/forecast_results.csv
model_id,timing_mode,forecast_origin,forecast_origin_date,checkpoint_id,target_id,target_quarter,forecast_value,forecast_variance,forecast_sd,density_source,realized_value,forecast_error,revision_target_flag,converged,n_iter,loglikelihood,llf_initial,llf_final,llf_last_improvement,llf_relative_last_improvement,llf_history_length,n_indicators,initialization_seed,initialization_jitter
ar,exact,2005:Q1:pre_advance:exact,2005-04-27,pre_advance,A,2005:Q1,2.91427503282673,,,not_available,3.0876,-0.17332496717326995,False,True,0,,,,,,,13,,0.0
no_revision,exact,2005:Q1:pre_advance:exact,2005-04-27,pre_advance,A,2005:Q1,2.979208231416087,,,not_available,3.0876,-0.10839176858391308,False,True,0,,,,,,,13,,0.0
bridge,exact,2005:Q1:pre_advance:exact,2005-04-27,pre_advance,A,2005:Q1,3.0281594575852124,,,not_available,3.0876,-0.05944054241478769,False,True,0,,,,,,,13,,0.0
midas_umidas,exact,2005:Q1:pre_advance:exact,2005-04-27,pre_advance,A,2005:Q1,16.786138488129456,,,not_available,3.0876,13.698538488129456,False,True,0,,,,,,,13,,0.0
monthly_mixed_frequency_kalman_em,exact,2005:Q1:pre_advance:exact,2005-04-27,pre_advance,A,2005:Q1,1.6133472620504123,4.40230425070024,2.098166878658664,model_implied_state_space,3.0876,-1.4742527379495878,False,False,100,-2847.5333198164153,-3753.6819855982853,-2847.5333198164153,0.7115317784187027,0.00024972644173435306,101.0,13,,0.0
standard_dfm,exact,2005:Q1:pre_advance:exact,2005-04-27,pre_advance,A,2005:Q1,3.24407388138464,,,not_available,3.0876,0.15647388138464002,False,True,0,,,,,,,13,,0.0
release_dfm,exact,2005:Q1:pre_advance:exact,2005-04-27,pre_advance,A,2005:Q1,3.24407388138464,,,not_available,3.0876,0.15647388138464002,False,True,0,,,,,,,13,,0.0
revision_dfm_kalman_em,exact,2005:Q1:pre_advance:exact,2005-04-27,pre_advance,A,2005:Q1,2.8516874044596907,6.17556870164779,2.485069154298888,model_implied_state_space,3.0876,-0.2359125955403094,False,True,32,-917.6829373739922,-1763.7892868605556,-917.6829373739922,0.08857294968174756,9.640367456599106e-05,32.0,13,,0.0
indicator_revision_only_dfm_kalman_em,exact,2005:Q1:pre_advance:exact,2005-04-27,pre_advance,A,2005:Q1,4.559144789335375,7.7812639155202294,2.789491694829047,model_implied_state_space,3.0876,1.4715447893353746,False,True,41,-1687.5914992509581,-2601.9389575226114,-1687.5914992509581,0.16437172482369533,9.733302939087313e-05,41.0,13,,0.0
joint_indicator_revision_dfm_full_kalman_em,exact,2005:Q1:pre_advance:exact,2005-04-27,pre_advance,A,2005:Q1,3.452014357805629,6.1321524137146195,2.476318318333614,model_implied_state_space,3.0876,0.3644143578056287,False,True,37,-1656.4458670540416,-2614.3997397592493,-1656.4458670540416,0.1653447752462398,9.974882775061016e-05,37.0,13,,0.0
ar,exact,2005:Q1:pre_second:exact,2005-05-25,pre_second,S,2005:Q1,3.2499698412702402,,,not_available,3.4827,-0.23273015872975966,False,True,0,,,,,,,13,,0.0
no_revision,exact,2005:Q1:pre_second:exact,2005-05-25,pre_second,S,2005:Q1,3.0876,,,not_available,3.4827,-0.3950999999999998,False,True,0,,,,,,,13,,0.0
bridge,exact,2005:Q1:pre_second:exact,2005-05-25,pre_second,S,2005:Q1,3.2504980081513053,,,not_available,3.4827,-0.2322019918486946,False,True,0,,,,,,,13,,0.0
midas_umidas,exact,2005:Q1:pre_second:exact,2005-05-25,pre_second,S,2005:Q1,2.991623437602582,,,not_available,3.4827,-0.49107656239741804,False,True,0,,,,,,,13,,0.0
monthly_mixed_frequency_kalman_em,exact,2005:Q1:pre_second:exact,2005-05-25,pre_second,S,2005:Q1,2.9724397006993137,0.33481019874883233,0.5786278586007005,model_implied_state_space,3.4827,-0.5102602993006862,False,False,100,-2872.3234827995566,-3772.642475673925,-2872.3234827995566,0.5853677306245118,0.00020368347121256912,101.0,13,,0.0
standard_dfm,exact,2005:Q1:pre_second:exact,2005-05-25,pre_second,S,2005:Q1,3.3895048532491394,,,not_available,3.4827,-0.09319514675086049,False,True,0,,,,,,,13,,0.0
release_dfm,exact,2005:Q1:pre_second:exact,2005-05-25,pre_second,S,2005:Q1,3.254643629342127,,,not_available,3.4827,-0.22805637065787288,False,True,0,,,,,,,13,,0.0
revision_dfm_kalman_em,exact,2005:Q1:pre_second:exact,2005-05-25,pre_second,S,2005:Q1,3.160930276028983,0.4043790123327968,0.6359080219126008,model_implied_state_space,3.4827,-0.3217697239710171,False,True,41,-918.2394996887441,-1761.8092904364337,-918.2394996887441,0.08800216510303471,9.572449962127329e-05,41.0,13,,0.0
indicator_revision_only_dfm_kalman_em,exact,2005:Q1:pre_second:exact,2005-05-25,pre_second,S,2005:Q1,3.161845242222353,0.4255646215011306,0.652353141711704,model_implied_state_space,3.4827,-0.32085475777764705,False,True,44,-1688.741883576326,-2603.024791260359,-1688.741883576326,0.16215256719465287,9.595371318521517e-05,44.0,13,,0.0
joint_indicator_revision_dfm_full_kalman_em,exact,2005:Q1:pre_second:exact,2005-05-25,pre_second,S,2005:Q1,3.2964374879001435,0.39058449583377963,0.6249675958269993,model_implied_state_space,3.4827,-0.18626251209985645,False,True,40,-1657.1871746326292,-2615.610805044669,-1657.1871746326292,0.1592670873503721,9.603969553260885e-05,40.0,13,,0.0
ar,exact,2005:Q1:pre_third:exact,2005-06-28,pre_third,T,2005:Q1,3.2971112010822035,,,not_available,3.7592,-0.4620887989177964,False,True,0,,,,,,,13,,0.0
no_revision,exact,2005:Q1:pre_third:exact,2005-06-28,pre_third,T,2005:Q1,3.4827,,,not_available,3.7592,-0.27649999999999997,False,True,0,,,,,,,13,,0.0
bridge,exact,2005:Q1:pre_third:exact,2005-06-28,pre_third,T,2005:Q1,3.424443690986255,,,not_available,3.7592,-0.33475630901374487,False,True,0,,,,,,,13,,0.0
midas_umidas,exact,2005:Q1:pre_third:exact,2005-06-28,pre_third,T,2005:Q1,2.7162909836537876,,,not_available,3.7592,-1.0429090163462122,False,True,0,,,,,,,13,,0.0
monthly_mixed_frequency_kalman_em,exact,2005:Q1:pre_third:exact,2005-06-28,pre_third,T,2005:Q1,3.419813378428927,0.13619258437572804,0.369042794775522,model_implied_state_space,3.7592,-0.339386621571073,False,False,100,-2891.7278987983586,-3791.7883706239404,-2891.7278987983586,0.5647823051294836,0.0001952040002099194,101.0,13,,0.0
standard_dfm,exact,2005:Q1:pre_third:exact,2005-06-28,pre_third,T,2005:Q1,3.499538269410058,,,not_available,3.7592,-0.2596617305899418,False,True,0,,,,,,,13,,0.0
release_dfm,exact,2005:Q1:pre_third:exact,2005-06-28,pre_third,T,2005:Q1,3.5257836412759955,,,not_available,3.7592,-0.23341635872400435,False,True,0,,,,,,,13,,0.0
revision_dfm_kalman_em,exact,2005:Q1:pre_third:exact,2005-06-28,pre_third,T,2005:Q1,3.4590758200273917,0.13715320504278544,0.37034201090719565,model_implied_state_space,3.7592,-0.3001241799726082,False,True,33,-918.1632804362703,-1766.176781758585,-918.1632804362703,0.08685712693943515,9.448693384988768e-05,33.0,13,,0.0
indicator_revision_only_dfm_kalman_em,exact,2005:Q1:pre_third:exact,2005-06-28,pre_third,T,2005:Q1,3.459443534468135,0.14127221343517124,0.37586196061209926,model_implied_state_space,3.7592,-0.29975646553186497,False,True,30,-1685.4311166190744,-2607.0495654498686,-1685.4311166190744,0.15944534481241135,9.453707877195235e-05,30.0,13,,0.0
joint_indicator_revision_dfm_full_kalman_em,exact,2005:Q1:pre_third:exact,2005-06-28,pre_third,T,2005:Q1,3.458294198392182,0.1353287596016445,0.3678705745253954,model_implied_state_space,3.7592,-0.30090580160781766,False,True,33,-1653.2906446392676,-2619.44158292494,-1653.2906446392676,0.16157967130425277,9.766354623602671e-05,33.0,13,,0.0
ar,pseudo,2005:Q1:pre_advance:pseudo,2005-04-30,pre_advance,A,2005:Q1,2.91427503282673,,,not_available,3.0876,-0.17332496717326995,False,True,0,,,,,,,13,,0.0
no_revision,pseudo,2005:Q1:pre_advance:pseudo,2005-04-30,pre_advance,A,2005:Q1,2.979208231416087,,,not_available,3.0876,-0.10839176858391308,False,True,0,,,,,,,13,,0.0
bridge,pseudo,2005:Q1:pre_advance:pseudo,2005-04-30,pre_advance,A,2005:Q1,3.0281594575852124,,,not_available,3.0876,-0.05944054241478769,False,True,0,,,,,,,13,,0.0
midas_umidas,pseudo,2005:Q1:pre_advance:pseudo,2005-04-30,pre_advance,A,2005:Q1,16.786138488129456,,,not_available,3.0876,13.698538488129456,False,True,0,,,,,,,13,,0.0
monthly_mixed_frequency_kalman_em,pseudo,2005:Q1:pre_advance:pseudo,2005-04-30,pre_advance,A,2005:Q1,1.6133472620504123,4.40230425070024,2.098166878658664,model_implied_state_space,3.0876,-1.4742527379495878,False,False,100,-2847.5333198164153,-3753.6819855982853,-2847.5333198164153,0.7115317784187027,0.00024972644173435306,101.0,13,,0.0
standard_dfm,pseudo,2005:Q1:pre_advance:pseudo,2005-04-30,pre_advance,A,2005:Q1,3.24407388138464,,,not_available,3.0876,0.15647388138464002,False,True,0,,,,,,,13,,0.0
release_dfm,pseudo,2005:Q1:pre_advance:pseudo,2005-04-30,pre_advance,A,2005:Q1,3.24407388138464,,,not_available,3.0876,0.15647388138464002,False,True,0,,,,,,,13,,0.0
revision_dfm_kalman_em,pseudo,2005:Q1:pre_advance:pseudo,2005-04-30,pre_advance,A,2005:Q1,2.8516874044596907,6.17556870164779,2.485069154298888,model_implied_state_space,3.0876,-0.2359125955403094,False,True,32,-917.6829373739922,-1763.7892868605556,-917.6829373739922,0.08857294968174756,9.640367456599106e-05,32.0,13,,0.0
indicator_revision_only_dfm_kalman_em,pseudo,2005:Q1:pre_advance:pseudo,2005-04-30,pre_advance,A,2005:Q1,4.559144789335375,7.7812639155202294,2.789491694829047,model_implied_state_space,3.0876,1.4715447893353746,False,True,41,-1687.5914992509581,-2601.9389575226114,-1687.5914992509581,0.16437172482369533,9.733302939087313e-05,41.0,13,,0.0
joint_indicator_revision_dfm_full_kalman_em,pseudo,2005:Q1:pre_advance:pseudo,2005-04-30,pre_advance,A,2005:Q1,3.452014357805629,6.1321524137146195,2.476318318333614,model_implied_state_space,3.0876,0.3644143578056287,False,True,37,-1656.4458670540416,-2614.3997397592493,-1656.4458670540416,0.1653447752462398,9.974882775061016e-05,37.0,13,,0.0
ar,pseudo,2005:Q1:pre_second:pseudo,2005-05-31,pre_second,S,2005:Q1,3.2499698412702402,,,not_available,3.4827,-0.23273015872975966,False,True,0,,,,,,,13,,0.0
no_revision,pseudo,2005:Q1:pre_second:pseudo,2005-05-31,pre_second,S,2005:Q1,3.0876,,,not_available,3.4827,-0.3950999999999998,False,True,0,,,,,,,13,,0.0
bridge,pseudo,2005:Q1:pre_second:pseudo,2005-05-31,pre_second,S,2005:Q1,3.2504980081513053,,,not_available,3.4827,-0.2322019918486946,False,True,0,,,,,,,13,,0.0
midas_umidas,pseudo,2005:Q1:pre_second:pseudo,2005-05-31,pre_second,S,2005:Q1,2.991623437602582,,,not_available,3.4827,-0.49107656239741804,False,True,0,,,,,,,13,,0.0
monthly_mixed_frequency_kalman_em,pseudo,2005:Q1:pre_second:pseudo,2005-05-31,pre_second,S,2005:Q1,2.9724397006993137,0.33481019874883233,0.5786278586007005,model_implied_state_space,3.4827,-0.5102602993006862,False,False,100,-2872.3234827995566,-3772.642475673925,-2872.3234827995566,0.5853677306245118,0.00020368347121256912,101.0,13,,0.0
standard_dfm,pseudo,2005:Q1:pre_second:pseudo,2005-05-31,pre_second,S,2005:Q1,3.3895048532491394,,,not_available,3.4827,-0.09319514675086049,False,True,0,,,,,,,13,,0.0
release_dfm,pseudo,2005:Q1:pre_second:pseudo,2005-05-31,pre_second,S,2005:Q1,3.254643629342127,,,not_available,3.4827,-0.22805637065787288,False,True,0,,,,,,,13,,0.0
revision_dfm_kalman_em,pseudo,2005:Q1:pre_second:pseudo,2005-05-31,pre_second,S,2005:Q1,3.160930276028983,0.4043790123327968,0.6359080219126008,model_implied_state_space,3.4827,-0.3217697239710171,False,True,41,-918.2394996887441,-1761.8092904364337,-918.2394996887441,0.08800216510303471,9.572449962127329e-05,41.0,13,,0.0
indicator_revision_only_dfm_kalman_em,pseudo,2005:Q1:pre_second:pseudo,2005-05-31,pre_second,S,2005:Q1,3.161845242222353,0.4255646215011306,0.652353141711704,model_implied_state_space,3.4827,-0.32085475777764705,False,True,44,-1688.741883576326,-2603.024791260359,-1688.741883576326,0.16215256719465287,9.595371318521517e-05,44.0,13,,0.0
joint_indicator_revision_dfm_full_kalman_em,pseudo,2005:Q1:pre_second:pseudo,2005-05-31,pre_second,S,2005:Q1,3.2964374879001435,0.39058449583377963,0.6249675958269993,model_implied_state_space,3.4827,-0.18626251209985645,False,True,40,-1657.1871746326292,-2615.610805044669,-1657.1871746326292,0.1592670873503721,9.603969553260885e-05,40.0,13,,0.0
ar,pseudo,2005:Q1:pre_third:pseudo,2005-06-30,pre_third,T,2005:Q1,3.2971112010822035,,,not_available,3.7592,-0.4620887989177964,False,True,0,,,,,,,13,,0.0
no_revision,pseudo,2005:Q1:pre_third:pseudo,2005-06-30,pre_third,T,2005:Q1,3.4827,,,not_available,3.7592,-0.27649999999999997,False,True,0,,,,,,,13,,0.0
bridge,pseudo,2005:Q1:pre_third:pseudo,2005-06-30,pre_third,T,2005:Q1,3.424443690986255,,,not_available,3.7592,-0.33475630901374487,False,True,0,,,,,,,13,,0.0
midas_umidas,pseudo,2005:Q1:pre_third:pseudo,2005-06-30,pre_third,T,2005:Q1,2.7162909836537876,,,not_available,3.7592,-1.0429090163462122,False,True,0,,,,,,,13,,0.0
monthly_mixed_frequency_kalman_em,pseudo,2005:Q1:pre_third:pseudo,2005-06-30,pre_third,T,2005:Q1,3.419813378428927,0.13619258437572804,0.369042794775522,model_implied_state_space,3.7592,-0.339386621571073,False,False,100,-2891.7278987983586,-3791.7883706239404,-2891.7278987983586,0.5647823051294836,0.0001952040002099194,101.0,13,,0.0
standard_dfm,pseudo,2005:Q1:pre_third:pseudo,2005-06-30,pre_third,T,2005:Q1,3.499538269410058,,,not_available,3.7592,-0.2596617305899418,False,True,0,,,,,,,13,,0.0
release_dfm,pseudo,2005:Q1:pre_third:pseudo,2005-06-30,pre_third,T,2005:Q1,3.5257836412759955,,,not_available,3.7592,-0.23341635872400435,False,True,0,,,,,,,13,,0.0
revision_dfm_kalman_em,pseudo,2005:Q1:pre_third:pseudo,2005-06-30,pre_third,T,2005:Q1,3.4590758200273917,0.13715320504278544,0.37034201090719565,model_implied_state_space,3.7592,-0.3001241799726082,False,True,33,-918.1632804362703,-1766.176781758585,-918.1632804362703,0.08685712693943515,9.448693384988768e-05,33.0,13,,0.0
indicator_revision_only_dfm_kalman_em,pseudo,2005:Q1:pre_third:pseudo,2005-06-30,pre_third,T,2005:Q1,3.459443534468135,0.14127221343517124,0.37586196061209926,model_implied_state_space,3.7592,-0.29975646553186497,False,True,30,-1685.4311166190744,-2607.0495654498686,-1685.4311166190744,0.15944534481241135,9.453707877195235e-05,30.0,13,,0.0
joint_indicator_revision_dfm_full_kalman_em,pseudo,2005:Q1:pre_third:pseudo,2005-06-30,pre_third,T,2005:Q1,3.458294198392182,0.1353287596016445,0.3678705745253954,model_implied_state_space,3.7592,-0.30090580160781766,False,True,33,-1653.2906446392676,-2619.44158292494,-1653.2906446392676,0.16157967130425277,9.766354623602671e-05,33.0,13,,0.0
ar,exact,2005:Q2:pre_advance:exact,2005-07-28,pre_advance,A,2005:Q2,2.8861030313857308,,,not_available,3.414,-0.5278969686142694,False,True,0,,,,,,,13,,0.0
no_revision,exact,2005:Q2:pre_advance:exact,2005-07-28,pre_advance,A,2005:Q2,2.8763111567077075,,,not_available,3.414,-0.5376888432922926,False,True,0,,,,,,,13,,0.0
bridge,exact,2005:Q2:pre_advance:exact,2005-07-28,pre_advance,A,2005:Q2,3.263586255310559,,,not_available,3.414,-0.15041374468944113,False,True,0,,,,,,,13,,0.0
midas_umidas,exact,2005:Q2:pre_advance:exact,2005-07-28,pre_advance,A,2005:Q2,-11.475117342172844,,,not_available,3.414,-14.889117342172844,False,True,0,,,,,,,13,,0.0
monthly_mixed_frequency_kalman_em,exact,2005:Q2:pre_advance:exact,2005-07-28,pre_advance,A,2005:Q2,3.856381577037656,4.367222989499143,2.089790178343066,model_implied_state_space,3.414,0.442381577037656,False,False,100,-2906.6216993269322,-3812.7855042159513,-2906.6216993269322,0.6175365371263979,0.00021234034996537118,101.0,13,,0.0
standard_dfm,exact,2005:Q2:pre_advance:exact,2005-07-28,pre_advance,A,2005:Q2,3.0949558019625814,,,not_available,3.414,-0.3190441980374188,False,True,0,,,,,,,13,,0.0
release_dfm,exact,2005:Q2:pre_advance:exact,2005-07-28,pre_advance,A,2005:Q2,3.0949558019625814,,,not_available,3.414,-0.3190441980374188,False,True,0,,,,,,,13,,0.0
revision_dfm_kalman_em,exact,2005:Q2:pre_advance:exact,2005-07-28,pre_advance,A,2005:Q2,2.503093270444252,6.208246122155742,2.4916352305575833,model_implied_state_space,3.414,-0.910906729555748,False,True,32,-935.2781989918305,-1786.0745281261366,-935.2781989918305,0.08962225449511152,9.571265955703431e-05,32.0,13,,0.0
indicator_revision_only_dfm_kalman_em,exact,2005:Q2:pre_advance:exact,2005-07-28,pre_advance,A,2005:Q2,4.301072577194337,7.309206501776079,2.703554419976798,model_implied_state_space,3.414,0.8870725771943371,False,True,44,-1718.930223960747,-2641.0455135954835,-1718.930223960747,0.162137308020192,9.426081509983392e-05,44.0,13,,0.0
joint_indicator_revision_dfm_full_kalman_em,exact,2005:Q2:pre_advance:exact,2005-07-28,pre_advance,A,2005:Q2,4.021635792881513,5.245852391606367,2.2903825862956535,model_implied_state_space,3.414,0.607635792881513,False,True,50,-1691.0613074248802,-2653.6008573223517,-1691.0613074248802,0.1537325755978145,9.084695027753155e-05,50.0,13,,0.0
ar,exact,2005:Q2:pre_second:exact,2005-08-30,pre_second,S,2005:Q2,3.1044419421848652,,,not_available,3.2872,-0.18275805781513466,False,True,0,,,,,,,13,,0.0
no_revision,exact,2005:Q2:pre_second:exact,2005-08-30,pre_second,S,2005:Q2,3.414,,,not_available,3.2872,0.12680000000000025,False,True,0,,,,,,,13,,0.0
bridge,exact,2005:Q2:pre_second:exact,2005-08-30,pre_second,S,2005:Q2,3.4612755095476757,,,not_available,3.2872,0.1740755095476758,False,True,0,,,,,,,13,,0.0
midas_umidas,exact,2005:Q2:pre_second:exact,2005-08-30,pre_second,S,2005:Q2,2.398188482000378,,,not_available,3.2872,-0.8890115179996219,False,True,0,,,,,,,13,,0.0
monthly_mixed_frequency_kalman_em,exact,2005:Q2:pre_second:exact,2005-08-30,pre_second,S,2005:Q2,3.5048856344326067,0.33356279301490843,0.5775489529164679,model_implied_state_space,3.2872,0.2176856344326068,False,False,100,-2926.242959283861,-3832.67269598607,-2926.242959283861,0.6248814676409893,0.0002134254350362343,101.0,13,,0.0
standard_dfm,exact,2005:Q2:pre_second:exact,2005-08-30,pre_second,S,2005:Q2,3.1619076245312066,,,not_available,3.2872,-0.12529237546879335,False,True,0,,,,,,,13,,0.0
release_dfm,exact,2005:Q2:pre_second:exact,2005-08-30,pre_second,S,2005:Q2,3.5854204859407894,,,not_available,3.2872,0.29822048594078954,False,True,0,,,,,,,13,,0.0
revision_dfm_kalman_em,exact,2005:Q2:pre_second:exact,2005-08-30,pre_second,S,2005:Q2,3.5202519441249462,0.40210868876572375,0.6341204055743072,model_implied_state_space,3.2872,0.23305194412494634,False,True,40,-938.4389214346778,-1785.751432994704,-938.4389214346778,0.08716806958818779,9.277876427484987e-05,40.0,13,,0.0
indicator_revision_only_dfm_kalman_em,exact,2005:Q2:pre_second:exact,2005-08-30,pre_second,S,2005:Q2,3.425559593377705,0.42827196897888137,0.6544249146990672,model_implied_state_space,3.2872,0.1383595933777051,False,True,31,-1722.0413772984089,-2647.593554745467,-1722.0413772984089,0.16214097369743286,9.409275920003642e-05,31.0,13,,0.0
joint_indicator_revision_dfm_full_kalman_em,exact,2005:Q2:pre_second:exact,2005-08-30,pre_second,S,2005:Q2,3.672318077923328,0.38694020778258326,0.6220451814640021,model_implied_state_space,3.2872,0.3851180779233281,False,True,33,-1690.039394747571,-2660.106423995111,-1690.039394747571,0.16125535578134986,9.53496297269607e-05,33.0,13,,0.0
ar,exact,2005:Q2:pre_third:exact,2005-09-28,pre_third,T,2005:Q2,3.2616822864055117,,,not_available,3.3096,-0.047917713594488376,False,True,0,,,,,,,13,,0.0
no_revision,exact,2005:Q2:pre_third:exact,2005-09-28,pre_third,T,2005:Q2,3.2872,,,not_available,3.3096,-0.022400000000000198,False,True,0,,,,,,,13,,0.0
bridge,exact,2005:Q2:pre_third:exact,2005-09-28,pre_third,T,2005:Q2,4.014211750324724,,,not_available,3.3096,0.7046117503247236,False,True,0,,,,,,,13,,0.0
midas_umidas,exact,2005:Q2:pre_third:exact,2005-09-28,pre_third,T,2005:Q2,3.8442442465060624,,,not_available,3.3096,0.5346442465060623,False,True,0,,,,,,,13,,0.0
monthly_mixed_frequency_kalman_em,exact,2005:Q2:pre_third:exact,2005-09-28,pre_third,T,2005:Q2,3.3508470176583995,0.1347327851071978,0.36705964788736695,model_implied_state_space,3.3096,0.04124701765839944,False,False,100,-2942.091340331272,-3852.593252511117,-2942.091340331272,0.6974822319780287,0.00023693351460269112,101.0,13,,0.0
standard_dfm,exact,2005:Q2:pre_third:exact,2005-09-28,pre_third,T,2005:Q2,3.2867577792956033,,,not_available,3.3096,-0.022842220704396787,False,True,0,,,,,,,13,,0.0
release_dfm,exact,2005:Q2:pre_third:exact,2005-09-28,pre_third,T,2005:Q2,3.468446939111133,,,not_available,3.3096,0.1588469391111329,False,True,0,,,,,,,13,,0.0
revision_dfm_kalman_em,exact,2005:Q2:pre_third:exact,2005-09-28,pre_third,T,2005:Q2,3.309184366207548,0.13664345809552564,0.369653159185101,model_implied_state_space,3.3096,-0.0004156337924521303,False,True,32,-938.3382798256409,-1789.685535754546,-938.3382798256409,0.08983156823353511,9.56236748123789e-05,32.0,13,,0.0
indicator_revision_only_dfm_kalman_em,exact,2005:Q2:pre_third:exact,2005-09-28,pre_third,T,2005:Q2,3.297840595431889,0.14090310718875668,0.37537062643307173,model_implied_state_space,3.3096,-0.011759404568111087,False,True,31,-1721.843279593913,-2648.8506357968463,-1721.843279593913,0.16582792134772717,9.62432065068225e-05,31.0,13,,0.0
joint_indicator_revision_dfm_full_kalman_em,exact,2005:Q2:pre_third:exact,2005-09-28,pre_third,T,2005:Q2,3.329686524124907,0.13498963602488456,0.36740935756303833,model_implied_state_space,3.3096,0.02008652412490708,False,True,33,-1689.991731450165,-2661.340259054578,-1689.991731450165,0.16663126537491735,9.853084669572453e-05,33.0,13,,0.0
ar,pseudo,2005:Q2:pre_advance:pseudo,2005-07-31,pre_advance,A,2005:Q2,2.8861030313857308,,,not_available,3.414,-0.5278969686142694,False,True,0,,,,,,,13,,0.0
no_revision,pseudo,2005:Q2:pre_advance:pseudo,2005-07-31,pre_advance,A,2005:Q2,2.8763111567077075,,,not_available,3.414,-0.5376888432922926,False,True,0,,,,,,,13,,0.0
bridge,pseudo,2005:Q2:pre_advance:pseudo,2005-07-31,pre_advance,A,2005:Q2,3.263586255310559,,,not_available,3.414,-0.15041374468944113,False,True,0,,,,,,,13,,0.0
midas_umidas,pseudo,2005:Q2:pre_advance:pseudo,2005-07-31,pre_advance,A,2005:Q2,-11.475117342172844,,,not_available,3.414,-14.889117342172844,False,True,0,,,,,,,13,,0.0
monthly_mixed_frequency_kalman_em,pseudo,2005:Q2:pre_advance:pseudo,2005-07-31,pre_advance,A,2005:Q2,3.856381577037656,4.367222989499143,2.089790178343066,model_implied_state_space,3.414,0.442381577037656,False,False,100,-2906.6216993269322,-3812.7855042159513,-2906.6216993269322,0.6175365371263979,0.00021234034996537118,101.0,13,,0.0
standard_dfm,pseudo,2005:Q2:pre_advance:pseudo,2005-07-31,pre_advance,A,2005:Q2,3.0949558019625814,,,not_available,3.414,-0.3190441980374188,False,True,0,,,,,,,13,,0.0
release_dfm,pseudo,2005:Q2:pre_advance:pseudo,2005-07-31,pre_advance,A,2005:Q2,3.0949558019625814,,,not_available,3.414,-0.3190441980374188,False,True,0,,,,,,,13,,0.0
revision_dfm_kalman_em,pseudo,2005:Q2:pre_advance:pseudo,2005-07-31,pre_advance,A,2005:Q2,2.503093270444252,6.208246122155742,2.4916352305575833,model_implied_state_space,3.414,-0.910906729555748,False,True,32,-935.2781989918305,-1786.0745281261366,-935.2781989918305,0.08962225449511152,9.571265955703431e-05,32.0,13,,0.0
indicator_revision_only_dfm_kalman_em,pseudo,2005:Q2:pre_advance:pseudo,2005-07-31,pre_advance,A,2005:Q2,4.301072577194337,7.309206501776079,2.703554419976798,model_implied_state_space,3.414,0.8870725771943371,False,True,44,-1718.930223960747,-2641.0455135954835,-1718.930223960747,0.162137308020192,9.426081509983392e-05,44.0,13,,0.0
joint_indicator_revision_dfm_full_kalman_em,pseudo,2005:Q2:pre_advance:pseudo,2005-07-31,pre_advance,A,2005:Q2,4.021635792881513,5.245852391606367,2.2903825862956535,model_implied_state_space,3.414,0.607635792881513,False,True,50,-1691.0613074248802,-2653.6008573223517,-1691.0613074248802,0.1537325755978145,9.084695027753155e-05,50.0,13,,0.0
ar,pseudo,2005:Q2:pre_second:pseudo,2005-08-31,pre_second,S,2005:Q2,3.1044419421848652,,,not_available,3.2872,-0.18275805781513466,False,True,0,,,,,,,13,,0.0
no_revision,pseudo,2005:Q2:pre_second:pseudo,2005-08-31,pre_second,S,2005:Q2,3.414,,,not_available,3.2872,0.12680000000000025,False,True,0,,,,,,,13,,0.0
bridge,pseudo,2005:Q2:pre_second:pseudo,2005-08-31,pre_second,S,2005:Q2,3.4612755095476757,,,not_available,3.2872,0.1740755095476758,False,True,0,,,,,,,13,,0.0
midas_umidas,pseudo,2005:Q2:pre_second:pseudo,2005-08-31,pre_second,S,2005:Q2,2.398188482000378,,,not_available,3.2872,-0.8890115179996219,False,True,0,,,,,,,13,,0.0
monthly_mixed_frequency_kalman_em,pseudo,2005:Q2:pre_second:pseudo,2005-08-31,pre_second,S,2005:Q2,3.5048856344326067,0.33356279301490843,0.5775489529164679,model_implied_state_space,3.2872,0.2176856344326068,False,False,100,-2926.242959283861,-3832.67269598607,-2926.242959283861,0.6248814676409893,0.0002134254350362343,101.0,13,,0.0
standard_dfm,pseudo,2005:Q2:pre_second:pseudo,2005-08-31,pre_second,S,2005:Q2,3.1619076245312066,,,not_available,3.2872,-0.12529237546879335,False,True,0,,,,,,,13,,0.0
release_dfm,pseudo,2005:Q2:pre_second:pseudo,2005-08-31,pre_second,S,2005:Q2,3.5854204859407894,,,not_available,3.2872,0.29822048594078954,False,True,0,,,,,,,13,,0.0
revision_dfm_kalman_em,pseudo,2005:Q2:pre_second:pseudo,2005-08-31,pre_second,S,2005:Q2,3.5202519441249462,0.40210868876572375,0.6341204055743072,model_implied_state_space,3.2872,0.23305194412494634,False,True,40,-938.4389214346778,-1785.751432994704,-938.4389214346778,0.08716806958818779,9.277876427484987e-05,40.0,13,,0.0
indicator_revision_only_dfm_kalman_em,pseudo,2005:Q2:pre_second:pseudo,2005-08-31,pre_second,S,2005:Q2,3.425559593377705,0.42827196897888137,0.6544249146990672,model_implied_state_space,3.2872,0.1383595933777051,False,True,31,-1722.0413772984089,-2647.593554745467,-1722.0413772984089,0.16214097369743286,9.409275920003642e-05,31.0,13,,0.0
joint_indicator_revision_dfm_full_kalman_em,pseudo,2005:Q2:pre_second:pseudo,2005-08-31,pre_second,S,2005:Q2,3.672318077923328,0.38694020778258326,0.6220451814640021,model_implied_state_space,3.2872,0.3851180779233281,False,True,33,-1690.039394747571,-2660.106423995111,-1690.039394747571,0.16125535578134986,9.53496297269607e-05,33.0,13,,0.0
ar,pseudo,2005:Q2:pre_third:pseudo,2005-09-30,pre_third,T,2005:Q2,3.2616822864055117,,,not_available,3.3096,-0.047917713594488376,False,True,0,,,,,,,13,,0.0
no_revision,pseudo,2005:Q2:pre_third:pseudo,2005-09-30,pre_third,T,2005:Q2,3.2872,,,not_available,3.3096,-0.022400000000000198,False,True,0,,,,,,,13,,0.0
bridge,pseudo,2005:Q2:pre_third:pseudo,2005-09-30,pre_third,T,2005:Q2,4.014211750324724,,,not_available,3.3096,0.7046117503247236,False,True,0,,,,,,,13,,0.0
midas_umidas,pseudo,2005:Q2:pre_third:pseudo,2005-09-30,pre_third,T,2005:Q2,3.8442442465060624,,,not_available,3.3096,0.5346442465060623,False,True,0,,,,,,,13,,0.0
monthly_mixed_frequency_kalman_em,pseudo,2005:Q2:pre_third:pseudo,2005-09-30,pre_third,T,2005:Q2,3.3508470176583995,0.1347327851071978,0.36705964788736695,model_implied_state_space,3.3096,0.04124701765839944,False,False,100,-2942.091340331272,-3852.593252511117,-2942.091340331272,0.6974822319780287,0.00023693351460269112,101.0,13,,0.0
standard_dfm,pseudo,2005:Q2:pre_third:pseudo,2005-09-30,pre_third,T,2005:Q2,3.2867577792956033,,,not_available,3.3096,-0.022842220704396787,False,True,0,,,,,,,13,,0.0
release_dfm,pseudo,2005:Q2:pre_third:pseudo,2005-09-30,pre_third,T,2005:Q2,3.468446939111133,,,not_available,3.3096,0.1588469391111329,False,True,0,,,,,,,13,,0.0
revision_dfm_kalman_em,pseudo,2005:Q2:pre_third:pseudo,2005-09-30,pre_third,T,2005:Q2,3.309184366207548,0.13664345809552564,0.369653159185101,model_implied_state_space,3.3096,-0.0004156337924521303,False,True,32,-938.3382798256409,-1789.685535754546,-938.3382798256409,0.08983156823353511,9.56236748123789e-05,32.0,13,,0.0
indicator_revision_only_dfm_kalman_em,pseudo,2005:Q2:pre_third:pseudo,2005-09-30,pre_third,T,2005:Q2,3.297840595431889,0.14090310718875668,0.37537062643307173,model_implied_state_space,3.3096,-0.011759404568111087,False,True,31,-1721.843279593913,-2648.8506357968463,-1721.843279593913,0.16582792134772717,9.62432065068225e-05,31.0,13,,0.0
joint_indicator_revision_dfm_full_kalman_em,pseudo,2005:Q2:pre_third:pseudo,2005-09-30,pre_third,T,2005:Q2,3.329686524124907,0.13498963602488456,0.36740935756303833,model_implied_state_space,3.3096,0.02008652412490708,False,True,33,-1689.991731450165,-2661.340259054578,-1689.991731450165,0.16663126537491735,9.853084669572453e-05,33.0,13,,0.0
ar,exact,2005:Q3:pre_advance:exact,2005-10-27,pre_advance,A,2005:Q3,3.04969286031635,,,not_available,3.8045,-0.75480713968365,False,True,0,,,,,,,13,,0.0
no_revision,exact,2005:Q3:pre_advance:exact,2005-10-27,pre_advance,A,2005:Q3,3.079947323602184,,,not_available,3.8045,-0.7245526763978161,False,True,0,,,,,,,13,,0.0
bridge,exact,2005:Q3:pre_advance:exact,2005-10-27,pre_advance,A,2005:Q3,2.977264671503475,,,not_available,3.8045,-0.827235328496525,False,True,0,,,,,,,13,,0.0
midas_umidas,exact,2005:Q3:pre_advance:exact,2005-10-27,pre_advance,A,2005:Q3,20.737297200182738,,,not_available,3.8045,16.932797200182737,False,True,0,,,,,,,13,,0.0
monthly_mixed_frequency_kalman_em,exact,2005:Q3:pre_advance:exact,2005-10-27,pre_advance,A,2005:Q3,0.07335471304632168,4.222384309812566,2.0548441083966846,model_implied_state_space,3.8045,-3.7311452869536783,False,False,100,-2929.9866213967757,-3868.5284304953775,-2929.9866213967757,0.2910087704358375,9.927710955827722e-05,101.0,13,,0.0
standard_dfm,exact,2005:Q3:pre_advance:exact,2005-10-27,pre_advance,A,2005:Q3,2.746500840845433,,,not_available,3.8045,-1.057999159154567,False,True,0,,,,,,,13,,0.0
release_dfm,exact,2005:Q3:pre_advance:exact,2005-10-27,pre_advance,A,2005:Q3,2.746500840845433,,,not_available,3.8045,-1.057999159154567,False,True,0,,,,,,,13,,0.0
revision_dfm_kalman_em,exact,2005:Q3:pre_advance:exact,2005-10-27,pre_advance,A,2005:Q3,2.5271009521132455,6.468299273072775,2.5432851340486335,model_implied_state_space,3.8045,-1.2773990478867545,False,True,31,-955.8486561948212,-1810.1827058905067,-955.8486561948212,0.09476976465748521,9.903382173555806e-05,31.0,13,,0.0
indicator_revision_only_dfm_kalman_em,exact,2005:Q3:pre_advance:exact,2005-10-27,pre_advance,A,2005:Q3,4.050459561681376,6.658319622650249,2.580371993075853,model_implied_state_space,3.8045,0.24595956168137612,False,True,42,-1766.0400517012026,-2683.7586947585314,-1766.0400517012026,0.1743087359539004,9.863474395419782e-05,42.0,13,,0.0
joint_indicator_revision_dfm_full_kalman_em,exact,2005:Q3:pre_advance:exact,2005-10-27,pre_advance,A,2005:Q3,3.3542678472727596,5.103696702970232,2.2591362736608502,model_implied_state_space,3.8045,-0.4502321527272404,False,True,43,-1732.55612268967,-2696.384375836967,-1732.55612268967,0.16387262853572793,9.452081592082629e-05,43.0,13,,0.0
ar,exact,2005:Q3:pre_second:exact,2005-11-29,pre_second,S,2005:Q3,3.0178774499499244,,,not_available,4.2839,-1.2660225500500757,False,True,0,,,,,,,13,,0.0
no_revision,exact,2005:Q3:pre_second:exact,2005-11-29,pre_second,S,2005:Q3,3.8045,,,not_available,4.2839,-0.47940000000000005,False,True,0,,,,,,,13,,0.0
bridge,exact,2005:Q3:pre_second:exact,2005-11-29,pre_second,S,2005:Q3,2.9202077731301666,,,not_available,4.2839,-1.3636922268698335,False,True,0,,,,,,,13,,0.0
midas_umidas,exact,2005:Q3:pre_second:exact,2005-11-29,pre_second,S,2005:Q3,4.804219178181921,,,not_available,4.2839,0.5203191781819205,False,True,0,,,,,,,13,,0.0
monthly_mixed_frequency_kalman_em,exact,2005:Q3:pre_second:exact,2005-11-29,pre_second,S,2005:Q3,3.580133333489393,0.3453752701276539,0.5876863705478066,model_implied_state_space,4.2839,-0.703766666510607,False,True,84,-2949.378088262034,-3893.205591660122,-2949.378088262034,0.29466074212405147,9.986222369915419e-05,84.0,13,,0.0
standard_dfm,exact,2005:Q3:pre_second:exact,2005-11-29,pre_second,S,2005:Q3,2.9173005702868537,,,not_available,4.2839,-1.3665994297131463,False,True,0,,,,,,,13,,0.0
release_dfm,exact,2005:Q3:pre_second:exact,2005-11-29,pre_second,S,2005:Q3,3.978465790622625,,,not_available,4.2839,-0.305434209377375,False,True,0,,,,,,,13,,0.0
revision_dfm_kalman_em,exact,2005:Q3:pre_second:exact,2005-11-29,pre_second,S,2005:Q3,4.012138614037048,0.3994044209717548,0.63198451007264,model_implied_state_space,4.2839,-0.27176138596295196,False,True,40,-959.5735125312086,-1808.9260055307595,-959.5735125312086,0.09011092309674495,9.380070286488904e-05,40.0,13,,0.0
indicator_revision_only_dfm_kalman_em,exact,2005:Q3:pre_second:exact,2005-11-29,pre_second,S,2005:Q3,3.8803228834322137,0.4158504842517581,0.6448647022839428,model_implied_state_space,4.2839,-0.4035771165677864,False,True,46,-1768.6224349807223,-2686.0691527022436,-1768.6224349807223,0.1667788456954895,9.42365590164837e-05,46.0,13,,0.0
joint_indicator_revision_dfm_full_kalman_em,exact,2005:Q3:pre_second:exact,2005-11-29,pre_second,S,2005:Q3,4.152683262578536,0.3747736146283385,0.6121875649082873,model_implied_state_space,4.2839,-0.13121673742146367,False,True,47,-1735.684578993214,-2698.8111000829713,-1735.684578993214,0.16585749472778843,9.549325102693718e-05,47.0,13,,0.0
ar,exact,2005:Q3:pre_third:exact,2005-12-20,pre_third,T,2005:Q3,3.0673509604805287,,,not_available,4.1425,-1.0751490395194714,False,True,0,,,,,,,13,,0.0
no_revision,exact,2005:Q3:pre_third:exact,2005-12-20,pre_third,T,2005:Q3,4.2839,,,not_available,4.1425,0.14139999999999997,False,True,0,,,,,,,13,,0.0
bridge,exact,2005:Q3:pre_third:exact,2005-12-20,pre_third,T,2005:Q3,3.4924246726879242,,,not_available,4.1425,-0.6500753273120758,False,True,0,,,,,,,13,,0.0
midas_umidas,exact,2005:Q3:pre_third:exact,2005-12-20,pre_third,T,2005:Q3,3.3176660699902745,,,not_available,4.1425,-0.8248339300097256,False,True,0,,,,,,,13,,0.0
monthly_mixed_frequency_kalman_em,exact,2005:Q3:pre_third:exact,2005-12-20,pre_third,T,2005:Q3,3.9664883712496315,0.13190917236142768,0.3631930235583108,model_implied_state_space,4.1425,-0.17601162875036858,False,False,100,-2977.8157469709263,-3914.7861544913194,-2977.8157469709263,1.0452613424567971,0.0003507752004340701,101.0,13,,0.0
standard_dfm,exact,2005:Q3:pre_third:exact,2005-12-20,pre_third,T,2005:Q3,3.028406574059412,,,not_available,4.1425,-1.1140934259405881,False,True,0,,,,,,,13,,0.0
release_dfm,exact,2005:Q3:pre_third:exact,2005-12-20,pre_third,T,2005:Q3,4.29439784843032,,,not_available,4.1425,0.15189784843031973,False,True,0,,,,,,,13,,0.0
revision_dfm_kalman_em,exact,2005:Q3:pre_third:exact,2005-12-20,pre_third,T,2005:Q3,4.269172994864128,0.13582177030773734,0.3685400525149707,model_implied_state_space,4.1425,0.12667299486412809,False,True,32,-959.2648435377525,-1813.350682067663,-959.2648435377525,0.09104444238300857,9.480281583371911e-05,32.0,13,,0.0
indicator_revision_only_dfm_kalman_em,exact,2005:Q3:pre_third:exact,2005-12-20,pre_third,T,2005:Q3,4.255660795886541,0.14000881653147867,0.37417752007767474,model_implied_state_space,4.1425,0.11316079588654127,False,True,46,-1768.2904727963246,-2687.080813079136,-1768.2904727963246,0.16853779107464106,9.524820301923374e-05,46.0,13,,0.0
joint_indicator_revision_dfm_full_kalman_em,exact,2005:Q3:pre_third:exact,2005-12-20,pre_third,T,2005:Q3,4.283992882883008,0.13446486015760611,0.36669450521872576,model_implied_state_space,4.1425,0.141492882883008,False,True,47,-1735.1871155136816,-2699.799452611379,-1735.1871155136816,0.17183546116461912,9.89630980783929e-05,47.0,13,,0.0
ar,pseudo,2005:Q3:pre_advance:pseudo,2005-10-31,pre_advance,A,2005:Q3,3.04969286031635,,,not_available,3.8045,-0.75480713968365,False,True,0,,,,,,,13,,0.0
no_revision,pseudo,2005:Q3:pre_advance:pseudo,2005-10-31,pre_advance,A,2005:Q3,3.079947323602184,,,not_available,3.8045,-0.7245526763978161,False,True,0,,,,,,,13,,0.0
bridge,pseudo,2005:Q3:pre_advance:pseudo,2005-10-31,pre_advance,A,2005:Q3,2.977264671503475,,,not_available,3.8045,-0.827235328496525,False,True,0,,,,,,,13,,0.0
midas_umidas,pseudo,2005:Q3:pre_advance:pseudo,2005-10-31,pre_advance,A,2005:Q3,20.737297200182738,,,not_available,3.8045,16.932797200182737,False,True,0,,,,,,,13,,0.0
monthly_mixed_frequency_kalman_em,pseudo,2005:Q3:pre_advance:pseudo,2005-10-31,pre_advance,A,2005:Q3,0.07335471304632168,4.222384309812566,2.0548441083966846,model_implied_state_space,3.8045,-3.7311452869536783,False,False,100,-2929.9866213967757,-3868.5284304953775,-2929.9866213967757,0.2910087704358375,9.927710955827722e-05,101.0,13,,0.0
standard_dfm,pseudo,2005:Q3:pre_advance:pseudo,2005-10-31,pre_advance,A,2005:Q3,2.746500840845433,,,not_available,3.8045,-1.057999159154567,False,True,0,,,,,,,13,,0.0
release_dfm,pseudo,2005:Q3:pre_advance:pseudo,2005-10-31,pre_advance,A,2005:Q3,2.746500840845433,,,not_available,3.8045,-1.057999159154567,False,True,0,,,,,,,13,,0.0
revision_dfm_kalman_em,pseudo,2005:Q3:pre_advance:pseudo,2005-10-31,pre_advance,A,2005:Q3,2.5271009521132455,6.468299273072775,2.5432851340486335,model_implied_state_space,3.8045,-1.2773990478867545,False,True,31,-955.8486561948212,-1810.1827058905067,-955.8486561948212,0.09476976465748521,9.903382173555806e-05,31.0,13,,0.0
indicator_revision_only_dfm_kalman_em,pseudo,2005:Q3:pre_advance:pseudo,2005-10-31,pre_advance,A,2005:Q3,4.050459561681376,6.658319622650249,2.580371993075853,model_implied_state_space,3.8045,0.24595956168137612,False,True,42,-1766.0400517012026,-2683.7586947585314,-1766.0400517012026,0.1743087359539004,9.863474395419782e-05,42.0,13,,0.0
joint_indicator_revision_dfm_full_kalman_em,pseudo,2005:Q3:pre_advance:pseudo,2005-10-31,pre_advance,A,2005:Q3,3.3542678472727596,5.103696702970232,2.2591362736608502,model_implied_state_space,3.8045,-0.4502321527272404,False,True,43,-1732.55612268967,-2696.384375836967,-1732.55612268967,0.16387262853572793,9.452081592082629e-05,43.0,13,,0.0
ar,pseudo,2005:Q3:pre_second:pseudo,2005-11-30,pre_second,S,2005:Q3,3.0178774499499244,,,not_available,4.2839,-1.2660225500500757,False,True,0,,,,,,,13,,0.0
no_revision,pseudo,2005:Q3:pre_second:pseudo,2005-11-30,pre_second,S,2005:Q3,3.8045,,,not_available,4.2839,-0.47940000000000005,False,True,0,,,,,,,13,,0.0
bridge,pseudo,2005:Q3:pre_second:pseudo,2005-11-30,pre_second,S,2005:Q3,2.9202077731301666,,,not_available,4.2839,-1.3636922268698335,False,True,0,,,,,,,13,,0.0
midas_umidas,pseudo,2005:Q3:pre_second:pseudo,2005-11-30,pre_second,S,2005:Q3,4.804219178181921,,,not_available,4.2839,0.5203191781819205,False,True,0,,,,,,,13,,0.0
monthly_mixed_frequency_kalman_em,pseudo,2005:Q3:pre_second:pseudo,2005-11-30,pre_second,S,2005:Q3,3.580133333489393,0.3453752701276539,0.5876863705478066,model_implied_state_space,4.2839,-0.703766666510607,False,True,84,-2949.378088262034,-3893.205591660122,-2949.378088262034,0.29466074212405147,9.986222369915419e-05,84.0,13,,0.0
standard_dfm,pseudo,2005:Q3:pre_second:pseudo,2005-11-30,pre_second,S,2005:Q3,2.9173005702868537,,,not_available,4.2839,-1.3665994297131463,False,True,0,,,,,,,13,,0.0
release_dfm,pseudo,2005:Q3:pre_second:pseudo,2005-11-30,pre_second,S,2005:Q3,3.978465790622625,,,not_available,4.2839,-0.305434209377375,False,True,0,,,,,,,13,,0.0
revision_dfm_kalman_em,pseudo,2005:Q3:pre_second:pseudo,2005-11-30,pre_second,S,2005:Q3,4.012138614037048,0.3994044209717548,0.63198451007264,model_implied_state_space,4.2839,-0.27176138596295196,False,True,40,-959.5735125312086,-1808.9260055307595,-959.5735125312086,0.09011092309674495,9.380070286488904e-05,40.0,13,,0.0
indicator_revision_only_dfm_kalman_em,pseudo,2005:Q3:pre_second:pseudo,2005-11-30,pre_second,S,2005:Q3,3.8803228834322137,0.4158504842517581,0.6448647022839428,model_implied_state_space,4.2839,-0.4035771165677864,False,True,46,-1768.6224349807223,-2686.0691527022436,-1768.6224349807223,0.1667788456954895,9.42365590164837e-05,46.0,13,,0.0
joint_indicator_revision_dfm_full_kalman_em,pseudo,2005:Q3:pre_second:pseudo,2005-11-30,pre_second,S,2005:Q3,4.152683262578536,0.3747736146283385,0.6121875649082873,model_implied_state_space,4.2839,-0.13121673742146367,False,True,47,-1735.684578993214,-2698.8111000829713,-1735.684578993214,0.16585749472778843,9.549325102693718e-05,47.0,13,,0.0
ar,pseudo,2005:Q3:pre_third:pseudo,2005-12-31,pre_third,T,2005:Q3,3.0673509604805287,,,not_available,4.1425,-1.0751490395194714,False,True,0,,,,,,,13,,0.0
no_revision,pseudo,2005:Q3:pre_third:pseudo,2005-12-31,pre_third,T,2005:Q3,4.2839,,,not_available,4.1425,0.14139999999999997,False,True,0,,,,,,,13,,0.0
bridge,pseudo,2005:Q3:pre_third:pseudo,2005-12-31,pre_third,T,2005:Q3,3.4924246726879242,,,not_available,4.1425,-0.6500753273120758,False,True,0,,,,,,,13,,0.0
midas_umidas,pseudo,2005:Q3:pre_third:pseudo,2005-12-31,pre_third,T,2005:Q3,3.3176660699902745,,,not_available,4.1425,-0.8248339300097256,False,True,0,,,,,,,13,,0.0
monthly_mixed_frequency_kalman_em,pseudo,2005:Q3:pre_third:pseudo,2005-12-31,pre_third,T,2005:Q3,3.96570138729696,0.13190509325823477,0.36318740790153337,model_implied_state_space,4.1425,-0.1767986127030401,False,False,100,-2979.060413566455,-3916.099755374443,-2979.060413566455,1.041173475008236,0.000349257965422617,101.0,13,,0.0
standard_dfm,pseudo,2005:Q3:pre_third:pseudo,2005-12-31,pre_third,T,2005:Q3,3.028406574059412,,,not_available,4.1425,-1.1140934259405881,False,True,0,,,,,,,13,,0.0
release_dfm,pseudo,2005:Q3:pre_third:pseudo,2005-12-31,pre_third,T,2005:Q3,4.29439784843032,,,not_available,4.1425,0.15189784843031973,False,True,0,,,,,,,13,,0.0
revision_dfm_kalman_em,pseudo,2005:Q3:pre_third:pseudo,2005-12-31,pre_third,T,2005:Q3,4.269172994864128,0.13582177030773734,0.3685400525149707,model_implied_state_space,4.1425,0.12667299486412809,False,True,32,-959.2648435377525,-1813.350682067663,-959.2648435377525,0.09104444238300857,9.480281583371911e-05,32.0,13,,0.0
indicator_revision_only_dfm_kalman_em,pseudo,2005:Q3:pre_third:pseudo,2005-12-31,pre_third,T,2005:Q3,4.255660795886541,0.14000881653147867,0.37417752007767474,model_implied_state_space,4.1425,0.11316079588654127,False,True,46,-1768.2904727963246,-2687.080813079136,-1768.2904727963246,0.16853779107464106,9.524820301923374e-05,46.0,13,,0.0
joint_indicator_revision_dfm_full_kalman_em,pseudo,2005:Q3:pre_third:pseudo,2005-12-31,pre_third,T,2005:Q3,4.283992882883008,0.13446486015760611,0.36669450521872576,model_implied_state_space,4.1425,0.141492882883008,False,True,47,-1735.1871155136816,-2699.799452611379,-1735.1871155136816,0.17183546116461912,9.89630980783929e-05,47.0,13,,0.0
ar,exact,2005:Q4:pre_advance:exact,2006-01-26,pre_advance,A,2005:Q4,3.2464479729838,,,not_available,1.1187,2.1277479729838,False,True,0,,,,,,,13,,0.0
no_revision,exact,2005:Q4:pre_advance:exact,2006-01-26,pre_advance,A,2005:Q4,3.2478332834395918,,,not_available,1.1187,2.1291332834395917,False,True,0,,,,,,,13,,0.0
bridge,exact,2005:Q4:pre_advance:exact,2006-01-26,pre_advance,A,2005:Q4,3.4839409715421383,,,not_available,1.1187,2.3652409715421383,False,True,0,,,,,,,13,,0.0
midas_umidas,exact,2005:Q4:pre_advance:exact,2006-01-26,pre_advance,A,2005:Q4,12.327170197625122,,,not_available,1.1187,11.208470197625122,False,True,0,,,,,,,13,,0.0
monthly_mixed_frequency_kalman_em,exact,2005:Q4:pre_advance:exact,2006-01-26,pre_advance,A,2005:Q4,5.864775160176547,4.99520364684408,2.234995223002519,model_implied_state_space,1.1187,4.746075160176547,False,True,88,-2985.8250440895786,-3932.2421390179334,-2985.8250440895786,0.2642686240405965,8.84702787144057e-05,88.0,13,,0.0
standard_dfm,exact,2005:Q4:pre_advance:exact,2006-01-26,pre_advance,A,2005:Q4,3.593739825984927,,,not_available,1.1187,2.475039825984927,False,True,0,,,,,,,13,,0.0
release_dfm,exact,2005:Q4:pre_advance:exact,2006-01-26,pre_advance,A,2005:Q4,3.593739825984927,,,not_available,1.1187,2.475039825984927,False,True,0,,,,,,,13,,0.0
revision_dfm_kalman_em,exact,2005:Q4:pre_advance:exact,2006-01-26,pre_advance,A,2005:Q4,4.200444882166492,6.473275962365148,2.5442633437529905,model_implied_state_space,1.1187,3.081744882166492,False,True,39,-975.0618717706265,-1829.4319379689905,-975.0618717706265,0.0941266753874288,9.642585359027988e-05,39.0,13,,0.0
indicator_revision_only_dfm_kalman_em,exact,2005:Q4:pre_advance:exact,2006-01-26,pre_advance,A,2005:Q4,6.473327923457886,7.16811201769089,2.6773330046318278,model_implied_state_space,1.1187,5.354627923457887,False,True,36,-1798.013770344655,-2727.7428708001707,-1798.013770344655,0.17369448193835524,9.654051361184645e-05,36.0,13,,0.0
joint_indicator_revision_dfm_full_kalman_em,exact,2005:Q4:pre_advance:exact,2006-01-26,pre_advance,A,2005:Q4,5.936392351200281,5.567986835448219,2.359658203098114,model_implied_state_space,1.1187,4.8176923512002805,False,True,35,-1764.754150277351,-2740.296410392269,-1764.754150277351,0.16847943851712444,9.540590039566585e-05,35.0,13,,0.0
ar,exact,2005:Q4:pre_second:exact,2006-02-27,pre_second,S,2005:Q4,3.4737475066981256,,,not_available,1.6274,1.8463475066981256,False,True,0,,,,,,,13,,0.0
no_revision,exact,2005:Q4:pre_second:exact,2006-02-27,pre_second,S,2005:Q4,1.1187,,,not_available,1.6274,-0.5086999999999999,False,True,0,,,,,,,13,,0.0
bridge,exact,2005:Q4:pre_second:exact,2006-02-27,pre_second,S,2005:Q4,4.076053773320742,,,not_available,1.6274,2.448653773320742,False,True,0,,,,,,,13,,0.0
midas_umidas,exact,2005:Q4:pre_second:exact,2006-02-27,pre_second,S,2005:Q4,-0.5649122578015284,,,not_available,1.6274,-2.1923122578015284,False,True,0,,,,,,,13,,0.0
monthly_mixed_frequency_kalman_em,exact,2005:Q4:pre_second:exact,2006-02-27,pre_second,S,2005:Q4,1.6104928140893304,0.34687388457315627,0.5889600025240732,model_implied_state_space,1.6274,-0.01690718591066953,False,False,100,-3011.1128495854828,-3956.6015062087113,-3011.1128495854828,0.5298382392034,0.00017587158322647812,101.0,13,,0.0
standard_dfm,exact,2005:Q4:pre_second:exact,2006-02-27,pre_second,S,2005:Q4,4.011089933926364,,,not_available,1.6274,2.383689933926364,False,True,0,,,,,,,13,,0.0
release_dfm,exact,2005:Q4:pre_second:exact,2006-02-27,pre_second,S,2005:Q4,1.2384132484984514,,,not_available,1.6274,-0.3889867515015486,False,True,0,,,,,,,13,,0.0
revision_dfm_kalman_em,exact,2005:Q4:pre_second:exact,2006-02-27,pre_second,S,2005:Q4,1.1127087520853096,0.39790676906892336,0.6307985170154757,model_implied_state_space,1.6274,-0.5146912479146903,False,True,39,-977.1233671791913,-1830.9384145184088,-977.1233671791913,0.0955255564157369,9.765253679429348e-05,39.0,13,,0.0
indicator_revision_only_dfm_kalman_em,exact,2005:Q4:pre_second:exact,2006-02-27,pre_second,S,2005:Q4,1.3900583280806438,0.4236350680929481,0.6508725436619278,model_implied_state_space,1.6274,-0.23734167191935618,False,True,34,-1801.4038510508117,-2729.3459125142194,-1801.4038510508117,0.16869828529888764,9.358751488866255e-05,34.0,13,,0.0
joint_indicator_revision_dfm_full_kalman_em,exact,2005:Q4:pre_second:exact,2006-02-27,pre_second,S,2005:Q4,1.0790838690570423,0.3776126809757789,0.614501978008028,model_implied_state_space,1.6274,-0.5483161309429576,False,True,34,-1768.0063271067,-2741.9965915099915,-1768.0063271067,0.16557122210429043,9.358684832191399e-05,34.0,13,,0.0
ar,exact,2005:Q4:pre_third:exact,2006-03-29,pre_third,T,2005:Q4,3.434949731336563,,,not_available,1.6527,1.7822497313365628,False,True,0,,,,,,,13,,0.0
no_revision,exact,2005:Q4:pre_third:exact,2006-03-29,pre_third,T,2005:Q4,1.6274,,,not_available,1.6527,-0.0253000000000001,False,True,0,,,,,,,13,,0.0
bridge,exact,2005:Q4:pre_third:exact,2006-03-29,pre_third,T,2005:Q4,4.0602604490807135,,,not_available,1.6527,2.407560449080713,False,True,0,,,,,,,13,,0.0
midas_umidas,exact,2005:Q4:pre_third:exact,2006-03-29,pre_third,T,2005:Q4,4.1201324831483594,,,not_available,1.6527,2.467432483148359,False,True,0,,,,,,,13,,0.0
monthly_mixed_frequency_kalman_em,exact,2005:Q4:pre_third:exact,2006-03-29,pre_third,T,2005:Q4,1.8554912404396366,0.1303342570045014,0.3610183610351438,model_implied_state_space,1.6527,0.2027912404396366,False,False,100,-3030.283815574478,-3975.7582297485837,-3030.283815574478,0.8018175395673097,0.0002644442263801825,101.0,13,,0.0
standard_dfm,exact,2005:Q4:pre_third:exact,2006-03-29,pre_third,T,2005:Q4,4.1259477507131495,,,not_available,1.6527,2.473247750713149,False,True,0,,,,,,,13,,0.0
release_dfm,exact,2005:Q4:pre_third:exact,2006-03-29,pre_third,T,2005:Q4,1.614435166027049,,,not_available,1.6527,-0.038264833972950996,False,True,0,,,,,,,13,,0.0
revision_dfm_kalman_em,exact,2005:Q4:pre_third:exact,2006-03-29,pre_third,T,2005:Q4,1.589636033318352,0.1354343969538861,0.3680141260249205,model_implied_state_space,1.6527,-0.06306396668164815,False,True,39,-977.0788457979544,-1832.11118974164,-977.0788457979544,0.09519874520026406,9.732291071444814e-05,39.0,13,,0.0
indicator_revision_only_dfm_kalman_em,exact,2005:Q4:pre_third:exact,2006-03-29,pre_third,T,2005:Q4,1.6096936709668075,0.1392176744072881,0.37311884756373287,model_implied_state_space,1.6527,-0.04300632903319257,False,True,34,-1801.021403067067,-2730.4191318282074,-1801.021403067067,0.17103704578948964,9.49049846079584e-05,34.0,13,,0.0
joint_indicator_revision_dfm_full_kalman_em,exact,2005:Q4:pre_third:exact,2006-03-29,pre_third,T,2005:Q4,1.5773118154638506,0.13321547487676708,0.3649869516527503,model_implied_state_space,1.6527,-0.07538818453614948,False,True,34,-1767.936437248722,-2743.0415761660133,-1767.936437248722,0.16553863638068833,9.357212791414547e-05,34.0,13,,0.0
ar,pseudo,2005:Q4:pre_advance:pseudo,2006-01-31,pre_advance,A,2005:Q4,3.2464479729838,,,not_available,1.1187,2.1277479729838,False,True,0,,,,,,,13,,0.0
no_revision,pseudo,2005:Q4:pre_advance:pseudo,2006-01-31,pre_advance,A,2005:Q4,3.2478332834395918,,,not_available,1.1187,2.1291332834395917,False,True,0,,,,,,,13,,0.0
bridge,pseudo,2005:Q4:pre_advance:pseudo,2006-01-31,pre_advance,A,2005:Q4,3.496905730222601,,,not_available,1.1187,2.378205730222601,False,True,0,,,,,,,13,,0.0
midas_umidas,pseudo,2005:Q4:pre_advance:pseudo,2006-01-31,pre_advance,A,2005:Q4,12.362913455034136,,,not_available,1.1187,11.244213455034135,False,True,0,,,,,,,13,,0.0
monthly_mixed_frequency_kalman_em,pseudo,2005:Q4:pre_advance:pseudo,2006-01-31,pre_advance,A,2005:Q4,5.863126563607244,4.995305526708947,2.2350180148510987,model_implied_state_space,1.1187,4.744426563607243,False,True,88,-2985.79855152424,-3932.2466413686243,-2985.79855152424,0.26246215380797366,8.786635177725982e-05,88.0,13,,0.0
standard_dfm,pseudo,2005:Q4:pre_advance:pseudo,2006-01-31,pre_advance,A,2005:Q4,3.593304057725815,,,not_available,1.1187,2.474604057725815,False,True,0,,,,,,,13,,0.0
release_dfm,pseudo,2005:Q4:pre_advance:pseudo,2006-01-31,pre_advance,A,2005:Q4,3.593304057725815,,,not_available,1.1187,2.474604057725815,False,True,0,,,,,,,13,,0.0
revision_dfm_kalman_em,pseudo,2005:Q4:pre_advance:pseudo,2006-01-31,pre_advance,A,2005:Q4,4.19996516676796,6.473132579113797,2.544235165843322,model_implied_state_space,1.1187,3.08126516676796,False,True,39,-975.062677939226,-1829.4316682671374,-975.062677939226,0.09413307096247081,9.643232511491263e-05,39.0,13,,0.0
indicator_revision_only_dfm_kalman_em,pseudo,2005:Q4:pre_advance:pseudo,2006-01-31,pre_advance,A,2005:Q4,6.472608907592755,7.168031242598368,2.67731791959759,model_implied_state_space,1.1187,5.353908907592755,False,True,36,-1798.012110916426,-2727.74100941129,-1798.012110916426,0.1737277289796566,9.655907980603881e-05,36.0,13,,0.0
joint_indicator_revision_dfm_full_kalman_em,pseudo,2005:Q4:pre_advance:pseudo,2006-01-31,pre_advance,A,2005:Q4,5.935605160084924,5.567950243604809,2.3596504494532256,model_implied_state_space,1.1187,4.816905160084923,False,True,35,-1764.7524637226954,-2740.294553952757,-1764.7524637226954,0.16847870440415136,9.54055758422529e-05,35.0,13,,0.0
ar,pseudo,2005:Q4:pre_second:pseudo,2006-02-28,pre_second,S,2005:Q4,3.4737475066981256,,,not_available,1.6274,1.8463475066981256,False,True,0,,,,,,,13,,0.0
no_revision,pseudo,2005:Q4:pre_second:pseudo,2006-02-28,pre_second,S,2005:Q4,1.1187,,,not_available,1.6274,-0.5086999999999999,False,True,0,,,,,,,13,,0.0
bridge,pseudo,2005:Q4:pre_second:pseudo,2006-02-28,pre_second,S,2005:Q4,4.076053773320742,,,not_available,1.6274,2.448653773320742,False,True,0,,,,,,,13,,0.0
midas_umidas,pseudo,2005:Q4:pre_second:pseudo,2006-02-28,pre_second,S,2005:Q4,-0.5649122578015284,,,not_available,1.6274,-2.1923122578015284,False,True,0,,,,,,,13,,0.0
monthly_mixed_frequency_kalman_em,pseudo,2005:Q4:pre_second:pseudo,2006-02-28,pre_second,S,2005:Q4,1.6104928140893304,0.34687388457315627,0.5889600025240732,model_implied_state_space,1.6274,-0.01690718591066953,False,False,100,-3011.1128495854828,-3956.6015062087113,-3011.1128495854828,0.5298382392034,0.00017587158322647812,101.0,13,,0.0
standard_dfm,pseudo,2005:Q4:pre_second:pseudo,2006-02-28,pre_second,S,2005:Q4,4.011089933926364,,,not_available,1.6274,2.383689933926364,False,True,0,,,,,,,13,,0.0
release_dfm,pseudo,2005:Q4:pre_second:pseudo,2006-02-28,pre_second,S,2005:Q4,1.2384132484984514,,,not_available,1.6274,-0.3889867515015486,False,True,0,,,,,,,13,,0.0
revision_dfm_kalman_em,pseudo,2005:Q4:pre_second:pseudo,2006-02-28,pre_second,S,2005:Q4,1.1127087520853096,0.39790676906892336,0.6307985170154757,model_implied_state_space,1.6274,-0.5146912479146903,False,True,39,-977.1233671791913,-1830.9384145184088,-977.1233671791913,0.0955255564157369,9.765253679429348e-05,39.0,13,,0.0
indicator_revision_only_dfm_kalman_em,pseudo,2005:Q4:pre_second:pseudo,2006-02-28,pre_second,S,2005:Q4,1.3900583280806438,0.4236350680929481,0.6508725436619278,model_implied_state_space,1.6274,-0.23734167191935618,False,True,34,-1801.4038510508117,-2729.3459125142194,-1801.4038510508117,0.16869828529888764,9.358751488866255e-05,34.0,13,,0.0
joint_indicator_revision_dfm_full_kalman_em,pseudo,2005:Q4:pre_second:pseudo,2006-02-28,pre_second,S,2005:Q4,1.0790838690570423,0.3776126809757789,0.614501978008028,model_implied_state_space,1.6274,-0.5483161309429576,False,True,34,-1768.0063271067,-2741.9965915099915,-1768.0063271067,0.16557122210429043,9.358684832191399e-05,34.0,13,,0.0
ar,pseudo,2005:Q4:pre_third:pseudo,2006-03-31,pre_third,T,2005:Q4,3.434949731336563,,,not_available,1.6527,1.7822497313365628,False,True,0,,,,,,,13,,0.0
no_revision,pseudo,2005:Q4:pre_third:pseudo,2006-03-31,pre_third,T,2005:Q4,1.6274,,,not_available,1.6527,-0.0253000000000001,False,True,0,,,,,,,13,,0.0
bridge,pseudo,2005:Q4:pre_third:pseudo,2006-03-31,pre_third,T,2005:Q4,4.005852251483771,,,not_available,1.6527,2.3531522514837704,False,True,0,,,,,,,13,,0.0
midas_umidas,pseudo,2005:Q4:pre_third:pseudo,2006-03-31,pre_third,T,2005:Q4,3.9813562507240245,,,not_available,1.6527,2.3286562507240243,False,True,0,,,,,,,13,,0.0
monthly_mixed_frequency_kalman_em,pseudo,2005:Q4:pre_third:pseudo,2006-03-31,pre_third,T,2005:Q4,1.8508339028271215,0.1300713060080982,0.3606539976322156,model_implied_state_space,1.6527,0.1981339028271214,False,False,100,-3028.1716617428037,-3976.002880737555,-3028.1716617428037,0.5753723861166691,0.0001899077314493003,101.0,13,,0.0
standard_dfm,pseudo,2005:Q4:pre_third:pseudo,2006-03-31,pre_third,T,2005:Q4,4.130967524639935,,,not_available,1.6527,2.478267524639935,False,True,0,,,,,,,13,,0.0
release_dfm,pseudo,2005:Q4:pre_third:pseudo,2006-03-31,pre_third,T,2005:Q4,1.6154042763820449,,,not_available,1.6527,-0.03729572361795519,False,True,0,,,,,,,13,,0.0
revision_dfm_kalman_em,pseudo,2005:Q4:pre_third:pseudo,2006-03-31,pre_third,T,2005:Q4,1.5895991622666275,0.1354298374731011,0.3680079312638535,model_implied_state_space,1.6527,-0.0631008377333726,False,True,39,-977.0851734922671,-1832.215570065809,-977.0851734922671,0.09457792597538628,9.668767508043353e-05,39.0,13,,0.0
indicator_revision_only_dfm_kalman_em,pseudo,2005:Q4:pre_third:pseudo,2006-03-31,pre_third,T,2005:Q4,1.609687632204149,0.13921756571002972,0.37311870190333496,model_implied_state_space,1.6527,-0.04301236779585116,False,True,34,-1801.053432470281,-2730.5746023985275,-1801.053432470281,0.17089547078671785,9.482474969248451e-05,34.0,13,,0.0
joint_indicator_revision_dfm_full_kalman_em,pseudo,2005:Q4:pre_third:pseudo,2006-03-31,pre_third,T,2005:Q4,1.5774111941432318,0.13321378730125039,0.36498463981550017,model_implied_state_space,1.6527,-0.07528880585676823,False,True,34,-1767.9664287637152,-2743.196107503487,-1767.9664287637152,0.16541505105033139,9.35006916689986e-05,34.0,13,,0.0
ar,exact,2006:Q1:pre_advance:exact,2006-04-27,pre_advance,A,2006:Q1,1.9162734650651858,,,not_available,4.8178,-2.9015265349348143,False,True,0,,,,,,,13,,0.0
no_revision,exact,2006:Q1:pre_advance:exact,2006-04-27,pre_advance,A,2006:Q1,1.9412571709533264,,,not_available,4.8178,-2.8765428290466737,False,True,0,,,,,,,13,,0.0
bridge,exact,2006:Q1:pre_advance:exact,2006-04-27,pre_advance,A,2006:Q1,2.213341110458662,,,not_available,4.8178,-2.604458889541338,False,True,0,,,,,,,13,,0.0
midas_umidas,exact,2006:Q1:pre_advance:exact,2006-04-27,pre_advance,A,2006:Q1,25.435897295723727,,,not_available,4.8178,20.61809729572373,False,True,0,,,,,,,13,,0.0
monthly_mixed_frequency_kalman_em,exact,2006:Q1:pre_advance:exact,2006-04-27,pre_advance,A,2006:Q1,3.572671604755043,5.408744719488305,2.325670810645459,model_implied_state_space,4.8178,-1.245128395244957,False,True,86,-3038.209992752503,-3992.9193734830214,-3038.209992752503,0.27433803621033803,9.025808537040568e-05,86.0,13,,0.0
standard_dfm,exact,2006:Q1:pre_advance:exact,2006-04-27,pre_advance,A,2006:Q1,3.2292499067701845,,,not_available,4.8178,-1.5885500932298156,False,True,0,,,,,,,13,,0.0
release_dfm,exact,2006:Q1:pre_advance:exact,2006-04-27,pre_advance,A,2006:Q1,3.2292499067701845,,,not_available,4.8178,-1.5885500932298156,False,True,0,,,,,,,13,,0.0
revision_dfm_kalman_em,exact,2006:Q1:pre_advance:exact,2006-04-27,pre_advance,A,2006:Q1,2.470805282105978,6.894152839551836,2.6256718834522785,model_implied_state_space,4.8178,-2.346994717894022,False,True,39,-992.7700397332528,-1851.96069997306,-992.7700397332528,0.08878408460520859,8.93326924081119e-05,39.0,13,,0.0
indicator_revision_only_dfm_kalman_em,exact,2006:Q1:pre_advance:exact,2006-04-27,pre_advance,A,2006:Q1,4.5579954252414785,8.387700217914151,2.896152657909136,model_implied_state_space,4.8178,-0.2598045747585216,False,True,35,-1830.0621929533038,-2763.9211797127164,-1830.0621929533038,0.17071920801549822,9.322637600151378e-05,35.0,13,,0.0
joint_indicator_revision_dfm_full_kalman_em,exact,2006:Q1:pre_advance:exact,2006-04-27,pre_advance,A,2006:Q1,3.5052610917831784,6.621257018565945,2.5731803315286603,model_implied_state_space,4.8178,-1.3125389082168217,False,True,33,-1797.6380877019749,-2776.6744510340377,-1797.6380877019749,0.16475976815740978,9.159412238485768e-05,33.0,13,,0.0
ar,exact,2006:Q1:pre_second:exact,2006-05-24,pre_second,S,2006:Q1,2.270568285238669,,,not_available,5.3086,-3.038031714761331,False,True,0,,,,,,,13,,0.0
no_revision,exact,2006:Q1:pre_second:exact,2006-05-24,pre_second,S,2006:Q1,4.8178,,,not_available,5.3086,-0.4908000000000001,False,True,0,,,,,,,13,,0.0
bridge,exact,2006:Q1:pre_second:exact,2006-05-24,pre_second,S,2006:Q1,2.4034774071399516,,,not_available,5.3086,-2.9051225928600486,False,True,0,,,,,,,13,,0.0
midas_umidas,exact,2006:Q1:pre_second:exact,2006-05-24,pre_second,S,2006:Q1,5.427090905632891,,,not_available,5.3086,0.11849090563289089,False,True,0,,,,,,,13,,0.0
monthly_mixed_frequency_kalman_em,exact,2006:Q1:pre_second:exact,2006-05-24,pre_second,S,2006:Q1,4.941010861550773,0.3467333483711985,0.5888406816543831,model_implied_state_space,5.3086,-0.3675891384492269,False,True,84,-3055.27520212109,-4011.836784490963,-3055.27520212109,0.260398421046375,8.519397614743576e-05,84.0,13,,0.0
standard_dfm,exact,2006:Q1:pre_second:exact,2006-05-24,pre_second,S,2006:Q1,3.4622736293107423,,,not_available,5.3086,-1.8463263706892579,False,True,0,,,,,,,13,,0.0
release_dfm,exact,2006:Q1:pre_second:exact,2006-05-24,pre_second,S,2006:Q1,5.058042305107192,,,not_available,5.3086,-0.2505576948928079,False,True,0,,,,,,,13,,0.0
revision_dfm_kalman_em,exact,2006:Q1:pre_second:exact,2006-05-24,pre_second,S,2006:Q1,5.096115088544324,0.39732228777772705,0.6303350599306111,model_implied_state_space,5.3086,-0.21248491145567616,False,True,31,-992.6898119940704,-1856.1563144440984,-992.6898119940704,0.0930595988213554,9.364178180309566e-05,31.0,13,,0.0
indicator_revision_only_dfm_kalman_em,exact,2006:Q1:pre_second:exact,2006-05-24,pre_second,S,2006:Q1,4.8369662470957655,0.42181414558581065,0.6494722053989768,model_implied_state_space,5.3086,-0.4716337529042347,False,True,33,-1832.0784130440438,-2767.703120760684,-1832.0784130440438,0.17097246534831356,9.326197881190433e-05,33.0,13,,0.0
joint_indicator_revision_dfm_full_kalman_em,exact,2006:Q1:pre_second:exact,2006-05-24,pre_second,S,2006:Q1,5.374786436002422,0.37765829071169627,0.614539088025893,model_implied_state_space,5.3086,0.0661864360024218,False,True,33,-1798.8232982355512,-2780.423267508493,-1798.8232982355512,0.17896432165343867,9.942449816656891e-05,33.0,13,,0.0
ar,exact,2006:Q1:pre_third:exact,2006-06-28,pre_third,T,2006:Q1,2.346837837693795,,,not_available,5.638,-3.291162162306205,False,True,0,,,,,,,13,,0.0
no_revision,exact,2006:Q1:pre_third:exact,2006-06-28,pre_third,T,2006:Q1,5.3086,,,not_available,5.638,-0.3293999999999997,False,True,0,,,,,,,13,,0.0
bridge,exact,2006:Q1:pre_third:exact,2006-06-28,pre_third,T,2006:Q1,2.6577374910833718,,,not_available,5.638,-2.980262508916628,False,True,0,,,,,,,13,,0.0
midas_umidas,exact,2006:Q1:pre_third:exact,2006-06-28,pre_third,T,2006:Q1,6.021006258694043,,,not_available,5.638,0.38300625869404303,False,True,0,,,,,,,13,,0.0
monthly_mixed_frequency_kalman_em,exact,2006:Q1:pre_third:exact,2006-06-28,pre_third,T,2006:Q1,5.3517068466093205,0.13009397684712037,0.36068542644126944,model_implied_state_space,5.638,-0.2862931533906794,False,True,94,-3074.964800788017,-4035.9141220690562,-3074.964800788017,0.3067478745711014,9.971417338123495e-05,94.0,13,,0.0
standard_dfm,exact,2006:Q1:pre_third:exact,2006-06-28,pre_third,T,2006:Q1,3.5049689406413282,,,not_available,5.638,-2.1330310593586717,False,True,0,,,,,,,13,,0.0
release_dfm,exact,2006:Q1:pre_third:exact,2006-06-28,pre_third,T,2006:Q1,5.357868818750799,,,not_available,5.638,-0.28013118124920133,False,True,0,,,,,,,13,,0.0
revision_dfm_kalman_em,exact,2006:Q1:pre_third:exact,2006-06-28,pre_third,T,2006:Q1,5.3016753751418335,0.13428735935017722,0.3664523971134276,model_implied_state_space,5.638,-0.3363246248581664,False,True,31,-993.1360629281282,-1858.2745376615092,-993.1360629281282,0.09194310202451561,9.24768780067207e-05,31.0,13,,0.0
indicator_revision_only_dfm_kalman_em,exact,2006:Q1:pre_third:exact,2006-06-28,pre_third,T,2006:Q1,5.273411296018278,0.1383804622241745,0.37199524489457453,model_implied_state_space,5.638,-0.36458870398172216,False,True,34,-1832.496753255518,-2769.815811887565,-1832.496753255518,0.1785611084960692,9.737880370495186e-05,34.0,13,,0.0
joint_indicator_revision_dfm_full_kalman_em,exact,2006:Q1:pre_third:exact,2006-06-28,pre_third,T,2006:Q1,5.332055899896124,0.13236207469751526,0.3638159901619434,model_implied_state_space,5.638,-0.3059441001038756,False,True,34,-1798.7238468113865,-2782.5019207102127,-1798.7238468113865,0.1735700939123035,9.643332574516153e-05,34.0,13,,0.0
ar,pseudo,2006:Q1:pre_advance:pseudo,2006-04-30,pre_advance,A,2006:Q1,1.9162734650651858,,,not_available,4.8178,-2.9015265349348143,False,True,0,,,,,,,13,,0.0
no_revision,pseudo,2006:Q1:pre_advance:pseudo,2006-04-30,pre_advance,A,2006:Q1,1.9412571709533264,,,not_available,4.8178,-2.8765428290466737,False,True,0,,,,,,,13,,0.0
bridge,pseudo,2006:Q1:pre_advance:pseudo,2006-04-30,pre_advance,A,2006:Q1,2.213341110458662,,,not_available,4.8178,-2.604458889541338,False,True,0,,,,,,,13,,0.0
midas_umidas,pseudo,2006:Q1:pre_advance:pseudo,2006-04-30,pre_advance,A,2006:Q1,25.435897295723727,,,not_available,4.8178,20.61809729572373,False,True,0,,,,,,,13,,0.0
monthly_mixed_frequency_kalman_em,pseudo,2006:Q1:pre_advance:pseudo,2006-04-30,pre_advance,A,2006:Q1,3.572671604755043,5.408744719488305,2.325670810645459,model_implied_state_space,4.8178,-1.245128395244957,False,True,86,-3038.209992752503,-3992.9193734830214,-3038.209992752503,0.27433803621033803,9.025808537040568e-05,86.0,13,,0.0
standard_dfm,pseudo,2006:Q1:pre_advance:pseudo,2006-04-30,pre_advance,A,2006:Q1,3.2292499067701845,,,not_available,4.8178,-1.5885500932298156,False,True,0,,,,,,,13,,0.0
release_dfm,pseudo,2006:Q1:pre_advance:pseudo,2006-04-30,pre_advance,A,2006:Q1,3.2292499067701845,,,not_available,4.8178,-1.5885500932298156,False,True,0,,,,,,,13,,0.0
revision_dfm_kalman_em,pseudo,2006:Q1:pre_advance:pseudo,2006-04-30,pre_advance,A,2006:Q1,2.470805282105978,6.894152839551836,2.6256718834522785,model_implied_state_space,4.8178,-2.346994717894022,False,True,39,-992.7700397332528,-1851.96069997306,-992.7700397332528,0.08878408460520859,8.93326924081119e-05,39.0,13,,0.0
indicator_revision_only_dfm_kalman_em,pseudo,2006:Q1:pre_advance:pseudo,2006-04-30,pre_advance,A,2006:Q1,4.5579954252414785,8.387700217914151,2.896152657909136,model_implied_state_space,4.8178,-0.2598045747585216,False,True,35,-1830.0621929533038,-2763.9211797127164,-1830.0621929533038,0.17071920801549822,9.322637600151378e-05,35.0,13,,0.0
joint_indicator_revision_dfm_full_kalman_em,pseudo,2006:Q1:pre_advance:pseudo,2006-04-30,pre_advance,A,2006:Q1,3.5052610917831784,6.621257018565945,2.5731803315286603,model_implied_state_space,4.8178,-1.3125389082168217,False,True,33,-1797.6380877019749,-2776.6744510340377,-1797.6380877019749,0.16475976815740978,9.159412238485768e-05,33.0,13,,0.0
ar,pseudo,2006:Q1:pre_second:pseudo,2006-05-31,pre_second,S,2006:Q1,2.270568285238669,,,not_available,5.3086,-3.038031714761331,False,True,0,,,,,,,13,,0.0
no_revision,pseudo,2006:Q1:pre_second:pseudo,2006-05-31,pre_second,S,2006:Q1,4.8178,,,not_available,5.3086,-0.4908000000000001,False,True,0,,,,,,,13,,0.0
bridge,pseudo,2006:Q1:pre_second:pseudo,2006-05-31,pre_second,S,2006:Q1,2.4034774071399516,,,not_available,5.3086,-2.9051225928600486,False,True,0,,,,,,,13,,0.0
midas_umidas,pseudo,2006:Q1:pre_second:pseudo,2006-05-31,pre_second,S,2006:Q1,5.427090905632891,,,not_available,5.3086,0.11849090563289089,False,True,0,,,,,,,13,,0.0
monthly_mixed_frequency_kalman_em,pseudo,2006:Q1:pre_second:pseudo,2006-05-31,pre_second,S,2006:Q1,4.941010861550773,0.3467333483711985,0.5888406816543831,model_implied_state_space,5.3086,-0.3675891384492269,False,True,84,-3055.27520212109,-4011.836784490963,-3055.27520212109,0.260398421046375,8.519397614743576e-05,84.0,13,,0.0
standard_dfm,pseudo,2006:Q1:pre_second:pseudo,2006-05-31,pre_second,S,2006:Q1,3.4622736293107423,,,not_available,5.3086,-1.8463263706892579,False,True,0,,,,,,,13,,0.0
release_dfm,pseudo,2006:Q1:pre_second:pseudo,2006-05-31,pre_second,S,2006:Q1,5.058042305107192,,,not_available,5.3086,-0.2505576948928079,False,True,0,,,,,,,13,,0.0
revision_dfm_kalman_em,pseudo,2006:Q1:pre_second:pseudo,2006-05-31,pre_second,S,2006:Q1,5.096115088544324,0.39732228777772705,0.6303350599306111,model_implied_state_space,5.3086,-0.21248491145567616,False,True,31,-992.6898119940704,-1856.1563144440984,-992.6898119940704,0.0930595988213554,9.364178180309566e-05,31.0,13,,0.0
indicator_revision_only_dfm_kalman_em,pseudo,2006:Q1:pre_second:pseudo,2006-05-31,pre_second,S,2006:Q1,4.8369662470957655,0.42181414558581065,0.6494722053989768,model_implied_state_space,5.3086,-0.4716337529042347,False,True,33,-1832.0784130440438,-2767.703120760684,-1832.0784130440438,0.17097246534831356,9.326197881190433e-05,33.0,13,,0.0
joint_indicator_revision_dfm_full_kalman_em,pseudo,2006:Q1:pre_second:pseudo,2006-05-31,pre_second,S,2006:Q1,5.374786436002422,0.37765829071169627,0.614539088025893,model_implied_state_space,5.3086,0.0661864360024218,False,True,33,-1798.8232982355512,-2780.423267508493,-1798.8232982355512,0.17896432165343867,9.942449816656891e-05,33.0,13,,0.0
ar,pseudo,2006:Q1:pre_third:pseudo,2006-06-30,pre_third,T,2006:Q1,2.346837837693795,,,not_available,5.638,-3.291162162306205,False,True,0,,,,,,,13,,0.0
no_revision,pseudo,2006:Q1:pre_third:pseudo,2006-06-30,pre_third,T,2006:Q1,5.3086,,,not_available,5.638,-0.3293999999999997,False,True,0,,,,,,,13,,0.0
bridge,pseudo,2006:Q1:pre_third:pseudo,2006-06-30,pre_third,T,2006:Q1,2.6577374910833718,,,not_available,5.638,-2.980262508916628,False,True,0,,,,,,,13,,0.0
midas_umidas,pseudo,2006:Q1:pre_third:pseudo,2006-06-30,pre_third,T,2006:Q1,6.021006258694043,,,not_available,5.638,0.38300625869404303,False,True,0,,,,,,,13,,0.0
monthly_mixed_frequency_kalman_em,pseudo,2006:Q1:pre_third:pseudo,2006-06-30,pre_third,T,2006:Q1,5.3517068466093205,0.13009397684712037,0.36068542644126944,model_implied_state_space,5.638,-0.2862931533906794,False,True,94,-3074.964800788017,-4035.9141220690562,-3074.964800788017,0.3067478745711014,9.971417338123495e-05,94.0,13,,0.0
standard_dfm,pseudo,2006:Q1:pre_third:pseudo,2006-06-30,pre_third,T,2006:Q1,3.5049689406413282,,,not_available,5.638,-2.1330310593586717,False,True,0,,,,,,,13,,0.0
release_dfm,pseudo,2006:Q1:pre_third:pseudo,2006-06-30,pre_third,T,2006:Q1,5.357868818750799,,,not_available,5.638,-0.28013118124920133,False,True,0,,,,,,,13,,0.0
revision_dfm_kalman_em,pseudo,2006:Q1:pre_third:pseudo,2006-06-30,pre_third,T,2006:Q1,5.3016753751418335,0.13428735935017722,0.3664523971134276,model_implied_state_space,5.638,-0.3363246248581664,False,True,31,-993.1360629281282,-1858.2745376615092,-993.1360629281282,0.09194310202451561,9.24768780067207e-05,31.0,13,,0.0
indicator_revision_only_dfm_kalman_em,pseudo,2006:Q1:pre_third:pseudo,2006-06-30,pre_third,T,2006:Q1,5.273411296018278,0.1383804622241745,0.37199524489457453,model_implied_state_space,5.638,-0.36458870398172216,False,True,34,-1832.496753255518,-2769.815811887565,-1832.496753255518,0.1785611084960692,9.737880370495186e-05,34.0,13,,0.0
joint_indicator_revision_dfm_full_kalman_em,pseudo,2006:Q1:pre_third:pseudo,2006-06-30,pre_third,T,2006:Q1,5.332055899896124,0.13236207469751526,0.3638159901619434,model_implied_state_space,5.638,-0.3059441001038756,False,True,34,-1798.7238468113865,-2782.5019207102127,-1798.7238468113865,0.1735700939123035,9.643332574516153e-05,34.0,13,,0.0
ar,exact,2006:Q2:pre_advance:exact,2006-07-27,pre_advance,A,2006:Q2,3.740059135204821,,,not_available,2.4577,1.2823591352048211,False,True,0,,,,,,,13,,0.0
no_revision,exact,2006:Q2:pre_advance:exact,2006-07-27,pre_advance,A,2006:Q2,3.697855652198896,,,not_available,2.4577,1.240155652198896,False,True,0,,,,,,,13,,0.0
bridge,exact,2006:Q2:pre_advance:exact,2006-07-27,pre_advance,A,2006:Q2,1.5213527369938808,,,not_available,2.4577,-0.9363472630061191,False,True,0,,,,,,,13,,0.0
midas_umidas,exact,2006:Q2:pre_advance:exact,2006-07-27,pre_advance,A,2006:Q2,-12.42670128338963,,,not_available,2.4577,-14.884401283389629,False,True,0,,,,,,,13,,0.0
monthly_mixed_frequency_kalman_em,exact,2006:Q2:pre_advance:exact,2006-07-27,pre_advance,A,2006:Q2,5.050681928238825,5.8013780893068185,2.408605008984831,model_implied_state_space,2.4577,2.5929819282388253,False,True,97,-3091.8600651687434,-4056.2816497321496,-3091.8600651687434,0.29306278494914295,9.474564395168553e-05,97.0,13,,0.0
standard_dfm,exact,2006:Q2:pre_advance:exact,2006-07-27,pre_advance,A,2006:Q2,3.463575640485881,,,not_available,2.4577,1.0058756404858809,False,True,0,,,,,,,13,,0.0
release_dfm,exact,2006:Q2:pre_advance:exact,2006-07-27,pre_advance,A,2006:Q2,3.463575640485881,,,not_available,2.4577,1.0058756404858809,False,True,0,,,,,,,13,,0.0
revision_dfm_kalman_em,exact,2006:Q2:pre_advance:exact,2006-07-27,pre_advance,A,2006:Q2,3.4672125957896274,6.976379952594398,2.641283769797255,model_implied_state_space,2.4577,1.0095125957896274,False,True,30,-1008.4958927663748,-1877.244222404608,-1008.4958927663748,0.09956104034984037,9.861478671921613e-05,30.0,13,,0.0
indicator_revision_only_dfm_kalman_em,exact,2006:Q2:pre_advance:exact,2006-07-27,pre_advance,A,2006:Q2,4.667265630357634,7.610783844573615,2.7587649128864924,model_implied_state_space,2.4577,2.209565630357634,False,True,36,-1866.078638894916,-2806.182676521873,-1866.078638894916,0.18131787806100874,9.710371467203991e-05,36.0,13,,0.0
joint_indicator_revision_dfm_full_kalman_em,exact,2006:Q2:pre_advance:exact,2006-07-27,pre_advance,A,2006:Q2,3.701735629262334,5.92792202158162,2.4347324332627642,model_implied_state_space,2.4577,1.244035629262334,False,True,38,-1831.4809751714342,-2818.87278354823,-1831.4809751714342,0.17395571146198563,9.49200575245123e-05,38.0,13,,0.0
ar,exact,2006:Q2:pre_second:exact,2006-08-29,pre_second,S,2006:Q2,3.932818675395525,,,not_available,2.9012,1.0316186753955252,False,True,0,,,,,,,13,,0.0
no_revision,exact,2006:Q2:pre_second:exact,2006-08-29,pre_second,S,2006:Q2,2.4577,,,not_available,2.9012,-0.4434999999999998,False,True,0,,,,,,,13,,0.0
bridge,exact,2006:Q2:pre_second:exact,2006-08-29,pre_second,S,2006:Q2,1.499435175185744,,,not_available,2.9012,-1.4017648248142558,False,True,0,,,,,,,13,,0.0
midas_umidas,exact,2006:Q2:pre_second:exact,2006-08-29,pre_second,S,2006:Q2,2.814357793226411,,,not_available,2.9012,-0.08684220677358878,False,True,0,,,,,,,13,,0.0
monthly_mixed_frequency_kalman_em,exact,2006:Q2:pre_second:exact,2006-08-29,pre_second,S,2006:Q2,2.7817072217155734,0.3412336270162771,0.5841520581289404,model_implied_state_space,2.9012,-0.11949277828442639,False,True,97,-3110.34929682941,-4076.0379318403966,-3110.34929682941,0.300212402786201,9.648014723235292e-05,97.0,13,,0.0
standard_dfm,exact,2006:Q2:pre_second:exact,2006-08-29,pre_second,S,2006:Q2,3.71184482521998,,,not_available,2.9012,0.8106448252199803,False,True,0,,,,,,,13,,0.0
release_dfm,exact,2006:Q2:pre_second:exact,2006-08-29,pre_second,S,2006:Q2,2.626470480063652,,,not_available,2.9012,-0.274729519936348,False,True,0,,,,,,,13,,0.0
revision_dfm_kalman_em,exact,2006:Q2:pre_second:exact,2006-08-29,pre_second,S,2006:Q2,2.430741548108354,0.3963394614479781,0.6295549709500975,model_implied_state_space,2.9012,-0.4704584518916457,False,True,31,-1009.3383174156163,-1878.3746972816177,-1009.3383174156163,0.0947051460370858,9.372728713575589e-05,31.0,13,,0.0
indicator_revision_only_dfm_kalman_em,exact,2006:Q2:pre_second:exact,2006-08-29,pre_second,S,2006:Q2,2.5714766583394484,0.420143133349388,0.6481844902104554,model_implied_state_space,2.9012,-0.3297233416605514,False,True,34,-1866.8522615567772,-2807.0478473621542,-1866.8522615567772,0.17729984646348385,9.491276269220193e-05,34.0,13,,0.0
joint_indicator_revision_dfm_full_kalman_em,exact,2006:Q2:pre_second:exact,2006-08-29,pre_second,S,2006:Q2,2.633108137627692,0.3736250935821898,0.6112487984300581,model_implied_state_space,2.9012,-0.26809186237230787,False,True,36,-1832.4723141112104,-2819.8589345071796,-1832.4723141112104,0.173349618831935,9.45382318191746e-05,36.0,13,,0.0
ar,exact,2006:Q2:pre_third:exact,2006-09-27,pre_third,T,2006:Q2,4.082856331839703,,,not_available,2.5586,1.5242563318397027,False,True,0,,,,,,,13,,0.0
no_revision,exact,2006:Q2:pre_third:exact,2006-09-27,pre_third,T,2006:Q2,2.9012,,,not_available,2.5586,0.34259999999999957,False,True,0,,,,,,,13,,0.0
bridge,exact,2006:Q2:pre_third:exact,2006-09-27,pre_third,T,2006:Q2,1.3605661913180507,,,not_available,2.5586,-1.1980338086819495,False,True,0,,,,,,,13,,0.0
midas_umidas,exact,2006:Q2:pre_third:exact,2006-09-27,pre_third,T,2006:Q2,2.92544322167445,,,not_available,2.5586,0.3668432216744497,False,True,0,,,,,,,13,,0.0
monthly_mixed_frequency_kalman_em,exact,2006:Q2:pre_third:exact,2006-09-27,pre_third,T,2006:Q2,3.039172363541547,0.1335771431168138,0.3654820694874289,model_implied_state_space,2.5586,0.48057236354154664,False,True,79,-3124.2202195937866,-4091.535911810086,-3124.2202195937866,0.26039776307197826,8.331447062122246e-05,79.0,13,,0.0
standard_dfm,exact,2006:Q2:pre_third:exact,2006-09-27,pre_third,T,2006:Q2,3.860234574726476,,,not_available,2.5586,1.3016345747264757,False,True,0,,,,,,,13,,0.0
release_dfm,exact,2006:Q2:pre_third:exact,2006-09-27,pre_third,T,2006:Q2,2.926864278416584,,,not_available,2.5586,0.36826427841658393,False,True,0,,,,,,,13,,0.0
revision_dfm_kalman_em,exact,2006:Q2:pre_third:exact,2006-09-27,pre_third,T,2006:Q2,2.86692341292615,0.13452168502124037,0.36677197960209607,model_implied_state_space,2.5586,0.30832341292614984,False,True,40,-1009.1944601195572,-1876.2153929947287,-1009.1944601195572,0.09458163728447744,9.361839372226066e-05,40.0,13,,0.0
indicator_revision_only_dfm_kalman_em,exact,2006:Q2:pre_third:exact,2006-09-27,pre_third,T,2006:Q2,2.8769639564580576,0.1382925648669371,0.3718770830085354,model_implied_state_space,2.5586,0.3183639564580574,False,True,34,-1866.6883643570538,-2808.1685905638205,-1866.6883643570538,0.1778845035039467,9.523406914839883e-05,34.0,13,,0.0
joint_indicator_revision_dfm_full_kalman_em,exact,2006:Q2:pre_third:exact,2006-09-27,pre_third,T,2006:Q2,2.882110579970101,0.13222641147628314,0.363629497533249,model_implied_state_space,2.5586,0.3235105799701006,False,True,36,-1832.2173085790566,-2820.9539586558735,-1832.2173085790566,0.17295176753032138,9.433439855714425e-05,36.0,13,,0.0
ar,pseudo,2006:Q2:pre_advance:pseudo,2006-07-31,pre_advance,A,2006:Q2,3.740059135204821,,,not_available,2.4577,1.2823591352048211,False,True,0,,,,,,,13,,0.0
no_revision,pseudo,2006:Q2:pre_advance:pseudo,2006-07-31,pre_advance,A,2006:Q2,3.697855652198896,,,not_available,2.4577,1.240155652198896,False,True,0,,,,,,,13,,0.0
bridge,pseudo,2006:Q2:pre_advance:pseudo,2006-07-31,pre_advance,A,2006:Q2,1.5213527369938808,,,not_available,2.4577,-0.9363472630061191,False,True,0,,,,,,,13,,0.0
midas_umidas,pseudo,2006:Q2:pre_advance:pseudo,2006-07-31,pre_advance,A,2006:Q2,-12.42670128338963,,,not_available,2.4577,-14.884401283389629,False,True,0,,,,,,,13,,0.0
monthly_mixed_frequency_kalman_em,pseudo,2006:Q2:pre_advance:pseudo,2006-07-31,pre_advance,A,2006:Q2,5.050681928238825,5.8013780893068185,2.408605008984831,model_implied_state_space,2.4577,2.5929819282388253,False,True,97,-3091.8600651687434,-4056.2816497321496,-3091.8600651687434,0.29306278494914295,9.474564395168553e-05,97.0,13,,0.0
standard_dfm,pseudo,2006:Q2:pre_advance:pseudo,2006-07-31,pre_advance,A,2006:Q2,3.463575640485881,,,not_available,2.4577,1.0058756404858809,False,True,0,,,,,,,13,,0.0
release_dfm,pseudo,2006:Q2:pre_advance:pseudo,2006-07-31,pre_advance,A,2006:Q2,3.463575640485881,,,not_available,2.4577,1.0058756404858809,False,True,0,,,,,,,13,,0.0
revision_dfm_kalman_em,pseudo,2006:Q2:pre_advance:pseudo,2006-07-31,pre_advance,A,2006:Q2,3.4672125957896274,6.976379952594398,2.641283769797255,model_implied_state_space,2.4577,1.0095125957896274,False,True,30,-1008.4958927663748,-1877.244222404608,-1008.4958927663748,0.09956104034984037,9.861478671921613e-05,30.0,13,,0.0
indicator_revision_only_dfm_kalman_em,pseudo,2006:Q2:pre_advance:pseudo,2006-07-31,pre_advance,A,2006:Q2,4.667265630357634,7.610783844573615,2.7587649128864924,model_implied_state_space,2.4577,2.209565630357634,False,True,36,-1866.078638894916,-2806.182676521873,-1866.078638894916,0.18131787806100874,9.710371467203991e-05,36.0,13,,0.0
joint_indicator_revision_dfm_full_kalman_em,pseudo,2006:Q2:pre_advance:pseudo,2006-07-31,pre_advance,A,2006:Q2,3.701735629262334,5.92792202158162,2.4347324332627642,model_implied_state_space,2.4577,1.244035629262334,False,True,38,-1831.4809751714342,-2818.87278354823,-1831.4809751714342,0.17395571146198563,9.49200575245123e-05,38.0,13,,0.0
ar,pseudo,2006:Q2:pre_second:pseudo,2006-08-31,pre_second,S,2006:Q2,3.932818675395525,,,not_available,2.9012,1.0316186753955252,False,True,0,,,,,,,13,,0.0
no_revision,pseudo,2006:Q2:pre_second:pseudo,2006-08-31,pre_second,S,2006:Q2,2.4577,,,not_available,2.9012,-0.4434999999999998,False,True,0,,,,,,,13,,0.0
bridge,pseudo,2006:Q2:pre_second:pseudo,2006-08-31,pre_second,S,2006:Q2,1.4822875599996792,,,not_available,2.9012,-1.4189124400003206,False,True,0,,,,,,,13,,0.0
midas_umidas,pseudo,2006:Q2:pre_second:pseudo,2006-08-31,pre_second,S,2006:Q2,2.8146128598667763,,,not_available,2.9012,-0.08658714013322344,False,True,0,,,,,,,13,,0.0
monthly_mixed_frequency_kalman_em,pseudo,2006:Q2:pre_second:pseudo,2006-08-31,pre_second,S,2006:Q2,2.7816122212714887,0.3412343521090926,0.5841526787656568,model_implied_state_space,2.9012,-0.11958777872851112,False,True,97,-3110.375296998415,-4076.041938436888,-3110.375296998415,0.30074454329042055,9.665033868416913e-05,97.0,13,,0.0
standard_dfm,pseudo,2006:Q2:pre_second:pseudo,2006-08-31,pre_second,S,2006:Q2,3.706999177207295,,,not_available,2.9012,0.8057991772072954,False,True,0,,,,,,,13,,0.0
release_dfm,pseudo,2006:Q2:pre_second:pseudo,2006-08-31,pre_second,S,2006:Q2,2.6262455339766513,,,not_available,2.9012,-0.2749544660233485,False,True,0,,,,,,,13,,0.0
revision_dfm_kalman_em,pseudo,2006:Q2:pre_second:pseudo,2006-08-31,pre_second,S,2006:Q2,2.4305288255413915,0.39633461000046455,0.6295511178613414,model_implied_state_space,2.9012,-0.4706711744586083,False,True,31,-1009.3592004049327,-1878.3885007592949,-1009.3592004049327,0.09471771041705779,9.373778330606182e-05,31.0,13,,0.0
indicator_revision_only_dfm_kalman_em,pseudo,2006:Q2:pre_second:pseudo,2006-08-31,pre_second,S,2006:Q2,2.571276376575444,0.42014410285953424,0.6481852380759178,model_implied_state_space,2.9012,-0.32992362342455595,False,True,34,-1866.8755743958102,-2807.064726953274,-1866.8755743958102,0.17725619943644233,9.488821543658401e-05,34.0,13,,0.0
joint_indicator_revision_dfm_full_kalman_em,pseudo,2006:Q2:pre_second:pseudo,2006-08-31,pre_second,S,2006:Q2,2.6333867330666316,0.3736272735628803,0.6112505816462511,model_implied_state_space,2.9012,-0.26781326693336815,False,True,36,-1832.4932916755179,-2819.8757976650486,-1832.4932916755179,0.17341664089553888,9.457369766764314e-05,36.0,13,,0.0
ar,pseudo,2006:Q2:pre_third:pseudo,2006-09-30,pre_third,T,2006:Q2,4.082856331839703,,,not_available,2.5586,1.5242563318397027,False,True,0,,,,,,,13,,0.0
no_revision,pseudo,2006:Q2:pre_third:pseudo,2006-09-30,pre_third,T,2006:Q2,2.9012,,,not_available,2.5586,0.34259999999999957,False,True,0,,,,,,,13,,0.0
bridge,pseudo,2006:Q2:pre_third:pseudo,2006-09-30,pre_third,T,2006:Q2,1.3605661913180507,,,not_available,2.5586,-1.1980338086819495,False,True,0,,,,,,,13,,0.0
midas_umidas,pseudo,2006:Q2:pre_third:pseudo,2006-09-30,pre_third,T,2006:Q2,2.92544322167445,,,not_available,2.5586,0.3668432216744497,False,True,0,,,,,,,13,,0.0
monthly_mixed_frequency_kalman_em,pseudo,2006:Q2:pre_third:pseudo,2006-09-30,pre_third,T,2006:Q2,3.039172363541547,0.1335771431168138,0.3654820694874289,model_implied_state_space,2.5586,0.48057236354154664,False,True,79,-3124.2202195937866,-4091.535911810086,-3124.2202195937866,0.26039776307197826,8.331447062122246e-05,79.0,13,,0.0
standard_dfm,pseudo,2006:Q2:pre_third:pseudo,2006-09-30,pre_third,T,2006:Q2,3.860234574726476,,,not_available,2.5586,1.3016345747264757,False,True,0,,,,,,,13,,0.0
release_dfm,pseudo,2006:Q2:pre_third:pseudo,2006-09-30,pre_third,T,2006:Q2,2.926864278416584,,,not_available,2.5586,0.36826427841658393,False,True,0,,,,,,,13,,0.0
revision_dfm_kalman_em,pseudo,2006:Q2:pre_third:pseudo,2006-09-30,pre_third,T,2006:Q2,2.86692341292615,0.13452168502124037,0.36677197960209607,model_implied_state_space,2.5586,0.30832341292614984,False,True,40,-1009.1944601195572,-1876.2153929947287,-1009.1944601195572,0.09458163728447744,9.361839372226066e-05,40.0,13,,0.0
indicator_revision_only_dfm_kalman_em,pseudo,2006:Q2:pre_third:pseudo,2006-09-30,pre_third,T,2006:Q2,2.8769639564580576,0.1382925648669371,0.3718770830085354,model_implied_state_space,2.5586,0.3183639564580574,False,True,34,-1866.6883643570538,-2808.1685905638205,-1866.6883643570538,0.1778845035039467,9.523406914839883e-05,34.0,13,,0.0
joint_indicator_revision_dfm_full_kalman_em,pseudo,2006:Q2:pre_third:pseudo,2006-09-30,pre_third,T,2006:Q2,2.882110579970101,0.13222641147628314,0.363629497533249,model_implied_state_space,2.5586,0.3235105799701006,False,True,36,-1832.2173085790566,-2820.9539586558735,-1832.2173085790566,0.17295176753032138,9.433439855714425e-05,36.0,13,,0.0
ar,exact,2006:Q3:pre_advance:exact,2006-10-26,pre_advance,A,2006:Q3,2.58335724396098,,,not_available,1.5829,1.0004572439609802,False,True,0,,,,,,,13,,0.0
no_revision,exact,2006:Q3:pre_advance:exact,2006-10-26,pre_advance,A,2006:Q3,2.697548595025026,,,not_available,1.5829,1.114648595025026,False,True,0,,,,,,,13,,0.0
bridge,exact,2006:Q3:pre_advance:exact,2006-10-26,pre_advance,A,2006:Q3,0.5269397185662135,,,not_available,1.5829,-1.0559602814337865,False,True,0,,,,,,,13,,0.0
midas_umidas,exact,2006:Q3:pre_advance:exact,2006-10-26,pre_advance,A,2006:Q3,-2.631757524580263,,,not_available,1.5829,-4.214657524580263,False,True,0,,,,,,,13,,0.0
monthly_mixed_frequency_kalman_em,exact,2006:Q3:pre_advance:exact,2006-10-26,pre_advance,A,2006:Q3,1.4501165923348711,5.628173723283034,2.37237723039213,model_implied_state_space,1.5829,-0.13278340766512886,False,True,89,-3142.4324237026963,-4116.260334471542,-3142.4324237026963,0.29819270006055376,9.485313356834739e-05,89.0,13,,0.0
standard_dfm,exact,2006:Q3:pre_advance:exact,2006-10-26,pre_advance,A,2006:Q3,3.0602179516245127,,,not_available,1.5829,1.4773179516245127,False,True,0,,,,,,,13,,0.0
release_dfm,exact,2006:Q3:pre_advance:exact,2006-10-26,pre_advance,A,2006:Q3,3.0602179516245127,,,not_available,1.5829,1.4773179516245127,False,True,0,,,,,,,13,,0.0
revision_dfm_kalman_em,exact,2006:Q3:pre_advance:exact,2006-10-26,pre_advance,A,2006:Q3,1.5318671585195616,6.704016793808326,2.5892116162662964,model_implied_state_space,1.5829,-0.05103284148043841,False,True,39,-1026.0763563907842,-1896.1563781244352,-1026.0763563907842,0.0990109766396472,9.639150215742145e-05,39.0,13,,0.0
indicator_revision_only_dfm_kalman_em,exact,2006:Q3:pre_advance:exact,2006-10-26,pre_advance,A,2006:Q3,-0.4836515535838113,4.525212055770892,2.127254581795722,model_implied_state_space,1.5829,-2.0665515535838113,False,True,44,-1656.9540572246071,-2844.3102496574456,-1656.9540572246071,0.09087741097914659,5.480998076757196e-05,44.0,13,,0.0
joint_indicator_revision_dfm_full_kalman_em,exact,2006:Q3:pre_advance:exact,2006-10-26,pre_advance,A,2006:Q3,-0.7566394690125176,3.7031508142495384,1.924357247043682,model_implied_state_space,1.5829,-2.3395394690125175,False,True,46,-1630.1604062578638,-2857.111225548531,-1630.1604062578638,0.03188302318199021,1.9545839807790397e-05,46.0,13,,0.0
ar,exact,2006:Q3:pre_second:exact,2006-11-28,pre_second,S,2006:Q3,2.8532262466469804,,,not_available,2.2098,0.6434262466469804,False,True,0,,,,,,,13,,0.0
no_revision,exact,2006:Q3:pre_second:exact,2006-11-28,pre_second,S,2006:Q3,1.5829,,,not_available,2.2098,-0.6269,False,True,0,,,,,,,13,,0.0
bridge,exact,2006:Q3:pre_second:exact,2006-11-28,pre_second,S,2006:Q3,0.8757358874923964,,,not_available,2.2098,-1.3340641125076036,False,True,0,,,,,,,13,,0.0
midas_umidas,exact,2006:Q3:pre_second:exact,2006-11-28,pre_second,S,2006:Q3,2.379159096491427,,,not_available,2.2098,0.16935909649142689,False,True,0,,,,,,,13,,0.0
monthly_mixed_frequency_kalman_em,exact,2006:Q3:pre_second:exact,2006-11-28,pre_second,S,2006:Q3,1.6581972631659505,0.3436842490641301,0.5862458947098309,model_implied_state_space,2.2098,-0.5516027368340495,False,True,78,-3160.5131066917306,-4131.923324813286,-3160.5131066917306,0.28004125985853534,8.857039241797455e-05,78.0,13,,0.0
standard_dfm,exact,2006:Q3:pre_second:exact,2006-11-28,pre_second,S,2006:Q3,3.2571987903906794,,,not_available,2.2098,1.0473987903906794,False,True,0,,,,,,,13,,0.0
release_dfm,exact,2006:Q3:pre_second:exact,2006-11-28,pre_second,S,2006:Q3,1.7024898218654105,,,not_available,2.2098,-0.5073101781345895,False,True,0,,,,,,,13,,0.0
revision_dfm_kalman_em,exact,2006:Q3:pre_second:exact,2006-11-28,pre_second,S,2006:Q3,1.6127484248260102,0.39286068572231475,0.6267859967503381,model_implied_state_space,2.2098,-0.5970515751739898,False,True,39,-1026.9653912503095,-1897.4399019553675,-1026.9653912503095,0.09743595513691616,9.477626518388328e-05,39.0,13,,0.0
indicator_revision_only_dfm_kalman_em,exact,2006:Q3:pre_second:exact,2006-11-28,pre_second,S,2006:Q3,1.4237358766131354,0.39928492323410286,0.6318899613335401,model_implied_state_space,2.2098,-0.7860641233868646,False,True,44,-1658.3933937112015,-2845.4162182286295,-1658.3933937112015,0.12879796062520654,7.761147230905879e-05,44.0,13,,0.0
joint_indicator_revision_dfm_full_kalman_em,exact,2006:Q3:pre_second:exact,2006-11-28,pre_second,S,2006:Q3,1.2867668998683524,0.3704861201321178,0.608675710154527,model_implied_state_space,2.2098,-0.9230331001316476,False,True,46,-1631.5786379033743,-2858.3282048283727,-1631.5786379033743,0.03420638124907782,2.0951924621214367e-05,46.0,13,,0.0
ar,exact,2006:Q3:pre_third:exact,2006-12-20,pre_third,T,2006:Q3,2.75074084743836,,,not_available,1.9601,0.7906408474383599,False,True,0,,,,,,,13,,0.0
no_revision,exact,2006:Q3:pre_third:exact,2006-12-20,pre_third,T,2006:Q3,2.2098,,,not_available,1.9601,0.24970000000000003,False,True,0,,,,,,,13,,0.0
bridge,exact,2006:Q3:pre_third:exact,2006-12-20,pre_third,T,2006:Q3,0.39348429457032186,,,not_available,1.9601,-1.566615705429678,False,True,0,,,,,,,13,,0.0
midas_umidas,exact,2006:Q3:pre_third:exact,2006-12-20,pre_third,T,2006:Q3,1.9864144975800373,,,not_available,1.9601,0.026314497580037344,False,True,0,,,,,,,13,,0.0
monthly_mixed_frequency_kalman_em,exact,2006:Q3:pre_third:exact,2006-12-20,pre_third,T,2006:Q3,2.2318788911057226,0.13468235974926496,0.36699095322536895,model_implied_state_space,1.9601,0.2717788911057226,False,True,82,-3189.026433944505,-4151.124194737777,-3189.026433944505,0.2956457929458338,9.266957553394238e-05,82.0,13,,0.0
standard_dfm,exact,2006:Q3:pre_third:exact,2006-12-20,pre_third,T,2006:Q3,3.3095218036059553,,,not_available,1.9601,1.3494218036059553,False,True,0,,,,,,,13,,0.0
release_dfm,exact,2006:Q3:pre_third:exact,2006-12-20,pre_third,T,2006:Q3,2.1333595250762545,,,not_available,1.9601,0.17325952507625453,False,True,0,,,,,,,13,,0.0
revision_dfm_kalman_em,exact,2006:Q3:pre_third:exact,2006-12-20,pre_third,T,2006:Q3,2.1619084523836345,0.13420795512602662,0.36634403929370357,model_implied_state_space,1.9601,0.20180845238363454,False,True,31,-1028.2998951329462,-1901.692991312844,-1028.2998951329462,0.09595827971475046,9.321805542214771e-05,31.0,13,,0.0
indicator_revision_only_dfm_kalman_em,exact,2006:Q3:pre_third:exact,2006-12-20,pre_third,T,2006:Q3,2.1713693431238914,0.13862675391801987,0.37232613918179297,model_implied_state_space,1.9601,0.21126934312389145,False,True,44,-1669.163639831967,-2844.495145838429,-1669.163639831967,0.08334849753123308,4.990189960743129e-05,44.0,13,,0.0
joint_indicator_revision_dfm_full_kalman_em,exact,2006:Q3:pre_third:exact,2006-12-20,pre_third,T,2006:Q3,2.178434614184586,0.1321208762284724,0.36348435486066305,model_implied_state_space,1.9601,0.2183346141845861,False,True,47,-1864.6935657270421,-2857.5242105137513,-1864.6935657270421,0.18570334339892725,9.952591599961473e-05,47.0,13,,0.0
ar,pseudo,2006:Q3:pre_advance:pseudo,2006-10-31,pre_advance,A,2006:Q3,2.58335724396098,,,not_available,1.5829,1.0004572439609802,False,True,0,,,,,,,13,,0.0
no_revision,pseudo,2006:Q3:pre_advance:pseudo,2006-10-31,pre_advance,A,2006:Q3,2.697548595025026,,,not_available,1.5829,1.114648595025026,False,True,0,,,,,,,13,,0.0
bridge,pseudo,2006:Q3:pre_advance:pseudo,2006-10-31,pre_advance,A,2006:Q3,0.5269397185662135,,,not_available,1.5829,-1.0559602814337865,False,True,0,,,,,,,13,,0.0
midas_umidas,pseudo,2006:Q3:pre_advance:pseudo,2006-10-31,pre_advance,A,2006:Q3,-2.631757524580263,,,not_available,1.5829,-4.214657524580263,False,True,0,,,,,,,13,,0.0
monthly_mixed_frequency_kalman_em,pseudo,2006:Q3:pre_advance:pseudo,2006-10-31,pre_advance,A,2006:Q3,1.4501165923348711,5.628173723283034,2.37237723039213,model_implied_state_space,1.5829,-0.13278340766512886,False,True,89,-3142.4324237026963,-4116.260334471542,-3142.4324237026963,0.29819270006055376,9.485313356834739e-05,89.0,13,,0.0
standard_dfm,pseudo,2006:Q3:pre_advance:pseudo,2006-10-31,pre_advance,A,2006:Q3,3.0602179516245127,,,not_available,1.5829,1.4773179516245127,False,True,0,,,,,,,13,,0.0
release_dfm,pseudo,2006:Q3:pre_advance:pseudo,2006-10-31,pre_advance,A,2006:Q3,3.0602179516245127,,,not_available,1.5829,1.4773179516245127,False,True,0,,,,,,,13,,0.0
revision_dfm_kalman_em,pseudo,2006:Q3:pre_advance:pseudo,2006-10-31,pre_advance,A,2006:Q3,1.5318671585195616,6.704016793808326,2.5892116162662964,model_implied_state_space,1.5829,-0.05103284148043841,False,True,39,-1026.0763563907842,-1896.1563781244352,-1026.0763563907842,0.0990109766396472,9.639150215742145e-05,39.0,13,,0.0
indicator_revision_only_dfm_kalman_em,pseudo,2006:Q3:pre_advance:pseudo,2006-10-31,pre_advance,A,2006:Q3,-0.4836515535838113,4.525212055770892,2.127254581795722,model_implied_state_space,1.5829,-2.0665515535838113,False,True,44,-1656.9540572246071,-2844.3102496574456,-1656.9540572246071,0.09087741097914659,5.480998076757196e-05,44.0,13,,0.0
joint_indicator_revision_dfm_full_kalman_em,pseudo,2006:Q3:pre_advance:pseudo,2006-10-31,pre_advance,A,2006:Q3,-0.7566394690125176,3.7031508142495384,1.924357247043682,model_implied_state_space,1.5829,-2.3395394690125175,False,True,46,-1630.1604062578638,-2857.111225548531,-1630.1604062578638,0.03188302318199021,1.9545839807790397e-05,46.0,13,,0.0
ar,pseudo,2006:Q3:pre_second:pseudo,2006-11-30,pre_second,S,2006:Q3,2.8532262466469804,,,not_available,2.2098,0.6434262466469804,False,True,0,,,,,,,13,,0.0
no_revision,pseudo,2006:Q3:pre_second:pseudo,2006-11-30,pre_second,S,2006:Q3,1.5829,,,not_available,2.2098,-0.6269,False,True,0,,,,,,,13,,0.0
bridge,pseudo,2006:Q3:pre_second:pseudo,2006-11-30,pre_second,S,2006:Q3,0.897347254249764,,,not_available,2.2098,-1.312452745750236,False,True,0,,,,,,,13,,0.0
midas_umidas,pseudo,2006:Q3:pre_second:pseudo,2006-11-30,pre_second,S,2006:Q3,2.375457847401134,,,not_available,2.2098,0.1656578474011341,False,True,0,,,,,,,13,,0.0
monthly_mixed_frequency_kalman_em,pseudo,2006:Q3:pre_second:pseudo,2006-11-30,pre_second,S,2006:Q3,1.6581859097653355,0.3436820308260412,0.5862440028060341,model_implied_state_space,2.2098,-0.5516140902346645,False,True,78,-3160.522554334929,-4131.928394754099,-3160.522554334929,0.2800784257447049,8.858188137447378e-05,78.0,13,,0.0
standard_dfm,pseudo,2006:Q3:pre_second:pseudo,2006-11-30,pre_second,S,2006:Q3,3.2601675921758497,,,not_available,2.2098,1.0503675921758497,False,True,0,,,,,,,13,,0.0
release_dfm,pseudo,2006:Q3:pre_second:pseudo,2006-11-30,pre_second,S,2006:Q3,1.7026518268415933,,,not_available,2.2098,-0.5071481731584067,False,True,0,,,,,,,13,,0.0
revision_dfm_kalman_em,pseudo,2006:Q3:pre_second:pseudo,2006-11-30,pre_second,S,2006:Q3,1.612841363927364,0.3928568747348651,0.6267829566403869,model_implied_state_space,2.2098,-0.596958636072636,False,True,39,-1026.9525231064767,-1897.4068183436036,-1026.9525231064767,0.09748883298971123,9.482888172511548e-05,39.0,13,,0.0
indicator_revision_only_dfm_kalman_em,pseudo,2006:Q3:pre_second:pseudo,2006-11-30,pre_second,S,2006:Q3,1.4237841106832252,0.39928679962833746,0.6318914460794176,model_implied_state_space,2.2098,-0.7860158893167748,False,True,44,-1658.3932192731759,-2845.387747348953,-1658.3932192731759,0.12841006757503237,7.737776073822165e-05,44.0,13,,0.0
joint_indicator_revision_dfm_full_kalman_em,pseudo,2006:Q3:pre_second:pseudo,2006-11-30,pre_second,S,2006:Q3,1.286837109229697,0.370495672893238,0.6086835572719522,model_implied_state_space,2.2098,-0.9229628907703029,False,True,46,-1631.580528839105,-2858.299913923294,-1631.580528839105,0.03426573531191934,2.0988254808049555e-05,46.0,13,,0.0
ar,pseudo,2006:Q3:pre_third:pseudo,2006-12-31,pre_third,T,2006:Q3,2.75074084743836,,,not_available,1.9601,0.7906408474383599,False,True,0,,,,,,,13,,0.0
no_revision,pseudo,2006:Q3:pre_third:pseudo,2006-12-31,pre_third,T,2006:Q3,2.2098,,,not_available,1.9601,0.24970000000000003,False,True,0,,,,,,,13,,0.0
bridge,pseudo,2006:Q3:pre_third:pseudo,2006-12-31,pre_third,T,2006:Q3,0.39348429457032186,,,not_available,1.9601,-1.566615705429678,False,True,0,,,,,,,13,,0.0
midas_umidas,pseudo,2006:Q3:pre_third:pseudo,2006-12-31,pre_third,T,2006:Q3,1.9864144975800373,,,not_available,1.9601,0.026314497580037344,False,True,0,,,,,,,13,,0.0
monthly_mixed_frequency_kalman_em,pseudo,2006:Q3:pre_third:pseudo,2006-12-31,pre_third,T,2006:Q3,2.232080913608404,0.13468848479174528,0.3669992980807256,model_implied_state_space,1.9601,0.27198091360840393,False,True,82,-3190.450602171845,-4152.547138539662,-3190.450602171845,0.29793922489443503,9.334670981444359e-05,82.0,13,,0.0
standard_dfm,pseudo,2006:Q3:pre_third:pseudo,2006-12-31,pre_third,T,2006:Q3,3.3095218036059553,,,not_available,1.9601,1.3494218036059553,False,True,0,,,,,,,13,,0.0
release_dfm,pseudo,2006:Q3:pre_third:pseudo,2006-12-31,pre_third,T,2006:Q3,2.1333595250762545,,,not_available,1.9601,0.17325952507625453,False,True,0,,,,,,,13,,0.0
revision_dfm_kalman_em,pseudo,2006:Q3:pre_third:pseudo,2006-12-31,pre_third,T,2006:Q3,2.1619084523836345,0.13420795512602662,0.36634403929370357,model_implied_state_space,1.9601,0.20180845238363454,False,True,31,-1028.2998951329462,-1901.692991312844,-1028.2998951329462,0.09595827971475046,9.321805542214771e-05,31.0,13,,0.0
indicator_revision_only_dfm_kalman_em,pseudo,2006:Q3:pre_third:pseudo,2006-12-31,pre_third,T,2006:Q3,2.1713693431238914,0.13862675391801987,0.37232613918179297,model_implied_state_space,1.9601,0.21126934312389145,False,True,44,-1669.163639831967,-2844.495145838429,-1669.163639831967,0.08334849753123308,4.990189960743129e-05,44.0,13,,0.0
joint_indicator_revision_dfm_full_kalman_em,pseudo,2006:Q3:pre_third:pseudo,2006-12-31,pre_third,T,2006:Q3,2.178434614184586,0.1321208762284724,0.36348435486066305,model_implied_state_space,1.9601,0.2183346141845861,False,True,47,-1864.6935657270421,-2857.5242105137513,-1864.6935657270421,0.18570334339892725,9.952591599961473e-05,47.0,13,,0.0
ar,exact,2006:Q4:pre_advance:exact,2007-01-30,pre_advance,A,2006:Q4,2.1524610748667694,,,not_available,3.4734,-1.3209389251332304,False,True,0,,,,,,,13,,0.0
no_revision,exact,2006:Q4:pre_advance:exact,2007-01-30,pre_advance,A,2006:Q4,2.0405286021231293,,,not_available,3.4734,-1.4328713978768706,False,True,0,,,,,,,13,,0.0
bridge,exact,2006:Q4:pre_advance:exact,2007-01-30,pre_advance,A,2006:Q4,-0.15545872254795334,,,not_available,3.4734,-3.628858722547953,False,True,0,,,,,,,13,,0.0
midas_umidas,exact,2006:Q4:pre_advance:exact,2007-01-30,pre_advance,A,2006:Q4,-1.1680154957368956,,,not_available,3.4734,-4.641415495736895,False,True,0,,,,,,,13,,0.0
monthly_mixed_frequency_kalman_em,exact,2006:Q4:pre_advance:exact,2007-01-30,pre_advance,A,2006:Q4,1.362048598021729,5.692219959536481,2.38583737072259,model_implied_state_space,3.4734,-2.111351401978271,False,True,91,-3206.607645362651,-4176.972327185434,-3206.607645362651,0.3165213614870481,9.866859222245045e-05,91.0,13,,0.0
standard_dfm,exact,2006:Q4:pre_advance:exact,2007-01-30,pre_advance,A,2006:Q4,2.1189648572353583,,,not_available,3.4734,-1.3544351427646415,False,True,0,,,,,,,13,,0.0
release_dfm,exact,2006:Q4:pre_advance:exact,2007-01-30,pre_advance,A,2006:Q4,2.1189648572353583,,,not_available,3.4734,-1.3544351427646415,False,True,0,,,,,,,13,,0.0
revision_dfm_kalman_em,exact,2006:Q4:pre_advance:exact,2007-01-30,pre_advance,A,2006:Q4,0.43382900471396635,6.810730660532651,2.609737661247324,model_implied_state_space,3.4734,-3.0395709952860335,False,True,30,-1046.7310083921511,-1923.4745861319316,-1046.7310083921511,0.1042079091857886,9.945066510898832e-05,30.0,13,,0.0
indicator_revision_only_dfm_kalman_em,exact,2006:Q4:pre_advance:exact,2007-01-30,pre_advance,A,2006:Q4,-1.2362205105341197,4.755867368862983,2.1807951230830884,model_implied_state_space,3.4734,-4.709620510534119,False,True,37,-1688.7636631924518,-2885.0406885150896,-1688.7636631924518,0.07704863795493111,4.559520753377597e-05,37.0,13,,0.0
joint_indicator_revision_dfm_full_kalman_em,exact,2006:Q4:pre_advance:exact,2007-01-30,pre_advance,A,2006:Q4,-1.2837235765402624,3.7446620422193733,1.9351129275107883,model_implied_state_space,3.4734,-4.757123576540263,False,True,38,-1660.5111235816632,-2898.057010892054,-1660.5111235816632,0.06301197598759245,3.792306021087926e-05,38.0,13,,0.0
ar,exact,2006:Q4:pre_second:exact,2007-02-27,pre_second,S,2006:Q4,2.5420474751814193,,,not_available,2.2204,0.3216474751814191,False,True,0,,,,,,,13,,0.0
no_revision,exact,2006:Q4:pre_second:exact,2007-02-27,pre_second,S,2006:Q4,3.4734,,,not_available,2.2204,1.2529999999999997,False,True,0,,,,,,,13,,0.0
bridge,exact,2006:Q4:pre_second:exact,2007-02-27,pre_second,S,2006:Q4,0.008476208885223935,,,not_available,2.2204,-2.211923791114776,False,True,0,,,,,,,13,,0.0
