haminh109/Revision-Aware-DFM/outputs/full_state_space_release_revision_dfm/frozen/q2_manuscript_best_v1/mature_robustness_runs/mature_1y/run_dir/revision_forecast_results.csv
model_id,timing_mode,forecast_origin,forecast_origin_date,checkpoint_id,target_id,revision_target_id,target_quarter,forecast_value,forecast_variance,forecast_sd,density_source,realized_value,forecast_error,revision_target_flag,converged,n_iter,loglikelihood,llf_initial,llf_final,llf_last_improvement,llf_relative_last_improvement,llf_history_length,n_indicators,initialization_seed,initialization_jitter
ar,exact,2005:Q1:pre_advance:exact,2005-04-27,pre_advance,DELTA_SA,DELTA_SA,2005:Q1,0.3356948084435101,,,not_available,0.3950999999999998,-0.05940519155648971,True,True,0,,,,,,,13,,0.0
no_revision,exact,2005:Q1:pre_advance:exact,2005-04-27,pre_advance,DELTA_SA,DELTA_SA,2005:Q1,0.0,,,not_available,0.3950999999999998,-0.3950999999999998,True,True,0,,,,,,,13,,0.0
bridge,exact,2005:Q1:pre_advance:exact,2005-04-27,pre_advance,DELTA_SA,DELTA_SA,2005:Q1,0.26328560705155235,,,not_available,0.3950999999999998,-0.13181439294844743,True,True,0,,,,,,,13,,0.0
midas_umidas,exact,2005:Q1:pre_advance:exact,2005-04-27,pre_advance,DELTA_SA,DELTA_SA,2005:Q1,-5.913731381630731,,,not_available,0.3950999999999998,-6.30883138163073,True,True,0,,,,,,,13,,0.0
monthly_mixed_frequency_kalman_em,exact,2005:Q1:pre_advance:exact,2005-04-27,pre_advance,DELTA_SA,DELTA_SA,2005:Q1,-0.03102916277679113,0.3334696412995015,0.5774683032855583,model_implied_state_space,0.3950999999999998,-0.4261291627767909,True,False,100,-2847.5333198164153,-3753.6819855982853,-2847.5333198164153,0.7115317784187027,0.00024972644173435306,101.0,13,,0.0
standard_dfm,exact,2005:Q1:pre_advance:exact,2005-04-27,pre_advance,DELTA_SA,DELTA_SA,2005:Q1,0.13413726161412365,,,not_available,0.3950999999999998,-0.26096273838587614,True,True,0,,,,,,,13,,0.0
release_dfm,exact,2005:Q1:pre_advance:exact,2005-04-27,pre_advance,DELTA_SA,DELTA_SA,2005:Q1,0.13413726161412365,,,not_available,0.3950999999999998,-0.26096273838587614,True,True,0,,,,,,,13,,0.0
revision_dfm_kalman_em,exact,2005:Q1:pre_advance:exact,2005-04-27,pre_advance,DELTA_SA,DELTA_SA,2005:Q1,0.052329167439188584,0.4290643441209028,0.6550300329915436,model_implied_state_space,0.3950999999999998,-0.3427708325608112,True,True,32,-917.6829373739922,-1763.7892868605556,-917.6829373739922,0.08857294968174756,9.640367456599106e-05,32.0,13,,0.0
indicator_revision_only_dfm_kalman_em,exact,2005:Q1:pre_advance:exact,2005-04-27,pre_advance,DELTA_SA,DELTA_SA,2005:Q1,0.0,0.44931009023919977,0.6703059676291118,model_implied_state_space,0.3950999999999998,-0.3950999999999998,True,True,41,-1687.5914992509581,-2601.9389575226114,-1687.5914992509581,0.16437172482369533,9.733302939087313e-05,41.0,13,,0.0
joint_indicator_revision_dfm_full_kalman_em,exact,2005:Q1:pre_advance:exact,2005-04-27,pre_advance,DELTA_SA,DELTA_SA,2005:Q1,0.24570508274378877,0.42580673171181793,0.6525386821574779,model_implied_state_space,0.3950999999999998,-0.149394917256211,True,True,37,-1656.4458670540416,-2614.3997397592493,-1656.4458670540416,0.1653447752462398,9.974882775061016e-05,37.0,13,,0.0
ar,exact,2005:Q1:pre_second:exact,2005-05-25,pre_second,DELTA_TS,DELTA_TS,2005:Q1,0.04714135981196321,,,not_available,0.27649999999999997,-0.22935864018803676,True,True,0,,,,,,,13,,0.0
no_revision,exact,2005:Q1:pre_second:exact,2005-05-25,pre_second,DELTA_TS,DELTA_TS,2005:Q1,0.0,,,not_available,0.27649999999999997,-0.27649999999999997,True,True,0,,,,,,,13,,0.0
bridge,exact,2005:Q1:pre_second:exact,2005-05-25,pre_second,DELTA_TS,DELTA_TS,2005:Q1,0.19854853703044162,,,not_available,0.27649999999999997,-0.07795146296955835,True,True,0,,,,,,,13,,0.0
midas_umidas,exact,2005:Q1:pre_second:exact,2005-05-25,pre_second,DELTA_TS,DELTA_TS,2005:Q1,0.6899398299977455,,,not_available,0.27649999999999997,0.41343982999774553,True,True,0,,,,,,,13,,0.0
monthly_mixed_frequency_kalman_em,exact,2005:Q1:pre_second:exact,2005-05-25,pre_second,DELTA_TS,DELTA_TS,2005:Q1,-0.04378763277748732,0.13734944772497693,0.37060686410936444,model_implied_state_space,0.27649999999999997,-0.3202876327774873,True,False,100,-2872.3234827995566,-3772.642475673925,-2872.3234827995566,0.5853677306245118,0.00020368347121256912,101.0,13,,0.0
standard_dfm,exact,2005:Q1:pre_second:exact,2005-05-25,pre_second,DELTA_TS,DELTA_TS,2005:Q1,0.1165898545711248,,,not_available,0.27649999999999997,-0.15991014542887516,True,True,0,,,,,,,13,,0.0
release_dfm,exact,2005:Q1:pre_second:exact,2005-05-25,pre_second,DELTA_TS,DELTA_TS,2005:Q1,0.07710214238409208,,,not_available,0.27649999999999997,-0.1993978576159079,True,True,0,,,,,,,13,,0.0
revision_dfm_kalman_em,exact,2005:Q1:pre_second:exact,2005-05-25,pre_second,DELTA_TS,DELTA_TS,2005:Q1,0.002393392126491367,0.1397078438849939,0.3737751247541681,model_implied_state_space,0.27649999999999997,-0.2741066078735086,True,True,41,-918.2394996887441,-1761.8092904364337,-918.2394996887441,0.08800216510303471,9.572449962127329e-05,41.0,13,,0.0
indicator_revision_only_dfm_kalman_em,exact,2005:Q1:pre_second:exact,2005-05-25,pre_second,DELTA_TS,DELTA_TS,2005:Q1,0.0,0.14337671898214777,0.3786511837854832,model_implied_state_space,0.27649999999999997,-0.27649999999999997,True,True,44,-1688.741883576326,-2603.024791260359,-1688.741883576326,0.16215256719465287,9.595371318521517e-05,44.0,13,,0.0
joint_indicator_revision_dfm_full_kalman_em,exact,2005:Q1:pre_second:exact,2005-05-25,pre_second,DELTA_TS,DELTA_TS,2005:Q1,0.006440277420126428,0.1385487880159897,0.37222142337053854,model_implied_state_space,0.27649999999999997,-0.27005972257987354,True,True,40,-1657.1871746326292,-2615.610805044669,-1657.1871746326292,0.1592670873503721,9.603969553260885e-05,40.0,13,,0.0
ar,exact,2005:Q1:pre_third:exact,2005-06-28,pre_third,DELTA_MT,DELTA_MT,2005:Q1,0.5156219105826034,,,not_available,-0.025225752179729,0.5408476627623324,True,True,0,,,,,,,13,,0.0
no_revision,exact,2005:Q1:pre_third:exact,2005-06-28,pre_third,DELTA_MT,DELTA_MT,2005:Q1,0.0,,,not_available,-0.025225752179729,0.025225752179729,True,True,0,,,,,,,13,,0.0
bridge,exact,2005:Q1:pre_third:exact,2005-06-28,pre_third,DELTA_MT,DELTA_MT,2005:Q1,-1.5956942670116336,,,not_available,-0.025225752179729,-1.5704685148319046,True,True,0,,,,,,,13,,0.0
midas_umidas,exact,2005:Q1:pre_third:exact,2005-06-28,pre_third,DELTA_MT,DELTA_MT,2005:Q1,1.1884370519867895,,,not_available,-0.025225752179729,1.2136628041665185,True,True,0,,,,,,,13,,0.0
monthly_mixed_frequency_kalman_em,exact,2005:Q1:pre_third:exact,2005-06-28,pre_third,DELTA_MT,DELTA_MT,2005:Q1,0.026298776720429906,0.6742326916429783,0.8211167344799266,model_implied_state_space,-0.025225752179729,0.051524528900158906,True,False,100,-2891.7278987983586,-3791.7883706239404,-2891.7278987983586,0.5647823051294836,0.0001952040002099194,101.0,13,,0.0
standard_dfm,exact,2005:Q1:pre_third:exact,2005-06-28,pre_third,DELTA_MT,DELTA_MT,2005:Q1,0.07672353171671276,,,not_available,-0.025225752179729,0.10194928389644176,True,True,0,,,,,,,13,,0.0
release_dfm,exact,2005:Q1:pre_third:exact,2005-06-28,pre_third,DELTA_MT,DELTA_MT,2005:Q1,0.15418833568794454,,,not_available,-0.025225752179729,0.17941408786767354,True,True,0,,,,,,,13,,0.0
revision_dfm_kalman_em,exact,2005:Q1:pre_third:exact,2005-06-28,pre_third,DELTA_MT,DELTA_MT,2005:Q1,0.005580587878122323,0.7037681054046839,0.8389088778912069,model_implied_state_space,-0.025225752179729,0.030806340057851322,True,True,33,-918.1632804362703,-1766.176781758585,-918.1632804362703,0.08685712693943515,9.448693384988768e-05,33.0,13,,0.0
indicator_revision_only_dfm_kalman_em,exact,2005:Q1:pre_third:exact,2005-06-28,pre_third,DELTA_MT,DELTA_MT,2005:Q1,0.0,0.7211525241619251,0.8492069972403224,model_implied_state_space,-0.025225752179729,0.025225752179729,True,True,30,-1685.4311166190744,-2607.0495654498686,-1685.4311166190744,0.15944534481241135,9.453707877195235e-05,30.0,13,,0.0
joint_indicator_revision_dfm_full_kalman_em,exact,2005:Q1:pre_third:exact,2005-06-28,pre_third,DELTA_MT,DELTA_MT,2005:Q1,0.005605422621385525,0.6935834465060796,0.8328165743464041,model_implied_state_space,-0.025225752179729,0.030831174801114525,True,True,33,-1653.2906446392676,-2619.44158292494,-1653.2906446392676,0.16157967130425277,9.766354623602671e-05,33.0,13,,0.0
ar,pseudo,2005:Q1:pre_advance:pseudo,2005-04-30,pre_advance,DELTA_SA,DELTA_SA,2005:Q1,0.3356948084435101,,,not_available,0.3950999999999998,-0.05940519155648971,True,True,0,,,,,,,13,,0.0
no_revision,pseudo,2005:Q1:pre_advance:pseudo,2005-04-30,pre_advance,DELTA_SA,DELTA_SA,2005:Q1,0.0,,,not_available,0.3950999999999998,-0.3950999999999998,True,True,0,,,,,,,13,,0.0
bridge,pseudo,2005:Q1:pre_advance:pseudo,2005-04-30,pre_advance,DELTA_SA,DELTA_SA,2005:Q1,0.26328560705155235,,,not_available,0.3950999999999998,-0.13181439294844743,True,True,0,,,,,,,13,,0.0
midas_umidas,pseudo,2005:Q1:pre_advance:pseudo,2005-04-30,pre_advance,DELTA_SA,DELTA_SA,2005:Q1,-5.913731381630731,,,not_available,0.3950999999999998,-6.30883138163073,True,True,0,,,,,,,13,,0.0
monthly_mixed_frequency_kalman_em,pseudo,2005:Q1:pre_advance:pseudo,2005-04-30,pre_advance,DELTA_SA,DELTA_SA,2005:Q1,-0.03102916277679113,0.3334696412995015,0.5774683032855583,model_implied_state_space,0.3950999999999998,-0.4261291627767909,True,False,100,-2847.5333198164153,-3753.6819855982853,-2847.5333198164153,0.7115317784187027,0.00024972644173435306,101.0,13,,0.0
standard_dfm,pseudo,2005:Q1:pre_advance:pseudo,2005-04-30,pre_advance,DELTA_SA,DELTA_SA,2005:Q1,0.13413726161412365,,,not_available,0.3950999999999998,-0.26096273838587614,True,True,0,,,,,,,13,,0.0
release_dfm,pseudo,2005:Q1:pre_advance:pseudo,2005-04-30,pre_advance,DELTA_SA,DELTA_SA,2005:Q1,0.13413726161412365,,,not_available,0.3950999999999998,-0.26096273838587614,True,True,0,,,,,,,13,,0.0
revision_dfm_kalman_em,pseudo,2005:Q1:pre_advance:pseudo,2005-04-30,pre_advance,DELTA_SA,DELTA_SA,2005:Q1,0.052329167439188584,0.4290643441209028,0.6550300329915436,model_implied_state_space,0.3950999999999998,-0.3427708325608112,True,True,32,-917.6829373739922,-1763.7892868605556,-917.6829373739922,0.08857294968174756,9.640367456599106e-05,32.0,13,,0.0
indicator_revision_only_dfm_kalman_em,pseudo,2005:Q1:pre_advance:pseudo,2005-04-30,pre_advance,DELTA_SA,DELTA_SA,2005:Q1,0.0,0.44931009023919977,0.6703059676291118,model_implied_state_space,0.3950999999999998,-0.3950999999999998,True,True,41,-1687.5914992509581,-2601.9389575226114,-1687.5914992509581,0.16437172482369533,9.733302939087313e-05,41.0,13,,0.0
joint_indicator_revision_dfm_full_kalman_em,pseudo,2005:Q1:pre_advance:pseudo,2005-04-30,pre_advance,DELTA_SA,DELTA_SA,2005:Q1,0.24570508274378877,0.42580673171181793,0.6525386821574779,model_implied_state_space,0.3950999999999998,-0.149394917256211,True,True,37,-1656.4458670540416,-2614.3997397592493,-1656.4458670540416,0.1653447752462398,9.974882775061016e-05,37.0,13,,0.0
ar,pseudo,2005:Q1:pre_second:pseudo,2005-05-31,pre_second,DELTA_TS,DELTA_TS,2005:Q1,0.04714135981196321,,,not_available,0.27649999999999997,-0.22935864018803676,True,True,0,,,,,,,13,,0.0
no_revision,pseudo,2005:Q1:pre_second:pseudo,2005-05-31,pre_second,DELTA_TS,DELTA_TS,2005:Q1,0.0,,,not_available,0.27649999999999997,-0.27649999999999997,True,True,0,,,,,,,13,,0.0
bridge,pseudo,2005:Q1:pre_second:pseudo,2005-05-31,pre_second,DELTA_TS,DELTA_TS,2005:Q1,0.19854853703044162,,,not_available,0.27649999999999997,-0.07795146296955835,True,True,0,,,,,,,13,,0.0
midas_umidas,pseudo,2005:Q1:pre_second:pseudo,2005-05-31,pre_second,DELTA_TS,DELTA_TS,2005:Q1,0.6899398299977455,,,not_available,0.27649999999999997,0.41343982999774553,True,True,0,,,,,,,13,,0.0
monthly_mixed_frequency_kalman_em,pseudo,2005:Q1:pre_second:pseudo,2005-05-31,pre_second,DELTA_TS,DELTA_TS,2005:Q1,-0.04378763277748732,0.13734944772497693,0.37060686410936444,model_implied_state_space,0.27649999999999997,-0.3202876327774873,True,False,100,-2872.3234827995566,-3772.642475673925,-2872.3234827995566,0.5853677306245118,0.00020368347121256912,101.0,13,,0.0
standard_dfm,pseudo,2005:Q1:pre_second:pseudo,2005-05-31,pre_second,DELTA_TS,DELTA_TS,2005:Q1,0.1165898545711248,,,not_available,0.27649999999999997,-0.15991014542887516,True,True,0,,,,,,,13,,0.0
release_dfm,pseudo,2005:Q1:pre_second:pseudo,2005-05-31,pre_second,DELTA_TS,DELTA_TS,2005:Q1,0.07710214238409208,,,not_available,0.27649999999999997,-0.1993978576159079,True,True,0,,,,,,,13,,0.0
revision_dfm_kalman_em,pseudo,2005:Q1:pre_second:pseudo,2005-05-31,pre_second,DELTA_TS,DELTA_TS,2005:Q1,0.002393392126491367,0.1397078438849939,0.3737751247541681,model_implied_state_space,0.27649999999999997,-0.2741066078735086,True,True,41,-918.2394996887441,-1761.8092904364337,-918.2394996887441,0.08800216510303471,9.572449962127329e-05,41.0,13,,0.0
indicator_revision_only_dfm_kalman_em,pseudo,2005:Q1:pre_second:pseudo,2005-05-31,pre_second,DELTA_TS,DELTA_TS,2005:Q1,0.0,0.14337671898214777,0.3786511837854832,model_implied_state_space,0.27649999999999997,-0.27649999999999997,True,True,44,-1688.741883576326,-2603.024791260359,-1688.741883576326,0.16215256719465287,9.595371318521517e-05,44.0,13,,0.0
joint_indicator_revision_dfm_full_kalman_em,pseudo,2005:Q1:pre_second:pseudo,2005-05-31,pre_second,DELTA_TS,DELTA_TS,2005:Q1,0.006440277420126428,0.1385487880159897,0.37222142337053854,model_implied_state_space,0.27649999999999997,-0.27005972257987354,True,True,40,-1657.1871746326292,-2615.610805044669,-1657.1871746326292,0.1592670873503721,9.603969553260885e-05,40.0,13,,0.0
ar,pseudo,2005:Q1:pre_third:pseudo,2005-06-30,pre_third,DELTA_MT,DELTA_MT,2005:Q1,0.5156219105826034,,,not_available,-0.025225752179729,0.5408476627623324,True,True,0,,,,,,,13,,0.0
no_revision,pseudo,2005:Q1:pre_third:pseudo,2005-06-30,pre_third,DELTA_MT,DELTA_MT,2005:Q1,0.0,,,not_available,-0.025225752179729,0.025225752179729,True,True,0,,,,,,,13,,0.0
bridge,pseudo,2005:Q1:pre_third:pseudo,2005-06-30,pre_third,DELTA_MT,DELTA_MT,2005:Q1,-1.5956942670116336,,,not_available,-0.025225752179729,-1.5704685148319046,True,True,0,,,,,,,13,,0.0
midas_umidas,pseudo,2005:Q1:pre_third:pseudo,2005-06-30,pre_third,DELTA_MT,DELTA_MT,2005:Q1,1.1884370519867895,,,not_available,-0.025225752179729,1.2136628041665185,True,True,0,,,,,,,13,,0.0
monthly_mixed_frequency_kalman_em,pseudo,2005:Q1:pre_third:pseudo,2005-06-30,pre_third,DELTA_MT,DELTA_MT,2005:Q1,0.026298776720429906,0.6742326916429783,0.8211167344799266,model_implied_state_space,-0.025225752179729,0.051524528900158906,True,False,100,-2891.7278987983586,-3791.7883706239404,-2891.7278987983586,0.5647823051294836,0.0001952040002099194,101.0,13,,0.0
standard_dfm,pseudo,2005:Q1:pre_third:pseudo,2005-06-30,pre_third,DELTA_MT,DELTA_MT,2005:Q1,0.07672353171671276,,,not_available,-0.025225752179729,0.10194928389644176,True,True,0,,,,,,,13,,0.0
release_dfm,pseudo,2005:Q1:pre_third:pseudo,2005-06-30,pre_third,DELTA_MT,DELTA_MT,2005:Q1,0.15418833568794454,,,not_available,-0.025225752179729,0.17941408786767354,True,True,0,,,,,,,13,,0.0
revision_dfm_kalman_em,pseudo,2005:Q1:pre_third:pseudo,2005-06-30,pre_third,DELTA_MT,DELTA_MT,2005:Q1,0.005580587878122323,0.7037681054046839,0.8389088778912069,model_implied_state_space,-0.025225752179729,0.030806340057851322,True,True,33,-918.1632804362703,-1766.176781758585,-918.1632804362703,0.08685712693943515,9.448693384988768e-05,33.0,13,,0.0
indicator_revision_only_dfm_kalman_em,pseudo,2005:Q1:pre_third:pseudo,2005-06-30,pre_third,DELTA_MT,DELTA_MT,2005:Q1,0.0,0.7211525241619251,0.8492069972403224,model_implied_state_space,-0.025225752179729,0.025225752179729,True,True,30,-1685.4311166190744,-2607.0495654498686,-1685.4311166190744,0.15944534481241135,9.453707877195235e-05,30.0,13,,0.0
joint_indicator_revision_dfm_full_kalman_em,pseudo,2005:Q1:pre_third:pseudo,2005-06-30,pre_third,DELTA_MT,DELTA_MT,2005:Q1,0.005605422621385525,0.6935834465060796,0.8328165743464041,model_implied_state_space,-0.025225752179729,0.030831174801114525,True,True,33,-1653.2906446392676,-2619.44158292494,-1653.2906446392676,0.16157967130425277,9.766354623602671e-05,33.0,13,,0.0
ar,exact,2005:Q2:pre_advance:exact,2005-07-28,pre_advance,DELTA_SA,DELTA_SA,2005:Q2,0.21833891079913448,,,not_available,-0.12680000000000025,0.3451389107991347,True,True,0,,,,,,,13,,0.0
no_revision,exact,2005:Q2:pre_advance:exact,2005-07-28,pre_advance,DELTA_SA,DELTA_SA,2005:Q2,0.0,,,not_available,-0.12680000000000025,0.12680000000000025,True,True,0,,,,,,,13,,0.0
bridge,exact,2005:Q2:pre_advance:exact,2005-07-28,pre_advance,DELTA_SA,DELTA_SA,2005:Q2,0.22072143379207043,,,not_available,-0.12680000000000025,0.3475214337920707,True,True,0,,,,,,,13,,0.0
midas_umidas,exact,2005:Q2:pre_advance:exact,2005-07-28,pre_advance,DELTA_SA,DELTA_SA,2005:Q2,3.1834937249368505,,,not_available,-0.12680000000000025,3.3102937249368507,True,True,0,,,,,,,13,,0.0
monthly_mixed_frequency_kalman_em,exact,2005:Q2:pre_advance:exact,2005-07-28,pre_advance,DELTA_SA,DELTA_SA,2005:Q2,0.14345790715204698,0.3341501627640753,0.5780572313915597,model_implied_state_space,-0.12680000000000025,0.2702579071520472,True,False,100,-2906.6216993269322,-3812.7855042159513,-2906.6216993269322,0.6175365371263979,0.00021234034996537118,101.0,13,,0.0
standard_dfm,exact,2005:Q2:pre_advance:exact,2005-07-28,pre_advance,DELTA_SA,DELTA_SA,2005:Q2,0.12854263391274845,,,not_available,-0.12680000000000025,0.2553426339127487,True,True,0,,,,,,,13,,0.0
release_dfm,exact,2005:Q2:pre_advance:exact,2005-07-28,pre_advance,DELTA_SA,DELTA_SA,2005:Q2,0.12854263391274845,,,not_available,-0.12680000000000025,0.2553426339127487,True,True,0,,,,,,,13,,0.0
revision_dfm_kalman_em,exact,2005:Q2:pre_advance:exact,2005-07-28,pre_advance,DELTA_SA,DELTA_SA,2005:Q2,0.05193774363348824,0.42694079619207237,0.6534070677549122,model_implied_state_space,-0.12680000000000025,0.1787377436334885,True,True,32,-935.2781989918305,-1786.0745281261366,-935.2781989918305,0.08962225449511152,9.571265955703431e-05,32.0,13,,0.0
indicator_revision_only_dfm_kalman_em,exact,2005:Q2:pre_advance:exact,2005-07-28,pre_advance,DELTA_SA,DELTA_SA,2005:Q2,0.0,0.4469906535989807,0.6685735962472499,model_implied_state_space,-0.12680000000000025,0.12680000000000025,True,True,44,-1718.930223960747,-2641.0455135954835,-1718.930223960747,0.162137308020192,9.426081509983392e-05,44.0,13,,0.0
joint_indicator_revision_dfm_full_kalman_em,exact,2005:Q2:pre_advance:exact,2005-07-28,pre_advance,DELTA_SA,DELTA_SA,2005:Q2,0.3696219956367406,0.39696497366484174,0.630051564290449,model_implied_state_space,-0.12680000000000025,0.49642199563674083,True,True,50,-1691.0613074248802,-2653.6008573223517,-1691.0613074248802,0.1537325755978145,9.084695027753155e-05,50.0,13,,0.0
ar,exact,2005:Q2:pre_second:exact,2005-08-30,pre_second,DELTA_TS,DELTA_TS,2005:Q2,0.15724034422064648,,,not_available,0.022400000000000198,0.13484034422064628,True,True,0,,,,,,,13,,0.0
no_revision,exact,2005:Q2:pre_second:exact,2005-08-30,pre_second,DELTA_TS,DELTA_TS,2005:Q2,0.0,,,not_available,0.022400000000000198,-0.022400000000000198,True,True,0,,,,,,,13,,0.0
bridge,exact,2005:Q2:pre_second:exact,2005-08-30,pre_second,DELTA_TS,DELTA_TS,2005:Q2,0.48923325473563883,,,not_available,0.022400000000000198,0.46683325473563864,True,True,0,,,,,,,13,,0.0
midas_umidas,exact,2005:Q2:pre_second:exact,2005-08-30,pre_second,DELTA_TS,DELTA_TS,2005:Q2,0.40318921264596463,,,not_available,0.022400000000000198,0.38078921264596444,True,True,0,,,,,,,13,,0.0
monthly_mixed_frequency_kalman_em,exact,2005:Q2:pre_second:exact,2005-08-30,pre_second,DELTA_TS,DELTA_TS,2005:Q2,0.06122515845886767,0.1368666059579211,0.36995487016380946,model_implied_state_space,0.022400000000000198,0.03882515845886747,True,False,100,-2926.242959283861,-3832.67269598607,-2926.242959283861,0.6248814676409893,0.0002134254350362343,101.0,13,,0.0
standard_dfm,exact,2005:Q2:pre_second:exact,2005-08-30,pre_second,DELTA_TS,DELTA_TS,2005:Q2,0.10196425444292556,,,not_available,0.022400000000000198,0.07956425444292536,True,True,0,,,,,,,13,,0.0
release_dfm,exact,2005:Q2:pre_second:exact,2005-08-30,pre_second,DELTA_TS,DELTA_TS,2005:Q2,0.07100598606757691,,,not_available,0.022400000000000198,0.04860598606757671,True,True,0,,,,,,,13,,0.0
revision_dfm_kalman_em,exact,2005:Q2:pre_second:exact,2005-08-30,pre_second,DELTA_TS,DELTA_TS,2005:Q2,0.004024363783455165,0.139221656953033,0.3731241843582817,model_implied_state_space,0.022400000000000198,-0.018375636216545033,True,True,40,-938.4389214346778,-1785.751432994704,-938.4389214346778,0.08716806958818779,9.277876427484987e-05,40.0,13,,0.0
indicator_revision_only_dfm_kalman_em,exact,2005:Q2:pre_second:exact,2005-08-30,pre_second,DELTA_TS,DELTA_TS,2005:Q2,0.0,0.14343893930375684,0.3787333353479158,model_implied_state_space,0.022400000000000198,-0.022400000000000198,True,True,31,-1722.0413772984089,-2647.593554745467,-1722.0413772984089,0.16214097369743286,9.409275920003642e-05,31.0,13,,0.0
joint_indicator_revision_dfm_full_kalman_em,exact,2005:Q2:pre_second:exact,2005-08-30,pre_second,DELTA_TS,DELTA_TS,2005:Q2,0.008372168516791234,0.13842915414551982,0.37206068610580156,model_implied_state_space,0.022400000000000198,-0.014027831483208963,True,True,33,-1690.039394747571,-2660.106423995111,-1690.039394747571,0.16125535578134986,9.53496297269607e-05,33.0,13,,0.0
ar,exact,2005:Q2:pre_third:exact,2005-09-28,pre_third,DELTA_MT,DELTA_MT,2005:Q2,-0.9348413940252298,,,not_available,-0.05358908399837192,-0.8812523100268579,True,True,0,,,,,,,13,,0.0
no_revision,exact,2005:Q2:pre_third:exact,2005-09-28,pre_third,DELTA_MT,DELTA_MT,2005:Q2,0.0,,,not_available,-0.05358908399837192,0.05358908399837192,True,True,0,,,,,,,13,,0.0
bridge,exact,2005:Q2:pre_third:exact,2005-09-28,pre_third,DELTA_MT,DELTA_MT,2005:Q2,-1.3749549516744768,,,not_available,-0.05358908399837192,-1.3213658676761049,True,True,0,,,,,,,13,,0.0
midas_umidas,exact,2005:Q2:pre_third:exact,2005-09-28,pre_third,DELTA_MT,DELTA_MT,2005:Q2,1.4049279407595385,,,not_available,-0.05358908399837192,1.4585170247579105,True,True,0,,,,,,,13,,0.0
monthly_mixed_frequency_kalman_em,exact,2005:Q2:pre_third:exact,2005-09-28,pre_third,DELTA_MT,DELTA_MT,2005:Q2,0.02053160473353577,0.6704215309230692,0.8187927276930769,model_implied_state_space,-0.05358908399837192,0.07412068873190769,True,False,100,-2942.091340331272,-3852.593252511117,-2942.091340331272,0.6974822319780287,0.00023693351460269112,101.0,13,,0.0
standard_dfm,exact,2005:Q2:pre_third:exact,2005-09-28,pre_third,DELTA_MT,DELTA_MT,2005:Q2,0.10241180560976382,,,not_available,-0.05358908399837192,0.15600088960813574,True,True,0,,,,,,,13,,0.0
release_dfm,exact,2005:Q2:pre_third:exact,2005-09-28,pre_third,DELTA_MT,DELTA_MT,2005:Q2,0.011440064240877845,,,not_available,-0.05358908399837192,0.06502914823924977,True,True,0,,,,,,,13,,0.0
revision_dfm_kalman_em,exact,2005:Q2:pre_third:exact,2005-09-28,pre_third,DELTA_MT,DELTA_MT,2005:Q2,-0.00031163564791514275,0.6990359254656859,0.836083683291144,model_implied_state_space,-0.05358908399837192,0.05327744835045678,True,True,32,-938.3382798256409,-1789.685535754546,-938.3382798256409,0.08983156823353511,9.56236748123789e-05,32.0,13,,0.0
indicator_revision_only_dfm_kalman_em,exact,2005:Q2:pre_third:exact,2005-09-28,pre_third,DELTA_MT,DELTA_MT,2005:Q2,0.0,0.7178735365919415,0.8472741802934524,model_implied_state_space,-0.05358908399837192,0.05358908399837192,True,True,31,-1721.843279593913,-2648.8506357968463,-1721.843279593913,0.16582792134772717,9.62432065068225e-05,31.0,13,,0.0
joint_indicator_revision_dfm_full_kalman_em,exact,2005:Q2:pre_third:exact,2005-09-28,pre_third,DELTA_MT,DELTA_MT,2005:Q2,0.00039882198937535307,0.6899515678930801,0.8306332330776803,model_implied_state_space,-0.05358908399837192,0.053987905987747276,True,True,33,-1689.991731450165,-2661.340259054578,-1689.991731450165,0.16663126537491735,9.853084669572453e-05,33.0,13,,0.0
ar,pseudo,2005:Q2:pre_advance:pseudo,2005-07-31,pre_advance,DELTA_SA,DELTA_SA,2005:Q2,0.21833891079913448,,,not_available,-0.12680000000000025,0.3451389107991347,True,True,0,,,,,,,13,,0.0
no_revision,pseudo,2005:Q2:pre_advance:pseudo,2005-07-31,pre_advance,DELTA_SA,DELTA_SA,2005:Q2,0.0,,,not_available,-0.12680000000000025,0.12680000000000025,True,True,0,,,,,,,13,,0.0
bridge,pseudo,2005:Q2:pre_advance:pseudo,2005-07-31,pre_advance,DELTA_SA,DELTA_SA,2005:Q2,0.22072143379207043,,,not_available,-0.12680000000000025,0.3475214337920707,True,True,0,,,,,,,13,,0.0
midas_umidas,pseudo,2005:Q2:pre_advance:pseudo,2005-07-31,pre_advance,DELTA_SA,DELTA_SA,2005:Q2,3.1834937249368505,,,not_available,-0.12680000000000025,3.3102937249368507,True,True,0,,,,,,,13,,0.0
monthly_mixed_frequency_kalman_em,pseudo,2005:Q2:pre_advance:pseudo,2005-07-31,pre_advance,DELTA_SA,DELTA_SA,2005:Q2,0.14345790715204698,0.3341501627640753,0.5780572313915597,model_implied_state_space,-0.12680000000000025,0.2702579071520472,True,False,100,-2906.6216993269322,-3812.7855042159513,-2906.6216993269322,0.6175365371263979,0.00021234034996537118,101.0,13,,0.0
standard_dfm,pseudo,2005:Q2:pre_advance:pseudo,2005-07-31,pre_advance,DELTA_SA,DELTA_SA,2005:Q2,0.12854263391274845,,,not_available,-0.12680000000000025,0.2553426339127487,True,True,0,,,,,,,13,,0.0
release_dfm,pseudo,2005:Q2:pre_advance:pseudo,2005-07-31,pre_advance,DELTA_SA,DELTA_SA,2005:Q2,0.12854263391274845,,,not_available,-0.12680000000000025,0.2553426339127487,True,True,0,,,,,,,13,,0.0
revision_dfm_kalman_em,pseudo,2005:Q2:pre_advance:pseudo,2005-07-31,pre_advance,DELTA_SA,DELTA_SA,2005:Q2,0.05193774363348824,0.42694079619207237,0.6534070677549122,model_implied_state_space,-0.12680000000000025,0.1787377436334885,True,True,32,-935.2781989918305,-1786.0745281261366,-935.2781989918305,0.08962225449511152,9.571265955703431e-05,32.0,13,,0.0
indicator_revision_only_dfm_kalman_em,pseudo,2005:Q2:pre_advance:pseudo,2005-07-31,pre_advance,DELTA_SA,DELTA_SA,2005:Q2,0.0,0.4469906535989807,0.6685735962472499,model_implied_state_space,-0.12680000000000025,0.12680000000000025,True,True,44,-1718.930223960747,-2641.0455135954835,-1718.930223960747,0.162137308020192,9.426081509983392e-05,44.0,13,,0.0
joint_indicator_revision_dfm_full_kalman_em,pseudo,2005:Q2:pre_advance:pseudo,2005-07-31,pre_advance,DELTA_SA,DELTA_SA,2005:Q2,0.3696219956367406,0.39696497366484174,0.630051564290449,model_implied_state_space,-0.12680000000000025,0.49642199563674083,True,True,50,-1691.0613074248802,-2653.6008573223517,-1691.0613074248802,0.1537325755978145,9.084695027753155e-05,50.0,13,,0.0
ar,pseudo,2005:Q2:pre_second:pseudo,2005-08-31,pre_second,DELTA_TS,DELTA_TS,2005:Q2,0.15724034422064648,,,not_available,0.022400000000000198,0.13484034422064628,True,True,0,,,,,,,13,,0.0
no_revision,pseudo,2005:Q2:pre_second:pseudo,2005-08-31,pre_second,DELTA_TS,DELTA_TS,2005:Q2,0.0,,,not_available,0.022400000000000198,-0.022400000000000198,True,True,0,,,,,,,13,,0.0
bridge,pseudo,2005:Q2:pre_second:pseudo,2005-08-31,pre_second,DELTA_TS,DELTA_TS,2005:Q2,0.48923325473563883,,,not_available,0.022400000000000198,0.46683325473563864,True,True,0,,,,,,,13,,0.0
midas_umidas,pseudo,2005:Q2:pre_second:pseudo,2005-08-31,pre_second,DELTA_TS,DELTA_TS,2005:Q2,0.40318921264596463,,,not_available,0.022400000000000198,0.38078921264596444,True,True,0,,,,,,,13,,0.0
monthly_mixed_frequency_kalman_em,pseudo,2005:Q2:pre_second:pseudo,2005-08-31,pre_second,DELTA_TS,DELTA_TS,2005:Q2,0.06122515845886767,0.1368666059579211,0.36995487016380946,model_implied_state_space,0.022400000000000198,0.03882515845886747,True,False,100,-2926.242959283861,-3832.67269598607,-2926.242959283861,0.6248814676409893,0.0002134254350362343,101.0,13,,0.0
standard_dfm,pseudo,2005:Q2:pre_second:pseudo,2005-08-31,pre_second,DELTA_TS,DELTA_TS,2005:Q2,0.10196425444292556,,,not_available,0.022400000000000198,0.07956425444292536,True,True,0,,,,,,,13,,0.0
release_dfm,pseudo,2005:Q2:pre_second:pseudo,2005-08-31,pre_second,DELTA_TS,DELTA_TS,2005:Q2,0.07100598606757691,,,not_available,0.022400000000000198,0.04860598606757671,True,True,0,,,,,,,13,,0.0
revision_dfm_kalman_em,pseudo,2005:Q2:pre_second:pseudo,2005-08-31,pre_second,DELTA_TS,DELTA_TS,2005:Q2,0.004024363783455165,0.139221656953033,0.3731241843582817,model_implied_state_space,0.022400000000000198,-0.018375636216545033,True,True,40,-938.4389214346778,-1785.751432994704,-938.4389214346778,0.08716806958818779,9.277876427484987e-05,40.0,13,,0.0
indicator_revision_only_dfm_kalman_em,pseudo,2005:Q2:pre_second:pseudo,2005-08-31,pre_second,DELTA_TS,DELTA_TS,2005:Q2,0.0,0.14343893930375684,0.3787333353479158,model_implied_state_space,0.022400000000000198,-0.022400000000000198,True,True,31,-1722.0413772984089,-2647.593554745467,-1722.0413772984089,0.16214097369743286,9.409275920003642e-05,31.0,13,,0.0
joint_indicator_revision_dfm_full_kalman_em,pseudo,2005:Q2:pre_second:pseudo,2005-08-31,pre_second,DELTA_TS,DELTA_TS,2005:Q2,0.008372168516791234,0.13842915414551982,0.37206068610580156,model_implied_state_space,0.022400000000000198,-0.014027831483208963,True,True,33,-1690.039394747571,-2660.106423995111,-1690.039394747571,0.16125535578134986,9.53496297269607e-05,33.0,13,,0.0
ar,pseudo,2005:Q2:pre_third:pseudo,2005-09-30,pre_third,DELTA_MT,DELTA_MT,2005:Q2,-0.9348413940252298,,,not_available,-0.05358908399837192,-0.8812523100268579,True,True,0,,,,,,,13,,0.0
no_revision,pseudo,2005:Q2:pre_third:pseudo,2005-09-30,pre_third,DELTA_MT,DELTA_MT,2005:Q2,0.0,,,not_available,-0.05358908399837192,0.05358908399837192,True,True,0,,,,,,,13,,0.0
bridge,pseudo,2005:Q2:pre_third:pseudo,2005-09-30,pre_third,DELTA_MT,DELTA_MT,2005:Q2,-1.3749549516744768,,,not_available,-0.05358908399837192,-1.3213658676761049,True,True,0,,,,,,,13,,0.0
midas_umidas,pseudo,2005:Q2:pre_third:pseudo,2005-09-30,pre_third,DELTA_MT,DELTA_MT,2005:Q2,1.4049279407595385,,,not_available,-0.05358908399837192,1.4585170247579105,True,True,0,,,,,,,13,,0.0
monthly_mixed_frequency_kalman_em,pseudo,2005:Q2:pre_third:pseudo,2005-09-30,pre_third,DELTA_MT,DELTA_MT,2005:Q2,0.02053160473353577,0.6704215309230692,0.8187927276930769,model_implied_state_space,-0.05358908399837192,0.07412068873190769,True,False,100,-2942.091340331272,-3852.593252511117,-2942.091340331272,0.6974822319780287,0.00023693351460269112,101.0,13,,0.0
standard_dfm,pseudo,2005:Q2:pre_third:pseudo,2005-09-30,pre_third,DELTA_MT,DELTA_MT,2005:Q2,0.10241180560976382,,,not_available,-0.05358908399837192,0.15600088960813574,True,True,0,,,,,,,13,,0.0
release_dfm,pseudo,2005:Q2:pre_third:pseudo,2005-09-30,pre_third,DELTA_MT,DELTA_MT,2005:Q2,0.011440064240877845,,,not_available,-0.05358908399837192,0.06502914823924977,True,True,0,,,,,,,13,,0.0
revision_dfm_kalman_em,pseudo,2005:Q2:pre_third:pseudo,2005-09-30,pre_third,DELTA_MT,DELTA_MT,2005:Q2,-0.00031163564791514275,0.6990359254656859,0.836083683291144,model_implied_state_space,-0.05358908399837192,0.05327744835045678,True,True,32,-938.3382798256409,-1789.685535754546,-938.3382798256409,0.08983156823353511,9.56236748123789e-05,32.0,13,,0.0
indicator_revision_only_dfm_kalman_em,pseudo,2005:Q2:pre_third:pseudo,2005-09-30,pre_third,DELTA_MT,DELTA_MT,2005:Q2,0.0,0.7178735365919415,0.8472741802934524,model_implied_state_space,-0.05358908399837192,0.05358908399837192,True,True,31,-1721.843279593913,-2648.8506357968463,-1721.843279593913,0.16582792134772717,9.62432065068225e-05,31.0,13,,0.0
joint_indicator_revision_dfm_full_kalman_em,pseudo,2005:Q2:pre_third:pseudo,2005-09-30,pre_third,DELTA_MT,DELTA_MT,2005:Q2,0.00039882198937535307,0.6899515678930801,0.8306332330776803,model_implied_state_space,-0.05358908399837192,0.053987905987747276,True,True,33,-1689.991731450165,-2661.340259054578,-1689.991731450165,0.16663126537491735,9.853084669572453e-05,33.0,13,,0.0
ar,exact,2005:Q3:pre_advance:exact,2005-10-27,pre_advance,DELTA_SA,DELTA_SA,2005:Q3,-0.031815410366425656,,,not_available,0.47940000000000005,-0.5112154103664257,True,True,0,,,,,,,13,,0.0
no_revision,exact,2005:Q3:pre_advance:exact,2005-10-27,pre_advance,DELTA_SA,DELTA_SA,2005:Q3,0.0,,,not_available,0.47940000000000005,-0.47940000000000005,True,True,0,,,,,,,13,,0.0
bridge,exact,2005:Q3:pre_advance:exact,2005-10-27,pre_advance,DELTA_SA,DELTA_SA,2005:Q3,-0.13722876675774653,,,not_available,0.47940000000000005,-0.6166287667577466,True,True,0,,,,,,,13,,0.0
midas_umidas,exact,2005:Q3:pre_advance:exact,2005-10-27,pre_advance,DELTA_SA,DELTA_SA,2005:Q3,-1.097926008146679,,,not_available,0.47940000000000005,-1.5773260081466791,True,True,0,,,,,,,13,,0.0
monthly_mixed_frequency_kalman_em,exact,2005:Q3:pre_advance:exact,2005-10-27,pre_advance,DELTA_SA,DELTA_SA,2005:Q3,-0.4093051325427832,0.33216206139515236,0.576335025306594,model_implied_state_space,0.47940000000000005,-0.8887051325427833,True,False,100,-2929.9866213967757,-3868.5284304953775,-2929.9866213967757,0.2910087704358375,9.927710955827722e-05,101.0,13,,0.0
standard_dfm,exact,2005:Q3:pre_advance:exact,2005-10-27,pre_advance,DELTA_SA,DELTA_SA,2005:Q3,0.10599607607652572,,,not_available,0.47940000000000005,-0.3734039239234743,True,True,0,,,,,,,13,,0.0
release_dfm,exact,2005:Q3:pre_advance:exact,2005-10-27,pre_advance,DELTA_SA,DELTA_SA,2005:Q3,0.10599607607652572,,,not_available,0.47940000000000005,-0.3734039239234743,True,True,0,,,,,,,13,,0.0
revision_dfm_kalman_em,exact,2005:Q3:pre_advance:exact,2005-10-27,pre_advance,DELTA_SA,DELTA_SA,2005:Q3,0.12433110404982806,0.42517985050918483,0.6520581649739422,model_implied_state_space,0.47940000000000005,-0.355068895950172,True,True,31,-955.8486561948212,-1810.1827058905067,-955.8486561948212,0.09476976465748521,9.903382173555806e-05,31.0,13,,0.0
indicator_revision_only_dfm_kalman_em,exact,2005:Q3:pre_advance:exact,2005-10-27,pre_advance,DELTA_SA,DELTA_SA,2005:Q3,0.0,0.4443137295892612,0.6665686233159053,model_implied_state_space,0.47940000000000005,-0.47940000000000005,True,True,42,-1766.0400517012026,-2683.7586947585314,-1766.0400517012026,0.1743087359539004,9.863474395419782e-05,42.0,13,,0.0
joint_indicator_revision_dfm_full_kalman_em,exact,2005:Q3:pre_advance:exact,2005-10-27,pre_advance,DELTA_SA,DELTA_SA,2005:Q3,0.2632604337279538,0.40252260790855665,0.6344466943002829,model_implied_state_space,0.47940000000000005,-0.21613956627204622,True,True,43,-1732.55612268967,-2696.384375836967,-1732.55612268967,0.16387262853572793,9.452081592082629e-05,43.0,13,,0.0
ar,exact,2005:Q3:pre_second:exact,2005-11-29,pre_second,DELTA_TS,DELTA_TS,2005:Q3,0.04947351053060434,,,not_available,-0.14139999999999997,0.1908735105306043,True,True,0,,,,,,,13,,0.0
no_revision,exact,2005:Q3:pre_second:exact,2005-11-29,pre_second,DELTA_TS,DELTA_TS,2005:Q3,0.0,,,not_available,-0.14139999999999997,0.14139999999999997,True,True,0,,,,,,,13,,0.0
bridge,exact,2005:Q3:pre_second:exact,2005-11-29,pre_second,DELTA_TS,DELTA_TS,2005:Q3,0.5111828037580146,,,not_available,-0.14139999999999997,0.6525828037580146,True,True,0,,,,,,,13,,0.0
midas_umidas,exact,2005:Q3:pre_second:exact,2005-11-29,pre_second,DELTA_TS,DELTA_TS,2005:Q3,0.038085864696976834,,,not_available,-0.14139999999999997,0.1794858646969768,True,True,0,,,,,,,13,,0.0
monthly_mixed_frequency_kalman_em,exact,2005:Q3:pre_second:exact,2005-11-29,pre_second,DELTA_TS,DELTA_TS,2005:Q3,-0.06789122103839507,0.13684170811668173,0.3699212187975728,model_implied_state_space,-0.14139999999999997,0.0735087789616049,True,True,84,-2949.378088262034,-3893.205591660122,-2949.378088262034,0.29466074212405147,9.986222369915419e-05,84.0,13,,0.0
standard_dfm,exact,2005:Q3:pre_second:exact,2005-11-29,pre_second,DELTA_TS,DELTA_TS,2005:Q3,0.08645353041557424,,,not_available,-0.14139999999999997,0.2278535304155742,True,True,0,,,,,,,13,,0.0
release_dfm,exact,2005:Q3:pre_second:exact,2005-11-29,pre_second,DELTA_TS,DELTA_TS,2005:Q3,0.061522575505668975,,,not_available,-0.14139999999999997,0.20292257550566895,True,True,0,,,,,,,13,,0.0
revision_dfm_kalman_em,exact,2005:Q3:pre_second:exact,2005-11-29,pre_second,DELTA_TS,DELTA_TS,2005:Q3,0.007240642456877389,0.13834158598506152,0.3719429875465614,model_implied_state_space,-0.14139999999999997,0.14864064245687736,True,True,40,-959.5735125312086,-1808.9260055307595,-959.5735125312086,0.09011092309674495,9.380070286488904e-05,40.0,13,,0.0
indicator_revision_only_dfm_kalman_em,exact,2005:Q3:pre_second:exact,2005-11-29,pre_second,DELTA_TS,DELTA_TS,2005:Q3,0.0,0.14211897572675336,0.376986704973469,model_implied_state_space,-0.14139999999999997,0.14139999999999997,True,True,46,-1768.6224349807223,-2686.0691527022436,-1768.6224349807223,0.1667788456954895,9.42365590164837e-05,46.0,13,,0.0
joint_indicator_revision_dfm_full_kalman_em,exact,2005:Q3:pre_second:exact,2005-11-29,pre_second,DELTA_TS,DELTA_TS,2005:Q3,0.010676324779298696,0.13748989375919285,0.370796296852049,model_implied_state_space,-0.14139999999999997,0.15207632477929867,True,True,47,-1735.684578993214,-2698.8111000829713,-1735.684578993214,0.16585749472778843,9.549325102693718e-05,47.0,13,,0.0
ar,exact,2005:Q3:pre_third:exact,2005-12-20,pre_third,DELTA_MT,DELTA_MT,2005:Q3,0.3501048292685609,,,not_available,-0.04424061929843681,0.3943454485669977,True,True,0,,,,,,,13,,0.0
no_revision,exact,2005:Q3:pre_third:exact,2005-12-20,pre_third,DELTA_MT,DELTA_MT,2005:Q3,0.0,,,not_available,-0.04424061929843681,0.04424061929843681,True,True,0,,,,,,,13,,0.0
bridge,exact,2005:Q3:pre_third:exact,2005-12-20,pre_third,DELTA_MT,DELTA_MT,2005:Q3,-1.409135045278425,,,not_available,-0.04424061929843681,-1.3648944259799882,True,True,0,,,,,,,13,,0.0
midas_umidas,exact,2005:Q3:pre_third:exact,2005-12-20,pre_third,DELTA_MT,DELTA_MT,2005:Q3,2.434745225119079,,,not_available,-0.04424061929843681,2.4789858444175157,True,True,0,,,,,,,13,,0.0
monthly_mixed_frequency_kalman_em,exact,2005:Q3:pre_third:exact,2005-12-20,pre_third,DELTA_MT,DELTA_MT,2005:Q3,-0.11488643133754062,0.6643953596722839,0.8151045084357489,model_implied_state_space,-0.04424061929843681,-0.0706458120391038,True,False,100,-2977.8157469709263,-3914.7861544913194,-2977.8157469709263,1.0452613424567971,0.0003507752004340701,101.0,13,,0.0
standard_dfm,exact,2005:Q3:pre_third:exact,2005-12-20,pre_third,DELTA_MT,DELTA_MT,2005:Q3,0.14165541808896664,,,not_available,-0.04424061929843681,0.18589603738740346,True,True,0,,,,,,,13,,0.0
release_dfm,exact,2005:Q3:pre_third:exact,2005-12-20,pre_third,DELTA_MT,DELTA_MT,2005:Q3,0.20509802784993525,,,not_available,-0.04424061929843681,0.24933864714837206,True,True,0,,,,,,,13,,0.0
revision_dfm_kalman_em,exact,2005:Q3:pre_third:exact,2005-12-20,pre_third,DELTA_MT,DELTA_MT,2005:Q3,0.008237416819245169,0.694642376737198,0.8334520842479176,model_implied_state_space,-0.04424061929843681,0.05247803611768198,True,True,32,-959.2648435377525,-1813.350682067663,-959.2648435377525,0.09104444238300857,9.480281583371911e-05,32.0,13,,0.0
indicator_revision_only_dfm_kalman_em,exact,2005:Q3:pre_third:exact,2005-12-20,pre_third,DELTA_MT,DELTA_MT,2005:Q3,0.0,0.7194627824800123,0.8482115198934829,model_implied_state_space,-0.04424061929843681,0.04424061929843681,True,True,46,-1768.2904727963246,-2687.080813079136,-1768.2904727963246,0.16853779107464106,9.524820301923374e-05,46.0,13,,0.0
joint_indicator_revision_dfm_full_kalman_em,exact,2005:Q3:pre_third:exact,2005-12-20,pre_third,DELTA_MT,DELTA_MT,2005:Q3,0.008911395788472554,0.6912584700893648,0.8314195511830142,model_implied_state_space,-0.04424061929843681,0.053152015086909365,True,True,47,-1735.1871155136816,-2699.799452611379,-1735.1871155136816,0.17183546116461912,9.89630980783929e-05,47.0,13,,0.0
ar,pseudo,2005:Q3:pre_advance:pseudo,2005-10-31,pre_advance,DELTA_SA,DELTA_SA,2005:Q3,-0.031815410366425656,,,not_available,0.47940000000000005,-0.5112154103664257,True,True,0,,,,,,,13,,0.0
no_revision,pseudo,2005:Q3:pre_advance:pseudo,2005-10-31,pre_advance,DELTA_SA,DELTA_SA,2005:Q3,0.0,,,not_available,0.47940000000000005,-0.47940000000000005,True,True,0,,,,,,,13,,0.0
bridge,pseudo,2005:Q3:pre_advance:pseudo,2005-10-31,pre_advance,DELTA_SA,DELTA_SA,2005:Q3,-0.13722876675774653,,,not_available,0.47940000000000005,-0.6166287667577466,True,True,0,,,,,,,13,,0.0
midas_umidas,pseudo,2005:Q3:pre_advance:pseudo,2005-10-31,pre_advance,DELTA_SA,DELTA_SA,2005:Q3,-1.097926008146679,,,not_available,0.47940000000000005,-1.5773260081466791,True,True,0,,,,,,,13,,0.0
monthly_mixed_frequency_kalman_em,pseudo,2005:Q3:pre_advance:pseudo,2005-10-31,pre_advance,DELTA_SA,DELTA_SA,2005:Q3,-0.4093051325427832,0.33216206139515236,0.576335025306594,model_implied_state_space,0.47940000000000005,-0.8887051325427833,True,False,100,-2929.9866213967757,-3868.5284304953775,-2929.9866213967757,0.2910087704358375,9.927710955827722e-05,101.0,13,,0.0
standard_dfm,pseudo,2005:Q3:pre_advance:pseudo,2005-10-31,pre_advance,DELTA_SA,DELTA_SA,2005:Q3,0.10599607607652572,,,not_available,0.47940000000000005,-0.3734039239234743,True,True,0,,,,,,,13,,0.0
release_dfm,pseudo,2005:Q3:pre_advance:pseudo,2005-10-31,pre_advance,DELTA_SA,DELTA_SA,2005:Q3,0.10599607607652572,,,not_available,0.47940000000000005,-0.3734039239234743,True,True,0,,,,,,,13,,0.0
revision_dfm_kalman_em,pseudo,2005:Q3:pre_advance:pseudo,2005-10-31,pre_advance,DELTA_SA,DELTA_SA,2005:Q3,0.12433110404982806,0.42517985050918483,0.6520581649739422,model_implied_state_space,0.47940000000000005,-0.355068895950172,True,True,31,-955.8486561948212,-1810.1827058905067,-955.8486561948212,0.09476976465748521,9.903382173555806e-05,31.0,13,,0.0
indicator_revision_only_dfm_kalman_em,pseudo,2005:Q3:pre_advance:pseudo,2005-10-31,pre_advance,DELTA_SA,DELTA_SA,2005:Q3,0.0,0.4443137295892612,0.6665686233159053,model_implied_state_space,0.47940000000000005,-0.47940000000000005,True,True,42,-1766.0400517012026,-2683.7586947585314,-1766.0400517012026,0.1743087359539004,9.863474395419782e-05,42.0,13,,0.0
joint_indicator_revision_dfm_full_kalman_em,pseudo,2005:Q3:pre_advance:pseudo,2005-10-31,pre_advance,DELTA_SA,DELTA_SA,2005:Q3,0.2632604337279538,0.40252260790855665,0.6344466943002829,model_implied_state_space,0.47940000000000005,-0.21613956627204622,True,True,43,-1732.55612268967,-2696.384375836967,-1732.55612268967,0.16387262853572793,9.452081592082629e-05,43.0,13,,0.0
ar,pseudo,2005:Q3:pre_second:pseudo,2005-11-30,pre_second,DELTA_TS,DELTA_TS,2005:Q3,0.04947351053060434,,,not_available,-0.14139999999999997,0.1908735105306043,True,True,0,,,,,,,13,,0.0
no_revision,pseudo,2005:Q3:pre_second:pseudo,2005-11-30,pre_second,DELTA_TS,DELTA_TS,2005:Q3,0.0,,,not_available,-0.14139999999999997,0.14139999999999997,True,True,0,,,,,,,13,,0.0
bridge,pseudo,2005:Q3:pre_second:pseudo,2005-11-30,pre_second,DELTA_TS,DELTA_TS,2005:Q3,0.5111828037580146,,,not_available,-0.14139999999999997,0.6525828037580146,True,True,0,,,,,,,13,,0.0
midas_umidas,pseudo,2005:Q3:pre_second:pseudo,2005-11-30,pre_second,DELTA_TS,DELTA_TS,2005:Q3,0.038085864696976834,,,not_available,-0.14139999999999997,0.1794858646969768,True,True,0,,,,,,,13,,0.0
monthly_mixed_frequency_kalman_em,pseudo,2005:Q3:pre_second:pseudo,2005-11-30,pre_second,DELTA_TS,DELTA_TS,2005:Q3,-0.06789122103839507,0.13684170811668173,0.3699212187975728,model_implied_state_space,-0.14139999999999997,0.0735087789616049,True,True,84,-2949.378088262034,-3893.205591660122,-2949.378088262034,0.29466074212405147,9.986222369915419e-05,84.0,13,,0.0
standard_dfm,pseudo,2005:Q3:pre_second:pseudo,2005-11-30,pre_second,DELTA_TS,DELTA_TS,2005:Q3,0.08645353041557424,,,not_available,-0.14139999999999997,0.2278535304155742,True,True,0,,,,,,,13,,0.0
release_dfm,pseudo,2005:Q3:pre_second:pseudo,2005-11-30,pre_second,DELTA_TS,DELTA_TS,2005:Q3,0.061522575505668975,,,not_available,-0.14139999999999997,0.20292257550566895,True,True,0,,,,,,,13,,0.0
revision_dfm_kalman_em,pseudo,2005:Q3:pre_second:pseudo,2005-11-30,pre_second,DELTA_TS,DELTA_TS,2005:Q3,0.007240642456877389,0.13834158598506152,0.3719429875465614,model_implied_state_space,-0.14139999999999997,0.14864064245687736,True,True,40,-959.5735125312086,-1808.9260055307595,-959.5735125312086,0.09011092309674495,9.380070286488904e-05,40.0,13,,0.0
indicator_revision_only_dfm_kalman_em,pseudo,2005:Q3:pre_second:pseudo,2005-11-30,pre_second,DELTA_TS,DELTA_TS,2005:Q3,0.0,0.14211897572675336,0.376986704973469,model_implied_state_space,-0.14139999999999997,0.14139999999999997,True,True,46,-1768.6224349807223,-2686.0691527022436,-1768.6224349807223,0.1667788456954895,9.42365590164837e-05,46.0,13,,0.0
joint_indicator_revision_dfm_full_kalman_em,pseudo,2005:Q3:pre_second:pseudo,2005-11-30,pre_second,DELTA_TS,DELTA_TS,2005:Q3,0.010676324779298696,0.13748989375919285,0.370796296852049,model_implied_state_space,-0.14139999999999997,0.15207632477929867,True,True,47,-1735.684578993214,-2698.8111000829713,-1735.684578993214,0.16585749472778843,9.549325102693718e-05,47.0,13,,0.0
ar,pseudo,2005:Q3:pre_third:pseudo,2005-12-31,pre_third,DELTA_MT,DELTA_MT,2005:Q3,0.3501048292685609,,,not_available,-0.04424061929843681,0.3943454485669977,True,True,0,,,,,,,13,,0.0
no_revision,pseudo,2005:Q3:pre_third:pseudo,2005-12-31,pre_third,DELTA_MT,DELTA_MT,2005:Q3,0.0,,,not_available,-0.04424061929843681,0.04424061929843681,True,True,0,,,,,,,13,,0.0
bridge,pseudo,2005:Q3:pre_third:pseudo,2005-12-31,pre_third,DELTA_MT,DELTA_MT,2005:Q3,-1.409135045278425,,,not_available,-0.04424061929843681,-1.3648944259799882,True,True,0,,,,,,,13,,0.0
midas_umidas,pseudo,2005:Q3:pre_third:pseudo,2005-12-31,pre_third,DELTA_MT,DELTA_MT,2005:Q3,2.434745225119079,,,not_available,-0.04424061929843681,2.4789858444175157,True,True,0,,,,,,,13,,0.0
monthly_mixed_frequency_kalman_em,pseudo,2005:Q3:pre_third:pseudo,2005-12-31,pre_third,DELTA_MT,DELTA_MT,2005:Q3,-0.1153744850239482,0.6644155370214596,0.8151168854964664,model_implied_state_space,-0.04424061929843681,-0.07113386572551139,True,False,100,-2979.060413566455,-3916.099755374443,-2979.060413566455,1.041173475008236,0.000349257965422617,101.0,13,,0.0
standard_dfm,pseudo,2005:Q3:pre_third:pseudo,2005-12-31,pre_third,DELTA_MT,DELTA_MT,2005:Q3,0.14165541808896664,,,not_available,-0.04424061929843681,0.18589603738740346,True,True,0,,,,,,,13,,0.0
release_dfm,pseudo,2005:Q3:pre_third:pseudo,2005-12-31,pre_third,DELTA_MT,DELTA_MT,2005:Q3,0.20509802784993525,,,not_available,-0.04424061929843681,0.24933864714837206,True,True,0,,,,,,,13,,0.0
revision_dfm_kalman_em,pseudo,2005:Q3:pre_third:pseudo,2005-12-31,pre_third,DELTA_MT,DELTA_MT,2005:Q3,0.008237416819245169,0.694642376737198,0.8334520842479176,model_implied_state_space,-0.04424061929843681,0.05247803611768198,True,True,32,-959.2648435377525,-1813.350682067663,-959.2648435377525,0.09104444238300857,9.480281583371911e-05,32.0,13,,0.0
indicator_revision_only_dfm_kalman_em,pseudo,2005:Q3:pre_third:pseudo,2005-12-31,pre_third,DELTA_MT,DELTA_MT,2005:Q3,0.0,0.7194627824800123,0.8482115198934829,model_implied_state_space,-0.04424061929843681,0.04424061929843681,True,True,46,-1768.2904727963246,-2687.080813079136,-1768.2904727963246,0.16853779107464106,9.524820301923374e-05,46.0,13,,0.0
joint_indicator_revision_dfm_full_kalman_em,pseudo,2005:Q3:pre_third:pseudo,2005-12-31,pre_third,DELTA_MT,DELTA_MT,2005:Q3,0.008911395788472554,0.6912584700893648,0.8314195511830142,model_implied_state_space,-0.04424061929843681,0.053152015086909365,True,True,47,-1735.1871155136816,-2699.799452611379,-1735.1871155136816,0.17183546116461912,9.89630980783929e-05,47.0,13,,0.0
ar,exact,2005:Q4:pre_advance:exact,2006-01-26,pre_advance,DELTA_SA,DELTA_SA,2005:Q4,0.22729953371432554,,,not_available,0.5086999999999999,-0.2814004662856744,True,True,0,,,,,,,13,,0.0
no_revision,exact,2005:Q4:pre_advance:exact,2006-01-26,pre_advance,DELTA_SA,DELTA_SA,2005:Q4,0.0,,,not_available,0.5086999999999999,-0.5086999999999999,True,True,0,,,,,,,13,,0.0
bridge,exact,2005:Q4:pre_advance:exact,2006-01-26,pre_advance,DELTA_SA,DELTA_SA,2005:Q4,0.22135021472261185,,,not_available,0.5086999999999999,-0.2873497852773881,True,True,0,,,,,,,13,,0.0
midas_umidas,exact,2005:Q4:pre_advance:exact,2006-01-26,pre_advance,DELTA_SA,DELTA_SA,2005:Q4,-8.24286760904817,,,not_available,0.5086999999999999,-8.75156760904817,True,True,0,,,,,,,13,,0.0
monthly_mixed_frequency_kalman_em,exact,2005:Q4:pre_advance:exact,2006-01-26,pre_advance,DELTA_SA,DELTA_SA,2005:Q4,0.36174217012740506,0.34636458351761945,0.588527470486824,model_implied_state_space,0.5086999999999999,-0.14695782987259487,True,True,88,-2985.8250440895786,-3932.2421390179334,-2985.8250440895786,0.2642686240405965,8.84702787144057e-05,88.0,13,,0.0
standard_dfm,exact,2005:Q4:pre_advance:exact,2006-01-26,pre_advance,DELTA_SA,DELTA_SA,2005:Q4,0.16562850625163694,,,not_available,0.5086999999999999,-0.343071493748363,True,True,0,,,,,,,13,,0.0
release_dfm,exact,2005:Q4:pre_advance:exact,2006-01-26,pre_advance,DELTA_SA,DELTA_SA,2005:Q4,0.16562850625163694,,,not_available,0.5086999999999999,-0.343071493748363,True,True,0,,,,,,,13,,0.0
revision_dfm_kalman_em,exact,2005:Q4:pre_advance:exact,2006-01-26,pre_advance,DELTA_SA,DELTA_SA,2005:Q4,0.18586872987149405,0.42541637295959056,0.6522395058255752,model_implied_state_space,0.5086999999999999,-0.3228312701285059,True,True,39,-975.0618717706265,-1829.4319379689905,-975.0618717706265,0.0941266753874288,9.642585359027988e-05,39.0,13,,0.0
indicator_revision_only_dfm_kalman_em,exact,2005:Q4:pre_advance:exact,2006-01-26,pre_advance,DELTA_SA,DELTA_SA,2005:Q4,0.0,0.4442419385618521,0.666514769950263,model_implied_state_space,0.5086999999999999,-0.5086999999999999,True,True,36,-1798.013770344655,-2727.7428708001707,-1798.013770344655,0.17369448193835524,9.654051361184645e-05,36.0,13,,0.0
joint_indicator_revision_dfm_full_kalman_em,exact,2005:Q4:pre_advance:exact,2006-01-26,pre_advance,DELTA_SA,DELTA_SA,2005:Q4,0.3339591054933777,0.40720452809559937,0.638125793316333,model_implied_state_space,0.5086999999999999,-0.17474089450662222,True,True,35,-1764.754150277351,-2740.296410392269,-1764.754150277351,0.16847943851712444,9.540590039566585e-05,35.0,13,,0.0
ar,exact,2005:Q4:pre_second:exact,2006-02-27,pre_second,DELTA_TS,DELTA_TS,2005:Q4,-0.0387977753615627,,,not_available,0.0253000000000001,-0.0640977753615628,True,True,0,,,,,,,13,,0.0
no_revision,exact,2005:Q4:pre_second:exact,2006-02-27,pre_second,DELTA_TS,DELTA_TS,2005:Q4,0.0,,,not_available,0.0253000000000001,-0.0253000000000001,True,True,0,,,,,,,13,,0.0
bridge,exact,2005:Q4:pre_second:exact,2006-02-27,pre_second,DELTA_TS,DELTA_TS,2005:Q4,0.007802897965233591,,,not_available,0.0253000000000001,-0.01749710203476651,True,True,0,,,,,,,13,,0.0
midas_umidas,exact,2005:Q4:pre_second:exact,2006-02-27,pre_second,DELTA_TS,DELTA_TS,2005:Q4,1.8522444871359478,,,not_available,0.0253000000000001,1.8269444871359477,True,True,0,,,,,,,13,,0.0
monthly_mixed_frequency_kalman_em,exact,2005:Q4:pre_second:exact,2006-02-27,pre_second,DELTA_TS,DELTA_TS,2005:Q4,0.1732259739580193,0.13203559472254078,0.36336702481449906,model_implied_state_space,0.0253000000000001,0.1479259739580192,True,False,100,-3011.1128495854828,-3956.6015062087113,-3011.1128495854828,0.5298382392034,0.00017587158322647812,101.0,13,,0.0
standard_dfm,exact,2005:Q4:pre_second:exact,2006-02-27,pre_second,DELTA_TS,DELTA_TS,2005:Q4,0.1376741988741248,,,not_available,0.0253000000000001,0.1123741988741247,True,True,0,,,,,,,13,,0.0
release_dfm,exact,2005:Q4:pre_second:exact,2006-02-27,pre_second,DELTA_TS,DELTA_TS,2005:Q4,0.09356303904053109,,,not_available,0.0253000000000001,0.06826303904053099,True,True,0,,,,,,,13,,0.0
revision_dfm_kalman_em,exact,2005:Q4:pre_second:exact,2006-02-27,pre_second,DELTA_TS,DELTA_TS,2005:Q4,-0.002068502756704893,0.13767767067116465,0.3710494180984046,model_implied_state_space,0.0253000000000001,-0.027368502756704993,True,True,39,-977.1233671791913,-1830.9384145184088,-977.1233671791913,0.0955255564157369,9.765253679429348e-05,39.0,13,,0.0
indicator_revision_only_dfm_kalman_em,exact,2005:Q4:pre_second:exact,2006-02-27,pre_second,DELTA_TS,DELTA_TS,2005:Q4,0.0,0.1416221044449406,0.3763271242482272,model_implied_state_space,0.0253000000000001,-0.0253000000000001,True,True,34,-1801.4038510508117,-2729.3459125142194,-1801.4038510508117,0.16869828529888764,9.358751488866255e-05,34.0,13,,0.0
joint_indicator_revision_dfm_full_kalman_em,exact,2005:Q4:pre_second:exact,2006-02-27,pre_second,DELTA_TS,DELTA_TS,2005:Q4,-0.0034827655021432147,0.13675861876953854,0.3698088949302579,model_implied_state_space,0.0253000000000001,-0.028782765502143315,True,True,34,-1768.0063271067,-2741.9965915099915,-1768.0063271067,0.16557122210429043,9.358684832191399e-05,34.0,13,,0.0
ar,exact,2005:Q4:pre_third:exact,2006-03-29,pre_third,DELTA_MT,DELTA_MT,2005:Q4,-1.056993816960631,,,not_available,0.09604262436404132,-1.1530364413246723,True,True,0,,,,,,,13,,0.0
no_revision,exact,2005:Q4:pre_third:exact,2006-03-29,pre_third,DELTA_MT,DELTA_MT,2005:Q4,0.0,,,not_available,0.09604262436404132,-0.09604262436404132,True,True,0,,,,,,,13,,0.0
bridge,exact,2005:Q4:pre_third:exact,2006-03-29,pre_third,DELTA_MT,DELTA_MT,2005:Q4,-1.9094850162910668,,,not_available,0.09604262436404132,-2.0055276406551084,True,True,0,,,,,,,13,,0.0
midas_umidas,exact,2005:Q4:pre_third:exact,2006-03-29,pre_third,DELTA_MT,DELTA_MT,2005:Q4,-1.6879933439722508,,,not_available,0.09604262436404132,-1.784035968336292,True,True,0,,,,,,,13,,0.0
monthly_mixed_frequency_kalman_em,exact,2005:Q4:pre_third:exact,2006-03-29,pre_third,DELTA_MT,DELTA_MT,2005:Q4,0.18025065826601083,0.659777173386983,0.8122666885863183,model_implied_state_space,0.09604262436404132,0.08420803390196951,True,False,100,-3030.283815574478,-3975.7582297485837,-3030.283815574478,0.8018175395673097,0.0002644442263801825,101.0,13,,0.0
standard_dfm,exact,2005:Q4:pre_third:exact,2006-03-29,pre_third,DELTA_MT,DELTA_MT,2005:Q4,-0.003258303740604873,,,not_available,0.09604262436404132,-0.09930092810464619,True,True,0,,,,,,,13,,0.0
release_dfm,exact,2005:Q4:pre_third:exact,2006-03-29,pre_third,DELTA_MT,DELTA_MT,2005:Q4,0.22079500317028256,,,not_available,0.09604262436404132,0.12475237880624124,True,True,0,,,,,,,13,,0.0
revision_dfm_kalman_em,exact,2005:Q4:pre_third:exact,2006-03-29,pre_third,DELTA_MT,DELTA_MT,2005:Q4,0.005528524541854818,0.6945370441926347,0.8333888913302329,model_implied_state_space,0.09604262436404132,-0.0905140998221865,True,True,39,-977.0788457979544,-1832.11118974164,-977.0788457979544,0.09519874520026406,9.732291071444814e-05,39.0,13,,0.0
indicator_revision_only_dfm_kalman_em,exact,2005:Q4:pre_third:exact,2006-03-29,pre_third,DELTA_MT,DELTA_MT,2005:Q4,0.0,0.7100663101980429,0.8426543242623531,model_implied_state_space,0.09604262436404132,-0.09604262436404132,True,True,34,-1801.021403067067,-2730.4191318282074,-1801.021403067067,0.17103704578948964,9.49049846079584e-05,34.0,13,,0.0
joint_indicator_revision_dfm_full_kalman_em,exact,2005:Q4:pre_third:exact,2006-03-29,pre_third,DELTA_MT,DELTA_MT,2005:Q4,0.005234511606463821,0.6805458370564641,0.8249520210633247,model_implied_state_space,0.09604262436404132,-0.0908081127575775,True,True,34,-1767.936437248722,-2743.0415761660133,-1767.936437248722,0.16553863638068833,9.357212791414547e-05,34.0,13,,0.0
ar,pseudo,2005:Q4:pre_advance:pseudo,2006-01-31,pre_advance,DELTA_SA,DELTA_SA,2005:Q4,0.22729953371432554,,,not_available,0.5086999999999999,-0.2814004662856744,True,True,0,,,,,,,13,,0.0
no_revision,pseudo,2005:Q4:pre_advance:pseudo,2006-01-31,pre_advance,DELTA_SA,DELTA_SA,2005:Q4,0.0,,,not_available,0.5086999999999999,-0.5086999999999999,True,True,0,,,,,,,13,,0.0
bridge,pseudo,2005:Q4:pre_advance:pseudo,2006-01-31,pre_advance,DELTA_SA,DELTA_SA,2005:Q4,0.22311809207112132,,,not_available,0.5086999999999999,-0.2855819079288786,True,True,0,,,,,,,13,,0.0
midas_umidas,pseudo,2005:Q4:pre_advance:pseudo,2006-01-31,pre_advance,DELTA_SA,DELTA_SA,2005:Q4,-8.114655237340891,,,not_available,0.5086999999999999,-8.62335523734089,True,True,0,,,,,,,13,,0.0
monthly_mixed_frequency_kalman_em,pseudo,2005:Q4:pre_advance:pseudo,2006-01-31,pre_advance,DELTA_SA,DELTA_SA,2005:Q4,0.36157643792085903,0.3463681845400721,0.5885305298283787,model_implied_state_space,0.5086999999999999,-0.1471235620791409,True,True,88,-2985.79855152424,-3932.2466413686243,-2985.79855152424,0.26246215380797366,8.786635177725982e-05,88.0,13,,0.0
standard_dfm,pseudo,2005:Q4:pre_advance:pseudo,2006-01-31,pre_advance,DELTA_SA,DELTA_SA,2005:Q4,0.16559873767091293,,,not_available,0.5086999999999999,-0.343101262329087,True,True,0,,,,,,,13,,0.0
release_dfm,pseudo,2005:Q4:pre_advance:pseudo,2006-01-31,pre_advance,DELTA_SA,DELTA_SA,2005:Q4,0.16559873767091293,,,not_available,0.5086999999999999,-0.343101262329087,True,True,0,,,,,,,13,,0.0
revision_dfm_kalman_em,pseudo,2005:Q4:pre_advance:pseudo,2006-01-31,pre_advance,DELTA_SA,DELTA_SA,2005:Q4,0.18583217652893858,0.42541377348455356,0.6522375130920894,model_implied_state_space,0.5086999999999999,-0.32286782347106135,True,True,39,-975.062677939226,-1829.4316682671374,-975.062677939226,0.09413307096247081,9.643232511491263e-05,39.0,13,,0.0
indicator_revision_only_dfm_kalman_em,pseudo,2005:Q4:pre_advance:pseudo,2006-01-31,pre_advance,DELTA_SA,DELTA_SA,2005:Q4,0.0,0.4442418897816882,0.6665147333568016,model_implied_state_space,0.5086999999999999,-0.5086999999999999,True,True,36,-1798.012110916426,-2727.74100941129,-1798.012110916426,0.1737277289796566,9.655907980603881e-05,36.0,13,,0.0
joint_indicator_revision_dfm_full_kalman_em,pseudo,2005:Q4:pre_advance:pseudo,2006-01-31,pre_advance,DELTA_SA,DELTA_SA,2005:Q4,0.33392248383007317,0.40720617522073077,0.6381270839109799,model_implied_state_space,0.5086999999999999,-0.17477751616992676,True,True,35,-1764.7524637226954,-2740.294553952757,-1764.7524637226954,0.16847870440415136,9.54055758422529e-05,35.0,13,,0.0
ar,pseudo,2005:Q4:pre_second:pseudo,2006-02-28,pre_second,DELTA_TS,DELTA_TS,2005:Q4,-0.0387977753615627,,,not_available,0.0253000000000001,-0.0640977753615628,True,True,0,,,,,,,13,,0.0
no_revision,pseudo,2005:Q4:pre_second:pseudo,2006-02-28,pre_second,DELTA_TS,DELTA_TS,2005:Q4,0.0,,,not_available,0.0253000000000001,-0.0253000000000001,True,True,0,,,,,,,13,,0.0
bridge,pseudo,2005:Q4:pre_second:pseudo,2006-02-28,pre_second,DELTA_TS,DELTA_TS,2005:Q4,0.007802897965233591,,,not_available,0.0253000000000001,-0.01749710203476651,True,True,0,,,,,,,13,,0.0
midas_umidas,pseudo,2005:Q4:pre_second:pseudo,2006-02-28,pre_second,DELTA_TS,DELTA_TS,2005:Q4,1.8522444871359478,,,not_available,0.0253000000000001,1.8269444871359477,True,True,0,,,,,,,13,,0.0
monthly_mixed_frequency_kalman_em,pseudo,2005:Q4:pre_second:pseudo,2006-02-28,pre_second,DELTA_TS,DELTA_TS,2005:Q4,0.1732259739580193,0.13203559472254078,0.36336702481449906,model_implied_state_space,0.0253000000000001,0.1479259739580192,True,False,100,-3011.1128495854828,-3956.6015062087113,-3011.1128495854828,0.5298382392034,0.00017587158322647812,101.0,13,,0.0
standard_dfm,pseudo,2005:Q4:pre_second:pseudo,2006-02-28,pre_second,DELTA_TS,DELTA_TS,2005:Q4,0.1376741988741248,,,not_available,0.0253000000000001,0.1123741988741247,True,True,0,,,,,,,13,,0.0
release_dfm,pseudo,2005:Q4:pre_second:pseudo,2006-02-28,pre_second,DELTA_TS,DELTA_TS,2005:Q4,0.09356303904053109,,,not_available,0.0253000000000001,0.06826303904053099,True,True,0,,,,,,,13,,0.0
revision_dfm_kalman_em,pseudo,2005:Q4:pre_second:pseudo,2006-02-28,pre_second,DELTA_TS,DELTA_TS,2005:Q4,-0.002068502756704893,0.13767767067116465,0.3710494180984046,model_implied_state_space,0.0253000000000001,-0.027368502756704993,True,True,39,-977.1233671791913,-1830.9384145184088,-977.1233671791913,0.0955255564157369,9.765253679429348e-05,39.0,13,,0.0
indicator_revision_only_dfm_kalman_em,pseudo,2005:Q4:pre_second:pseudo,2006-02-28,pre_second,DELTA_TS,DELTA_TS,2005:Q4,0.0,0.1416221044449406,0.3763271242482272,model_implied_state_space,0.0253000000000001,-0.0253000000000001,True,True,34,-1801.4038510508117,-2729.3459125142194,-1801.4038510508117,0.16869828529888764,9.358751488866255e-05,34.0,13,,0.0
joint_indicator_revision_dfm_full_kalman_em,pseudo,2005:Q4:pre_second:pseudo,2006-02-28,pre_second,DELTA_TS,DELTA_TS,2005:Q4,-0.0034827655021432147,0.13675861876953854,0.3698088949302579,model_implied_state_space,0.0253000000000001,-0.028782765502143315,True,True,34,-1768.0063271067,-2741.9965915099915,-1768.0063271067,0.16557122210429043,9.358684832191399e-05,34.0,13,,0.0
ar,pseudo,2005:Q4:pre_third:pseudo,2006-03-31,pre_third,DELTA_MT,DELTA_MT,2005:Q4,-1.056993816960631,,,not_available,0.09604262436404132,-1.1530364413246723,True,True,0,,,,,,,13,,0.0
no_revision,pseudo,2005:Q4:pre_third:pseudo,2006-03-31,pre_third,DELTA_MT,DELTA_MT,2005:Q4,0.0,,,not_available,0.09604262436404132,-0.09604262436404132,True,True,0,,,,,,,13,,0.0
bridge,pseudo,2005:Q4:pre_third:pseudo,2006-03-31,pre_third,DELTA_MT,DELTA_MT,2005:Q4,-1.8506544607458695,,,not_available,0.09604262436404132,-1.9466970851099108,True,True,0,,,,,,,13,,0.0
midas_umidas,pseudo,2005:Q4:pre_third:pseudo,2006-03-31,pre_third,DELTA_MT,DELTA_MT,2005:Q4,-1.680614952055039,,,not_available,0.09604262436404132,-1.7766575764190804,True,True,0,,,,,,,13,,0.0
monthly_mixed_frequency_kalman_em,pseudo,2005:Q4:pre_third:pseudo,2006-03-31,pre_third,DELTA_MT,DELTA_MT,2005:Q4,0.1784814665756771,0.6595988360923783,0.8121569036167693,model_implied_state_space,0.09604262436404132,0.08243884221163578,True,False,100,-3028.1716617428037,-3976.002880737555,-3028.1716617428037,0.5753723861166691,0.0001899077314493003,101.0,13,,0.0
standard_dfm,pseudo,2005:Q4:pre_third:pseudo,2006-03-31,pre_third,DELTA_MT,DELTA_MT,2005:Q4,-0.0071015492699597615,,,not_available,0.09604262436404132,-0.10314417363400108,True,True,0,,,,,,,13,,0.0
release_dfm,pseudo,2005:Q4:pre_third:pseudo,2006-03-31,pre_third,DELTA_MT,DELTA_MT,2005:Q4,0.2183246936680867,,,not_available,0.09604262436404132,0.1222820693040454,True,True,0,,,,,,,13,,0.0
revision_dfm_kalman_em,pseudo,2005:Q4:pre_third:pseudo,2006-03-31,pre_third,DELTA_MT,DELTA_MT,2005:Q4,0.00552584443650006,0.6945095267529243,0.8333723818035514,model_implied_state_space,0.09604262436404132,-0.09051677992754126,True,True,39,-977.0851734922671,-1832.215570065809,-977.0851734922671,0.09457792597538628,9.668767508043353e-05,39.0,13,,0.0
indicator_revision_only_dfm_kalman_em,pseudo,2005:Q4:pre_third:pseudo,2006-03-31,pre_third,DELTA_MT,DELTA_MT,2005:Q4,0.0,0.7100647899718797,0.842653422215729,model_implied_state_space,0.09604262436404132,-0.09604262436404132,True,True,34,-1801.053432470281,-2730.5746023985275,-1801.053432470281,0.17089547078671785,9.482474969248451e-05,34.0,13,,0.0
joint_indicator_revision_dfm_full_kalman_em,pseudo,2005:Q4:pre_third:pseudo,2006-03-31,pre_third,DELTA_MT,DELTA_MT,2005:Q4,0.00524087616800295,0.6805297972666329,0.8249422993559203,model_implied_state_space,0.09604262436404132,-0.09080174819603837,True,True,34,-1767.9664287637152,-2743.196107503487,-1767.9664287637152,0.16541505105033139,9.35006916689986e-05,34.0,13,,0.0
ar,exact,2006:Q1:pre_advance:exact,2006-04-27,pre_advance,DELTA_SA,DELTA_SA,2006:Q1,0.35429482017348324,,,not_available,0.4908000000000001,-0.1365051798265169,True,True,0,,,,,,,13,,0.0
no_revision,exact,2006:Q1:pre_advance:exact,2006-04-27,pre_advance,DELTA_SA,DELTA_SA,2006:Q1,0.0,,,not_available,0.4908000000000001,-0.4908000000000001,True,True,0,,,,,,,13,,0.0
bridge,exact,2006:Q1:pre_advance:exact,2006-04-27,pre_advance,DELTA_SA,DELTA_SA,2006:Q1,0.23181052375819844,,,not_available,0.4908000000000001,-0.2589894762418017,True,True,0,,,,,,,13,,0.0
midas_umidas,exact,2006:Q1:pre_advance:exact,2006-04-27,pre_advance,DELTA_SA,DELTA_SA,2006:Q1,-24.506359124330828,,,not_available,0.4908000000000001,-24.997159124330828,True,True,0,,,,,,,13,,0.0
monthly_mixed_frequency_kalman_em,exact,2006:Q1:pre_advance:exact,2006-04-27,pre_advance,DELTA_SA,DELTA_SA,2006:Q1,-0.0075074843316005335,0.347145071091699,0.5891901824468047,model_implied_state_space,0.4908000000000001,-0.49830748433160066,True,True,86,-3038.209992752503,-3992.9193734830214,-3038.209992752503,0.27433803621033803,9.025808537040568e-05,86.0,13,,0.0
standard_dfm,exact,2006:Q1:pre_advance:exact,2006-04-27,pre_advance,DELTA_SA,DELTA_SA,2006:Q1,0.15176793142866707,,,not_available,0.4908000000000001,-0.33903206857133306,True,True,0,,,,,,,13,,0.0
release_dfm,exact,2006:Q1:pre_advance:exact,2006-04-27,pre_advance,DELTA_SA,DELTA_SA,2006:Q1,0.15176793142866707,,,not_available,0.4908000000000001,-0.33903206857133306,True,True,0,,,,,,,13,,0.0
revision_dfm_kalman_em,exact,2006:Q1:pre_advance:exact,2006-04-27,pre_advance,DELTA_SA,DELTA_SA,2006:Q1,0.12696230180242063,0.42281116536464225,0.6502393139180699,model_implied_state_space,0.4908000000000001,-0.3638376981975795,True,True,39,-992.7700397332528,-1851.96069997306,-992.7700397332528,0.08878408460520859,8.93326924081119e-05,39.0,13,,0.0
indicator_revision_only_dfm_kalman_em,exact,2006:Q1:pre_advance:exact,2006-04-27,pre_advance,DELTA_SA,DELTA_SA,2006:Q1,0.0,0.4433776591185641,0.665866096988399,model_implied_state_space,0.4908000000000001,-0.4908000000000001,True,True,35,-1830.0621929533038,-2763.9211797127164,-1830.0621929533038,0.17071920801549822,9.322637600151378e-05,35.0,13,,0.0
joint_indicator_revision_dfm_full_kalman_em,exact,2006:Q1:pre_advance:exact,2006-04-27,pre_advance,DELTA_SA,DELTA_SA,2006:Q1,0.42525731520078214,0.41634649930911394,0.645249176139818,model_implied_state_space,0.4908000000000001,-0.06554268479921799,True,True,33,-1797.6380877019749,-2776.6744510340377,-1797.6380877019749,0.16475976815740978,9.159412238485768e-05,33.0,13,,0.0
ar,exact,2006:Q1:pre_second:exact,2006-05-24,pre_second,DELTA_TS,DELTA_TS,2006:Q1,0.07626955245512601,,,not_available,0.3293999999999997,-0.2531304475448737,True,True,0,,,,,,,13,,0.0
no_revision,exact,2006:Q1:pre_second:exact,2006-05-24,pre_second,DELTA_TS,DELTA_TS,2006:Q1,0.0,,,not_available,0.3293999999999997,-0.3293999999999997,True,True,0,,,,,,,13,,0.0
bridge,exact,2006:Q1:pre_second:exact,2006-05-24,pre_second,DELTA_TS,DELTA_TS,2006:Q1,0.3714240401271933,,,not_available,0.3293999999999997,0.04202404012719363,True,True,0,,,,,,,13,,0.0
midas_umidas,exact,2006:Q1:pre_second:exact,2006-05-24,pre_second,DELTA_TS,DELTA_TS,2006:Q1,0.7670528895089124,,,not_available,0.3293999999999997,0.4376528895089127,True,True,0,,,,,,,13,,0.0
monthly_mixed_frequency_kalman_em,exact,2006:Q1:pre_second:exact,2006-05-24,pre_second,DELTA_TS,DELTA_TS,2006:Q1,0.0969617523488937,0.13554035208807969,0.3681580531348998,model_implied_state_space,0.3293999999999997,-0.232438247651106,True,True,84,-3055.27520212109,-4011.836784490963,-3055.27520212109,0.260398421046375,8.519397614743576e-05,84.0,13,,0.0
standard_dfm,exact,2006:Q1:pre_second:exact,2006-05-24,pre_second,DELTA_TS,DELTA_TS,2006:Q1,0.11031236145158196,,,not_available,0.3293999999999997,-0.21908763854841773,True,True,0,,,,,,,13,,0.0
release_dfm,exact,2006:Q1:pre_second:exact,2006-05-24,pre_second,DELTA_TS,DELTA_TS,2006:Q1,0.0886419394730904,,,not_available,0.3293999999999997,-0.2407580605269093,True,True,0,,,,,,,13,,0.0
revision_dfm_kalman_em,exact,2006:Q1:pre_second:exact,2006-05-24,pre_second,DELTA_TS,DELTA_TS,2006:Q1,0.009869391623849033,0.13690159380729172,0.37000215378736884,model_implied_state_space,0.3293999999999997,-0.31953060837615066,True,True,31,-992.6898119940704,-1856.1563144440984,-992.6898119940704,0.0930595988213554,9.364178180309566e-05,31.0,13,,0.0
indicator_revision_only_dfm_kalman_em,exact,2006:Q1:pre_second:exact,2006-05-24,pre_second,DELTA_TS,DELTA_TS,2006:Q1,0.0,0.1407878143650707,0.3752170230214385,model_implied_state_space,0.3293999999999997,-0.3293999999999997,True,True,33,-1832.0784130440438,-2767.703120760684,-1832.0784130440438,0.17097246534831356,9.326197881190433e-05,33.0,13,,0.0
joint_indicator_revision_dfm_full_kalman_em,exact,2006:Q1:pre_second:exact,2006-05-24,pre_second,DELTA_TS,DELTA_TS,2006:Q1,0.017824486601147882,0.13588773150031375,0.36862953150868655,model_implied_state_space,0.3293999999999997,-0.3115755133988518,True,True,33,-1798.8232982355512,-2780.423267508493,-1798.8232982355512,0.17896432165343867,9.942449816656891e-05,33.0,13,,0.0
ar,exact,2006:Q1:pre_third:exact,2006-06-28,pre_third,DELTA_MT,DELTA_MT,2006:Q1,0.2589426693429844,,,not_available,-0.20735991741772786,0.46630258676071223,True,True,0,,,,,,,13,,0.0
no_revision,exact,2006:Q1:pre_third:exact,2006-06-28,pre_third,DELTA_MT,DELTA_MT,2006:Q1,0.0,,,not_available,-0.20735991741772786,0.20735991741772786,True,True,0,,,,,,,13,,0.0
bridge,exact,2006:Q1:pre_third:exact,2006-06-28,pre_third,DELTA_MT,DELTA_MT,2006:Q1,-0.5064446676085708,,,not_available,-0.20735991741772786,-0.2990847501908429,True,True,0,,,,,,,13,,0.0
midas_umidas,exact,2006:Q1:pre_third:exact,2006-06-28,pre_third,DELTA_MT,DELTA_MT,2006:Q1,1.065616238193221,,,not_available,-0.20735991741772786,1.272976155610949,True,True,0,,,,,,,13,,0.0
monthly_mixed_frequency_kalman_em,exact,2006:Q1:pre_third:exact,2006-06-28,pre_third,DELTA_MT,DELTA_MT,2006:Q1,0.10319780606781226,0.6540868178348871,0.8087563402130997,model_implied_state_space,-0.20735991741772786,0.3105577234855401,True,True,94,-3074.964800788017,-4035.9141220690562,-3074.964800788017,0.3067478745711014,9.971417338123495e-05,94.0,13,,0.0
standard_dfm,exact,2006:Q1:pre_third:exact,2006-06-28,pre_third,DELTA_MT,DELTA_MT,2006:Q1,0.11805749055390358,,,not_available,-0.20735991741772786,0.32541740797163143,True,True,0,,,,,,,13,,0.0
release_dfm,exact,2006:Q1:pre_third:exact,2006-06-28,pre_third,DELTA_MT,DELTA_MT,2006:Q1,0.0947438992335563,,,not_available,-0.20735991741772786,0.30210381665128416,True,True,0,,,,,,,13,,0.0
revision_dfm_kalman_em,exact,2006:Q1:pre_third:exact,2006-06-28,pre_third,DELTA_MT,DELTA_MT,2006:Q1,0.009267368064080017,0.6854374696614743,0.8279115107675906,model_implied_state_space,-0.20735991741772786,0.21662728548180787,True,True,31,-993.1360629281282,-1858.2745376615092,-993.1360629281282,0.09194310202451561,9.24768780067207e-05,31.0,13,,0.0
indicator_revision_only_dfm_kalman_em,exact,2006:Q1:pre_third:exact,2006-06-28,pre_third,DELTA_MT,DELTA_MT,2006:Q1,0.0,0.705691745699596,0.8400546087604044,model_implied_state_space,-0.20735991741772786,0.20735991741772786,True,True,34,-1832.496753255518,-2769.815811887565,-1832.496753255518,0.1785611084960692,9.737880370495186e-05,34.0,13,,0.0
joint_indicator_revision_dfm_full_kalman_em,exact,2006:Q1:pre_third:exact,2006-06-28,pre_third,DELTA_MT,DELTA_MT,2006:Q1,0.010961061184985965,0.6766722522990802,0.8226009070619119,model_implied_state_space,-0.20735991741772786,0.21832097860271382,True,True,34,-1798.7238468113865,-2782.5019207102127,-1798.7238468113865,0.1735700939123035,9.643332574516153e-05,34.0,13,,0.0
ar,pseudo,2006:Q1:pre_advance:pseudo,2006-04-30,pre_advance,DELTA_SA,DELTA_SA,2006:Q1,0.35429482017348324,,,not_available,0.4908000000000001,-0.1365051798265169,True,True,0,,,,,,,13,,0.0
no_revision,pseudo,2006:Q1:pre_advance:pseudo,2006-04-30,pre_advance,DELTA_SA,DELTA_SA,2006:Q1,0.0,,,not_available,0.4908000000000001,-0.4908000000000001,True,True,0,,,,,,,13,,0.0
bridge,pseudo,2006:Q1:pre_advance:pseudo,2006-04-30,pre_advance,DELTA_SA,DELTA_SA,2006:Q1,0.23181052375819844,,,not_available,0.4908000000000001,-0.2589894762418017,True,True,0,,,,,,,13,,0.0
midas_umidas,pseudo,2006:Q1:pre_advance:pseudo,2006-04-30,pre_advance,DELTA_SA,DELTA_SA,2006:Q1,-24.506359124330828,,,not_available,0.4908000000000001,-24.997159124330828,True,True,0,,,,,,,13,,0.0
monthly_mixed_frequency_kalman_em,pseudo,2006:Q1:pre_advance:pseudo,2006-04-30,pre_advance,DELTA_SA,DELTA_SA,2006:Q1,-0.0075074843316005335,0.347145071091699,0.5891901824468047,model_implied_state_space,0.4908000000000001,-0.49830748433160066,True,True,86,-3038.209992752503,-3992.9193734830214,-3038.209992752503,0.27433803621033803,9.025808537040568e-05,86.0,13,,0.0
standard_dfm,pseudo,2006:Q1:pre_advance:pseudo,2006-04-30,pre_advance,DELTA_SA,DELTA_SA,2006:Q1,0.15176793142866707,,,not_available,0.4908000000000001,-0.33903206857133306,True,True,0,,,,,,,13,,0.0
release_dfm,pseudo,2006:Q1:pre_advance:pseudo,2006-04-30,pre_advance,DELTA_SA,DELTA_SA,2006:Q1,0.15176793142866707,,,not_available,0.4908000000000001,-0.33903206857133306,True,True,0,,,,,,,13,,0.0
revision_dfm_kalman_em,pseudo,2006:Q1:pre_advance:pseudo,2006-04-30,pre_advance,DELTA_SA,DELTA_SA,2006:Q1,0.12696230180242063,0.42281116536464225,0.6502393139180699,model_implied_state_space,0.4908000000000001,-0.3638376981975795,True,True,39,-992.7700397332528,-1851.96069997306,-992.7700397332528,0.08878408460520859,8.93326924081119e-05,39.0,13,,0.0
indicator_revision_only_dfm_kalman_em,pseudo,2006:Q1:pre_advance:pseudo,2006-04-30,pre_advance,DELTA_SA,DELTA_SA,2006:Q1,0.0,0.4433776591185641,0.665866096988399,model_implied_state_space,0.4908000000000001,-0.4908000000000001,True,True,35,-1830.0621929533038,-2763.9211797127164,-1830.0621929533038,0.17071920801549822,9.322637600151378e-05,35.0,13,,0.0
joint_indicator_revision_dfm_full_kalman_em,pseudo,2006:Q1:pre_advance:pseudo,2006-04-30,pre_advance,DELTA_SA,DELTA_SA,2006:Q1,0.42525731520078214,0.41634649930911394,0.645249176139818,model_implied_state_space,0.4908000000000001,-0.06554268479921799,True,True,33,-1797.6380877019749,-2776.6744510340377,-1797.6380877019749,0.16475976815740978,9.159412238485768e-05,33.0,13,,0.0
ar,pseudo,2006:Q1:pre_second:pseudo,2006-05-31,pre_second,DELTA_TS,DELTA_TS,2006:Q1,0.07626955245512601,,,not_available,0.3293999999999997,-0.2531304475448737,True,True,0,,,,,,,13,,0.0
no_revision,pseudo,2006:Q1:pre_second:pseudo,2006-05-31,pre_second,DELTA_TS,DELTA_TS,2006:Q1,0.0,,,not_available,0.3293999999999997,-0.3293999999999997,True,True,0,,,,,,,13,,0.0
bridge,pseudo,2006:Q1:pre_second:pseudo,2006-05-31,pre_second,DELTA_TS,DELTA_TS,2006:Q1,0.3714240401271933,,,not_available,0.3293999999999997,0.04202404012719363,True,True,0,,,,,,,13,,0.0
midas_umidas,pseudo,2006:Q1:pre_second:pseudo,2006-05-31,pre_second,DELTA_TS,DELTA_TS,2006:Q1,0.7670528895089124,,,not_available,0.3293999999999997,0.4376528895089127,True,True,0,,,,,,,13,,0.0
monthly_mixed_frequency_kalman_em,pseudo,2006:Q1:pre_second:pseudo,2006-05-31,pre_second,DELTA_TS,DELTA_TS,2006:Q1,0.0969617523488937,0.13554035208807969,0.3681580531348998,model_implied_state_space,0.3293999999999997,-0.232438247651106,True,True,84,-3055.27520212109,-4011.836784490963,-3055.27520212109,0.260398421046375,8.519397614743576e-05,84.0,13,,0.0
standard_dfm,pseudo,2006:Q1:pre_second:pseudo,2006-05-31,pre_second,DELTA_TS,DELTA_TS,2006:Q1,0.11031236145158196,,,not_available,0.3293999999999997,-0.21908763854841773,True,True,0,,,,,,,13,,0.0
release_dfm,pseudo,2006:Q1:pre_second:pseudo,2006-05-31,pre_second,DELTA_TS,DELTA_TS,2006:Q1,0.0886419394730904,,,not_available,0.3293999999999997,-0.2407580605269093,True,True,0,,,,,,,13,,0.0
revision_dfm_kalman_em,pseudo,2006:Q1:pre_second:pseudo,2006-05-31,pre_second,DELTA_TS,DELTA_TS,2006:Q1,0.009869391623849033,0.13690159380729172,0.37000215378736884,model_implied_state_space,0.3293999999999997,-0.31953060837615066,True,True,31,-992.6898119940704,-1856.1563144440984,-992.6898119940704,0.0930595988213554,9.364178180309566e-05,31.0,13,,0.0
indicator_revision_only_dfm_kalman_em,pseudo,2006:Q1:pre_second:pseudo,2006-05-31,pre_second,DELTA_TS,DELTA_TS,2006:Q1,0.0,0.1407878143650707,0.3752170230214385,model_implied_state_space,0.3293999999999997,-0.3293999999999997,True,True,33,-1832.0784130440438,-2767.703120760684,-1832.0784130440438,0.17097246534831356,9.326197881190433e-05,33.0,13,,0.0
joint_indicator_revision_dfm_full_kalman_em,pseudo,2006:Q1:pre_second:pseudo,2006-05-31,pre_second,DELTA_TS,DELTA_TS,2006:Q1,0.017824486601147882,0.13588773150031375,0.36862953150868655,model_implied_state_space,0.3293999999999997,-0.3115755133988518,True,True,33,-1798.8232982355512,-2780.423267508493,-1798.8232982355512,0.17896432165343867,9.942449816656891e-05,33.0,13,,0.0
ar,pseudo,2006:Q1:pre_third:pseudo,2006-06-30,pre_third,DELTA_MT,DELTA_MT,2006:Q1,0.2589426693429844,,,not_available,-0.20735991741772786,0.46630258676071223,True,True,0,,,,,,,13,,0.0
no_revision,pseudo,2006:Q1:pre_third:pseudo,2006-06-30,pre_third,DELTA_MT,DELTA_MT,2006:Q1,0.0,,,not_available,-0.20735991741772786,0.20735991741772786,True,True,0,,,,,,,13,,0.0
bridge,pseudo,2006:Q1:pre_third:pseudo,2006-06-30,pre_third,DELTA_MT,DELTA_MT,2006:Q1,-0.5064446676085708,,,not_available,-0.20735991741772786,-0.2990847501908429,True,True,0,,,,,,,13,,0.0
midas_umidas,pseudo,2006:Q1:pre_third:pseudo,2006-06-30,pre_third,DELTA_MT,DELTA_MT,2006:Q1,1.065616238193221,,,not_available,-0.20735991741772786,1.272976155610949,True,True,0,,,,,,,13,,0.0
monthly_mixed_frequency_kalman_em,pseudo,2006:Q1:pre_third:pseudo,2006-06-30,pre_third,DELTA_MT,DELTA_MT,2006:Q1,0.10319780606781226,0.6540868178348871,0.8087563402130997,model_implied_state_space,-0.20735991741772786,0.3105577234855401,True,True,94,-3074.964800788017,-4035.9141220690562,-3074.964800788017,0.3067478745711014,9.971417338123495e-05,94.0,13,,0.0
standard_dfm,pseudo,2006:Q1:pre_third:pseudo,2006-06-30,pre_third,DELTA_MT,DELTA_MT,2006:Q1,0.11805749055390358,,,not_available,-0.20735991741772786,0.32541740797163143,True,True,0,,,,,,,13,,0.0
release_dfm,pseudo,2006:Q1:pre_third:pseudo,2006-06-30,pre_third,DELTA_MT,DELTA_MT,2006:Q1,0.0947438992335563,,,not_available,-0.20735991741772786,0.30210381665128416,True,True,0,,,,,,,13,,0.0
revision_dfm_kalman_em,pseudo,2006:Q1:pre_third:pseudo,2006-06-30,pre_third,DELTA_MT,DELTA_MT,2006:Q1,0.009267368064080017,0.6854374696614743,0.8279115107675906,model_implied_state_space,-0.20735991741772786,0.21662728548180787,True,True,31,-993.1360629281282,-1858.2745376615092,-993.1360629281282,0.09194310202451561,9.24768780067207e-05,31.0,13,,0.0
indicator_revision_only_dfm_kalman_em,pseudo,2006:Q1:pre_third:pseudo,2006-06-30,pre_third,DELTA_MT,DELTA_MT,2006:Q1,0.0,0.705691745699596,0.8400546087604044,model_implied_state_space,-0.20735991741772786,0.20735991741772786,True,True,34,-1832.496753255518,-2769.815811887565,-1832.496753255518,0.1785611084960692,9.737880370495186e-05,34.0,13,,0.0
joint_indicator_revision_dfm_full_kalman_em,pseudo,2006:Q1:pre_third:pseudo,2006-06-30,pre_third,DELTA_MT,DELTA_MT,2006:Q1,0.010961061184985965,0.6766722522990802,0.8226009070619119,model_implied_state_space,-0.20735991741772786,0.21832097860271382,True,True,34,-1798.7238468113865,-2782.5019207102127,-1798.7238468113865,0.1735700939123035,9.643332574516153e-05,34.0,13,,0.0
ar,exact,2006:Q2:pre_advance:exact,2006-07-27,pre_advance,DELTA_SA,DELTA_SA,2006:Q2,0.19275954019070385,,,not_available,0.4434999999999998,-0.25074045980929593,True,True,0,,,,,,,13,,0.0
no_revision,exact,2006:Q2:pre_advance:exact,2006-07-27,pre_advance,DELTA_SA,DELTA_SA,2006:Q2,0.0,,,not_available,0.4434999999999998,-0.4434999999999998,True,True,0,,,,,,,13,,0.0
bridge,exact,2006:Q2:pre_advance:exact,2006-07-27,pre_advance,DELTA_SA,DELTA_SA,2006:Q2,-0.003709582394132216,,,not_available,0.4434999999999998,-0.447209582394132,True,True,0,,,,,,,13,,0.0
midas_umidas,exact,2006:Q2:pre_advance:exact,2006-07-27,pre_advance,DELTA_SA,DELTA_SA,2006:Q2,7.631526192585322,,,not_available,0.4434999999999998,7.188026192585323,True,True,0,,,,,,,13,,0.0
monthly_mixed_frequency_kalman_em,exact,2006:Q2:pre_advance:exact,2006-07-27,pre_advance,DELTA_SA,DELTA_SA,2006:Q2,0.3354702039694111,0.3419431488856297,0.5847590519911853,model_implied_state_space,0.4434999999999998,-0.10802979603058871,True,True,97,-3091.8600651687434,-4056.2816497321496,-3091.8600651687434,0.29306278494914295,9.474564395168553e-05,97.0,13,,0.0
standard_dfm,exact,2006:Q2:pre_advance:exact,2006-07-27,pre_advance,DELTA_SA,DELTA_SA,2006:Q2,0.18041479596781063,,,not_available,0.4434999999999998,-0.26308520403218916,True,True,0,,,,,,,13,,0.0
release_dfm,exact,2006:Q2:pre_advance:exact,2006-07-27,pre_advance,DELTA_SA,DELTA_SA,2006:Q2,0.18041479596781063,,,not_available,0.4434999999999998,-0.26308520403218916,True,True,0,,,,,,,13,,0.0
revision_dfm_kalman_em,exact,2006:Q2:pre_advance:exact,2006-07-27,pre_advance,DELTA_SA,DELTA_SA,2006:Q2,0.03397109637567697,0.42330162485662903,0.6506163422913914,model_implied_state_space,0.4434999999999998,-0.4095289036243228,True,True,30,-1008.4958927663748,-1877.244222404608,-1008.4958927663748,0.09956104034984037,9.861478671921613e-05,30.0,13,,0.0
indicator_revision_only_dfm_kalman_em,exact,2006:Q2:pre_advance:exact,2006-07-27,pre_advance,DELTA_SA,DELTA_SA,2006:Q2,0.0,0.44188152159791727,0.6647416953959765,model_implied_state_space,0.4434999999999998,-0.4434999999999998,True,True,36,-1866.078638894916,-2806.182676521873,-1866.078638894916,0.18131787806100874,9.710371467203991e-05,36.0,13,,0.0
joint_indicator_revision_dfm_full_kalman_em,exact,2006:Q2:pre_advance:exact,2006-07-27,pre_advance,DELTA_SA,DELTA_SA,2006:Q2,0.2978717130025874,0.4013163678188061,0.6334953573774681,model_implied_state_space,0.4434999999999998,-0.14562828699741237,True,True,38,-1831.4809751714342,-2818.87278354823,-1831.4809751714342,0.17395571146198563,9.49200575245123e-05,38.0,13,,0.0
ar,exact,2006:Q2:pre_second:exact,2006-08-29,pre_second,DELTA_TS,DELTA_TS,2006:Q2,0.15003765644417788,,,not_available,-0.34259999999999957,0.49263765644417745,True,True,0,,,,,,,13,,0.0
no_revision,exact,2006:Q2:pre_second:exact,2006-08-29,pre_second,DELTA_TS,DELTA_TS,2006:Q2,0.0,,,not_available,-0.34259999999999957,0.34259999999999957,True,True,0,,,,,,,13,,0.0
bridge,exact,2006:Q2:pre_second:exact,2006-08-29,pre_second,DELTA_TS,DELTA_TS,2006:Q2,-0.09619672090274789,,,not_available,-0.34259999999999957,0.24640327909725168,True,True,0,,,,,,,13,,0.0
midas_umidas,exact,2006:Q2:pre_second:exact,2006-08-29,pre_second,DELTA_TS,DELTA_TS,2006:Q2,-0.06269428375548536,,,not_available,-0.34259999999999957,0.2799057162445142,True,True,0,,,,,,,13,,0.0
monthly_mixed_frequency_kalman_em,exact,2006:Q2:pre_second:exact,2006-08-29,pre_second,DELTA_TS,DELTA_TS,2006:Q2,0.15697505264283063,0.13055094107470222,0.36131833758432774,model_implied_state_space,-0.34259999999999957,0.4995750526428302,True,True,97,-3110.34929682941,-4076.0379318403966,-3110.34929682941,0.300212402786201,9.648014723235292e-05,97.0,13,,0.0
standard_dfm,exact,2006:Q2:pre_second:exact,2006-08-29,pre_second,DELTA_TS,DELTA_TS,2006:Q2,0.11872079344451558,,,not_available,-0.34259999999999957,0.46132079344451515,True,True,0,,,,,,,13,,0.0
release_dfm,exact,2006:Q2:pre_second:exact,2006-08-29,pre_second,DELTA_TS,DELTA_TS,2006:Q2,0.09286842184072608,,,not_available,-0.34259999999999957,0.43546842184072565,True,True,0,,,,,,,13,,0.0
revision_dfm_kalman_em,exact,2006:Q2:pre_second:exact,2006-08-29,pre_second,DELTA_TS,DELTA_TS,2006:Q2,-0.001445279582337644,0.136729601758396,0.3697696604082006,model_implied_state_space,-0.34259999999999957,0.3411547204176619,True,True,31,-1009.3383174156163,-1878.3746972816177,-1009.3383174156163,0.0947051460370858,9.372728713575589e-05,31.0,13,,0.0
indicator_revision_only_dfm_kalman_em,exact,2006:Q2:pre_second:exact,2006-08-29,pre_second,DELTA_TS,DELTA_TS,2006:Q2,0.0,0.1406024082021069,0.37496987639290025,model_implied_state_space,-0.34259999999999957,0.34259999999999957,True,True,34,-1866.8522615567772,-2807.0478473621542,-1866.8522615567772,0.17729984646348385,9.491276269220193e-05,34.0,13,,0.0
joint_indicator_revision_dfm_full_kalman_em,exact,2006:Q2:pre_second:exact,2006-08-29,pre_second,DELTA_TS,DELTA_TS,2006:Q2,0.004909010330853114,0.13566274143525614,0.3683242341134454,model_implied_state_space,-0.34259999999999957,0.3475090103308527,True,True,36,-1832.4723141112104,-2819.8589345071796,-1832.4723141112104,0.173349618831935,9.45382318191746e-05,36.0,13,,0.0
ar,exact,2006:Q2:pre_third:exact,2006-09-27,pre_third,DELTA_MT,DELTA_MT,2006:Q2,-1.0384230476748115,,,not_available,-0.032220177501629976,-1.0062028701731816,True,True,0,,,,,,,13,,0.0
no_revision,exact,2006:Q2:pre_third:exact,2006-09-27,pre_third,DELTA_MT,DELTA_MT,2006:Q2,0.0,,,not_available,-0.032220177501629976,0.032220177501629976,True,True,0,,,,,,,13,,0.0
bridge,exact,2006:Q2:pre_third:exact,2006-09-27,pre_third,DELTA_MT,DELTA_MT,2006:Q2,-2.565024566373196,,,not_available,-0.032220177501629976,-2.532804388871566,True,True,0,,,,,,,13,,0.0
midas_umidas,exact,2006:Q2:pre_third:exact,2006-09-27,pre_third,DELTA_MT,DELTA_MT,2006:Q2,0.9524662413337843,,,not_available,-0.032220177501629976,0.9846864188354143,True,True,0,,,,,,,13,,0.0
monthly_mixed_frequency_kalman_em,exact,2006:Q2:pre_third:exact,2006-09-27,pre_third,DELTA_MT,DELTA_MT,2006:Q2,0.13653890384430278,0.65175137631871,0.8073112016556627,model_implied_state_space,-0.032220177501629976,0.16875908134593276,True,True,79,-3124.2202195937866,-4091.535911810086,-3124.2202195937866,0.26039776307197826,8.331447062122246e-05,79.0,13,,0.0
standard_dfm,exact,2006:Q2:pre_third:exact,2006-09-27,pre_third,DELTA_MT,DELTA_MT,2006:Q2,0.028841042394093908,,,not_available,-0.032220177501629976,0.061061219895723884,True,True,0,,,,,,,13,,0.0
release_dfm,exact,2006:Q2:pre_third:exact,2006-09-27,pre_third,DELTA_MT,DELTA_MT,2006:Q2,0.17029754775278105,,,not_available,-0.032220177501629976,0.20251772525441103,True,True,0,,,,,,,13,,0.0
revision_dfm_kalman_em,exact,2006:Q2:pre_third:exact,2006-09-27,pre_third,DELTA_MT,DELTA_MT,2006:Q2,0.005206609607415036,0.6874477495633066,0.829124688791322,model_implied_state_space,-0.032220177501629976,0.03742678710904501,True,True,40,-1009.1944601195572,-1876.2153929947287,-1009.1944601195572,0.09458163728447744,9.361839372226066e-05,40.0,13,,0.0
indicator_revision_only_dfm_kalman_em,exact,2006:Q2:pre_third:exact,2006-09-27,pre_third,DELTA_MT,DELTA_MT,2006:Q2,0.0,0.702291056007776,0.8380280759066345,model_implied_state_space,-0.032220177501629976,0.032220177501629976,True,True,34,-1866.6883643570538,-2808.1685905638205,-1866.6883643570538,0.1778845035039467,9.523406914839883e-05,34.0,13,,0.0
joint_indicator_revision_dfm_full_kalman_em,exact,2006:Q2:pre_third:exact,2006-09-27,pre_third,DELTA_MT,DELTA_MT,2006:Q2,0.0068717163109712764,0.6735057375090907,0.8206739532293508,model_implied_state_space,-0.032220177501629976,0.03909189381260125,True,True,36,-1832.2173085790566,-2820.9539586558735,-1832.2173085790566,0.17295176753032138,9.433439855714425e-05,36.0,13,,0.0
ar,pseudo,2006:Q2:pre_advance:pseudo,2006-07-31,pre_advance,DELTA_SA,DELTA_SA,2006:Q2,0.19275954019070385,,,not_available,0.4434999999999998,-0.25074045980929593,True,True,0,,,,,,,13,,0.0
no_revision,pseudo,2006:Q2:pre_advance:pseudo,2006-07-31,pre_advance,DELTA_SA,DELTA_SA,2006:Q2,0.0,,,not_available,0.4434999999999998,-0.4434999999999998,True,True,0,,,,,,,13,,0.0
bridge,pseudo,2006:Q2:pre_advance:pseudo,2006-07-31,pre_advance,DELTA_SA,DELTA_SA,2006:Q2,-0.003709582394132216,,,not_available,0.4434999999999998,-0.447209582394132,True,True,0,,,,,,,13,,0.0
midas_umidas,pseudo,2006:Q2:pre_advance:pseudo,2006-07-31,pre_advance,DELTA_SA,DELTA_SA,2006:Q2,7.631526192585322,,,not_available,0.4434999999999998,7.188026192585323,True,True,0,,,,,,,13,,0.0
monthly_mixed_frequency_kalman_em,pseudo,2006:Q2:pre_advance:pseudo,2006-07-31,pre_advance,DELTA_SA,DELTA_SA,2006:Q2,0.3354702039694111,0.3419431488856297,0.5847590519911853,model_implied_state_space,0.4434999999999998,-0.10802979603058871,True,True,97,-3091.8600651687434,-4056.2816497321496,-3091.8600651687434,0.29306278494914295,9.474564395168553e-05,97.0,13,,0.0
standard_dfm,pseudo,2006:Q2:pre_advance:pseudo,2006-07-31,pre_advance,DELTA_SA,DELTA_SA,2006:Q2,0.18041479596781063,,,not_available,0.4434999999999998,-0.26308520403218916,True,True,0,,,,,,,13,,0.0
release_dfm,pseudo,2006:Q2:pre_advance:pseudo,2006-07-31,pre_advance,DELTA_SA,DELTA_SA,2006:Q2,0.18041479596781063,,,not_available,0.4434999999999998,-0.26308520403218916,True,True,0,,,,,,,13,,0.0
revision_dfm_kalman_em,pseudo,2006:Q2:pre_advance:pseudo,2006-07-31,pre_advance,DELTA_SA,DELTA_SA,2006:Q2,0.03397109637567697,0.42330162485662903,0.6506163422913914,model_implied_state_space,0.4434999999999998,-0.4095289036243228,True,True,30,-1008.4958927663748,-1877.244222404608,-1008.4958927663748,0.09956104034984037,9.861478671921613e-05,30.0,13,,0.0
indicator_revision_only_dfm_kalman_em,pseudo,2006:Q2:pre_advance:pseudo,2006-07-31,pre_advance,DELTA_SA,DELTA_SA,2006:Q2,0.0,0.44188152159791727,0.6647416953959765,model_implied_state_space,0.4434999999999998,-0.4434999999999998,True,True,36,-1866.078638894916,-2806.182676521873,-1866.078638894916,0.18131787806100874,9.710371467203991e-05,36.0,13,,0.0
joint_indicator_revision_dfm_full_kalman_em,pseudo,2006:Q2:pre_advance:pseudo,2006-07-31,pre_advance,DELTA_SA,DELTA_SA,2006:Q2,0.2978717130025874,0.4013163678188061,0.6334953573774681,model_implied_state_space,0.4434999999999998,-0.14562828699741237,True,True,38,-1831.4809751714342,-2818.87278354823,-1831.4809751714342,0.17395571146198563,9.49200575245123e-05,38.0,13,,0.0
ar,pseudo,2006:Q2:pre_second:pseudo,2006-08-31,pre_second,DELTA_TS,DELTA_TS,2006:Q2,0.15003765644417788,,,not_available,-0.34259999999999957,0.49263765644417745,True,True,0,,,,,,,13,,0.0
no_revision,pseudo,2006:Q2:pre_second:pseudo,2006-08-31,pre_second,DELTA_TS,DELTA_TS,2006:Q2,0.0,,,not_available,-0.34259999999999957,0.34259999999999957,True,True,0,,,,,,,13,,0.0
bridge,pseudo,2006:Q2:pre_second:pseudo,2006-08-31,pre_second,DELTA_TS,DELTA_TS,2006:Q2,-0.09696653829506974,,,not_available,-0.34259999999999957,0.24563346170492983,True,True,0,,,,,,,13,,0.0
midas_umidas,pseudo,2006:Q2:pre_second:pseudo,2006-08-31,pre_second,DELTA_TS,DELTA_TS,2006:Q2,-0.0638026357583037,,,not_available,-0.34259999999999957,0.2787973642416959,True,True,0,,,,,,,13,,0.0
monthly_mixed_frequency_kalman_em,pseudo,2006:Q2:pre_second:pseudo,2006-08-31,pre_second,DELTA_TS,DELTA_TS,2006:Q2,0.1569249764963372,0.1305521929935869,0.36132007001215266,model_implied_state_space,-0.34259999999999957,0.49952497649633676,True,True,97,-3110.375296998415,-4076.041938436888,-3110.375296998415,0.30074454329042055,9.665033868416913e-05,97.0,13,,0.0
standard_dfm,pseudo,2006:Q2:pre_second:pseudo,2006-08-31,pre_second,DELTA_TS,DELTA_TS,2006:Q2,0.11851880070235099,,,not_available,-0.34259999999999957,0.46111880070235056,True,True,0,,,,,,,13,,0.0
release_dfm,pseudo,2006:Q2:pre_second:pseudo,2006-08-31,pre_second,DELTA_TS,DELTA_TS,2006:Q2,0.09264349943882877,,,not_available,-0.34259999999999957,0.43524349943882834,True,True,0,,,,,,,13,,0.0
revision_dfm_kalman_em,pseudo,2006:Q2:pre_second:pseudo,2006-08-31,pre_second,DELTA_TS,DELTA_TS,2006:Q2,-0.0014477490536979332,0.1367293944996707,0.3697693801542668,model_implied_state_space,-0.34259999999999957,0.34115225094630164,True,True,31,-1009.3592004049327,-1878.3885007592949,-1009.3592004049327,0.09471771041705779,9.373778330606182e-05,31.0,13,,0.0
indicator_revision_only_dfm_kalman_em,pseudo,2006:Q2:pre_second:pseudo,2006-08-31,pre_second,DELTA_TS,DELTA_TS,2006:Q2,0.0,0.14060238315909313,0.3749698429995313,model_implied_state_space,-0.34259999999999957,0.34259999999999957,True,True,34,-1866.8755743958102,-2807.064726953274,-1866.8755743958102,0.17725619943644233,9.488821543658401e-05,34.0,13,,0.0
joint_indicator_revision_dfm_full_kalman_em,pseudo,2006:Q2:pre_second:pseudo,2006-08-31,pre_second,DELTA_TS,DELTA_TS,2006:Q2,0.0049195781300235275,0.13566228118613588,0.3683236093249194,model_implied_state_space,-0.34259999999999957,0.3475195781300231,True,True,36,-1832.4932916755179,-2819.8757976650486,-1832.4932916755179,0.17341664089553888,9.457369766764314e-05,36.0,13,,0.0
ar,pseudo,2006:Q2:pre_third:pseudo,2006-09-30,pre_third,DELTA_MT,DELTA_MT,2006:Q2,-1.0384230476748115,,,not_available,-0.032220177501629976,-1.0062028701731816,True,True,0,,,,,,,13,,0.0
no_revision,pseudo,2006:Q2:pre_third:pseudo,2006-09-30,pre_third,DELTA_MT,DELTA_MT,2006:Q2,0.0,,,not_available,-0.032220177501629976,0.032220177501629976,True,True,0,,,,,,,13,,0.0
bridge,pseudo,2006:Q2:pre_third:pseudo,2006-09-30,pre_third,DELTA_MT,DELTA_MT,2006:Q2,-2.565024566373196,,,not_available,-0.032220177501629976,-2.532804388871566,True,True,0,,,,,,,13,,0.0
midas_umidas,pseudo,2006:Q2:pre_third:pseudo,2006-09-30,pre_third,DELTA_MT,DELTA_MT,2006:Q2,0.9524662413337843,,,not_available,-0.032220177501629976,0.9846864188354143,True,True,0,,,,,,,13,,0.0
monthly_mixed_frequency_kalman_em,pseudo,2006:Q2:pre_third:pseudo,2006-09-30,pre_third,DELTA_MT,DELTA_MT,2006:Q2,0.13653890384430278,0.65175137631871,0.8073112016556627,model_implied_state_space,-0.032220177501629976,0.16875908134593276,True,True,79,-3124.2202195937866,-4091.535911810086,-3124.2202195937866,0.26039776307197826,8.331447062122246e-05,79.0,13,,0.0
standard_dfm,pseudo,2006:Q2:pre_third:pseudo,2006-09-30,pre_third,DELTA_MT,DELTA_MT,2006:Q2,0.028841042394093908,,,not_available,-0.032220177501629976,0.061061219895723884,True,True,0,,,,,,,13,,0.0
release_dfm,pseudo,2006:Q2:pre_third:pseudo,2006-09-30,pre_third,DELTA_MT,DELTA_MT,2006:Q2,0.17029754775278105,,,not_available,-0.032220177501629976,0.20251772525441103,True,True,0,,,,,,,13,,0.0
revision_dfm_kalman_em,pseudo,2006:Q2:pre_third:pseudo,2006-09-30,pre_third,DELTA_MT,DELTA_MT,2006:Q2,0.005206609607415036,0.6874477495633066,0.829124688791322,model_implied_state_space,-0.032220177501629976,0.03742678710904501,True,True,40,-1009.1944601195572,-1876.2153929947287,-1009.1944601195572,0.09458163728447744,9.361839372226066e-05,40.0,13,,0.0
indicator_revision_only_dfm_kalman_em,pseudo,2006:Q2:pre_third:pseudo,2006-09-30,pre_third,DELTA_MT,DELTA_MT,2006:Q2,0.0,0.702291056007776,0.8380280759066345,model_implied_state_space,-0.032220177501629976,0.032220177501629976,True,True,34,-1866.6883643570538,-2808.1685905638205,-1866.6883643570538,0.1778845035039467,9.523406914839883e-05,34.0,13,,0.0
joint_indicator_revision_dfm_full_kalman_em,pseudo,2006:Q2:pre_third:pseudo,2006-09-30,pre_third,DELTA_MT,DELTA_MT,2006:Q2,0.0068717163109712764,0.6735057375090907,0.8206739532293508,model_implied_state_space,-0.032220177501629976,0.03909189381260125,True,True,36,-1832.2173085790566,-2820.9539586558735,-1832.2173085790566,0.17295176753032138,9.433439855714425e-05,36.0,13,,0.0
ar,exact,2006:Q3:pre_advance:exact,2006-10-26,pre_advance,DELTA_SA,DELTA_SA,2006:Q3,0.2698690026860002,,,not_available,0.6269,-0.3570309973139998,True,True,0,,,,,,,13,,0.0
no_revision,exact,2006:Q3:pre_advance:exact,2006-10-26,pre_advance,DELTA_SA,DELTA_SA,2006:Q3,0.0,,,not_available,0.6269,-0.6269,True,True,0,,,,,,,13,,0.0
bridge,exact,2006:Q3:pre_advance:exact,2006-10-26,pre_advance,DELTA_SA,DELTA_SA,2006:Q3,0.18899295657589454,,,not_available,0.6269,-0.43790704342410547,True,True,0,,,,,,,13,,0.0
midas_umidas,exact,2006:Q3:pre_advance:exact,2006-10-26,pre_advance,DELTA_SA,DELTA_SA,2006:Q3,-1.1119282496718563,,,not_available,0.6269,-1.7388282496718563,True,True,0,,,,,,,13,,0.0
monthly_mixed_frequency_kalman_em,exact,2006:Q3:pre_advance:exact,2006-10-26,pre_advance,DELTA_SA,DELTA_SA,2006:Q3,-0.04298407144616312,0.3411495032814731,0.5840800486932191,model_implied_state_space,0.6269,-0.6698840714461631,True,True,89,-3142.4324237026963,-4116.260334471542,-3142.4324237026963,0.29819270006055376,9.485313356834739e-05,89.0,13,,0.0
standard_dfm,exact,2006:Q3:pre_advance:exact,2006-10-26,pre_advance,DELTA_SA,DELTA_SA,2006:Q3,0.1471347337242923,,,not_available,0.6269,-0.4797652662757077,True,True,0,,,,,,,13,,0.0
release_dfm,exact,2006:Q3:pre_advance:exact,2006-10-26,pre_advance,DELTA_SA,DELTA_SA,2006:Q3,0.1471347337242923,,,not_available,0.6269,-0.4797652662757077,True,True,0,,,,,,,13,,0.0
revision_dfm_kalman_em,exact,2006:Q3:pre_advance:exact,2006-10-26,pre_advance,DELTA_SA,DELTA_SA,2006:Q3,0.02077609372386835,0.4196182685819263,0.6477794907080081,model_implied_state_space,0.6269,-0.6061239062761317,True,True,39,-1026.0763563907842,-1896.1563781244352,-1026.0763563907842,0.0990109766396472,9.639150215742145e-05,39.0,13,,0.0
indicator_revision_only_dfm_kalman_em,exact,2006:Q3:pre_advance:exact,2006-10-26,pre_advance,DELTA_SA,DELTA_SA,2006:Q3,0.0,0.43643203135395403,0.6606300260765885,model_implied_state_space,0.6269,-0.6269,True,True,44,-1656.9540572246071,-2844.3102496574456,-1656.9540572246071,0.09087741097914659,5.480998076757196e-05,44.0,13,,0.0
joint_indicator_revision_dfm_full_kalman_em,exact,2006:Q3:pre_advance:exact,2006-10-26,pre_advance,DELTA_SA,DELTA_SA,2006:Q3,-0.3512406010153808,0.37492241043998664,0.6123090808080398,model_implied_state_space,0.6269,-0.9781406010153808,True,True,46,-1630.1604062578638,-2857.111225548531,-1630.1604062578638,0.03188302318199021,1.9545839807790397e-05,46.0,13,,0.0
ar,exact,2006:Q3:pre_second:exact,2006-11-28,pre_second,DELTA_TS,DELTA_TS,2006:Q3,-0.10248539920862054,,,not_available,-0.24970000000000003,0.1472146007913795,True,True,0,,,,,,,13,,0.0
no_revision,exact,2006:Q3:pre_second:exact,2006-11-28,pre_second,DELTA_TS,DELTA_TS,2006:Q3,0.0,,,not_available,-0.24970000000000003,0.24970000000000003,True,True,0,,,,,,,13,,0.0
bridge,exact,2006:Q3:pre_second:exact,2006-11-28,pre_second,DELTA_TS,DELTA_TS,2006:Q3,-0.4618669505312958,,,not_available,-0.24970000000000003,-0.21216695053129575,True,True,0,,,,,,,13,,0.0
midas_umidas,exact,2006:Q3:pre_second:exact,2006-11-28,pre_second,DELTA_TS,DELTA_TS,2006:Q3,-0.10992479613917538,,,not_available,-0.24970000000000003,0.13977520386082465,True,True,0,,,,,,,13,,0.0
monthly_mixed_frequency_kalman_em,exact,2006:Q3:pre_second:exact,2006-11-28,pre_second,DELTA_TS,DELTA_TS,2006:Q3,0.01172691640711987,0.13703756907528308,0.3701858574760563,model_implied_state_space,-0.24970000000000003,0.2614269164071199,True,True,78,-3160.5131066917306,-4131.923324813286,-3160.5131066917306,0.28004125985853534,8.857039241797455e-05,78.0,13,,0.0
standard_dfm,exact,2006:Q3:pre_second:exact,2006-11-28,pre_second,DELTA_TS,DELTA_TS,2006:Q3,0.09276208638106231,,,not_available,-0.24970000000000003,0.34246208638106235,True,True,0,,,,,,,13,,0.0
release_dfm,exact,2006:Q3:pre_second:exact,2006-11-28,pre_second,DELTA_TS,DELTA_TS,2006:Q3,0.06272920805043714,,,not_available,-0.24970000000000003,0.31242920805043717,True,True,0,,,,,,,13,,0.0
revision_dfm_kalman_em,exact,2006:Q3:pre_second:exact,2006-11-28,pre_second,DELTA_TS,DELTA_TS,2006:Q3,0.0008254053985206067,0.1367896876244089,0.3698508991802087,model_implied_state_space,-0.24970000000000003,0.25052540539852064,True,True,39,-1026.9653912503095,-1897.4399019553675,-1026.9653912503095,0.09743595513691616,9.477626518388328e-05,39.0,13,,0.0
indicator_revision_only_dfm_kalman_em,exact,2006:Q3:pre_second:exact,2006-11-28,pre_second,DELTA_TS,DELTA_TS,2006:Q3,0.0,0.14098066634416784,0.37547392232240023,model_implied_state_space,-0.24970000000000003,0.24970000000000003,True,True,44,-1658.3933937112015,-2845.4162182286295,-1658.3933937112015,0.12879796062520654,7.761147230905879e-05,44.0,13,,0.0
joint_indicator_revision_dfm_full_kalman_em,exact,2006:Q3:pre_second:exact,2006-11-28,pre_second,DELTA_TS,DELTA_TS,2006:Q3,-0.00736004785110822,0.1372819890537047,0.37051584183905645,model_implied_state_space,-0.24970000000000003,0.2423399521488918,True,True,46,-1631.5786379033743,-2858.3282048283727,-1631.5786379033743,0.03420638124907782,2.0951924621214367e-05,46.0,13,,0.0
ar,exact,2006:Q3:pre_third:exact,2006-12-20,pre_third,DELTA_MT,DELTA_MT,2006:Q3,1.9522566825814875,,,not_available,-0.900187882444061,2.8524445650255483,True,True,0,,,,,,,13,,0.0
no_revision,exact,2006:Q3:pre_third:exact,2006-12-20,pre_third,DELTA_MT,DELTA_MT,2006:Q3,0.0,,,not_available,-0.900187882444061,0.900187882444061,True,True,0,,,,,,,13,,0.0
bridge,exact,2006:Q3:pre_third:exact,2006-12-20,pre_third,DELTA_MT,DELTA_MT,2006:Q3,-1.514498179418994,,,not_available,-0.900187882444061,-0.614310296974933,True,True,0,,,,,,,13,,0.0
midas_umidas,exact,2006:Q3:pre_third:exact,2006-12-20,pre_third,DELTA_MT,DELTA_MT,2006:Q3,0.9366131988345001,,,not_available,-0.900187882444061,1.8368010812785611,True,True,0,,,,,,,13,,0.0
monthly_mixed_frequency_kalman_em,exact,2006:Q3:pre_third:exact,2006-12-20,pre_third,DELTA_MT,DELTA_MT,2006:Q3,0.0890551079180022,0.6549318940266227,0.8092786257072546,model_implied_state_space,-0.900187882444061,0.9892429903620632,True,True,82,-3189.026433944505,-4151.124194737777,-3189.026433944505,0.2956457929458338,9.266957553394238e-05,82.0,13,,0.0
standard_dfm,exact,2006:Q3:pre_third:exact,2006-12-20,pre_third,DELTA_MT,DELTA_MT,2006:Q3,0.12022694475245599,,,not_available,-0.900187882444061,1.020414827196517,True,True,0,,,,,,,13,,0.0
release_dfm,exact,2006:Q3:pre_third:exact,2006-12-20,pre_third,DELTA_MT,DELTA_MT,2006:Q3,0.20927892986889374,,,not_available,-0.900187882444061,1.1094668123129547,True,True,0,,,,,,,13,,0.0
