haminh109/Revision-Aware-DFM/outputs/full_state_space_release_revision_dfm/exact_pseudo_backtest_max_iter2_journal_evidence/common_sample_spf_revision.csv
timing_mode,checkpoint_id,outcome_id,anchor_model,model_id,n_common_forecasts,RMSE,MAE,bias,first_target_quarter,last_target_quarter
exact,pre_advance,DELTA_SA,spf,ar,4,0.22261772186622356,0.14550314039374757,0.11387890991557434,2024:Q1,2024:Q4
exact,pre_advance,DELTA_SA,spf,bridge,4,0.19628861445707124,0.15481162521728045,0.04306961256276395,2024:Q1,2024:Q4
exact,pre_advance,DELTA_SA,spf,indicator_revision_only_dfm_kalman_em,4,0.18521783796384184,0.13862499999999994,0.03162499999999998,2024:Q1,2024:Q4
exact,pre_advance,DELTA_SA,spf,joint_indicator_revision_dfm_full_kalman_em,4,0.3100212329496549,0.2381156665760441,0.17885773456171322,2024:Q1,2024:Q4
exact,pre_advance,DELTA_SA,spf,midas_umidas,4,0.6802330921321854,0.4469020710085724,-0.2020858318768895,2024:Q1,2024:Q4
exact,pre_advance,DELTA_SA,spf,monthly_mixed_frequency_kalman_em,4,0.23892105619369114,0.14582807402021064,0.11302900768698482,2024:Q1,2024:Q4
exact,pre_advance,DELTA_SA,spf,no_revision,4,0.18521783796384184,0.13862499999999994,0.03162499999999998,2024:Q1,2024:Q4
exact,pre_advance,DELTA_SA,spf,release_dfm,4,0.2217168052840871,0.13474201905901542,0.12464520244634165,2024:Q1,2024:Q4
exact,pre_advance,DELTA_SA,spf,revision_dfm_kalman_em,4,0.3204254192767376,0.25779502119448555,0.18030657506722153,2024:Q1,2024:Q4
exact,pre_advance,DELTA_SA,spf,spf,4,0.18521783796384184,0.13862499999999994,0.03162499999999998,2024:Q1,2024:Q4
exact,pre_advance,DELTA_SA,spf,standard_dfm,4,0.2217168052840871,0.13474201905901542,0.12464520244634165,2024:Q1,2024:Q4
exact,pre_second,DELTA_TS,spf,ar,4,0.09838748104696876,0.08036008454753382,-0.06001337920123627,2024:Q1,2024:Q4
exact,pre_second,DELTA_TS,spf,bridge,4,0.20399069804743666,0.1831455656700534,-0.16929848440497725,2024:Q1,2024:Q4
exact,pre_second,DELTA_TS,spf,indicator_revision_only_dfm_kalman_em,4,0.15440160297095354,0.13554999999999992,-0.13554999999999992,2024:Q1,2024:Q4
exact,pre_second,DELTA_TS,spf,joint_indicator_revision_dfm_full_kalman_em,4,0.1537023074608053,0.13480633502773018,-0.13480633502773018,2024:Q1,2024:Q4
exact,pre_second,DELTA_TS,spf,midas_umidas,4,0.47101153697238424,0.3477612331004162,-0.34112819774765957,2024:Q1,2024:Q4
exact,pre_second,DELTA_TS,spf,monthly_mixed_frequency_kalman_em,4,0.15030650591965466,0.11846008238178471,-0.11846008238178471,2024:Q1,2024:Q4
exact,pre_second,DELTA_TS,spf,no_revision,4,0.15440160297095354,0.13554999999999992,-0.13554999999999992,2024:Q1,2024:Q4
exact,pre_second,DELTA_TS,spf,release_dfm,4,0.11263635239556764,0.09152721133757843,-0.08501054023159103,2024:Q1,2024:Q4
exact,pre_second,DELTA_TS,spf,revision_dfm_kalman_em,4,0.15367239346421316,0.1347530387754858,-0.1347530387754858,2024:Q1,2024:Q4
exact,pre_second,DELTA_TS,spf,spf,4,0.15440160297095354,0.13554999999999992,-0.13554999999999992,2024:Q1,2024:Q4
exact,pre_second,DELTA_TS,spf,standard_dfm,4,0.10245984592349086,0.0845288942523458,-0.06995759151036024,2024:Q1,2024:Q4
exact,pre_third,DELTA_MT,spf,ar,4,0.6295988853033145,0.48949340268920727,0.3896897513886399,2024:Q1,2024:Q4
exact,pre_third,DELTA_MT,spf,bridge,4,0.5552759332896955,0.4788809447099557,0.25756770551075003,2024:Q1,2024:Q4
exact,pre_third,DELTA_MT,spf,indicator_revision_only_dfm_kalman_em,4,0.5274127178974736,0.5086,0.07469999999999992,2024:Q1,2024:Q4
exact,pre_third,DELTA_MT,spf,joint_indicator_revision_dfm_full_kalman_em,4,0.5726276793545612,0.5420338471665762,0.13894546310138847,2024:Q1,2024:Q4
exact,pre_third,DELTA_MT,spf,midas_umidas,4,3.2901779203714625,2.6591305078141967,1.1174867773084762,2024:Q1,2024:Q4
exact,pre_third,DELTA_MT,spf,monthly_mixed_frequency_kalman_em,4,0.5922996295318197,0.5716509664672424,0.09870209504271181,2024:Q1,2024:Q4
exact,pre_third,DELTA_MT,spf,no_revision,4,0.5274127178974736,0.5086,0.07469999999999992,2024:Q1,2024:Q4
exact,pre_third,DELTA_MT,spf,release_dfm,4,0.6476687847705994,0.5579266076178504,0.3111794916057876,2024:Q1,2024:Q4
exact,pre_third,DELTA_MT,spf,revision_dfm_kalman_em,4,0.5741431923138749,0.5431611175927915,0.14109919945731436,2024:Q1,2024:Q4
exact,pre_third,DELTA_MT,spf,spf,4,0.5274127178974736,0.5086,0.07469999999999992,2024:Q1,2024:Q4
exact,pre_third,DELTA_MT,spf,standard_dfm,4,0.6549096861246385,0.5346146519012216,0.3947721115551704,2024:Q1,2024:Q4
pseudo,pre_advance,DELTA_SA,spf,ar,4,0.22261772186622356,0.14550314039374757,0.11387890991557434,2024:Q1,2024:Q4
pseudo,pre_advance,DELTA_SA,spf,bridge,4,0.20351669725741944,0.16209213233892,0.03387444774280381,2024:Q1,2024:Q4
pseudo,pre_advance,DELTA_SA,spf,indicator_revision_only_dfm_kalman_em,4,0.18521783796384184,0.13862499999999994,0.03162499999999998,2024:Q1,2024:Q4
pseudo,pre_advance,DELTA_SA,spf,joint_indicator_revision_dfm_full_kalman_em,4,0.30742363669340905,0.23200240360608254,0.1830279708508568,2024:Q1,2024:Q4
pseudo,pre_advance,DELTA_SA,spf,midas_umidas,4,0.6808618467564331,0.4491318199174289,-0.2099131912845994,2024:Q1,2024:Q4
pseudo,pre_advance,DELTA_SA,spf,monthly_mixed_frequency_kalman_em,4,0.23871629246283296,0.14602940897808897,0.11264825680390496,2024:Q1,2024:Q4
pseudo,pre_advance,DELTA_SA,spf,no_revision,4,0.18521783796384184,0.13862499999999994,0.03162499999999998,2024:Q1,2024:Q4
pseudo,pre_advance,DELTA_SA,spf,release_dfm,4,0.2217189807060592,0.13476047251307552,0.12462841163142452,2024:Q1,2024:Q4
pseudo,pre_advance,DELTA_SA,spf,revision_dfm_kalman_em,4,0.31752219189072495,0.252412906727427,0.1839651743844732,2024:Q1,2024:Q4
pseudo,pre_advance,DELTA_SA,spf,spf,4,0.18521783796384184,0.13862499999999994,0.03162499999999998,2024:Q1,2024:Q4
pseudo,pre_advance,DELTA_SA,spf,standard_dfm,4,0.2217189807060592,0.13476047251307552,0.12462841163142452,2024:Q1,2024:Q4
pseudo,pre_second,DELTA_TS,spf,ar,4,0.09838748104696876,0.08036008454753382,-0.06001337920123627,2024:Q1,2024:Q4
pseudo,pre_second,DELTA_TS,spf,bridge,4,0.21035685500519022,0.18749018494258132,-0.17628347107023498,2024:Q1,2024:Q4
pseudo,pre_second,DELTA_TS,spf,indicator_revision_only_dfm_kalman_em,4,0.15440160297095354,0.13554999999999992,-0.13554999999999992,2024:Q1,2024:Q4
pseudo,pre_second,DELTA_TS,spf,joint_indicator_revision_dfm_full_kalman_em,4,0.1537037043404652,0.13480748246846358,-0.13480748246846358,2024:Q1,2024:Q4
pseudo,pre_second,DELTA_TS,spf,midas_umidas,4,0.4805893953819334,0.3498231739406953,-0.3395333245242488,2024:Q1,2024:Q4
pseudo,pre_second,DELTA_TS,spf,monthly_mixed_frequency_kalman_em,4,0.15022722620164708,0.11861101594424545,-0.11861101594424545,2024:Q1,2024:Q4
pseudo,pre_second,DELTA_TS,spf,no_revision,4,0.15440160297095354,0.13554999999999992,-0.13554999999999992,2024:Q1,2024:Q4
pseudo,pre_second,DELTA_TS,spf,release_dfm,4,0.11259261443482062,0.09148804431777487,-0.08497406892298952,2024:Q1,2024:Q4
pseudo,pre_second,DELTA_TS,spf,revision_dfm_kalman_em,4,0.15367321829721842,0.13475423019706495,-0.13475423019706495,2024:Q1,2024:Q4
pseudo,pre_second,DELTA_TS,spf,spf,4,0.15440160297095354,0.13554999999999992,-0.13554999999999992,2024:Q1,2024:Q4
pseudo,pre_second,DELTA_TS,spf,standard_dfm,4,0.10255199603702578,0.08460930831474092,-0.07003215530327538,2024:Q1,2024:Q4
pseudo,pre_third,DELTA_MT,spf,ar,4,0.6295988853033145,0.48949340268920727,0.3896897513886399,2024:Q1,2024:Q4
pseudo,pre_third,DELTA_MT,spf,bridge,4,0.5596576679280534,0.48304271888617656,0.2595001869190048,2024:Q1,2024:Q4
pseudo,pre_third,DELTA_MT,spf,indicator_revision_only_dfm_kalman_em,4,0.5274127178974736,0.5086,0.07469999999999992,2024:Q1,2024:Q4
pseudo,pre_third,DELTA_MT,spf,joint_indicator_revision_dfm_full_kalman_em,4,0.5726423042835369,0.5420481165448815,0.13893372390007416,2024:Q1,2024:Q4
pseudo,pre_third,DELTA_MT,spf,midas_umidas,4,3.3706262681170545,2.7869541601248584,1.300536112813933,2024:Q1,2024:Q4
pseudo,pre_third,DELTA_MT,spf,monthly_mixed_frequency_kalman_em,4,0.5905979298053492,0.5700859343503866,0.09852629282308614,2024:Q1,2024:Q4
pseudo,pre_third,DELTA_MT,spf,no_revision,4,0.5274127178974736,0.5086,0.07469999999999992,2024:Q1,2024:Q4
pseudo,pre_third,DELTA_MT,spf,release_dfm,4,0.6452762509353113,0.5528096529997947,0.31768524108575885,2024:Q1,2024:Q4
pseudo,pre_third,DELTA_MT,spf,revision_dfm_kalman_em,4,0.5741841407097695,0.5431906525949709,0.14116130244101582,2024:Q1,2024:Q4
pseudo,pre_third,DELTA_MT,spf,spf,4,0.5274127178974736,0.5086,0.07469999999999992,2024:Q1,2024:Q4
pseudo,pre_third,DELTA_MT,spf,standard_dfm,4,0.6537983307636788,0.5332338513363053,0.39500156992898544,2024:Q1,2024:Q4
