haminh109/Revision-Aware-DFM/outputs/full_state_space_release_revision_dfm/exact_pseudo_backtest_max_iter2_journal_evidence/cumulative_loss_point.csv
timing_mode,checkpoint_id,outcome_id,baseline_model,model_id,target_quarter,loss_diff_baseline_minus_model,cumulative_loss_diff
exact,pre_advance,A,ar,bridge,2024:Q1,0.7855773239734216,0.7855773239734216
exact,pre_advance,A,ar,bridge,2024:Q2,-0.6561092188970701,0.12946810507635154
exact,pre_advance,A,ar,bridge,2024:Q3,-0.07053545014004434,0.0589326549363072
exact,pre_advance,A,ar,bridge,2024:Q4,-0.00044289376299851135,0.05848976117330869
exact,pre_advance,A,ar,indicator_revision_only_dfm_kalman_em,2024:Q1,0.22653075746729,0.22653075746729
exact,pre_advance,A,ar,indicator_revision_only_dfm_kalman_em,2024:Q2,0.11906987412397563,0.34560063159126564
exact,pre_advance,A,ar,indicator_revision_only_dfm_kalman_em,2024:Q3,-0.2795967448294048,0.06600388676186086
exact,pre_advance,A,ar,indicator_revision_only_dfm_kalman_em,2024:Q4,-0.005950209249091426,0.06005367751276944
exact,pre_advance,A,ar,joint_indicator_revision_dfm_full_kalman_em,2024:Q1,0.5524850014143534,0.5524850014143534
exact,pre_advance,A,ar,joint_indicator_revision_dfm_full_kalman_em,2024:Q2,0.10642088759653745,0.6589058890108909
exact,pre_advance,A,ar,joint_indicator_revision_dfm_full_kalman_em,2024:Q3,-0.5966873886910564,0.06221850031983445
exact,pre_advance,A,ar,joint_indicator_revision_dfm_full_kalman_em,2024:Q4,0.05062258081155048,0.11284108113138493
exact,pre_advance,A,ar,midas_umidas,2024:Q1,-6.858121252587562,-6.858121252587562
exact,pre_advance,A,ar,midas_umidas,2024:Q2,-0.009088496400308982,-6.867209748987871
exact,pre_advance,A,ar,midas_umidas,2024:Q3,-3.3941584319243674,-10.261368180912239
exact,pre_advance,A,ar,midas_umidas,2024:Q4,0.053104823491227374,-10.208263357421012
exact,pre_advance,A,ar,monthly_mixed_frequency_kalman_em,2024:Q1,0.8468959083183526,0.8468959083183526
exact,pre_advance,A,ar,monthly_mixed_frequency_kalman_em,2024:Q2,0.09848080553377259,0.9453767138521252
exact,pre_advance,A,ar,monthly_mixed_frequency_kalman_em,2024:Q3,-0.1823989060212908,0.7629778078308344
exact,pre_advance,A,ar,monthly_mixed_frequency_kalman_em,2024:Q4,0.002064562318215661,0.76504237014905
exact,pre_advance,A,ar,no_revision,2024:Q1,-0.31218151521482485,-0.31218151521482485
exact,pre_advance,A,ar,no_revision,2024:Q2,0.0978852185130688,-0.21429629670175604
exact,pre_advance,A,ar,no_revision,2024:Q3,-0.06291573213851451,-0.2772120288402705
exact,pre_advance,A,ar,no_revision,2024:Q4,0.026146771737672124,-0.2510652571025984
exact,pre_advance,A,ar,release_dfm,2024:Q1,0.4624004308907377,0.4624004308907377
exact,pre_advance,A,ar,release_dfm,2024:Q2,0.1298334675859058,0.5922338984766435
exact,pre_advance,A,ar,release_dfm,2024:Q3,-0.8060037928736986,-0.21376989439705507
exact,pre_advance,A,ar,release_dfm,2024:Q4,0.033129491051418665,-0.1806404033456364
exact,pre_advance,A,ar,revision_dfm_kalman_em,2024:Q1,0.7827629310419983,0.7827629310419983
exact,pre_advance,A,ar,revision_dfm_kalman_em,2024:Q2,-0.19782189158664032,0.584941039455358
exact,pre_advance,A,ar,revision_dfm_kalman_em,2024:Q3,-0.4865089983564109,0.0984320410989471
exact,pre_advance,A,ar,revision_dfm_kalman_em,2024:Q4,0.045239571170448106,0.1436716122693952
exact,pre_advance,A,ar,spf,2024:Q1,0.6176035835239486,0.6176035835239486
exact,pre_advance,A,ar,spf,2024:Q2,-0.5427808169482209,0.07482276657572773
exact,pre_advance,A,ar,spf,2024:Q3,-0.8072172383919204,-0.7323944718161927
exact,pre_advance,A,ar,spf,2024:Q4,-0.05692555044772479,-0.7893200222639174
exact,pre_advance,A,ar,standard_dfm,2024:Q1,0.4624004308907377,0.4624004308907377
exact,pre_advance,A,ar,standard_dfm,2024:Q2,0.1298334675859058,0.5922338984766435
exact,pre_advance,A,ar,standard_dfm,2024:Q3,-0.8060037928736986,-0.21376989439705507
exact,pre_advance,A,ar,standard_dfm,2024:Q4,0.033129491051418665,-0.1806404033456364
exact,pre_advance,A,no_revision,ar,2024:Q1,0.31218151521482485,0.31218151521482485
exact,pre_advance,A,no_revision,ar,2024:Q2,-0.0978852185130688,0.21429629670175604
exact,pre_advance,A,no_revision,ar,2024:Q3,0.06291573213851451,0.2772120288402705
exact,pre_advance,A,no_revision,ar,2024:Q4,-0.026146771737672124,0.2510652571025984
exact,pre_advance,A,no_revision,bridge,2024:Q1,1.0977588391882465,1.0977588391882465
exact,pre_advance,A,no_revision,bridge,2024:Q2,-0.7539944374101389,0.3437644017781075
exact,pre_advance,A,no_revision,bridge,2024:Q3,-0.007619718001529829,0.3361446837765777
exact,pre_advance,A,no_revision,bridge,2024:Q4,-0.026589665500670635,0.30955501827590703
exact,pre_advance,A,no_revision,indicator_revision_only_dfm_kalman_em,2024:Q1,0.5387122726821149,0.5387122726821149
exact,pre_advance,A,no_revision,indicator_revision_only_dfm_kalman_em,2024:Q2,0.021184655610906836,0.5598969282930217
exact,pre_advance,A,no_revision,indicator_revision_only_dfm_kalman_em,2024:Q3,-0.2166810126908903,0.34321591560213144
exact,pre_advance,A,no_revision,indicator_revision_only_dfm_kalman_em,2024:Q4,-0.03209698098676355,0.3111189346153679
exact,pre_advance,A,no_revision,joint_indicator_revision_dfm_full_kalman_em,2024:Q1,0.8646665166291783,0.8646665166291783
exact,pre_advance,A,no_revision,joint_indicator_revision_dfm_full_kalman_em,2024:Q2,0.008535669083468658,0.873202185712647
exact,pre_advance,A,no_revision,joint_indicator_revision_dfm_full_kalman_em,2024:Q3,-0.5337716565525419,0.3394305291601051
exact,pre_advance,A,no_revision,joint_indicator_revision_dfm_full_kalman_em,2024:Q4,0.02447580907387836,0.36390633823398344
exact,pre_advance,A,no_revision,midas_umidas,2024:Q1,-6.545939737372738,-6.545939737372738
exact,pre_advance,A,no_revision,midas_umidas,2024:Q2,-0.10697371491337779,-6.652913452286115
exact,pre_advance,A,no_revision,midas_umidas,2024:Q3,-3.331242699785853,-9.984156152071968
exact,pre_advance,A,no_revision,midas_umidas,2024:Q4,0.02695805175355525,-9.957198100318413
exact,pre_advance,A,no_revision,monthly_mixed_frequency_kalman_em,2024:Q1,1.1590774235331773,1.1590774235331773
exact,pre_advance,A,no_revision,monthly_mixed_frequency_kalman_em,2024:Q2,0.0005955870207037944,1.159673010553881
exact,pre_advance,A,no_revision,monthly_mixed_frequency_kalman_em,2024:Q3,-0.1194831738827763,1.0401898366711047
exact,pre_advance,A,no_revision,monthly_mixed_frequency_kalman_em,2024:Q4,-0.024082209419456463,1.0161076272516483
exact,pre_advance,A,no_revision,release_dfm,2024:Q1,0.7745819461055625,0.7745819461055625
exact,pre_advance,A,no_revision,release_dfm,2024:Q2,0.031948249072837,0.8065301951783995
exact,pre_advance,A,no_revision,release_dfm,2024:Q3,-0.7430880607351842,0.06344213444321534
exact,pre_advance,A,no_revision,release_dfm,2024:Q4,0.006982719313746541,0.07042485375696188
exact,pre_advance,A,no_revision,revision_dfm_kalman_em,2024:Q1,1.0949444462568232,1.0949444462568232
exact,pre_advance,A,no_revision,revision_dfm_kalman_em,2024:Q2,-0.2957071100997091,0.7992373361571141
exact,pre_advance,A,no_revision,revision_dfm_kalman_em,2024:Q3,-0.42359326621789645,0.3756440699392177
exact,pre_advance,A,no_revision,revision_dfm_kalman_em,2024:Q4,0.01909279943277598,0.39473686937199365
exact,pre_advance,A,no_revision,spf,2024:Q1,0.9297850987387735,0.9297850987387735
exact,pre_advance,A,no_revision,spf,2024:Q2,-0.6406660354612896,0.2891190632774838
exact,pre_advance,A,no_revision,spf,2024:Q3,-0.744301506253406,-0.45518244297592214
exact,pre_advance,A,no_revision,spf,2024:Q4,-0.08307232218539692,-0.5382547651613191
exact,pre_advance,A,no_revision,standard_dfm,2024:Q1,0.7745819461055625,0.7745819461055625
exact,pre_advance,A,no_revision,standard_dfm,2024:Q2,0.031948249072837,0.8065301951783995
exact,pre_advance,A,no_revision,standard_dfm,2024:Q3,-0.7430880607351842,0.06344213444321534
exact,pre_advance,A,no_revision,standard_dfm,2024:Q4,0.006982719313746541,0.07042485375696188
exact,pre_advance,A,bridge,ar,2024:Q1,-0.7855773239734216,-0.7855773239734216
exact,pre_advance,A,bridge,ar,2024:Q2,0.6561092188970701,-0.12946810507635154
exact,pre_advance,A,bridge,ar,2024:Q3,0.07053545014004434,-0.0589326549363072
exact,pre_advance,A,bridge,ar,2024:Q4,0.00044289376299851135,-0.05848976117330869
exact,pre_advance,A,bridge,indicator_revision_only_dfm_kalman_em,2024:Q1,-0.5590465665061316,-0.5590465665061316
exact,pre_advance,A,bridge,indicator_revision_only_dfm_kalman_em,2024:Q2,0.7751790930210458,0.2161325265149142
exact,pre_advance,A,bridge,indicator_revision_only_dfm_kalman_em,2024:Q3,-0.20906129468936047,0.007071231825553748
exact,pre_advance,A,bridge,indicator_revision_only_dfm_kalman_em,2024:Q4,-0.005507315486092915,0.001563916339460833
exact,pre_advance,A,bridge,joint_indicator_revision_dfm_full_kalman_em,2024:Q1,-0.23309232255906825,-0.23309232255906825
exact,pre_advance,A,bridge,joint_indicator_revision_dfm_full_kalman_em,2024:Q2,0.7625301064936076,0.5294377839345394
exact,pre_advance,A,bridge,joint_indicator_revision_dfm_full_kalman_em,2024:Q3,-0.526151938551012,0.003285845383527386
exact,pre_advance,A,bridge,joint_indicator_revision_dfm_full_kalman_em,2024:Q4,0.05106547457454899,0.05435131995807638
exact,pre_advance,A,bridge,midas_umidas,2024:Q1,-7.6436985765609835,-7.6436985765609835
exact,pre_advance,A,bridge,midas_umidas,2024:Q2,0.6470207224967611,-6.996677854064222
exact,pre_advance,A,bridge,midas_umidas,2024:Q3,-3.323622981784323,-10.320300835848546
exact,pre_advance,A,bridge,midas_umidas,2024:Q4,0.053547717254225885,-10.26675311859432
exact,pre_advance,A,bridge,monthly_mixed_frequency_kalman_em,2024:Q1,0.06131858434493097,0.06131858434493097
exact,pre_advance,A,bridge,monthly_mixed_frequency_kalman_em,2024:Q2,0.7545900244308428,0.8159086087757738
exact,pre_advance,A,bridge,monthly_mixed_frequency_kalman_em,2024:Q3,-0.11186345588124647,0.7040451528945273
exact,pre_advance,A,bridge,monthly_mixed_frequency_kalman_em,2024:Q4,0.0025074560812141725,0.7065526089757415
exact,pre_advance,A,bridge,no_revision,2024:Q1,-1.0977588391882465,-1.0977588391882465
exact,pre_advance,A,bridge,no_revision,2024:Q2,0.7539944374101389,-0.3437644017781075
exact,pre_advance,A,bridge,no_revision,2024:Q3,0.007619718001529829,-0.3361446837765777
exact,pre_advance,A,bridge,no_revision,2024:Q4,0.026589665500670635,-0.30955501827590703
exact,pre_advance,A,bridge,release_dfm,2024:Q1,-0.32317689308268394,-0.32317689308268394
exact,pre_advance,A,bridge,release_dfm,2024:Q2,0.7859426864829759,0.462765793400292
exact,pre_advance,A,bridge,release_dfm,2024:Q3,-0.7354683427336544,-0.27270254933336235
exact,pre_advance,A,bridge,release_dfm,2024:Q4,0.033572384814417176,-0.23913016451894517
exact,pre_advance,A,bridge,revision_dfm_kalman_em,2024:Q1,-0.0028143929314232985,-0.0028143929314232985
exact,pre_advance,A,bridge,revision_dfm_kalman_em,2024:Q2,0.4582873273104298,0.4554729343790065
exact,pre_advance,A,bridge,revision_dfm_kalman_em,2024:Q3,-0.4159735482163666,0.03949938616263987
exact,pre_advance,A,bridge,revision_dfm_kalman_em,2024:Q4,0.04568246493344662,0.08518185109608649
exact,pre_advance,A,bridge,spf,2024:Q1,-0.167973740449473,-0.167973740449473
exact,pre_advance,A,bridge,spf,2024:Q2,0.1133284019488493,-0.0546453385006237
exact,pre_advance,A,bridge,spf,2024:Q3,-0.7366817882518761,-0.7913271267524998
exact,pre_advance,A,bridge,spf,2024:Q4,-0.05648265668472628,-0.8478097834372261
exact,pre_advance,A,bridge,standard_dfm,2024:Q1,-0.32317689308268394,-0.32317689308268394
exact,pre_advance,A,bridge,standard_dfm,2024:Q2,0.7859426864829759,0.462765793400292
exact,pre_advance,A,bridge,standard_dfm,2024:Q3,-0.7354683427336544,-0.27270254933336235
exact,pre_advance,A,bridge,standard_dfm,2024:Q4,0.033572384814417176,-0.23913016451894517
exact,pre_advance,A,midas_umidas,ar,2024:Q1,6.858121252587562,6.858121252587562
exact,pre_advance,A,midas_umidas,ar,2024:Q2,0.009088496400308982,6.867209748987871
exact,pre_advance,A,midas_umidas,ar,2024:Q3,3.3941584319243674,10.261368180912239
exact,pre_advance,A,midas_umidas,ar,2024:Q4,-0.053104823491227374,10.208263357421012
exact,pre_advance,A,midas_umidas,bridge,2024:Q1,7.6436985765609835,7.6436985765609835
exact,pre_advance,A,midas_umidas,bridge,2024:Q2,-0.6470207224967611,6.996677854064222
exact,pre_advance,A,midas_umidas,bridge,2024:Q3,3.323622981784323,10.320300835848546
exact,pre_advance,A,midas_umidas,bridge,2024:Q4,-0.053547717254225885,10.26675311859432
exact,pre_advance,A,midas_umidas,indicator_revision_only_dfm_kalman_em,2024:Q1,7.084652010054852,7.084652010054852
exact,pre_advance,A,midas_umidas,indicator_revision_only_dfm_kalman_em,2024:Q2,0.1281583705242846,7.212810380579137
exact,pre_advance,A,midas_umidas,indicator_revision_only_dfm_kalman_em,2024:Q3,3.1145616870949624,10.3273720676741
exact,pre_advance,A,midas_umidas,indicator_revision_only_dfm_kalman_em,2024:Q4,-0.0590550327403188,10.26831703493378
exact,pre_advance,A,midas_umidas,joint_indicator_revision_dfm_full_kalman_em,2024:Q1,7.410606254001915,7.410606254001915
exact,pre_advance,A,midas_umidas,joint_indicator_revision_dfm_full_kalman_em,2024:Q2,0.11550938399684643,7.526115637998761
exact,pre_advance,A,midas_umidas,joint_indicator_revision_dfm_full_kalman_em,2024:Q3,2.797471043233311,10.323586681232072
exact,pre_advance,A,midas_umidas,joint_indicator_revision_dfm_full_kalman_em,2024:Q4,-0.0024822426796768902,10.321104438552396
exact,pre_advance,A,midas_umidas,monthly_mixed_frequency_kalman_em,2024:Q1,7.705017160905915,7.705017160905915
exact,pre_advance,A,midas_umidas,monthly_mixed_frequency_kalman_em,2024:Q2,0.10756930193408157,7.812586462839997
exact,pre_advance,A,midas_umidas,monthly_mixed_frequency_kalman_em,2024:Q3,3.2117595259030765,11.024345988743073
exact,pre_advance,A,midas_umidas,monthly_mixed_frequency_kalman_em,2024:Q4,-0.05104026117301171,10.973305727570061
exact,pre_advance,A,midas_umidas,no_revision,2024:Q1,6.545939737372738,6.545939737372738
exact,pre_advance,A,midas_umidas,no_revision,2024:Q2,0.10697371491337779,6.652913452286115
exact,pre_advance,A,midas_umidas,no_revision,2024:Q3,3.331242699785853,9.984156152071968
exact,pre_advance,A,midas_umidas,no_revision,2024:Q4,-0.02695805175355525,9.957198100318413
exact,pre_advance,A,midas_umidas,release_dfm,2024:Q1,7.3205216834783,7.3205216834783
exact,pre_advance,A,midas_umidas,release_dfm,2024:Q2,0.13892196398621479,7.459443647464515
exact,pre_advance,A,midas_umidas,release_dfm,2024:Q3,2.5881546390506687,10.047598286515184
exact,pre_advance,A,midas_umidas,release_dfm,2024:Q4,-0.01997533243980871,10.027622954075374
exact,pre_advance,A,midas_umidas,revision_dfm_kalman_em,2024:Q1,7.64088418362956,7.64088418362956
exact,pre_advance,A,midas_umidas,revision_dfm_kalman_em,2024:Q2,-0.18873339518633134,7.4521507884432285
exact,pre_advance,A,midas_umidas,revision_dfm_kalman_em,2024:Q3,2.9076494335679564,10.359800222011184
exact,pre_advance,A,midas_umidas,revision_dfm_kalman_em,2024:Q4,-0.00786525232077927,10.351934969690404
exact,pre_advance,A,midas_umidas,spf,2024:Q1,7.47572483611151,7.47572483611151
exact,pre_advance,A,midas_umidas,spf,2024:Q2,-0.5336923205479118,6.942032515563598
exact,pre_advance,A,midas_umidas,spf,2024:Q3,2.586941193532447,9.528973709096045
exact,pre_advance,A,midas_umidas,spf,2024:Q4,-0.11003037393895217,9.418943335157092
exact,pre_advance,A,midas_umidas,standard_dfm,2024:Q1,7.3205216834783,7.3205216834783
exact,pre_advance,A,midas_umidas,standard_dfm,2024:Q2,0.13892196398621479,7.459443647464515
exact,pre_advance,A,midas_umidas,standard_dfm,2024:Q3,2.5881546390506687,10.047598286515184
exact,pre_advance,A,midas_umidas,standard_dfm,2024:Q4,-0.01997533243980871,10.027622954075374
exact,pre_advance,A,spf,ar,2024:Q1,-0.6176035835239486,-0.6176035835239486
exact,pre_advance,A,spf,ar,2024:Q2,0.5427808169482209,-0.07482276657572773
exact,pre_advance,A,spf,ar,2024:Q3,0.8072172383919204,0.7323944718161927
exact,pre_advance,A,spf,ar,2024:Q4,0.05692555044772479,0.7893200222639174
exact,pre_advance,A,spf,bridge,2024:Q1,0.167973740449473,0.167973740449473
exact,pre_advance,A,spf,bridge,2024:Q2,-0.1133284019488493,0.0546453385006237
exact,pre_advance,A,spf,bridge,2024:Q3,0.7366817882518761,0.7913271267524998
exact,pre_advance,A,spf,bridge,2024:Q4,0.05648265668472628,0.8478097834372261
exact,pre_advance,A,spf,indicator_revision_only_dfm_kalman_em,2024:Q1,-0.3910728260566586,-0.3910728260566586
exact,pre_advance,A,spf,indicator_revision_only_dfm_kalman_em,2024:Q2,0.6618506910721965,0.2707778650155379
exact,pre_advance,A,spf,indicator_revision_only_dfm_kalman_em,2024:Q3,0.5276204935625156,0.7983983585780535
exact,pre_advance,A,spf,indicator_revision_only_dfm_kalman_em,2024:Q4,0.05097534119863337,0.8493736997766869
exact,pre_advance,A,spf,joint_indicator_revision_dfm_full_kalman_em,2024:Q1,-0.06511858210959526,-0.06511858210959526
exact,pre_advance,A,spf,joint_indicator_revision_dfm_full_kalman_em,2024:Q2,0.6492017045447583,0.584083122435163
exact,pre_advance,A,spf,joint_indicator_revision_dfm_full_kalman_em,2024:Q3,0.21052984970086397,0.794612972136027
exact,pre_advance,A,spf,joint_indicator_revision_dfm_full_kalman_em,2024:Q4,0.10754813125927527,0.9021611033953023
exact,pre_advance,A,spf,midas_umidas,2024:Q1,-7.47572483611151,-7.47572483611151
exact,pre_advance,A,spf,midas_umidas,2024:Q2,0.5336923205479118,-6.942032515563598
exact,pre_advance,A,spf,midas_umidas,2024:Q3,-2.586941193532447,-9.528973709096045
exact,pre_advance,A,spf,midas_umidas,2024:Q4,0.11003037393895217,-9.418943335157092
exact,pre_advance,A,spf,monthly_mixed_frequency_kalman_em,2024:Q1,0.22929232479440395,0.22929232479440395
exact,pre_advance,A,spf,monthly_mixed_frequency_kalman_em,2024:Q2,0.6412616224819935,0.8705539472763975
exact,pre_advance,A,spf,monthly_mixed_frequency_kalman_em,2024:Q3,0.6248183323706296,1.495372279647027
exact,pre_advance,A,spf,monthly_mixed_frequency_kalman_em,2024:Q4,0.058990112765940454,1.5543623924129675
exact,pre_advance,A,spf,no_revision,2024:Q1,-0.9297850987387735,-0.9297850987387735
exact,pre_advance,A,spf,no_revision,2024:Q2,0.6406660354612896,-0.2891190632774838
exact,pre_advance,A,spf,no_revision,2024:Q3,0.744301506253406,0.45518244297592214
exact,pre_advance,A,spf,no_revision,2024:Q4,0.08307232218539692,0.5382547651613191
exact,pre_advance,A,spf,release_dfm,2024:Q1,-0.15520315263321094,-0.15520315263321094
exact,pre_advance,A,spf,release_dfm,2024:Q2,0.6726142845341266,0.5174111319009157
exact,pre_advance,A,spf,release_dfm,2024:Q3,0.0012134455182217785,0.5186245774191375
exact,pre_advance,A,spf,release_dfm,2024:Q4,0.09005504149914345,0.6086796189182809
exact,pre_advance,A,spf,revision_dfm_kalman_em,2024:Q1,0.1651593475180497,0.1651593475180497
exact,pre_advance,A,spf,revision_dfm_kalman_em,2024:Q2,0.3449589253615805,0.5101182728796302
exact,pre_advance,A,spf,revision_dfm_kalman_em,2024:Q3,0.32070824003550946,0.8308265129151396
exact,pre_advance,A,spf,revision_dfm_kalman_em,2024:Q4,0.1021651216181729,0.9329916345333126
exact,pre_advance,A,spf,standard_dfm,2024:Q1,-0.15520315263321094,-0.15520315263321094
exact,pre_advance,A,spf,standard_dfm,2024:Q2,0.6726142845341266,0.5174111319009157
exact,pre_advance,A,spf,standard_dfm,2024:Q3,0.0012134455182217785,0.5186245774191375
exact,pre_advance,A,spf,standard_dfm,2024:Q4,0.09005504149914345,0.6086796189182809
exact,pre_advance,A,standard_dfm,ar,2024:Q1,-0.4624004308907377,-0.4624004308907377
exact,pre_advance,A,standard_dfm,ar,2024:Q2,-0.1298334675859058,-0.5922338984766435
exact,pre_advance,A,standard_dfm,ar,2024:Q3,0.8060037928736986,0.21376989439705507
exact,pre_advance,A,standard_dfm,ar,2024:Q4,-0.033129491051418665,0.1806404033456364
exact,pre_advance,A,standard_dfm,bridge,2024:Q1,0.32317689308268394,0.32317689308268394
exact,pre_advance,A,standard_dfm,bridge,2024:Q2,-0.7859426864829759,-0.462765793400292
exact,pre_advance,A,standard_dfm,bridge,2024:Q3,0.7354683427336544,0.27270254933336235
exact,pre_advance,A,standard_dfm,bridge,2024:Q4,-0.033572384814417176,0.23913016451894517
exact,pre_advance,A,standard_dfm,indicator_revision_only_dfm_kalman_em,2024:Q1,-0.23586967342344767,-0.23586967342344767
exact,pre_advance,A,standard_dfm,indicator_revision_only_dfm_kalman_em,2024:Q2,-0.01076359346193016,-0.24663326688537782
exact,pre_advance,A,standard_dfm,indicator_revision_only_dfm_kalman_em,2024:Q3,0.5264070480442938,0.27977378115891605
exact,pre_advance,A,standard_dfm,indicator_revision_only_dfm_kalman_em,2024:Q4,-0.03907970030051009,0.24069408085840596
exact,pre_advance,A,standard_dfm,joint_indicator_revision_dfm_full_kalman_em,2024:Q1,0.09008457052361568,0.09008457052361568
exact,pre_advance,A,standard_dfm,joint_indicator_revision_dfm_full_kalman_em,2024:Q2,-0.023412579989368337,0.06667199053424734
exact,pre_advance,A,standard_dfm,joint_indicator_revision_dfm_full_kalman_em,2024:Q3,0.2093164041826422,0.2759883947168895
exact,pre_advance,A,standard_dfm,joint_indicator_revision_dfm_full_kalman_em,2024:Q4,0.01749308976013182,0.2934814844770213
exact,pre_advance,A,standard_dfm,midas_umidas,2024:Q1,-7.3205216834783,-7.3205216834783
exact,pre_advance,A,standard_dfm,midas_umidas,2024:Q2,-0.13892196398621479,-7.459443647464515
exact,pre_advance,A,standard_dfm,midas_umidas,2024:Q3,-2.5881546390506687,-10.047598286515184
exact,pre_advance,A,standard_dfm,midas_umidas,2024:Q4,0.01997533243980871,-10.027622954075374
exact,pre_advance,A,standard_dfm,monthly_mixed_frequency_kalman_em,2024:Q1,0.3844954774276149,0.3844954774276149
exact,pre_advance,A,standard_dfm,monthly_mixed_frequency_kalman_em,2024:Q2,-0.031352662052133204,0.3531428153754817
exact,pre_advance,A,standard_dfm,monthly_mixed_frequency_kalman_em,2024:Q3,0.6236048868524078,0.9767477022278894
exact,pre_advance,A,standard_dfm,monthly_mixed_frequency_kalman_em,2024:Q4,-0.031064928733203004,0.9456827734946864
exact,pre_advance,A,standard_dfm,no_revision,2024:Q1,-0.7745819461055625,-0.7745819461055625
exact,pre_advance,A,standard_dfm,no_revision,2024:Q2,-0.031948249072837,-0.8065301951783995
exact,pre_advance,A,standard_dfm,no_revision,2024:Q3,0.7430880607351842,-0.06344213444321534
exact,pre_advance,A,standard_dfm,no_revision,2024:Q4,-0.006982719313746541,-0.07042485375696188
exact,pre_advance,A,standard_dfm,release_dfm,2024:Q1,0.0,0.0
exact,pre_advance,A,standard_dfm,release_dfm,2024:Q2,0.0,0.0
exact,pre_advance,A,standard_dfm,release_dfm,2024:Q3,0.0,0.0
exact,pre_advance,A,standard_dfm,release_dfm,2024:Q4,0.0,0.0
exact,pre_advance,A,standard_dfm,revision_dfm_kalman_em,2024:Q1,0.32036250015126067,0.32036250015126067
exact,pre_advance,A,standard_dfm,revision_dfm_kalman_em,2024:Q2,-0.3276553591725461,-0.007292859021285458
exact,pre_advance,A,standard_dfm,revision_dfm_kalman_em,2024:Q3,0.3194947945172877,0.3122019354960022
exact,pre_advance,A,standard_dfm,revision_dfm_kalman_em,2024:Q4,0.012110080119029438,0.32431201561503165
exact,pre_advance,A,standard_dfm,spf,2024:Q1,0.15520315263321094,0.15520315263321094
exact,pre_advance,A,standard_dfm,spf,2024:Q2,-0.6726142845341266,-0.5174111319009157
exact,pre_advance,A,standard_dfm,spf,2024:Q3,-0.0012134455182217785,-0.5186245774191375
exact,pre_advance,A,standard_dfm,spf,2024:Q4,-0.09005504149914345,-0.6086796189182809
exact,pre_advance,A,release_dfm,ar,2024:Q1,-0.4624004308907377,-0.4624004308907377
exact,pre_advance,A,release_dfm,ar,2024:Q2,-0.1298334675859058,-0.5922338984766435
exact,pre_advance,A,release_dfm,ar,2024:Q3,0.8060037928736986,0.21376989439705507
exact,pre_advance,A,release_dfm,ar,2024:Q4,-0.033129491051418665,0.1806404033456364
exact,pre_advance,A,release_dfm,bridge,2024:Q1,0.32317689308268394,0.32317689308268394
exact,pre_advance,A,release_dfm,bridge,2024:Q2,-0.7859426864829759,-0.462765793400292
exact,pre_advance,A,release_dfm,bridge,2024:Q3,0.7354683427336544,0.27270254933336235
exact,pre_advance,A,release_dfm,bridge,2024:Q4,-0.033572384814417176,0.23913016451894517
exact,pre_advance,A,release_dfm,indicator_revision_only_dfm_kalman_em,2024:Q1,-0.23586967342344767,-0.23586967342344767
exact,pre_advance,A,release_dfm,indicator_revision_only_dfm_kalman_em,2024:Q2,-0.01076359346193016,-0.24663326688537782
exact,pre_advance,A,release_dfm,indicator_revision_only_dfm_kalman_em,2024:Q3,0.5264070480442938,0.27977378115891605
exact,pre_advance,A,release_dfm,indicator_revision_only_dfm_kalman_em,2024:Q4,-0.03907970030051009,0.24069408085840596
exact,pre_advance,A,release_dfm,joint_indicator_revision_dfm_full_kalman_em,2024:Q1,0.09008457052361568,0.09008457052361568
exact,pre_advance,A,release_dfm,joint_indicator_revision_dfm_full_kalman_em,2024:Q2,-0.023412579989368337,0.06667199053424734
exact,pre_advance,A,release_dfm,joint_indicator_revision_dfm_full_kalman_em,2024:Q3,0.2093164041826422,0.2759883947168895
exact,pre_advance,A,release_dfm,joint_indicator_revision_dfm_full_kalman_em,2024:Q4,0.01749308976013182,0.2934814844770213
exact,pre_advance,A,release_dfm,midas_umidas,2024:Q1,-7.3205216834783,-7.3205216834783
exact,pre_advance,A,release_dfm,midas_umidas,2024:Q2,-0.13892196398621479,-7.459443647464515
exact,pre_advance,A,release_dfm,midas_umidas,2024:Q3,-2.5881546390506687,-10.047598286515184
exact,pre_advance,A,release_dfm,midas_umidas,2024:Q4,0.01997533243980871,-10.027622954075374
exact,pre_advance,A,release_dfm,monthly_mixed_frequency_kalman_em,2024:Q1,0.3844954774276149,0.3844954774276149
exact,pre_advance,A,release_dfm,monthly_mixed_frequency_kalman_em,2024:Q2,-0.031352662052133204,0.3531428153754817
exact,pre_advance,A,release_dfm,monthly_mixed_frequency_kalman_em,2024:Q3,0.6236048868524078,0.9767477022278894
exact,pre_advance,A,release_dfm,monthly_mixed_frequency_kalman_em,2024:Q4,-0.031064928733203004,0.9456827734946864
exact,pre_advance,A,release_dfm,no_revision,2024:Q1,-0.7745819461055625,-0.7745819461055625
exact,pre_advance,A,release_dfm,no_revision,2024:Q2,-0.031948249072837,-0.8065301951783995
exact,pre_advance,A,release_dfm,no_revision,2024:Q3,0.7430880607351842,-0.06344213444321534
exact,pre_advance,A,release_dfm,no_revision,2024:Q4,-0.006982719313746541,-0.07042485375696188
exact,pre_advance,A,release_dfm,revision_dfm_kalman_em,2024:Q1,0.32036250015126067,0.32036250015126067
exact,pre_advance,A,release_dfm,revision_dfm_kalman_em,2024:Q2,-0.3276553591725461,-0.007292859021285458
exact,pre_advance,A,release_dfm,revision_dfm_kalman_em,2024:Q3,0.3194947945172877,0.3122019354960022
exact,pre_advance,A,release_dfm,revision_dfm_kalman_em,2024:Q4,0.012110080119029438,0.32431201561503165
exact,pre_advance,A,release_dfm,spf,2024:Q1,0.15520315263321094,0.15520315263321094
exact,pre_advance,A,release_dfm,spf,2024:Q2,-0.6726142845341266,-0.5174111319009157
exact,pre_advance,A,release_dfm,spf,2024:Q3,-0.0012134455182217785,-0.5186245774191375
exact,pre_advance,A,release_dfm,spf,2024:Q4,-0.09005504149914345,-0.6086796189182809
exact,pre_advance,A,release_dfm,standard_dfm,2024:Q1,0.0,0.0
exact,pre_advance,A,release_dfm,standard_dfm,2024:Q2,0.0,0.0
exact,pre_advance,A,release_dfm,standard_dfm,2024:Q3,0.0,0.0
exact,pre_advance,A,release_dfm,standard_dfm,2024:Q4,0.0,0.0
exact,pre_second,S,ar,bridge,2024:Q1,1.8625059313085512,1.8625059313085512
exact,pre_second,S,ar,bridge,2024:Q2,0.19646254435920277,2.058968475667754
exact,pre_second,S,ar,bridge,2024:Q3,-0.03479997261905867,2.0241685030486956
exact,pre_second,S,ar,bridge,2024:Q4,0.055594885804859225,2.079763388853555
exact,pre_second,S,ar,indicator_revision_only_dfm_kalman_em,2024:Q1,1.5062546126451735,1.5062546126451735
exact,pre_second,S,ar,indicator_revision_only_dfm_kalman_em,2024:Q2,0.18091711697286783,1.6871717296180413
exact,pre_second,S,ar,indicator_revision_only_dfm_kalman_em,2024:Q3,0.0022946258208131134,1.6894663554388545
exact,pre_second,S,ar,indicator_revision_only_dfm_kalman_em,2024:Q4,0.06074269085751243,1.7502090462963669
exact,pre_second,S,ar,joint_indicator_revision_dfm_full_kalman_em,2024:Q1,1.2629234212210128,1.2629234212210128
exact,pre_second,S,ar,joint_indicator_revision_dfm_full_kalman_em,2024:Q2,0.18688068947703035,1.449804110698043
exact,pre_second,S,ar,joint_indicator_revision_dfm_full_kalman_em,2024:Q3,0.01674224359700207,1.4665463542950452
exact,pre_second,S,ar,joint_indicator_revision_dfm_full_kalman_em,2024:Q4,0.04877296735234752,1.5153193216473928
exact,pre_second,S,ar,midas_umidas,2024:Q1,1.7429815386454721,1.7429815386454721
exact,pre_second,S,ar,midas_umidas,2024:Q2,0.19158475531859834,1.9345662939640704
exact,pre_second,S,ar,midas_umidas,2024:Q3,0.007213688221648709,1.9417799821857191
exact,pre_second,S,ar,midas_umidas,2024:Q4,-3.1537763472888245,-1.2119963651031054
exact,pre_second,S,ar,monthly_mixed_frequency_kalman_em,2024:Q1,1.5631652602154997,1.5631652602154997
exact,pre_second,S,ar,monthly_mixed_frequency_kalman_em,2024:Q2,0.09429658851187024,1.65746184872737
exact,pre_second,S,ar,monthly_mixed_frequency_kalman_em,2024:Q3,0.010138735663704788,1.6676005843910748
exact,pre_second,S,ar,monthly_mixed_frequency_kalman_em,2024:Q4,0.048174604808214117,1.715775189199289
exact,pre_second,S,ar,no_revision,2024:Q1,1.7483139650320858,1.7483139650320858
exact,pre_second,S,ar,no_revision,2024:Q2,0.18710051598747035,1.9354144810195562
exact,pre_second,S,ar,no_revision,2024:Q3,0.05599925683028013,1.9914137378498362
exact,pre_second,S,ar,no_revision,2024:Q4,0.051938970479201964,2.043352708329038
exact,pre_second,S,ar,release_dfm,2024:Q1,1.6517416733929138,1.6517416733929138
exact,pre_second,S,ar,release_dfm,2024:Q2,0.19945355818537053,1.8511952315782843
exact,pre_second,S,ar,release_dfm,2024:Q3,0.043297622040026705,1.894492853618311
exact,pre_second,S,ar,release_dfm,2024:Q4,0.06051785573169182,1.9550107093500029
exact,pre_second,S,ar,revision_dfm_kalman_em,2024:Q1,1.30220401214544,1.30220401214544
exact,pre_second,S,ar,revision_dfm_kalman_em,2024:Q2,0.19946916498504308,1.501673177130483
exact,pre_second,S,ar,revision_dfm_kalman_em,2024:Q3,0.03761871547812045,1.5392918926086034
exact,pre_second,S,ar,revision_dfm_kalman_em,2024:Q4,0.0543014006481082,1.5935932932567116
exact,pre_second,S,ar,spf,2024:Q1,1.1549533750320857,1.1549533750320857
exact,pre_second,S,ar,spf,2024:Q2,-0.6922142840125297,0.462739091019556
exact,pre_second,S,ar,spf,2024:Q3,-0.8720628631697199,-0.4093237721501639
exact,pre_second,S,ar,spf,2024:Q4,-0.13354845952079786,-0.5428722316709618
exact,pre_second,S,ar,standard_dfm,2024:Q1,1.8162972283502483,1.8162972283502483
exact,pre_second,S,ar,standard_dfm,2024:Q2,0.02427274858339823,1.8405699769336465
exact,pre_second,S,ar,standard_dfm,2024:Q3,-0.36013166252233897,1.4804383144113076
exact,pre_second,S,ar,standard_dfm,2024:Q4,0.05965908929948833,1.540097403710796
exact,pre_second,S,no_revision,ar,2024:Q1,-1.7483139650320858,-1.7483139650320858
exact,pre_second,S,no_revision,ar,2024:Q2,-0.18710051598747035,-1.9354144810195562
exact,pre_second,S,no_revision,ar,2024:Q3,-0.05599925683028013,-1.9914137378498362
exact,pre_second,S,no_revision,ar,2024:Q4,-0.051938970479201964,-2.043352708329038
exact,pre_second,S,no_revision,bridge,2024:Q1,0.11419196627646529,0.11419196627646529
exact,pre_second,S,no_revision,bridge,2024:Q2,0.009362028371732417,0.1235539946481977
exact,pre_second,S,no_revision,bridge,2024:Q3,-0.0907992294493388,0.03275476519885891
exact,pre_second,S,no_revision,bridge,2024:Q4,0.0036559153256572573,0.03641068052451617
exact,pre_second,S,no_revision,indicator_revision_only_dfm_kalman_em,2024:Q1,-0.24205935238691245,-0.24205935238691245
exact,pre_second,S,no_revision,indicator_revision_only_dfm_kalman_em,2024:Q2,-0.006183399014602532,-0.24824275140151497
exact,pre_second,S,no_revision,indicator_revision_only_dfm_kalman_em,2024:Q3,-0.05370463100946701,-0.30194738241098196
exact,pre_second,S,no_revision,indicator_revision_only_dfm_kalman_em,2024:Q4,0.008803720378310466,-0.2931436620326715
exact,pre_second,S,no_revision,joint_indicator_revision_dfm_full_kalman_em,2024:Q1,-0.48539054381107316,-0.48539054381107316
exact,pre_second,S,no_revision,joint_indicator_revision_dfm_full_kalman_em,2024:Q2,-0.000219826510440016,-0.48561037032151316
exact,pre_second,S,no_revision,joint_indicator_revision_dfm_full_kalman_em,2024:Q3,-0.03925701323327806,-0.5248673835547912
exact,pre_second,S,no_revision,joint_indicator_revision_dfm_full_kalman_em,2024:Q4,-0.003166003126854444,-0.5280333866816457
exact,pre_second,S,no_revision,midas_umidas,2024:Q1,-0.005332426386613867,-0.005332426386613867
exact,pre_second,S,no_revision,midas_umidas,2024:Q2,0.004484239331127994,-0.0008481870554858731
exact,pre_second,S,no_revision,midas_umidas,2024:Q3,-0.04878556860863142,-0.04963375566411729
exact,pre_second,S,no_revision,midas_umidas,2024:Q4,-3.205715317768026,-3.2553490734321433
exact,pre_second,S,no_revision,monthly_mixed_frequency_kalman_em,2024:Q1,-0.18514870481658624,-0.18514870481658624
exact,pre_second,S,no_revision,monthly_mixed_frequency_kalman_em,2024:Q2,-0.09280392747560011,-0.27795263229218636
exact,pre_second,S,no_revision,monthly_mixed_frequency_kalman_em,2024:Q3,-0.04586052116657534,-0.3238131534587617
exact,pre_second,S,no_revision,monthly_mixed_frequency_kalman_em,2024:Q4,-0.0037643656709878525,-0.3275775191297496
exact,pre_second,S,no_revision,release_dfm,2024:Q1,-0.09657229163917212,-0.09657229163917212
exact,pre_second,S,no_revision,release_dfm,2024:Q2,0.01235304219790018,-0.08421924944127195
exact,pre_second,S,no_revision,release_dfm,2024:Q3,-0.012701634790253422,-0.09692088423152537
exact,pre_second,S,no_revision,release_dfm,2024:Q4,0.008578885252489853,-0.08834199897903551
exact,pre_second,S,no_revision,revision_dfm_kalman_em,2024:Q1,-0.446109952886646,-0.446109952886646
exact,pre_second,S,no_revision,revision_dfm_kalman_em,2024:Q2,0.012368648997572737,-0.4337413038890733
exact,pre_second,S,no_revision,revision_dfm_kalman_em,2024:Q3,-0.018380541352159677,-0.45212184524123294
exact,pre_second,S,no_revision,revision_dfm_kalman_em,2024:Q4,0.002362430168906236,-0.4497594150723267
exact,pre_second,S,no_revision,spf,2024:Q1,-0.5933605900000003,-0.5933605900000003
exact,pre_second,S,no_revision,spf,2024:Q2,-0.8793148000000001,-1.4726753900000005
exact,pre_second,S,no_revision,spf,2024:Q3,-0.9280621200000001,-2.400737510000001
exact,pre_second,S,no_revision,spf,2024:Q4,-0.18548742999999981,-2.5862249400000006
exact,pre_second,S,no_revision,standard_dfm,2024:Q1,0.06798326331816246,0.06798326331816246
exact,pre_second,S,no_revision,standard_dfm,2024:Q2,-0.16282776740407212,-0.09484450408590966
exact,pre_second,S,no_revision,standard_dfm,2024:Q3,-0.4161309193526191,-0.5109754234385288
exact,pre_second,S,no_revision,standard_dfm,2024:Q4,0.007720118820286364,-0.5032553046182424
exact,pre_second,S,bridge,ar,2024:Q1,-1.8625059313085512,-1.8625059313085512
exact,pre_second,S,bridge,ar,2024:Q2,-0.19646254435920277,-2.058968475667754
exact,pre_second,S,bridge,ar,2024:Q3,0.03479997261905867,-2.0241685030486956
exact,pre_second,S,bridge,ar,2024:Q4,-0.055594885804859225,-2.079763388853555
exact,pre_second,S,bridge,indicator_revision_only_dfm_kalman_em,2024:Q1,-0.3562513186633777,-0.3562513186633777
exact,pre_second,S,bridge,indicator_revision_only_dfm_kalman_em,2024:Q2,-0.015545427386334949,-0.3717967460497127
exact,pre_second,S,bridge,indicator_revision_only_dfm_kalman_em,2024:Q3,0.037094598439871784,-0.3347021476098409
exact,pre_second,S,bridge,indicator_revision_only_dfm_kalman_em,2024:Q4,0.005147805052653207,-0.3295543425571877
exact,pre_second,S,bridge,joint_indicator_revision_dfm_full_kalman_em,2024:Q1,-0.5995825100875385,-0.5995825100875385
exact,pre_second,S,bridge,joint_indicator_revision_dfm_full_kalman_em,2024:Q2,-0.009581854882172433,-0.6091643649697109
exact,pre_second,S,bridge,joint_indicator_revision_dfm_full_kalman_em,2024:Q3,0.05154221621606074,-0.5576221487536502
exact,pre_second,S,bridge,joint_indicator_revision_dfm_full_kalman_em,2024:Q4,-0.0068219184525117015,-0.5644440672061619
exact,pre_second,S,bridge,midas_umidas,2024:Q1,-0.11952439266307915,-0.11952439266307915
exact,pre_second,S,bridge,midas_umidas,2024:Q2,-0.004877789040604423,-0.12440218170368358
exact,pre_second,S,bridge,midas_umidas,2024:Q3,0.04201366084070738,-0.08238852086297621
exact,pre_second,S,bridge,midas_umidas,2024:Q4,-3.2093712330936834,-3.2917597539566597
exact,pre_second,S,bridge,monthly_mixed_frequency_kalman_em,2024:Q1,-0.2993406710930515,-0.2993406710930515
exact,pre_second,S,bridge,monthly_mixed_frequency_kalman_em,2024:Q2,-0.10216595584733253,-0.401506626940384
exact,pre_second,S,bridge,monthly_mixed_frequency_kalman_em,2024:Q3,0.04493870828276346,-0.35656791865762055
exact,pre_second,S,bridge,monthly_mixed_frequency_kalman_em,2024:Q4,-0.00742028099664511,-0.36398819965426565
exact,pre_second,S,bridge,no_revision,2024:Q1,-0.11419196627646529,-0.11419196627646529
exact,pre_second,S,bridge,no_revision,2024:Q2,-0.009362028371732417,-0.1235539946481977
exact,pre_second,S,bridge,no_revision,2024:Q3,0.0907992294493388,-0.03275476519885891
exact,pre_second,S,bridge,no_revision,2024:Q4,-0.0036559153256572573,-0.03641068052451617
exact,pre_second,S,bridge,release_dfm,2024:Q1,-0.2107642579156374,-0.2107642579156374
exact,pre_second,S,bridge,release_dfm,2024:Q2,0.002991013826167763,-0.20777324408946965
exact,pre_second,S,bridge,release_dfm,2024:Q3,0.07809759465908538,-0.1296756494303843
exact,pre_second,S,bridge,release_dfm,2024:Q4,0.004922969926832596,-0.12475267950355169
exact,pre_second,S,bridge,revision_dfm_kalman_em,2024:Q1,-0.5603019191631113,-0.5603019191631113
exact,pre_second,S,bridge,revision_dfm_kalman_em,2024:Q2,0.0030066206258403203,-0.557295298537271
exact,pre_second,S,bridge,revision_dfm_kalman_em,2024:Q3,0.07241868809717912,-0.4848766104400919
exact,pre_second,S,bridge,revision_dfm_kalman_em,2024:Q4,-0.0012934851567510215,-0.48617009559684293
exact,pre_second,S,bridge,spf,2024:Q1,-0.7075525562764656,-0.7075525562764656
exact,pre_second,S,bridge,spf,2024:Q2,-0.8886768283717325,-1.596229384648198
exact,pre_second,S,bridge,spf,2024:Q3,-0.8372628905506613,-2.4334922751988595
exact,pre_second,S,bridge,spf,2024:Q4,-0.18914334532565708,-2.6226356205245165
exact,pre_second,S,bridge,standard_dfm,2024:Q1,-0.04620870295830283,-0.04620870295830283
exact,pre_second,S,bridge,standard_dfm,2024:Q2,-0.17218979577580454,-0.21839849873410738
exact,pre_second,S,bridge,standard_dfm,2024:Q3,-0.32533168990328026,-0.5437301886373876
exact,pre_second,S,bridge,standard_dfm,2024:Q4,0.0040642034946291065,-0.5396659851427585
exact,pre_second,S,midas_umidas,ar,2024:Q1,-1.7429815386454721,-1.7429815386454721
exact,pre_second,S,midas_umidas,ar,2024:Q2,-0.19158475531859834,-1.9345662939640704
exact,pre_second,S,midas_umidas,ar,2024:Q3,-0.007213688221648709,-1.9417799821857191
exact,pre_second,S,midas_umidas,ar,2024:Q4,3.1537763472888245,1.2119963651031054
exact,pre_second,S,midas_umidas,bridge,2024:Q1,0.11952439266307915,0.11952439266307915
exact,pre_second,S,midas_umidas,bridge,2024:Q2,0.004877789040604423,0.12440218170368358
exact,pre_second,S,midas_umidas,bridge,2024:Q3,-0.04201366084070738,0.08238852086297621
exact,pre_second,S,midas_umidas,bridge,2024:Q4,3.2093712330936834,3.2917597539566597
exact,pre_second,S,midas_umidas,indicator_revision_only_dfm_kalman_em,2024:Q1,-0.23672692600029857,-0.23672692600029857
exact,pre_second,S,midas_umidas,indicator_revision_only_dfm_kalman_em,2024:Q2,-0.010667638345730526,-0.2473945643460291
exact,pre_second,S,midas_umidas,indicator_revision_only_dfm_kalman_em,2024:Q3,-0.004919062400835596,-0.2523136267468647
exact,pre_second,S,midas_umidas,indicator_revision_only_dfm_kalman_em,2024:Q4,3.214519038146337,2.9622054113994722
exact,pre_second,S,midas_umidas,joint_indicator_revision_dfm_full_kalman_em,2024:Q1,-0.48005811742445925,-0.48005811742445925
exact,pre_second,S,midas_umidas,joint_indicator_revision_dfm_full_kalman_em,2024:Q2,-0.00470406584156801,-0.48476218326602727
exact,pre_second,S,midas_umidas,joint_indicator_revision_dfm_full_kalman_em,2024:Q3,0.00952855537535336,-0.4752336278906739
exact,pre_second,S,midas_umidas,joint_indicator_revision_dfm_full_kalman_em,2024:Q4,3.202549314641172,2.727315686750498
exact,pre_second,S,midas_umidas,monthly_mixed_frequency_kalman_em,2024:Q1,-0.17981627842997236,-0.17981627842997236
exact,pre_second,S,midas_umidas,monthly_mixed_frequency_kalman_em,2024:Q2,-0.09728816680672811,-0.27710444523670047
exact,pre_second,S,midas_umidas,monthly_mixed_frequency_kalman_em,2024:Q3,0.0029250474420560793,-0.2741793977946444
exact,pre_second,S,midas_umidas,monthly_mixed_frequency_kalman_em,2024:Q4,3.2019509520970386,2.927771554302394
exact,pre_second,S,midas_umidas,no_revision,2024:Q1,0.005332426386613867,0.005332426386613867
exact,pre_second,S,midas_umidas,no_revision,2024:Q2,-0.004484239331127994,0.0008481870554858731
exact,pre_second,S,midas_umidas,no_revision,2024:Q3,0.04878556860863142,0.04963375566411729
exact,pre_second,S,midas_umidas,no_revision,2024:Q4,3.205715317768026,3.2553490734321433
exact,pre_second,S,midas_umidas,release_dfm,2024:Q1,-0.09123986525255826,-0.09123986525255826
exact,pre_second,S,midas_umidas,release_dfm,2024:Q2,0.007868802866772186,-0.08337106238578607
exact,pre_second,S,midas_umidas,release_dfm,2024:Q3,0.036083933818377996,-0.04728712856740807
exact,pre_second,S,midas_umidas,release_dfm,2024:Q4,3.214294203020516,3.167007074453108
exact,pre_second,S,midas_umidas,revision_dfm_kalman_em,2024:Q1,-0.4407775265000321,-0.4407775265000321
exact,pre_second,S,midas_umidas,revision_dfm_kalman_em,2024:Q2,0.007884409666444743,-0.43289311683358733
exact,pre_second,S,midas_umidas,revision_dfm_kalman_em,2024:Q3,0.03040502725647174,-0.40248808957711557
exact,pre_second,S,midas_umidas,revision_dfm_kalman_em,2024:Q4,3.2080777479369327,2.805589658359817
exact,pre_second,S,midas_umidas,spf,2024:Q1,-0.5880281636133864,-0.5880281636133864
exact,pre_second,S,midas_umidas,spf,2024:Q2,-0.883799039331128,-1.4718272029445143
exact,pre_second,S,midas_umidas,spf,2024:Q3,-0.8792765513913686,-2.351103754335883
exact,pre_second,S,midas_umidas,spf,2024:Q4,3.0202278877680264,0.6691241334321436
exact,pre_second,S,midas_umidas,standard_dfm,2024:Q1,0.07331568970477634,0.07331568970477634
exact,pre_second,S,midas_umidas,standard_dfm,2024:Q2,-0.1673120067352001,-0.09399631703042377
exact,pre_second,S,midas_umidas,standard_dfm,2024:Q3,-0.36734535074398766,-0.46134166777441143
exact,pre_second,S,midas_umidas,standard_dfm,2024:Q4,3.2134354365883127,2.7520937688139013
exact,pre_second,S,spf,ar,2024:Q1,-1.1549533750320857,-1.1549533750320857
exact,pre_second,S,spf,ar,2024:Q2,0.6922142840125297,-0.462739091019556
exact,pre_second,S,spf,ar,2024:Q3,0.8720628631697199,0.4093237721501639
exact,pre_second,S,spf,ar,2024:Q4,0.13354845952079786,0.5428722316709618
exact,pre_second,S,spf,bridge,2024:Q1,0.7075525562764656,0.7075525562764656
exact,pre_second,S,spf,bridge,2024:Q2,0.8886768283717325,1.596229384648198
exact,pre_second,S,spf,bridge,2024:Q3,0.8372628905506613,2.4334922751988595
exact,pre_second,S,spf,bridge,2024:Q4,0.18914334532565708,2.6226356205245165
exact,pre_second,S,spf,indicator_revision_only_dfm_kalman_em,2024:Q1,0.35130123761308785,0.35130123761308785
exact,pre_second,S,spf,indicator_revision_only_dfm_kalman_em,2024:Q2,0.8731314009853975,1.2244326385984854
exact,pre_second,S,spf,indicator_revision_only_dfm_kalman_em,2024:Q3,0.8743574889905331,2.0987901275890186
exact,pre_second,S,spf,indicator_revision_only_dfm_kalman_em,2024:Q4,0.19429115037831027,2.293081277967329
exact,pre_second,S,spf,joint_indicator_revision_dfm_full_kalman_em,2024:Q1,0.10797004618892714,0.10797004618892714
exact,pre_second,S,spf,joint_indicator_revision_dfm_full_kalman_em,2024:Q2,0.87909497348956,0.9870650196784871
exact,pre_second,S,spf,joint_indicator_revision_dfm_full_kalman_em,2024:Q3,0.888805106766722,1.8758701264452091
exact,pre_second,S,spf,joint_indicator_revision_dfm_full_kalman_em,2024:Q4,0.18232142687314537,2.0581915533183546
exact,pre_second,S,spf,midas_umidas,2024:Q1,0.5880281636133864,0.5880281636133864
exact,pre_second,S,spf,midas_umidas,2024:Q2,0.883799039331128,1.4718272029445143
exact,pre_second,S,spf,midas_umidas,2024:Q3,0.8792765513913686,2.351103754335883
exact,pre_second,S,spf,midas_umidas,2024:Q4,-3.0202278877680264,-0.6691241334321436
exact,pre_second,S,spf,monthly_mixed_frequency_kalman_em,2024:Q1,0.40821188518341406,0.40821188518341406
exact,pre_second,S,spf,monthly_mixed_frequency_kalman_em,2024:Q2,0.7865108725243999,1.1947227577078139
exact,pre_second,S,spf,monthly_mixed_frequency_kalman_em,2024:Q3,0.8822015988334247,2.0769243565412387
exact,pre_second,S,spf,monthly_mixed_frequency_kalman_em,2024:Q4,0.18172306432901197,2.2586474208702505
exact,pre_second,S,spf,no_revision,2024:Q1,0.5933605900000003,0.5933605900000003
exact,pre_second,S,spf,no_revision,2024:Q2,0.8793148000000001,1.4726753900000005
exact,pre_second,S,spf,no_revision,2024:Q3,0.9280621200000001,2.400737510000001
exact,pre_second,S,spf,no_revision,2024:Q4,0.18548742999999981,2.5862249400000006
exact,pre_second,S,spf,release_dfm,2024:Q1,0.49678829836082816,0.49678829836082816
exact,pre_second,S,spf,release_dfm,2024:Q2,0.8916678421979002,1.3884561405587283
exact,pre_second,S,spf,release_dfm,2024:Q3,0.9153604852097467,2.303816625768475
exact,pre_second,S,spf,release_dfm,2024:Q4,0.19406631525248966,2.497882941020965
exact,pre_second,S,spf,revision_dfm_kalman_em,2024:Q1,0.1472506371133543,0.1472506371133543
exact,pre_second,S,spf,revision_dfm_kalman_em,2024:Q2,0.8916834489975728,1.038934086110927
exact,pre_second,S,spf,revision_dfm_kalman_em,2024:Q3,0.9096815786478404,1.9486156647587674
exact,pre_second,S,spf,revision_dfm_kalman_em,2024:Q4,0.18784986016890606,2.1364655249276736
exact,pre_second,S,spf,standard_dfm,2024:Q1,0.6613438533181627,0.6613438533181627
exact,pre_second,S,spf,standard_dfm,2024:Q2,0.7164870325959279,1.3778308859140906
exact,pre_second,S,spf,standard_dfm,2024:Q3,0.5119312006473811,1.8897620865614717
exact,pre_second,S,spf,standard_dfm,2024:Q4,0.19320754882028618,2.0829696353817577
exact,pre_second,S,standard_dfm,ar,2024:Q1,-1.8162972283502483,-1.8162972283502483
exact,pre_second,S,standard_dfm,ar,2024:Q2,-0.02427274858339823,-1.8405699769336465
exact,pre_second,S,standard_dfm,ar,2024:Q3,0.36013166252233897,-1.4804383144113076
exact,pre_second,S,standard_dfm,ar,2024:Q4,-0.05965908929948833,-1.540097403710796
exact,pre_second,S,standard_dfm,bridge,2024:Q1,0.04620870295830283,0.04620870295830283
exact,pre_second,S,standard_dfm,bridge,2024:Q2,0.17218979577580454,0.21839849873410738
exact,pre_second,S,standard_dfm,bridge,2024:Q3,0.32533168990328026,0.5437301886373876
exact,pre_second,S,standard_dfm,bridge,2024:Q4,-0.0040642034946291065,0.5396659851427585
exact,pre_second,S,standard_dfm,indicator_revision_only_dfm_kalman_em,2024:Q1,-0.3100426157050749,-0.3100426157050749
exact,pre_second,S,standard_dfm,indicator_revision_only_dfm_kalman_em,2024:Q2,0.1566443683894696,-0.1533982473156053
exact,pre_second,S,standard_dfm,indicator_revision_only_dfm_kalman_em,2024:Q3,0.36242628834315205,0.20902804102754674
exact,pre_second,S,standard_dfm,indicator_revision_only_dfm_kalman_em,2024:Q4,0.0010836015580241011,0.21011164258557083
exact,pre_second,S,standard_dfm,joint_indicator_revision_dfm_full_kalman_em,2024:Q1,-0.5533738071292356,-0.5533738071292356
exact,pre_second,S,standard_dfm,joint_indicator_revision_dfm_full_kalman_em,2024:Q2,0.16260794089363212,-0.39076586623560344
exact,pre_second,S,standard_dfm,joint_indicator_revision_dfm_full_kalman_em,2024:Q3,0.376873906119341,-0.013891960116262425
exact,pre_second,S,standard_dfm,joint_indicator_revision_dfm_full_kalman_em,2024:Q4,-0.010886121947140809,-0.024778082063403234
exact,pre_second,S,standard_dfm,midas_umidas,2024:Q1,-0.07331568970477634,-0.07331568970477634
exact,pre_second,S,standard_dfm,midas_umidas,2024:Q2,0.1673120067352001,0.09399631703042377
exact,pre_second,S,standard_dfm,midas_umidas,2024:Q3,0.36734535074398766,0.46134166777441143
exact,pre_second,S,standard_dfm,midas_umidas,2024:Q4,-3.2134354365883127,-2.7520937688139013
exact,pre_second,S,standard_dfm,monthly_mixed_frequency_kalman_em,2024:Q1,-0.2531319681347487,-0.2531319681347487
exact,pre_second,S,standard_dfm,monthly_mixed_frequency_kalman_em,2024:Q2,0.07002383992847201,-0.1831081282062767
exact,pre_second,S,standard_dfm,monthly_mixed_frequency_kalman_em,2024:Q3,0.37027039818604374,0.18716226997976704
exact,pre_second,S,standard_dfm,monthly_mixed_frequency_kalman_em,2024:Q4,-0.011484484491274217,0.17567778548849283
exact,pre_second,S,standard_dfm,no_revision,2024:Q1,-0.06798326331816246,-0.06798326331816246
exact,pre_second,S,standard_dfm,no_revision,2024:Q2,0.16282776740407212,0.09484450408590966
exact,pre_second,S,standard_dfm,no_revision,2024:Q3,0.4161309193526191,0.5109754234385288
exact,pre_second,S,standard_dfm,no_revision,2024:Q4,-0.007720118820286364,0.5032553046182424
exact,pre_second,S,standard_dfm,release_dfm,2024:Q1,-0.1645555549573346,-0.1645555549573346
exact,pre_second,S,standard_dfm,release_dfm,2024:Q2,0.1751808096019723,0.010625254644637705
exact,pre_second,S,standard_dfm,release_dfm,2024:Q3,0.40342928456236565,0.41405453920700336
exact,pre_second,S,standard_dfm,release_dfm,2024:Q4,0.0008587664322034896,0.41491330563920686
exact,pre_second,S,standard_dfm,revision_dfm_kalman_em,2024:Q1,-0.5140932162048084,-0.5140932162048084
exact,pre_second,S,standard_dfm,revision_dfm_kalman_em,2024:Q2,0.17519641640164485,-0.33889679980316356
exact,pre_second,S,standard_dfm,revision_dfm_kalman_em,2024:Q3,0.3977503780004594,0.058853578197295864
exact,pre_second,S,standard_dfm,revision_dfm_kalman_em,2024:Q4,-0.005357688651380128,0.053495889545915734
exact,pre_second,S,standard_dfm,spf,2024:Q1,-0.6613438533181627,-0.6613438533181627
exact,pre_second,S,standard_dfm,spf,2024:Q2,-0.7164870325959279,-1.3778308859140906
exact,pre_second,S,standard_dfm,spf,2024:Q3,-0.5119312006473811,-1.8897620865614717
exact,pre_second,S,standard_dfm,spf,2024:Q4,-0.19320754882028618,-2.0829696353817577
exact,pre_second,S,release_dfm,ar,2024:Q1,-1.6517416733929138,-1.6517416733929138
exact,pre_second,S,release_dfm,ar,2024:Q2,-0.19945355818537053,-1.8511952315782843
exact,pre_second,S,release_dfm,ar,2024:Q3,-0.043297622040026705,-1.894492853618311
exact,pre_second,S,release_dfm,ar,2024:Q4,-0.06051785573169182,-1.9550107093500029
exact,pre_second,S,release_dfm,bridge,2024:Q1,0.2107642579156374,0.2107642579156374
exact,pre_second,S,release_dfm,bridge,2024:Q2,-0.002991013826167763,0.20777324408946965
exact,pre_second,S,release_dfm,bridge,2024:Q3,-0.07809759465908538,0.1296756494303843
exact,pre_second,S,release_dfm,bridge,2024:Q4,-0.004922969926832596,0.12475267950355169
exact,pre_second,S,release_dfm,indicator_revision_only_dfm_kalman_em,2024:Q1,-0.14548706074774032,-0.14548706074774032
exact,pre_second,S,release_dfm,indicator_revision_only_dfm_kalman_em,2024:Q2,-0.01853644121250271,-0.164023501960243
exact,pre_second,S,release_dfm,indicator_revision_only_dfm_kalman_em,2024:Q3,-0.04100299621921359,-0.20502649817945662
exact,pre_second,S,release_dfm,indicator_revision_only_dfm_kalman_em,2024:Q4,0.00022483512582061141,-0.204801663053636
exact,pre_second,S,release_dfm,joint_indicator_revision_dfm_full_kalman_em,2024:Q1,-0.388818252171901,-0.388818252171901
exact,pre_second,S,release_dfm,joint_indicator_revision_dfm_full_kalman_em,2024:Q2,-0.012572868708340196,-0.4013911208802412
exact,pre_second,S,release_dfm,joint_indicator_revision_dfm_full_kalman_em,2024:Q3,-0.026555378443024635,-0.42794649932326584
exact,pre_second,S,release_dfm,joint_indicator_revision_dfm_full_kalman_em,2024:Q4,-0.011744888379344297,-0.4396913877026101
exact,pre_second,S,release_dfm,midas_umidas,2024:Q1,0.09123986525255826,0.09123986525255826
exact,pre_second,S,release_dfm,midas_umidas,2024:Q2,-0.007868802866772186,0.08337106238578607
exact,pre_second,S,release_dfm,midas_umidas,2024:Q3,-0.036083933818377996,0.04728712856740807
exact,pre_second,S,release_dfm,midas_umidas,2024:Q4,-3.214294203020516,-3.167007074453108
exact,pre_second,S,release_dfm,monthly_mixed_frequency_kalman_em,2024:Q1,-0.0885764131774141,-0.0885764131774141
exact,pre_second,S,release_dfm,monthly_mixed_frequency_kalman_em,2024:Q2,-0.10515696967350029,-0.1937333828509144
exact,pre_second,S,release_dfm,monthly_mixed_frequency_kalman_em,2024:Q3,-0.03315888637632192,-0.22689226922723632
exact,pre_second,S,release_dfm,monthly_mixed_frequency_kalman_em,2024:Q4,-0.012343250923477706,-0.23923552015071403
exact,pre_second,S,release_dfm,no_revision,2024:Q1,0.09657229163917212,0.09657229163917212
exact,pre_second,S,release_dfm,no_revision,2024:Q2,-0.01235304219790018,0.08421924944127195
exact,pre_second,S,release_dfm,no_revision,2024:Q3,0.012701634790253422,0.09692088423152537
exact,pre_second,S,release_dfm,no_revision,2024:Q4,-0.008578885252489853,0.08834199897903551
exact,pre_second,S,release_dfm,revision_dfm_kalman_em,2024:Q1,-0.3495376612474739,-0.3495376612474739
exact,pre_second,S,release_dfm,revision_dfm_kalman_em,2024:Q2,1.560679967255745e-05,-0.3495220544478013
exact,pre_second,S,release_dfm,revision_dfm_kalman_em,2024:Q3,-0.005678906561906255,-0.35520096100970755
exact,pre_second,S,release_dfm,revision_dfm_kalman_em,2024:Q4,-0.0062164550835836175,-0.36141741609329114
exact,pre_second,S,release_dfm,spf,2024:Q1,-0.49678829836082816,-0.49678829836082816
exact,pre_second,S,release_dfm,spf,2024:Q2,-0.8916678421979002,-1.3884561405587283
exact,pre_second,S,release_dfm,spf,2024:Q3,-0.9153604852097467,-2.303816625768475
exact,pre_second,S,release_dfm,spf,2024:Q4,-0.19406631525248966,-2.497882941020965
exact,pre_second,S,release_dfm,standard_dfm,2024:Q1,0.1645555549573346,0.1645555549573346
exact,pre_second,S,release_dfm,standard_dfm,2024:Q2,-0.1751808096019723,-0.010625254644637705
exact,pre_second,S,release_dfm,standard_dfm,2024:Q3,-0.40342928456236565,-0.41405453920700336
exact,pre_second,S,release_dfm,standard_dfm,2024:Q4,-0.0008587664322034896,-0.41491330563920686
exact,pre_third,T,ar,bridge,2024:Q1,1.4397044832711763,1.4397044832711763
exact,pre_third,T,ar,bridge,2024:Q2,0.04938468605208607,1.4890891693232624
exact,pre_third,T,ar,bridge,2024:Q3,-0.3311676389905206,1.1579215303327417
exact,pre_third,T,ar,bridge,2024:Q4,0.04711271131803244,1.2050342416507742
exact,pre_third,T,ar,indicator_revision_only_dfm_kalman_em,2024:Q1,1.588869068475631,1.588869068475631
exact,pre_third,T,ar,indicator_revision_only_dfm_kalman_em,2024:Q2,0.1528873569522001,1.741756425427831
exact,pre_third,T,ar,indicator_revision_only_dfm_kalman_em,2024:Q3,0.0166822724760195,1.7584386979038507
exact,pre_third,T,ar,indicator_revision_only_dfm_kalman_em,2024:Q4,0.0409630464010934,1.7994017443049442
exact,pre_third,T,ar,joint_indicator_revision_dfm_full_kalman_em,2024:Q1,1.5365776156134148,1.5365776156134148
exact,pre_third,T,ar,joint_indicator_revision_dfm_full_kalman_em,2024:Q2,0.15820205603230444,1.6947796716457193
exact,pre_third,T,ar,joint_indicator_revision_dfm_full_kalman_em,2024:Q3,0.037730467624505604,1.732510139270225
exact,pre_third,T,ar,joint_indicator_revision_dfm_full_kalman_em,2024:Q4,0.048384322444506876,1.7808944617147318
exact,pre_third,T,ar,midas_umidas,2024:Q1,1.5647784500336006,1.5647784500336006
exact,pre_third,T,ar,midas_umidas,2024:Q2,-0.6798960816339414,0.8848823683996592
exact,pre_third,T,ar,midas_umidas,2024:Q3,-0.07207626284077517,0.812806105558884
exact,pre_third,T,ar,midas_umidas,2024:Q4,-2.0664133645845233,-1.2536072590256393
exact,pre_third,T,ar,monthly_mixed_frequency_kalman_em,2024:Q1,1.470695391668355,1.470695391668355
exact,pre_third,T,ar,monthly_mixed_frequency_kalman_em,2024:Q2,0.09016855201798131,1.5608639436863363
exact,pre_third,T,ar,monthly_mixed_frequency_kalman_em,2024:Q3,-0.016991209095912257,1.543872734590424
exact,pre_third,T,ar,monthly_mixed_frequency_kalman_em,2024:Q4,0.04848546713431188,1.5923582017247357
exact,pre_third,T,ar,no_revision,2024:Q1,1.6135341740229943,1.6135341740229943
exact,pre_third,T,ar,no_revision,2024:Q2,0.163341856265736,1.7768760302887303
exact,pre_third,T,ar,no_revision,2024:Q3,0.10893601961242862,1.885812049901159
exact,pre_third,T,ar,no_revision,2024:Q4,0.038262134918035304,1.9240741848191942
exact,pre_third,T,ar,release_dfm,2024:Q1,1.6392242798528451,1.6392242798528451
exact,pre_third,T,ar,release_dfm,2024:Q2,0.16366967243635788,1.8028939522892031
exact,pre_third,T,ar,release_dfm,2024:Q3,0.14532292519050122,1.9482168774797044
exact,pre_third,T,ar,release_dfm,2024:Q4,0.047894524837390325,1.9961114023170947
exact,pre_third,T,ar,revision_dfm_kalman_em,2024:Q1,1.5455957676683127,1.5455957676683127
exact,pre_third,T,ar,revision_dfm_kalman_em,2024:Q2,0.16137610919227746,1.7069718768605902
exact,pre_third,T,ar,revision_dfm_kalman_em,2024:Q3,0.06085927083942266,1.7678311477000128
exact,pre_third,T,ar,revision_dfm_kalman_em,2024:Q4,0.049108155779785154,1.816939303479798
exact,pre_third,T,ar,spf,2024:Q1,1.174242654022994,1.174242654022994
exact,pre_third,T,ar,spf,2024:Q2,-0.8003162937342644,0.3739263602887296
exact,pre_third,T,ar,spf,2024:Q3,-1.2804794603875718,-0.9065531000988422
exact,pre_third,T,ar,spf,2024:Q4,-0.2480815450819646,-1.1546346451808067
exact,pre_third,T,ar,standard_dfm,2024:Q1,1.4382877562697003,1.4382877562697003
exact,pre_third,T,ar,standard_dfm,2024:Q2,-0.03678496831053904,1.4015027879591613
exact,pre_third,T,ar,standard_dfm,2024:Q3,-0.7111048453909489,0.6903979425682124
exact,pre_third,T,ar,standard_dfm,2024:Q4,0.04779092928529234,0.7381888718535048
exact,pre_third,T,no_revision,ar,2024:Q1,-1.6135341740229943,-1.6135341740229943
exact,pre_third,T,no_revision,ar,2024:Q2,-0.163341856265736,-1.7768760302887303
exact,pre_third,T,no_revision,ar,2024:Q3,-0.10893601961242862,-1.885812049901159
exact,pre_third,T,no_revision,ar,2024:Q4,-0.038262134918035304,-1.9240741848191942
exact,pre_third,T,no_revision,bridge,2024:Q1,-0.1738296907518181,-0.1738296907518181
exact,pre_third,T,no_revision,bridge,2024:Q2,-0.11395717021364991,-0.287786860965468
exact,pre_third,T,no_revision,bridge,2024:Q3,-0.44010365860294925,-0.7278905195684173
exact,pre_third,T,no_revision,bridge,2024:Q4,0.008850576399997137,-0.7190399431684202
exact,pre_third,T,no_revision,indicator_revision_only_dfm_kalman_em,2024:Q1,-0.024665105547363432,-0.024665105547363432
exact,pre_third,T,no_revision,indicator_revision_only_dfm_kalman_em,2024:Q2,-0.010454499313535886,-0.035119604860899316
exact,pre_third,T,no_revision,indicator_revision_only_dfm_kalman_em,2024:Q3,-0.09225374713640912,-0.12737335199730843
exact,pre_third,T,no_revision,indicator_revision_only_dfm_kalman_em,2024:Q4,0.0027009114830580886,-0.12467244051425033
exact,pre_third,T,no_revision,joint_indicator_revision_dfm_full_kalman_em,2024:Q1,-0.07695655840957949,-0.07695655840957949
exact,pre_third,T,no_revision,joint_indicator_revision_dfm_full_kalman_em,2024:Q2,-0.005139800233431546,-0.08209635864301104
exact,pre_third,T,no_revision,joint_indicator_revision_dfm_full_kalman_em,2024:Q3,-0.07120555198792301,-0.15330191063093407
exact,pre_third,T,no_revision,joint_indicator_revision_dfm_full_kalman_em,2024:Q4,0.010122187526471569,-0.1431797231044625
exact,pre_third,T,no_revision,midas_umidas,2024:Q1,-0.04875572398939364,-0.04875572398939364
exact,pre_third,T,no_revision,midas_umidas,2024:Q2,-0.8432379378996774,-0.891993661889071
exact,pre_third,T,no_revision,midas_umidas,2024:Q3,-0.18101228245320378,-1.0730059443422748
exact,pre_third,T,no_revision,midas_umidas,2024:Q4,-2.1046754995025587,-3.1776814438448335
exact,pre_third,T,no_revision,monthly_mixed_frequency_kalman_em,2024:Q1,-0.14283878235463937,-0.14283878235463937
exact,pre_third,T,no_revision,monthly_mixed_frequency_kalman_em,2024:Q2,-0.07317330424775467,-0.21601208660239404
exact,pre_third,T,no_revision,monthly_mixed_frequency_kalman_em,2024:Q3,-0.1259272287083409,-0.34193931531073496
exact,pre_third,T,no_revision,monthly_mixed_frequency_kalman_em,2024:Q4,0.010223332216276571,-0.3317159830944584
exact,pre_third,T,no_revision,release_dfm,2024:Q1,0.025690105829850787,0.025690105829850787
exact,pre_third,T,no_revision,release_dfm,2024:Q2,0.0003278161706219006,0.026017922000472687
exact,pre_third,T,no_revision,release_dfm,2024:Q3,0.03638690557807259,0.06240482757854528
exact,pre_third,T,no_revision,release_dfm,2024:Q4,0.009632389919355016,0.07203721749790029
exact,pre_third,T,no_revision,revision_dfm_kalman_em,2024:Q1,-0.06793840635468161,-0.06793840635468161
exact,pre_third,T,no_revision,revision_dfm_kalman_em,2024:Q2,-0.00196574707345854,-0.06990415342814014
exact,pre_third,T,no_revision,revision_dfm_kalman_em,2024:Q3,-0.04807674877300595,-0.1179809022011461
exact,pre_third,T,no_revision,revision_dfm_kalman_em,2024:Q4,0.010846020861749848,-0.10713488133939625
exact,pre_third,T,no_revision,spf,2024:Q1,-0.43929152000000027,-0.43929152000000027
exact,pre_third,T,no_revision,spf,2024:Q2,-0.9636581500000003,-1.4029496700000006
exact,pre_third,T,no_revision,spf,2024:Q3,-1.3894154800000005,-2.792365150000001
exact,pre_third,T,no_revision,spf,2024:Q4,-0.2863436799999999,-3.078708830000001
exact,pre_third,T,no_revision,standard_dfm,2024:Q1,-0.17524641775329397,-0.17524641775329397
exact,pre_third,T,no_revision,standard_dfm,2024:Q2,-0.20012682457627504,-0.37537324232956903
exact,pre_third,T,no_revision,standard_dfm,2024:Q3,-0.8200408650033775,-1.1954141073329465
exact,pre_third,T,no_revision,standard_dfm,2024:Q4,0.00952879436725704,-1.1858853129656894
exact,pre_third,T,bridge,ar,2024:Q1,-1.4397044832711763,-1.4397044832711763
exact,pre_third,T,bridge,ar,2024:Q2,-0.04938468605208607,-1.4890891693232624
exact,pre_third,T,bridge,ar,2024:Q3,0.3311676389905206,-1.1579215303327417
exact,pre_third,T,bridge,ar,2024:Q4,-0.04711271131803244,-1.2050342416507742
exact,pre_third,T,bridge,indicator_revision_only_dfm_kalman_em,2024:Q1,0.14916458520445464,0.14916458520445464
exact,pre_third,T,bridge,indicator_revision_only_dfm_kalman_em,2024:Q2,0.10350267090011403,0.25266725610456864
exact,pre_third,T,bridge,indicator_revision_only_dfm_kalman_em,2024:Q3,0.3478499114665401,0.6005171675711087
exact,pre_third,T,bridge,indicator_revision_only_dfm_kalman_em,2024:Q4,-0.006149664916939048,0.5943675026541697
exact,pre_third,T,bridge,joint_indicator_revision_dfm_full_kalman_em,2024:Q1,0.09687313234223859,0.09687313234223859
exact,pre_third,T,bridge,joint_indicator_revision_dfm_full_kalman_em,2024:Q2,0.10881736998021838,0.20569050232245695
exact,pre_third,T,bridge,joint_indicator_revision_dfm_full_kalman_em,2024:Q3,0.3688981066150262,0.5745886089374832
exact,pre_third,T,bridge,joint_indicator_revision_dfm_full_kalman_em,2024:Q4,0.0012716111264744327,0.5758602200639577
exact,pre_third,T,bridge,midas_umidas,2024:Q1,0.12507396676242444,0.12507396676242444
exact,pre_third,T,bridge,midas_umidas,2024:Q2,-0.7292807676860276,-0.6042068009236031
exact,pre_third,T,bridge,midas_umidas,2024:Q3,0.2590913761497454,-0.3451154247738577
exact,pre_third,T,bridge,midas_umidas,2024:Q4,-2.1135260759025556,-2.4586415006764133
exact,pre_third,T,bridge,monthly_mixed_frequency_kalman_em,2024:Q1,0.03099090839717869,0.03099090839717869
exact,pre_third,T,bridge,monthly_mixed_frequency_kalman_em,2024:Q2,0.04078386596589524,0.07177477436307393
exact,pre_third,T,bridge,monthly_mixed_frequency_kalman_em,2024:Q3,0.31417642989460837,0.3859512042576823
exact,pre_third,T,bridge,monthly_mixed_frequency_kalman_em,2024:Q4,0.001372755816279435,0.38732396007396175
exact,pre_third,T,bridge,no_revision,2024:Q1,0.1738296907518181,0.1738296907518181
exact,pre_third,T,bridge,no_revision,2024:Q2,0.11395717021364991,0.287786860965468
exact,pre_third,T,bridge,no_revision,2024:Q3,0.44010365860294925,0.7278905195684173
exact,pre_third,T,bridge,no_revision,2024:Q4,-0.008850576399997137,0.7190399431684202
exact,pre_third,T,bridge,release_dfm,2024:Q1,0.19951979658166885,0.19951979658166885
exact,pre_third,T,bridge,release_dfm,2024:Q2,0.11428498638427181,0.31380478296594067
exact,pre_third,T,bridge,release_dfm,2024:Q3,0.4764905641810218,0.7902953471469625
exact,pre_third,T,bridge,release_dfm,2024:Q4,0.0007818135193578795,0.7910771606663204
exact,pre_third,T,bridge,revision_dfm_kalman_em,2024:Q1,0.10589128439713646,0.10589128439713646
exact,pre_third,T,bridge,revision_dfm_kalman_em,2024:Q2,0.11199142314019138,0.21788270753732786
exact,pre_third,T,bridge,revision_dfm_kalman_em,2024:Q3,0.39202690982994326,0.6099096173672711
exact,pre_third,T,bridge,revision_dfm_kalman_em,2024:Q4,0.0019954444617527128,0.6119050618290238
exact,pre_third,T,bridge,spf,2024:Q1,-0.2654618292481822,-0.2654618292481822
exact,pre_third,T,bridge,spf,2024:Q2,-0.8497009797863504,-1.1151628090345325
exact,pre_third,T,bridge,spf,2024:Q3,-0.9493118213970512,-2.0644746304315835
exact,pre_third,T,bridge,spf,2024:Q4,-0.295194256399997,-2.3596688868315807
exact,pre_third,T,bridge,standard_dfm,2024:Q1,-0.0014167270014759092,-0.0014167270014759092
exact,pre_third,T,bridge,standard_dfm,2024:Q2,-0.08616965436262511,-0.08758638136410102
exact,pre_third,T,bridge,standard_dfm,2024:Q3,-0.3799372064004283,-0.4675235877645293
exact,pre_third,T,bridge,standard_dfm,2024:Q4,0.0006782179672599029,-0.46684536979726937
exact,pre_third,T,midas_umidas,ar,2024:Q1,-1.5647784500336006,-1.5647784500336006
exact,pre_third,T,midas_umidas,ar,2024:Q2,0.6798960816339414,-0.8848823683996592
exact,pre_third,T,midas_umidas,ar,2024:Q3,0.07207626284077517,-0.812806105558884
exact,pre_third,T,midas_umidas,ar,2024:Q4,2.0664133645845233,1.2536072590256393
exact,pre_third,T,midas_umidas,bridge,2024:Q1,-0.12507396676242444,-0.12507396676242444
exact,pre_third,T,midas_umidas,bridge,2024:Q2,0.7292807676860276,0.6042068009236031
exact,pre_third,T,midas_umidas,bridge,2024:Q3,-0.2590913761497454,0.3451154247738577
exact,pre_third,T,midas_umidas,bridge,2024:Q4,2.1135260759025556,2.4586415006764133
exact,pre_third,T,midas_umidas,indicator_revision_only_dfm_kalman_em,2024:Q1,0.024090618442030205,0.024090618442030205
exact,pre_third,T,midas_umidas,indicator_revision_only_dfm_kalman_em,2024:Q2,0.8327834385861416,0.8568740570281718
exact,pre_third,T,midas_umidas,indicator_revision_only_dfm_kalman_em,2024:Q3,0.08875853531679467,0.9456325923449664
exact,pre_third,T,midas_umidas,indicator_revision_only_dfm_kalman_em,2024:Q4,2.1073764109856166,3.0530090033305832
exact,pre_third,T,midas_umidas,joint_indicator_revision_dfm_full_kalman_em,2024:Q1,-0.028200834420185852,-0.028200834420185852
exact,pre_third,T,midas_umidas,joint_indicator_revision_dfm_full_kalman_em,2024:Q2,0.8380981376662459,0.80989730324606
exact,pre_third,T,midas_umidas,joint_indicator_revision_dfm_full_kalman_em,2024:Q3,0.10980673046528078,0.9197040337113408
exact,pre_third,T,midas_umidas,joint_indicator_revision_dfm_full_kalman_em,2024:Q4,2.11479768702903,3.0345017207403706
exact,pre_third,T,midas_umidas,monthly_mixed_frequency_kalman_em,2024:Q1,-0.09408305836524575,-0.09408305836524575
exact,pre_third,T,midas_umidas,monthly_mixed_frequency_kalman_em,2024:Q2,0.7700646336519228,0.675981575286677
exact,pre_third,T,midas_umidas,monthly_mixed_frequency_kalman_em,2024:Q3,0.055085053744862916,0.73106662903154
exact,pre_third,T,midas_umidas,monthly_mixed_frequency_kalman_em,2024:Q4,2.1148988317188353,2.8459654607503753
exact,pre_third,T,midas_umidas,no_revision,2024:Q1,0.04875572398939364,0.04875572398939364
exact,pre_third,T,midas_umidas,no_revision,2024:Q2,0.8432379378996774,0.891993661889071
exact,pre_third,T,midas_umidas,no_revision,2024:Q3,0.18101228245320378,1.0730059443422748
exact,pre_third,T,midas_umidas,no_revision,2024:Q4,2.1046754995025587,3.1776814438448335
exact,pre_third,T,midas_umidas,release_dfm,2024:Q1,0.07444582981924443,0.07444582981924443
exact,pre_third,T,midas_umidas,release_dfm,2024:Q2,0.8435657540702993,0.9180115838895437
exact,pre_third,T,midas_umidas,release_dfm,2024:Q3,0.2173991880312764,1.1354107719208202
exact,pre_third,T,midas_umidas,release_dfm,2024:Q4,2.1143078894219136,3.249718661342734
exact,pre_third,T,midas_umidas,revision_dfm_kalman_em,2024:Q1,-0.019182682365287973,-0.019182682365287973
exact,pre_third,T,midas_umidas,revision_dfm_kalman_em,2024:Q2,0.8412721908262188,0.8220895084609309
exact,pre_third,T,midas_umidas,revision_dfm_kalman_em,2024:Q3,0.13293553368019784,0.9550250421411287
exact,pre_third,T,midas_umidas,revision_dfm_kalman_em,2024:Q4,2.1155215203643083,3.070546562505437
exact,pre_third,T,midas_umidas,spf,2024:Q1,-0.3905357960106066,-0.3905357960106066
exact,pre_third,T,midas_umidas,spf,2024:Q2,-0.12042021210032294,-0.5109560081109296
exact,pre_third,T,midas_umidas,spf,2024:Q3,-1.2084031975467966,-1.7193592056577263
exact,pre_third,T,midas_umidas,spf,2024:Q4,1.8183318195025586,0.09897261384483236
exact,pre_third,T,midas_umidas,standard_dfm,2024:Q1,-0.12649069376390035,-0.12649069376390035
exact,pre_third,T,midas_umidas,standard_dfm,2024:Q2,0.6431111133234024,0.5166204195595021
exact,pre_third,T,midas_umidas,standard_dfm,2024:Q3,-0.6390285825501737,-0.12240816299067159
exact,pre_third,T,midas_umidas,standard_dfm,2024:Q4,2.1142042938698156,1.9917961308791439
exact,pre_third,T,spf,ar,2024:Q1,-1.174242654022994,-1.174242654022994
exact,pre_third,T,spf,ar,2024:Q2,0.8003162937342644,-0.3739263602887296
exact,pre_third,T,spf,ar,2024:Q3,1.2804794603875718,0.9065531000988422
exact,pre_third,T,spf,ar,2024:Q4,0.2480815450819646,1.1546346451808067
exact,pre_third,T,spf,bridge,2024:Q1,0.2654618292481822,0.2654618292481822
exact,pre_third,T,spf,bridge,2024:Q2,0.8497009797863504,1.1151628090345325
exact,pre_third,T,spf,bridge,2024:Q3,0.9493118213970512,2.0644746304315835
exact,pre_third,T,spf,bridge,2024:Q4,0.295194256399997,2.3596688868315807
exact,pre_third,T,spf,indicator_revision_only_dfm_kalman_em,2024:Q1,0.4146264144526368,0.4146264144526368
exact,pre_third,T,spf,indicator_revision_only_dfm_kalman_em,2024:Q2,0.9532036506864645,1.3678300651391013
exact,pre_third,T,spf,indicator_revision_only_dfm_kalman_em,2024:Q3,1.2971617328635914,2.664991798002693
exact,pre_third,T,spf,indicator_revision_only_dfm_kalman_em,2024:Q4,0.289044591483058,2.954036389485751
exact,pre_third,T,spf,joint_indicator_revision_dfm_full_kalman_em,2024:Q1,0.3623349615904208,0.3623349615904208
exact,pre_third,T,spf,joint_indicator_revision_dfm_full_kalman_em,2024:Q2,0.9585183497665688,1.3208533113569896
exact,pre_third,T,spf,joint_indicator_revision_dfm_full_kalman_em,2024:Q3,1.3182099280120774,2.639063239369067
exact,pre_third,T,spf,joint_indicator_revision_dfm_full_kalman_em,2024:Q4,0.29646586752647147,2.9355291068955385
exact,pre_third,T,spf,midas_umidas,2024:Q1,0.3905357960106066,0.3905357960106066
exact,pre_third,T,spf,midas_umidas,2024:Q2,0.12042021210032294,0.5109560081109296
exact,pre_third,T,spf,midas_umidas,2024:Q3,1.2084031975467966,1.7193592056577263
exact,pre_third,T,spf,midas_umidas,2024:Q4,-1.8183318195025586,-0.09897261384483236
exact,pre_third,T,spf,monthly_mixed_frequency_kalman_em,2024:Q1,0.29645273764536084,0.29645273764536084
exact,pre_third,T,spf,monthly_mixed_frequency_kalman_em,2024:Q2,0.8904848457522457,1.1869375833976066
exact,pre_third,T,spf,monthly_mixed_frequency_kalman_em,2024:Q3,1.2634882512916596,2.4504258346892662
exact,pre_third,T,spf,monthly_mixed_frequency_kalman_em,2024:Q4,0.29656701221627646,2.7469928469055427
exact,pre_third,T,spf,no_revision,2024:Q1,0.43929152000000027,0.43929152000000027
exact,pre_third,T,spf,no_revision,2024:Q2,0.9636581500000003,1.4029496700000006
exact,pre_third,T,spf,no_revision,2024:Q3,1.3894154800000005,2.792365150000001
exact,pre_third,T,spf,no_revision,2024:Q4,0.2863436799999999,3.078708830000001
exact,pre_third,T,spf,release_dfm,2024:Q1,0.46498162582985103,0.46498162582985103
exact,pre_third,T,spf,release_dfm,2024:Q2,0.9639859661706223,1.4289675920004732
exact,pre_third,T,spf,release_dfm,2024:Q3,1.425802385578073,2.8547699775785462
exact,pre_third,T,spf,release_dfm,2024:Q4,0.29597606991935493,3.150746047497901
exact,pre_third,T,spf,revision_dfm_kalman_em,2024:Q1,0.37135311364531864,0.37135311364531864
exact,pre_third,T,spf,revision_dfm_kalman_em,2024:Q2,0.9616924029265418,1.3330455165718604
exact,pre_third,T,spf,revision_dfm_kalman_em,2024:Q3,1.3413387312269944,2.674384247798855
exact,pre_third,T,spf,revision_dfm_kalman_em,2024:Q4,0.29718970086174973,2.971573948660605
exact,pre_third,T,spf,standard_dfm,2024:Q1,0.2640451022467063,0.2640451022467063
exact,pre_third,T,spf,standard_dfm,2024:Q2,0.7635313254237254,1.0275764276704318
exact,pre_third,T,spf,standard_dfm,2024:Q3,0.5693746149966229,1.5969510426670546
exact,pre_third,T,spf,standard_dfm,2024:Q4,0.29587247436725694,1.8928235170343115
exact,pre_third,T,standard_dfm,ar,2024:Q1,-1.4382877562697003,-1.4382877562697003
exact,pre_third,T,standard_dfm,ar,2024:Q2,0.03678496831053904,-1.4015027879591613
exact,pre_third,T,standard_dfm,ar,2024:Q3,0.7111048453909489,-0.6903979425682124
exact,pre_third,T,standard_dfm,ar,2024:Q4,-0.04779092928529234,-0.7381888718535048
exact,pre_third,T,standard_dfm,bridge,2024:Q1,0.0014167270014759092,0.0014167270014759092
exact,pre_third,T,standard_dfm,bridge,2024:Q2,0.08616965436262511,0.08758638136410102
exact,pre_third,T,standard_dfm,bridge,2024:Q3,0.3799372064004283,0.4675235877645293
exact,pre_third,T,standard_dfm,bridge,2024:Q4,-0.0006782179672599029,0.46684536979726937
exact,pre_third,T,standard_dfm,indicator_revision_only_dfm_kalman_em,2024:Q1,0.15058131220593055,0.15058131220593055
exact,pre_third,T,standard_dfm,indicator_revision_only_dfm_kalman_em,2024:Q2,0.18967232526273914,0.34025363746866966
exact,pre_third,T,standard_dfm,indicator_revision_only_dfm_kalman_em,2024:Q3,0.7277871178669684,1.068040755335638
exact,pre_third,T,standard_dfm,indicator_revision_only_dfm_kalman_em,2024:Q4,-0.0068278828841989506,1.061212872451439
exact,pre_third,T,standard_dfm,joint_indicator_revision_dfm_full_kalman_em,2024:Q1,0.0982898593437145,0.0982898593437145
exact,pre_third,T,standard_dfm,joint_indicator_revision_dfm_full_kalman_em,2024:Q2,0.19498702434284348,0.29327688368655797
exact,pre_third,T,standard_dfm,joint_indicator_revision_dfm_full_kalman_em,2024:Q3,0.7488353130154545,1.0421121967020124
exact,pre_third,T,standard_dfm,joint_indicator_revision_dfm_full_kalman_em,2024:Q4,0.0005933931592145297,1.042705589861227
exact,pre_third,T,standard_dfm,midas_umidas,2024:Q1,0.12649069376390035,0.12649069376390035
exact,pre_third,T,standard_dfm,midas_umidas,2024:Q2,-0.6431111133234024,-0.5166204195595021
exact,pre_third,T,standard_dfm,midas_umidas,2024:Q3,0.6390285825501737,0.12240816299067159
exact,pre_third,T,standard_dfm,midas_umidas,2024:Q4,-2.1142042938698156,-1.9917961308791439
exact,pre_third,T,standard_dfm,monthly_mixed_frequency_kalman_em,2024:Q1,0.0324076353986546,0.0324076353986546
exact,pre_third,T,standard_dfm,monthly_mixed_frequency_kalman_em,2024:Q2,0.12695352032852036,0.15936115572717496
exact,pre_third,T,standard_dfm,monthly_mixed_frequency_kalman_em,2024:Q3,0.6941136362950366,0.8534747920222117
exact,pre_third,T,standard_dfm,monthly_mixed_frequency_kalman_em,2024:Q4,0.000694537849019532,0.8541693298712312
exact,pre_third,T,standard_dfm,no_revision,2024:Q1,0.17524641775329397,0.17524641775329397
exact,pre_third,T,standard_dfm,no_revision,2024:Q2,0.20012682457627504,0.37537324232956903
exact,pre_third,T,standard_dfm,no_revision,2024:Q3,0.8200408650033775,1.1954141073329465
exact,pre_third,T,standard_dfm,no_revision,2024:Q4,-0.00952879436725704,1.1858853129656894
exact,pre_third,T,standard_dfm,release_dfm,2024:Q1,0.20093652358314476,0.20093652358314476
exact,pre_third,T,standard_dfm,release_dfm,2024:Q2,0.20045464074689692,0.4013911643300417
exact,pre_third,T,standard_dfm,release_dfm,2024:Q3,0.8564277705814501,1.2578189349114919
exact,pre_third,T,standard_dfm,release_dfm,2024:Q4,0.00010359555209797666,1.25792253046359
exact,pre_third,T,standard_dfm,revision_dfm_kalman_em,2024:Q1,0.10730801139861237,0.10730801139861237
exact,pre_third,T,standard_dfm,revision_dfm_kalman_em,2024:Q2,0.1981610775028165,0.3054690889014289
exact,pre_third,T,standard_dfm,revision_dfm_kalman_em,2024:Q3,0.7719641162303715,1.0774332051318005
exact,pre_third,T,standard_dfm,revision_dfm_kalman_em,2024:Q4,0.0013172264944928097,1.0787504316262932
exact,pre_third,T,standard_dfm,spf,2024:Q1,-0.2640451022467063,-0.2640451022467063
exact,pre_third,T,standard_dfm,spf,2024:Q2,-0.7635313254237254,-1.0275764276704318
exact,pre_third,T,standard_dfm,spf,2024:Q3,-0.5693746149966229,-1.5969510426670546
exact,pre_third,T,standard_dfm,spf,2024:Q4,-0.29587247436725694,-1.8928235170343115
exact,pre_third,T,release_dfm,ar,2024:Q1,-1.6392242798528451,-1.6392242798528451
exact,pre_third,T,release_dfm,ar,2024:Q2,-0.16366967243635788,-1.8028939522892031
exact,pre_third,T,release_dfm,ar,2024:Q3,-0.14532292519050122,-1.9482168774797044
exact,pre_third,T,release_dfm,ar,2024:Q4,-0.047894524837390325,-1.9961114023170947
exact,pre_third,T,release_dfm,bridge,2024:Q1,-0.19951979658166885,-0.19951979658166885
exact,pre_third,T,release_dfm,bridge,2024:Q2,-0.11428498638427181,-0.31380478296594067
exact,pre_third,T,release_dfm,bridge,2024:Q3,-0.4764905641810218,-0.7902953471469625
exact,pre_third,T,release_dfm,bridge,2024:Q4,-0.0007818135193578795,-0.7910771606663204
exact,pre_third,T,release_dfm,indicator_revision_only_dfm_kalman_em,2024:Q1,-0.050355211377214215,-0.050355211377214215
exact,pre_third,T,release_dfm,indicator_revision_only_dfm_kalman_em,2024:Q2,-0.010782315484157787,-0.061137526861372
exact,pre_third,T,release_dfm,indicator_revision_only_dfm_kalman_em,2024:Q3,-0.12864065271448172,-0.18977817957585372
exact,pre_third,T,release_dfm,indicator_revision_only_dfm_kalman_em,2024:Q4,-0.006931478436296927,-0.19670965801215065
exact,pre_third,T,release_dfm,joint_indicator_revision_dfm_full_kalman_em,2024:Q1,-0.10264666423943028,-0.10264666423943028
exact,pre_third,T,release_dfm,joint_indicator_revision_dfm_full_kalman_em,2024:Q2,-0.005467616404053446,-0.10811428064348373
exact,pre_third,T,release_dfm,joint_indicator_revision_dfm_full_kalman_em,2024:Q3,-0.1075924575659956,-0.21570673820947933
exact,pre_third,T,release_dfm,joint_indicator_revision_dfm_full_kalman_em,2024:Q4,0.000489797607116553,-0.21521694060236277
exact,pre_third,T,release_dfm,midas_umidas,2024:Q1,-0.07444582981924443,-0.07444582981924443
exact,pre_third,T,release_dfm,midas_umidas,2024:Q2,-0.8435657540702993,-0.9180115838895437
exact,pre_third,T,release_dfm,midas_umidas,2024:Q3,-0.2173991880312764,-1.1354107719208202
exact,pre_third,T,release_dfm,midas_umidas,2024:Q4,-2.1143078894219136,-3.249718661342734
exact,pre_third,T,release_dfm,monthly_mixed_frequency_kalman_em,2024:Q1,-0.16852888818449016,-0.16852888818449016
exact,pre_third,T,release_dfm,monthly_mixed_frequency_kalman_em,2024:Q2,-0.07350112041837657,-0.24203000860286672
exact,pre_third,T,release_dfm,monthly_mixed_frequency_kalman_em,2024:Q3,-0.16231413428641348,-0.4043441428892802
exact,pre_third,T,release_dfm,monthly_mixed_frequency_kalman_em,2024:Q4,0.0005909422969215554,-0.40375320059235864
exact,pre_third,T,release_dfm,no_revision,2024:Q1,-0.025690105829850787,-0.025690105829850787
exact,pre_third,T,release_dfm,no_revision,2024:Q2,-0.0003278161706219006,-0.026017922000472687
exact,pre_third,T,release_dfm,no_revision,2024:Q3,-0.03638690557807259,-0.06240482757854528
exact,pre_third,T,release_dfm,no_revision,2024:Q4,-0.009632389919355016,-0.07203721749790029
exact,pre_third,T,release_dfm,revision_dfm_kalman_em,2024:Q1,-0.0936285121845324,-0.0936285121845324
exact,pre_third,T,release_dfm,revision_dfm_kalman_em,2024:Q2,-0.00229356324408044,-0.09592207542861284
exact,pre_third,T,release_dfm,revision_dfm_kalman_em,2024:Q3,-0.08446365435107854,-0.18038572977969136
exact,pre_third,T,release_dfm,revision_dfm_kalman_em,2024:Q4,0.001213630942394833,-0.17917209883729654
exact,pre_third,T,release_dfm,spf,2024:Q1,-0.46498162582985103,-0.46498162582985103
exact,pre_third,T,release_dfm,spf,2024:Q2,-0.9639859661706223,-1.4289675920004732
exact,pre_third,T,release_dfm,spf,2024:Q3,-1.425802385578073,-2.8547699775785462
exact,pre_third,T,release_dfm,spf,2024:Q4,-0.29597606991935493,-3.150746047497901
exact,pre_third,T,release_dfm,standard_dfm,2024:Q1,-0.20093652358314476,-0.20093652358314476
exact,pre_third,T,release_dfm,standard_dfm,2024:Q2,-0.20045464074689692,-0.4013911643300417
exact,pre_third,T,release_dfm,standard_dfm,2024:Q3,-0.8564277705814501,-1.2578189349114919
exact,pre_third,T,release_dfm,standard_dfm,2024:Q4,-0.00010359555209797666,-1.25792253046359
pseudo,pre_advance,A,ar,bridge,2024:Q1,0.8229715260263378,0.8229715260263378
pseudo,pre_advance,A,ar,bridge,2024:Q2,-0.560747100564498,0.2622244254618399
pseudo,pre_advance,A,ar,bridge,2024:Q3,-0.048988688159601446,0.21323573730223844
pseudo,pre_advance,A,ar,bridge,2024:Q4,-0.04518876846282488,0.16804696883941356
pseudo,pre_advance,A,ar,indicator_revision_only_dfm_kalman_em,2024:Q1,0.2180606390751152,0.2180606390751152
pseudo,pre_advance,A,ar,indicator_revision_only_dfm_kalman_em,2024:Q2,0.14617459306722935,0.36423523214234454
pseudo,pre_advance,A,ar,indicator_revision_only_dfm_kalman_em,2024:Q3,-0.2640061592150411,0.10022907292730343
pseudo,pre_advance,A,ar,indicator_revision_only_dfm_kalman_em,2024:Q4,-0.009339745120337833,0.0908893278069656
pseudo,pre_advance,A,ar,joint_indicator_revision_dfm_full_kalman_em,2024:Q1,0.5454224676525052,0.5454224676525052
pseudo,pre_advance,A,ar,joint_indicator_revision_dfm_full_kalman_em,2024:Q2,0.14452037946905874,0.689942847121564
pseudo,pre_advance,A,ar,joint_indicator_revision_dfm_full_kalman_em,2024:Q3,-0.5722782768912169,0.11766457023034704
pseudo,pre_advance,A,ar,joint_indicator_revision_dfm_full_kalman_em,2024:Q4,0.04886980314724192,0.16653437337758897
pseudo,pre_advance,A,ar,midas_umidas,2024:Q1,-6.764964868619531,-6.764964868619531
pseudo,pre_advance,A,ar,midas_umidas,2024:Q2,0.12618900290229862,-6.638775865717232
pseudo,pre_advance,A,ar,midas_umidas,2024:Q3,-3.637404849727072,-10.276180715444305
pseudo,pre_advance,A,ar,midas_umidas,2024:Q4,0.04694255449680947,-10.229238160947496
pseudo,pre_advance,A,ar,monthly_mixed_frequency_kalman_em,2024:Q1,0.8457036448655945,0.8457036448655945
pseudo,pre_advance,A,ar,monthly_mixed_frequency_kalman_em,2024:Q2,0.06017396645717378,0.9058776113227682
pseudo,pre_advance,A,ar,monthly_mixed_frequency_kalman_em,2024:Q3,-0.187833833749074,0.7180437775736942
pseudo,pre_advance,A,ar,monthly_mixed_frequency_kalman_em,2024:Q4,0.007393306947989557,0.7254370845216838
pseudo,pre_advance,A,ar,no_revision,2024:Q1,-0.31218151521482485,-0.31218151521482485
pseudo,pre_advance,A,ar,no_revision,2024:Q2,0.0978852185130688,-0.21429629670175604
pseudo,pre_advance,A,ar,no_revision,2024:Q3,-0.06291573213851451,-0.2772120288402705
pseudo,pre_advance,A,ar,no_revision,2024:Q4,0.026146771737672124,-0.2510652571025984
pseudo,pre_advance,A,ar,release_dfm,2024:Q1,0.5002394336531956,0.5002394336531956
pseudo,pre_advance,A,ar,release_dfm,2024:Q2,0.14451076278167663,0.6447501964348722
pseudo,pre_advance,A,ar,release_dfm,2024:Q3,-0.7857647714127651,-0.14101457497789294
pseudo,pre_advance,A,ar,release_dfm,2024:Q4,0.04294151850460684,-0.0980730564732861
pseudo,pre_advance,A,ar,revision_dfm_kalman_em,2024:Q1,0.7772292129098616,0.7772292129098616
pseudo,pre_advance,A,ar,revision_dfm_kalman_em,2024:Q2,-0.07735630923254563,0.6998729036773159
pseudo,pre_advance,A,ar,revision_dfm_kalman_em,2024:Q3,-0.4815636363676993,0.21830926730961664
pseudo,pre_advance,A,ar,revision_dfm_kalman_em,2024:Q4,0.04262644559558916,0.2609357129052058
pseudo,pre_advance,A,ar,spf,2024:Q1,0.6176035835239486,0.6176035835239486
pseudo,pre_advance,A,ar,spf,2024:Q2,-0.5427808169482209,0.07482276657572773
pseudo,pre_advance,A,ar,spf,2024:Q3,-0.8072172383919204,-0.7323944718161927
pseudo,pre_advance,A,ar,spf,2024:Q4,-0.05692555044772479,-0.7893200222639174
pseudo,pre_advance,A,ar,standard_dfm,2024:Q1,0.5002394336531956,0.5002394336531956
pseudo,pre_advance,A,ar,standard_dfm,2024:Q2,0.14451076278167663,0.6447501964348722
pseudo,pre_advance,A,ar,standard_dfm,2024:Q3,-0.7857647714127651,-0.14101457497789294
pseudo,pre_advance,A,ar,standard_dfm,2024:Q4,0.04294151850460684,-0.0980730564732861
pseudo,pre_advance,A,no_revision,ar,2024:Q1,0.31218151521482485,0.31218151521482485
pseudo,pre_advance,A,no_revision,ar,2024:Q2,-0.0978852185130688,0.21429629670175604
pseudo,pre_advance,A,no_revision,ar,2024:Q3,0.06291573213851451,0.2772120288402705
pseudo,pre_advance,A,no_revision,ar,2024:Q4,-0.026146771737672124,0.2510652571025984
pseudo,pre_advance,A,no_revision,bridge,2024:Q1,1.1351530412411626,1.1351530412411626
pseudo,pre_advance,A,no_revision,bridge,2024:Q2,-0.6586323190775668,0.47652072216359576
pseudo,pre_advance,A,no_revision,bridge,2024:Q3,0.013927043978913062,0.49044776614250885
pseudo,pre_advance,A,no_revision,bridge,2024:Q4,-0.07133554020049701,0.4191122259420118
pseudo,pre_advance,A,no_revision,indicator_revision_only_dfm_kalman_em,2024:Q1,0.53024215428994,0.53024215428994
pseudo,pre_advance,A,no_revision,indicator_revision_only_dfm_kalman_em,2024:Q2,0.048289374554160554,0.5785315288441006
pseudo,pre_advance,A,no_revision,indicator_revision_only_dfm_kalman_em,2024:Q3,-0.20109042707652658,0.37744110176757406
pseudo,pre_advance,A,no_revision,indicator_revision_only_dfm_kalman_em,2024:Q4,-0.03548651685800996,0.3419545849095641
pseudo,pre_advance,A,no_revision,joint_indicator_revision_dfm_full_kalman_em,2024:Q1,0.8576039828673301,0.8576039828673301
pseudo,pre_advance,A,no_revision,joint_indicator_revision_dfm_full_kalman_em,2024:Q2,0.046635160955989956,0.90423914382332
pseudo,pre_advance,A,no_revision,joint_indicator_revision_dfm_full_kalman_em,2024:Q3,-0.5093625447527024,0.3948765990706177
pseudo,pre_advance,A,no_revision,joint_indicator_revision_dfm_full_kalman_em,2024:Q4,0.0227230314095698,0.41759963048018744
pseudo,pre_advance,A,no_revision,midas_umidas,2024:Q1,-6.4527833534047065,-6.4527833534047065
pseudo,pre_advance,A,no_revision,midas_umidas,2024:Q2,0.028303784389229824,-6.424479569015476
pseudo,pre_advance,A,no_revision,midas_umidas,2024:Q3,-3.5744891175885574,-9.998968686604034
pseudo,pre_advance,A,no_revision,midas_umidas,2024:Q4,0.02079578275913735,-9.978172903844897
pseudo,pre_advance,A,no_revision,monthly_mixed_frequency_kalman_em,2024:Q1,1.1578851600804194,1.1578851600804194
pseudo,pre_advance,A,no_revision,monthly_mixed_frequency_kalman_em,2024:Q2,-0.03771125205589502,1.1201739080245243
pseudo,pre_advance,A,no_revision,monthly_mixed_frequency_kalman_em,2024:Q3,-0.1249181016105595,0.9952558064139648
pseudo,pre_advance,A,no_revision,monthly_mixed_frequency_kalman_em,2024:Q4,-0.018753464789682567,0.9765023416242823
pseudo,pre_advance,A,no_revision,release_dfm,2024:Q1,0.8124209488680204,0.8124209488680204
pseudo,pre_advance,A,no_revision,release_dfm,2024:Q2,0.04662554426860782,0.8590464931366282
pseudo,pre_advance,A,no_revision,release_dfm,2024:Q3,-0.7228490392742506,0.13619745386237758
pseudo,pre_advance,A,no_revision,release_dfm,2024:Q4,0.016794746766934713,0.1529922006293123
pseudo,pre_advance,A,no_revision,revision_dfm_kalman_em,2024:Q1,1.0894107281246863,1.0894107281246863
pseudo,pre_advance,A,no_revision,revision_dfm_kalman_em,2024:Q2,-0.17524152774561444,0.9141692003790719
pseudo,pre_advance,A,no_revision,revision_dfm_kalman_em,2024:Q3,-0.4186479042291848,0.4955212961498871
pseudo,pre_advance,A,no_revision,revision_dfm_kalman_em,2024:Q4,0.016479673857917033,0.5120009700078041
pseudo,pre_advance,A,no_revision,spf,2024:Q1,0.9297850987387735,0.9297850987387735
pseudo,pre_advance,A,no_revision,spf,2024:Q2,-0.6406660354612896,0.2891190632774838
pseudo,pre_advance,A,no_revision,spf,2024:Q3,-0.744301506253406,-0.45518244297592214
pseudo,pre_advance,A,no_revision,spf,2024:Q4,-0.08307232218539692,-0.5382547651613191
pseudo,pre_advance,A,no_revision,standard_dfm,2024:Q1,0.8124209488680204,0.8124209488680204
pseudo,pre_advance,A,no_revision,standard_dfm,2024:Q2,0.04662554426860782,0.8590464931366282
pseudo,pre_advance,A,no_revision,standard_dfm,2024:Q3,-0.7228490392742506,0.13619745386237758
pseudo,pre_advance,A,no_revision,standard_dfm,2024:Q4,0.016794746766934713,0.1529922006293123
pseudo,pre_advance,A,bridge,ar,2024:Q1,-0.8229715260263378,-0.8229715260263378
pseudo,pre_advance,A,bridge,ar,2024:Q2,0.560747100564498,-0.2622244254618399
pseudo,pre_advance,A,bridge,ar,2024:Q3,0.048988688159601446,-0.21323573730223844
pseudo,pre_advance,A,bridge,ar,2024:Q4,0.04518876846282488,-0.16804696883941356
pseudo,pre_advance,A,bridge,indicator_revision_only_dfm_kalman_em,2024:Q1,-0.6049108869512226,-0.6049108869512226
pseudo,pre_advance,A,bridge,indicator_revision_only_dfm_kalman_em,2024:Q2,0.7069216936317274,0.10201080668050477
pseudo,pre_advance,A,bridge,indicator_revision_only_dfm_kalman_em,2024:Q3,-0.21501747105543964,-0.11300666437493487
pseudo,pre_advance,A,bridge,indicator_revision_only_dfm_kalman_em,2024:Q4,0.035849023342487046,-0.07715764103244782
pseudo,pre_advance,A,bridge,joint_indicator_revision_dfm_full_kalman_em,2024:Q1,-0.27754905837383265,-0.27754905837383265
pseudo,pre_advance,A,bridge,joint_indicator_revision_dfm_full_kalman_em,2024:Q2,0.7052674800335568,0.4277184216597241
pseudo,pre_advance,A,bridge,joint_indicator_revision_dfm_full_kalman_em,2024:Q3,-0.5232895887316155,-0.09557116707189134
pseudo,pre_advance,A,bridge,joint_indicator_revision_dfm_full_kalman_em,2024:Q4,0.09405857161006681,-0.0015125954618245285
pseudo,pre_advance,A,bridge,midas_umidas,2024:Q1,-7.587936394645869,-7.587936394645869
pseudo,pre_advance,A,bridge,midas_umidas,2024:Q2,0.6869361034667967,-6.901000291179072
pseudo,pre_advance,A,bridge,midas_umidas,2024:Q3,-3.5884161615674706,-10.489416452746543
pseudo,pre_advance,A,bridge,midas_umidas,2024:Q4,0.09213132295963436,-10.397285129786908
pseudo,pre_advance,A,bridge,monthly_mixed_frequency_kalman_em,2024:Q1,0.022732118839256684,0.022732118839256684
pseudo,pre_advance,A,bridge,monthly_mixed_frequency_kalman_em,2024:Q2,0.6209210670216718,0.6436531858609285
pseudo,pre_advance,A,bridge,monthly_mixed_frequency_kalman_em,2024:Q3,-0.13884514558947256,0.5048080402714559
pseudo,pre_advance,A,bridge,monthly_mixed_frequency_kalman_em,2024:Q4,0.05258207541081444,0.5573901156822703
pseudo,pre_advance,A,bridge,no_revision,2024:Q1,-1.1351530412411626,-1.1351530412411626
pseudo,pre_advance,A,bridge,no_revision,2024:Q2,0.6586323190775668,-0.47652072216359576
pseudo,pre_advance,A,bridge,no_revision,2024:Q3,-0.013927043978913062,-0.49044776614250885
pseudo,pre_advance,A,bridge,no_revision,2024:Q4,0.07133554020049701,-0.4191122259420118
pseudo,pre_advance,A,bridge,release_dfm,2024:Q1,-0.32273209237314227,-0.32273209237314227
pseudo,pre_advance,A,bridge,release_dfm,2024:Q2,0.7052578633461746,0.3825257709730323
pseudo,pre_advance,A,bridge,release_dfm,2024:Q3,-0.7367760832531637,-0.3542503122801314
pseudo,pre_advance,A,bridge,release_dfm,2024:Q4,0.08813028696743172,-0.2661200253126996
pseudo,pre_advance,A,bridge,revision_dfm_kalman_em,2024:Q1,-0.04574231311647626,-0.04574231311647626
pseudo,pre_advance,A,bridge,revision_dfm_kalman_em,2024:Q2,0.4833907913319524,0.43764847821547614
pseudo,pre_advance,A,bridge,revision_dfm_kalman_em,2024:Q3,-0.43257494820809783,0.005073530007378313
pseudo,pre_advance,A,bridge,revision_dfm_kalman_em,2024:Q4,0.08781521405841404,0.09288874406579235
pseudo,pre_advance,A,bridge,spf,2024:Q1,-0.20536794250238918,-0.20536794250238918
pseudo,pre_advance,A,bridge,spf,2024:Q2,0.017966283616277168,-0.18740165888611202
pseudo,pre_advance,A,bridge,spf,2024:Q3,-0.7582285502323189,-0.945630209118431
pseudo,pre_advance,A,bridge,spf,2024:Q4,-0.011736781984899913,-0.9573669911033309
pseudo,pre_advance,A,bridge,standard_dfm,2024:Q1,-0.32273209237314227,-0.32273209237314227
pseudo,pre_advance,A,bridge,standard_dfm,2024:Q2,0.7052578633461746,0.3825257709730323
pseudo,pre_advance,A,bridge,standard_dfm,2024:Q3,-0.7367760832531637,-0.3542503122801314
pseudo,pre_advance,A,bridge,standard_dfm,2024:Q4,0.08813028696743172,-0.2661200253126996
pseudo,pre_advance,A,midas_umidas,ar,2024:Q1,6.764964868619531,6.764964868619531
pseudo,pre_advance,A,midas_umidas,ar,2024:Q2,-0.12618900290229862,6.638775865717232
pseudo,pre_advance,A,midas_umidas,ar,2024:Q3,3.637404849727072,10.276180715444305
pseudo,pre_advance,A,midas_umidas,ar,2024:Q4,-0.04694255449680947,10.229238160947496
pseudo,pre_advance,A,midas_umidas,bridge,2024:Q1,7.587936394645869,7.587936394645869
pseudo,pre_advance,A,midas_umidas,bridge,2024:Q2,-0.6869361034667967,6.901000291179072
pseudo,pre_advance,A,midas_umidas,bridge,2024:Q3,3.5884161615674706,10.489416452746543
pseudo,pre_advance,A,midas_umidas,bridge,2024:Q4,-0.09213132295963436,10.397285129786908
pseudo,pre_advance,A,midas_umidas,indicator_revision_only_dfm_kalman_em,2024:Q1,6.983025507694646,6.983025507694646
pseudo,pre_advance,A,midas_umidas,indicator_revision_only_dfm_kalman_em,2024:Q2,0.01998559016493073,7.003011097859576
pseudo,pre_advance,A,midas_umidas,indicator_revision_only_dfm_kalman_em,2024:Q3,3.3733986905120306,10.376409788371607
pseudo,pre_advance,A,midas_umidas,indicator_revision_only_dfm_kalman_em,2024:Q4,-0.056282299617147306,10.32012748875446
pseudo,pre_advance,A,midas_umidas,joint_indicator_revision_dfm_full_kalman_em,2024:Q1,7.310387336272036,7.310387336272036
pseudo,pre_advance,A,midas_umidas,joint_indicator_revision_dfm_full_kalman_em,2024:Q2,0.01833137656676013,7.328718712838796
pseudo,pre_advance,A,midas_umidas,joint_indicator_revision_dfm_full_kalman_em,2024:Q3,3.065126572835855,10.39384528567465
pseudo,pre_advance,A,midas_umidas,joint_indicator_revision_dfm_full_kalman_em,2024:Q4,0.0019272486504324504,10.395772534325083
pseudo,pre_advance,A,midas_umidas,monthly_mixed_frequency_kalman_em,2024:Q1,7.610668513485125,7.610668513485125
pseudo,pre_advance,A,midas_umidas,monthly_mixed_frequency_kalman_em,2024:Q2,-0.06601503644512484,7.544653477040001
pseudo,pre_advance,A,midas_umidas,monthly_mixed_frequency_kalman_em,2024:Q3,3.4495710159779978,10.994224493017999
pseudo,pre_advance,A,midas_umidas,monthly_mixed_frequency_kalman_em,2024:Q4,-0.039549247548819916,10.95467524546918
pseudo,pre_advance,A,midas_umidas,no_revision,2024:Q1,6.4527833534047065,6.4527833534047065
pseudo,pre_advance,A,midas_umidas,no_revision,2024:Q2,-0.028303784389229824,6.424479569015476
pseudo,pre_advance,A,midas_umidas,no_revision,2024:Q3,3.5744891175885574,9.998968686604034
pseudo,pre_advance,A,midas_umidas,no_revision,2024:Q4,-0.02079578275913735,9.978172903844897
pseudo,pre_advance,A,midas_umidas,release_dfm,2024:Q1,7.265204302272727,7.265204302272727
pseudo,pre_advance,A,midas_umidas,release_dfm,2024:Q2,0.018321759879377997,7.283526062152105
pseudo,pre_advance,A,midas_umidas,release_dfm,2024:Q3,2.8516400783143068,10.135166140466412
pseudo,pre_advance,A,midas_umidas,release_dfm,2024:Q4,-0.004001035992202636,10.13116510447421
pseudo,pre_advance,A,midas_umidas,revision_dfm_kalman_em,2024:Q1,7.542194081529392,7.542194081529392
pseudo,pre_advance,A,midas_umidas,revision_dfm_kalman_em,2024:Q2,-0.20354531213484425,7.338648769394548
pseudo,pre_advance,A,midas_umidas,revision_dfm_kalman_em,2024:Q3,3.1558412133593725,10.49448998275392
pseudo,pre_advance,A,midas_umidas,revision_dfm_kalman_em,2024:Q4,-0.004316108901220316,10.4901738738527
pseudo,pre_advance,A,midas_umidas,spf,2024:Q1,7.382568452143479,7.382568452143479
pseudo,pre_advance,A,midas_umidas,spf,2024:Q2,-0.6689698198505195,6.7135986322929595
pseudo,pre_advance,A,midas_umidas,spf,2024:Q3,2.8301876113351514,9.54378624362811
pseudo,pre_advance,A,midas_umidas,spf,2024:Q4,-0.10386810494453427,9.439918138683575
pseudo,pre_advance,A,midas_umidas,standard_dfm,2024:Q1,7.265204302272727,7.265204302272727
pseudo,pre_advance,A,midas_umidas,standard_dfm,2024:Q2,0.018321759879377997,7.283526062152105
pseudo,pre_advance,A,midas_umidas,standard_dfm,2024:Q3,2.8516400783143068,10.135166140466412
pseudo,pre_advance,A,midas_umidas,standard_dfm,2024:Q4,-0.004001035992202636,10.13116510447421
pseudo,pre_advance,A,spf,ar,2024:Q1,-0.6176035835239486,-0.6176035835239486
pseudo,pre_advance,A,spf,ar,2024:Q2,0.5427808169482209,-0.07482276657572773
pseudo,pre_advance,A,spf,ar,2024:Q3,0.8072172383919204,0.7323944718161927
pseudo,pre_advance,A,spf,ar,2024:Q4,0.05692555044772479,0.7893200222639174
pseudo,pre_advance,A,spf,bridge,2024:Q1,0.20536794250238918,0.20536794250238918
pseudo,pre_advance,A,spf,bridge,2024:Q2,-0.017966283616277168,0.18740165888611202
pseudo,pre_advance,A,spf,bridge,2024:Q3,0.7582285502323189,0.945630209118431
pseudo,pre_advance,A,spf,bridge,2024:Q4,0.011736781984899913,0.9573669911033309
pseudo,pre_advance,A,spf,indicator_revision_only_dfm_kalman_em,2024:Q1,-0.3995429444488334,-0.3995429444488334
pseudo,pre_advance,A,spf,indicator_revision_only_dfm_kalman_em,2024:Q2,0.6889554100154502,0.2894124655666168
pseudo,pre_advance,A,spf,indicator_revision_only_dfm_kalman_em,2024:Q3,0.5432110791768794,0.8326235447434962
pseudo,pre_advance,A,spf,indicator_revision_only_dfm_kalman_em,2024:Q4,0.04758580532738696,0.8802093500708832
pseudo,pre_advance,A,spf,joint_indicator_revision_dfm_full_kalman_em,2024:Q1,-0.07218111587144344,-0.07218111587144344
pseudo,pre_advance,A,spf,joint_indicator_revision_dfm_full_kalman_em,2024:Q2,0.6873011964172796,0.6151200805458361
pseudo,pre_advance,A,spf,joint_indicator_revision_dfm_full_kalman_em,2024:Q3,0.23493896150070348,0.8500590420465396
pseudo,pre_advance,A,spf,joint_indicator_revision_dfm_full_kalman_em,2024:Q4,0.10579535359496672,0.9558543956415063
pseudo,pre_advance,A,spf,midas_umidas,2024:Q1,-7.382568452143479,-7.382568452143479
pseudo,pre_advance,A,spf,midas_umidas,2024:Q2,0.6689698198505195,-6.7135986322929595
pseudo,pre_advance,A,spf,midas_umidas,2024:Q3,-2.8301876113351514,-9.54378624362811
pseudo,pre_advance,A,spf,midas_umidas,2024:Q4,0.10386810494453427,-9.439918138683575
pseudo,pre_advance,A,spf,monthly_mixed_frequency_kalman_em,2024:Q1,0.22810006134164587,0.22810006134164587
pseudo,pre_advance,A,spf,monthly_mixed_frequency_kalman_em,2024:Q2,0.6029547834053947,0.8310548447470405
pseudo,pre_advance,A,spf,monthly_mixed_frequency_kalman_em,2024:Q3,0.6193834046428464,1.4504382493898869
pseudo,pre_advance,A,spf,monthly_mixed_frequency_kalman_em,2024:Q4,0.06431885739571436,1.5147571067856012
pseudo,pre_advance,A,spf,no_revision,2024:Q1,-0.9297850987387735,-0.9297850987387735
pseudo,pre_advance,A,spf,no_revision,2024:Q2,0.6406660354612896,-0.2891190632774838
pseudo,pre_advance,A,spf,no_revision,2024:Q3,0.744301506253406,0.45518244297592214
pseudo,pre_advance,A,spf,no_revision,2024:Q4,0.08307232218539692,0.5382547651613191
pseudo,pre_advance,A,spf,release_dfm,2024:Q1,-0.11736414987075305,-0.11736414987075305
pseudo,pre_advance,A,spf,release_dfm,2024:Q2,0.6872915797298974,0.5699274298591444
pseudo,pre_advance,A,spf,release_dfm,2024:Q3,0.02145246697915526,0.5913798968382996
pseudo,pre_advance,A,spf,release_dfm,2024:Q4,0.09986706895233163,0.6912469657906313
pseudo,pre_advance,A,spf,revision_dfm_kalman_em,2024:Q1,0.15962562938591293,0.15962562938591293
pseudo,pre_advance,A,spf,revision_dfm_kalman_em,2024:Q2,0.46542450771567523,0.6250501371015882
pseudo,pre_advance,A,spf,revision_dfm_kalman_em,2024:Q3,0.3256536020242211,0.9507037391258093
pseudo,pre_advance,A,spf,revision_dfm_kalman_em,2024:Q4,0.09955199604331395,1.0502557351691233
pseudo,pre_advance,A,spf,standard_dfm,2024:Q1,-0.11736414987075305,-0.11736414987075305
pseudo,pre_advance,A,spf,standard_dfm,2024:Q2,0.6872915797298974,0.5699274298591444
pseudo,pre_advance,A,spf,standard_dfm,2024:Q3,0.02145246697915526,0.5913798968382996
pseudo,pre_advance,A,spf,standard_dfm,2024:Q4,0.09986706895233163,0.6912469657906313
pseudo,pre_advance,A,standard_dfm,ar,2024:Q1,-0.5002394336531956,-0.5002394336531956
pseudo,pre_advance,A,standard_dfm,ar,2024:Q2,-0.14451076278167663,-0.6447501964348722
pseudo,pre_advance,A,standard_dfm,ar,2024:Q3,0.7857647714127651,0.14101457497789294
pseudo,pre_advance,A,standard_dfm,ar,2024:Q4,-0.04294151850460684,0.0980730564732861
pseudo,pre_advance,A,standard_dfm,bridge,2024:Q1,0.32273209237314227,0.32273209237314227
pseudo,pre_advance,A,standard_dfm,bridge,2024:Q2,-0.7052578633461746,-0.3825257709730323
pseudo,pre_advance,A,standard_dfm,bridge,2024:Q3,0.7367760832531637,0.3542503122801314
pseudo,pre_advance,A,standard_dfm,bridge,2024:Q4,-0.08813028696743172,0.2661200253126996
pseudo,pre_advance,A,standard_dfm,indicator_revision_only_dfm_kalman_em,2024:Q1,-0.28217879457808037,-0.28217879457808037
pseudo,pre_advance,A,standard_dfm,indicator_revision_only_dfm_kalman_em,2024:Q2,0.0016638302855527323,-0.28051496429252765
