haminh109/Revision-Aware-DFM/outputs/full_state_space_release_revision_dfm/sensitivity_k3_max_iter100_journal_evidence/common_sample_spf_point.csv
timing_mode,checkpoint_id,outcome_id,anchor_model,model_id,n_common_forecasts,RMSE,MAE,bias,first_target_quarter,last_target_quarter
exact,pre_advance,A,spf,ar,80,7.136876466075766,2.4019986787197354,-0.034883682192518715,2005:Q1,2024:Q4
exact,pre_advance,A,spf,bridge,80,4.873697083215684,2.0735239008375914,-0.08665986755250973,2005:Q1,2024:Q4
exact,pre_advance,A,spf,indicator_revision_only_dfm_kalman_em,80,4.453767579975633,2.2565069312193393,0.22112472837281666,2005:Q1,2024:Q4
exact,pre_advance,A,spf,joint_indicator_revision_dfm_full_kalman_em,80,4.612374919226848,2.212921056418875,0.07008407903088697,2005:Q1,2024:Q4
exact,pre_advance,A,spf,midas_umidas,80,13.366462459511451,8.137926816908715,-1.4902070873137654,2005:Q1,2024:Q4
exact,pre_advance,A,spf,monthly_mixed_frequency_kalman_em,80,3.769974495515115,2.1120496282473717,-0.04037539853137303,2005:Q1,2024:Q4
exact,pre_advance,A,spf,no_revision,80,7.26944298718703,2.553570419453158,-0.19438472290895642,2005:Q1,2024:Q4
exact,pre_advance,A,spf,release_dfm,80,3.1101832707747743,1.6702794376585182,0.2966283723729294,2005:Q1,2024:Q4
exact,pre_advance,A,spf,revision_dfm_kalman_em,80,3.794507389294578,1.9841640791081887,0.12794716109753068,2005:Q1,2024:Q4
exact,pre_advance,A,spf,spf,80,2.2249600782092696,1.3380662499999998,0.03248624999999996,2005:Q1,2024:Q4
exact,pre_advance,A,spf,standard_dfm,80,3.1101832707747743,1.6702794376585182,0.2966283723729294,2005:Q1,2024:Q4
exact,pre_second,S,spf,ar,79,6.942115480721942,2.4901407735357477,0.04251227511661703,2005:Q1,2024:Q4
exact,pre_second,S,spf,bridge,79,4.54265384858136,2.082360160345379,-0.05675651704617075,2005:Q1,2024:Q4
exact,pre_second,S,spf,indicator_revision_only_dfm_kalman_em,79,0.594107327194403,0.4540015856236239,-0.020352868436939075,2005:Q1,2024:Q4
exact,pre_second,S,spf,joint_indicator_revision_dfm_full_kalman_em,79,0.6419939444284923,0.47178608784039455,0.020594556684230773,2005:Q1,2024:Q4
exact,pre_second,S,spf,midas_umidas,79,4.770330173182115,2.0735614295798213,0.42856838831025096,2005:Q1,2024:Q4
exact,pre_second,S,spf,monthly_mixed_frequency_kalman_em,79,0.6979436071904094,0.44478957578566597,0.0998225604317228,2005:Q1,2024:Q4
exact,pre_second,S,spf,no_revision,79,0.5696627235545563,0.3997025316455695,-0.0657987341772152,2005:Q1,2024:Q4
exact,pre_second,S,spf,release_dfm,79,0.6928852006794348,0.49806287513977776,0.011594579861923585,2005:Q1,2024:Q4
exact,pre_second,S,spf,revision_dfm_kalman_em,79,0.6171724895248861,0.46028833381138223,0.02853163573639646,2005:Q1,2024:Q4
exact,pre_second,S,spf,spf,79,2.3374416593545337,1.447506329113924,-0.03323291139240504,2005:Q1,2024:Q4
exact,pre_second,S,spf,standard_dfm,79,2.9084851897204858,1.701164542762179,0.3060310877842099,2005:Q1,2024:Q4
exact,pre_third,T,spf,ar,80,6.853900266254954,2.504536216607909,0.0681353139194,2005:Q1,2024:Q4
exact,pre_third,T,spf,bridge,80,4.401929763157702,2.034724902716331,-0.03986372387584931,2005:Q1,2024:Q4
exact,pre_third,T,spf,indicator_revision_only_dfm_kalman_em,80,0.3710981970416506,0.24196460908112064,-0.04774321117922191,2005:Q1,2024:Q4
exact,pre_third,T,spf,joint_indicator_revision_dfm_full_kalman_em,80,0.37384265547176443,0.2465298407460347,-0.03848880264767786,2005:Q1,2024:Q4
exact,pre_third,T,spf,midas_umidas,80,6.190490508808118,2.464334501422888,0.3600422160923934,2005:Q1,2024:Q4
exact,pre_third,T,spf,monthly_mixed_frequency_kalman_em,80,0.37536034437907595,0.2528818455100989,0.01586083528874651,2005:Q1,2024:Q4
exact,pre_third,T,spf,no_revision,80,0.36218671255306983,0.24027250000000003,-0.04849250000000001,2005:Q1,2024:Q4
exact,pre_third,T,spf,release_dfm,80,0.46410352616338063,0.31942189565781287,0.007332562778124632,2005:Q1,2024:Q4
exact,pre_third,T,spf,revision_dfm_kalman_em,80,0.3721381188740127,0.24696184353838774,-0.04040100109009513,2005:Q1,2024:Q4
exact,pre_third,T,spf,spf,80,2.380187605841187,1.481165,-0.08098250000000004,2005:Q1,2024:Q4
exact,pre_third,T,spf,standard_dfm,80,2.906679657707941,1.7384441507998172,0.32078065578878023,2005:Q1,2024:Q4
pseudo,pre_advance,A,spf,ar,80,7.136876466075766,2.4019986787197354,-0.034883682192518715,2005:Q1,2024:Q4
pseudo,pre_advance,A,spf,bridge,80,4.853299396730428,2.061680360176223,-0.06262122829072408,2005:Q1,2024:Q4
pseudo,pre_advance,A,spf,indicator_revision_only_dfm_kalman_em,80,4.492631992185045,2.2631510486072175,0.22542476129022776,2005:Q1,2024:Q4
pseudo,pre_advance,A,spf,joint_indicator_revision_dfm_full_kalman_em,80,4.685839660834342,2.222362390252588,0.07048926768779881,2005:Q1,2024:Q4
pseudo,pre_advance,A,spf,midas_umidas,80,13.553973435987377,8.229496807263976,-1.5805326543917775,2005:Q1,2024:Q4
pseudo,pre_advance,A,spf,monthly_mixed_frequency_kalman_em,80,3.8025831889047166,2.1152284355430564,-0.03389489661247223,2005:Q1,2024:Q4
pseudo,pre_advance,A,spf,no_revision,80,7.26944298718703,2.553570419453158,-0.19438472290895642,2005:Q1,2024:Q4
pseudo,pre_advance,A,spf,release_dfm,80,3.088406299146455,1.6561313063487755,0.32233605437505536,2005:Q1,2024:Q4
pseudo,pre_advance,A,spf,revision_dfm_kalman_em,80,3.8086707628352405,1.9852979695728856,0.12903166250570597,2005:Q1,2024:Q4
pseudo,pre_advance,A,spf,spf,80,2.2249600782092696,1.3380662499999998,0.03248624999999996,2005:Q1,2024:Q4
pseudo,pre_advance,A,spf,standard_dfm,80,3.088406299146455,1.6561313063487755,0.32233605437505536,2005:Q1,2024:Q4
pseudo,pre_second,S,spf,ar,79,6.942115480721942,2.4901407735357477,0.04251227511661703,2005:Q1,2024:Q4
pseudo,pre_second,S,spf,bridge,79,4.542167880186523,2.069129516390108,-0.05619203697229968,2005:Q1,2024:Q4
pseudo,pre_second,S,spf,indicator_revision_only_dfm_kalman_em,79,0.5937726197893166,0.45362278991222776,-0.020281100967160588,2005:Q1,2024:Q4
pseudo,pre_second,S,spf,joint_indicator_revision_dfm_full_kalman_em,79,0.6406473654296413,0.470739750674123,0.019919970993342404,2005:Q1,2024:Q4
pseudo,pre_second,S,spf,midas_umidas,79,4.7627716394170765,2.056091631829284,0.39163177288133166,2005:Q1,2024:Q4
pseudo,pre_second,S,spf,monthly_mixed_frequency_kalman_em,79,0.6304564547982026,0.4316802812218648,0.08065536782412588,2005:Q1,2024:Q4
pseudo,pre_second,S,spf,no_revision,79,0.5696627235545563,0.3997025316455695,-0.0657987341772152,2005:Q1,2024:Q4
pseudo,pre_second,S,spf,release_dfm,79,0.6926399404529601,0.4976904129948085,0.011147463575716169,2005:Q1,2024:Q4
pseudo,pre_second,S,spf,revision_dfm_kalman_em,79,0.6161800798230557,0.4601635510450584,0.026781189161796205,2005:Q1,2024:Q4
pseudo,pre_second,S,spf,spf,79,2.3374416593545337,1.447506329113924,-0.03323291139240504,2005:Q1,2024:Q4
pseudo,pre_second,S,spf,standard_dfm,79,2.895843614358702,1.69172455742834,0.30807350240470555,2005:Q1,2024:Q4
pseudo,pre_third,T,spf,ar,80,6.853900266254954,2.504536216607909,0.0681353139194,2005:Q1,2024:Q4
pseudo,pre_third,T,spf,bridge,80,4.398694165093339,2.023836204423721,-0.037244391964048586,2005:Q1,2024:Q4
pseudo,pre_third,T,spf,indicator_revision_only_dfm_kalman_em,80,0.3709976879203673,0.2418686892776853,-0.04777758023013673,2005:Q1,2024:Q4
pseudo,pre_third,T,spf,joint_indicator_revision_dfm_full_kalman_em,80,0.373924547904313,0.24676783609003464,-0.03843761205833528,2005:Q1,2024:Q4
pseudo,pre_third,T,spf,midas_umidas,80,6.186914482958172,2.466880937795282,0.38281850628520886,2005:Q1,2024:Q4
pseudo,pre_third,T,spf,monthly_mixed_frequency_kalman_em,80,0.3721930983578229,0.24920416201688825,0.014017893887437849,2005:Q1,2024:Q4
pseudo,pre_third,T,spf,no_revision,80,0.36218671255306983,0.24027250000000003,-0.04849250000000001,2005:Q1,2024:Q4
pseudo,pre_third,T,spf,release_dfm,80,0.4638461740655606,0.3188861535757056,0.007460359065366717,2005:Q1,2024:Q4
pseudo,pre_third,T,spf,revision_dfm_kalman_em,80,0.3722989154461518,0.24721932874251912,-0.04021161851473416,2005:Q1,2024:Q4
pseudo,pre_third,T,spf,spf,80,2.380187605841187,1.481165,-0.08098250000000004,2005:Q1,2024:Q4
pseudo,pre_third,T,spf,standard_dfm,80,2.903824502046682,1.7311705224062302,0.32625311177417204,2005:Q1,2024:Q4
