haminh109/Revision-Aware-DFM/outputs/full_state_space_release_revision_dfm/sensitivity_k3_max_iter100_journal_evidence/cumulative_loss_point.csv
timing_mode,checkpoint_id,outcome_id,baseline_model,model_id,target_quarter,loss_diff_baseline_minus_model,cumulative_loss_diff
exact,pre_advance,A,ar,bridge,2005:Q1,0.026508366163050863,0.026508366163050863
exact,pre_advance,A,ar,bridge,2005:Q2,0.2560509148806347,0.28255928104368555
exact,pre_advance,A,ar,bridge,2005:Q3,-0.1145844705953406,0.16797481044834495
exact,pre_advance,A,ar,bridge,2005:Q4,-1.0670534169249262,-0.8990786064765812
exact,pre_advance,A,ar,bridge,2006:Q1,1.635650125619935,0.7365715191433537
exact,pre_advance,A,ar,bridge,2006:Q2,0.7676987547042062,1.50427027384756
exact,pre_advance,A,ar,bridge,2006:Q3,-0.11413741897171992,1.39013285487584
exact,pre_advance,A,ar,bridge,2006:Q4,-11.423735984280235,-10.033603129404394
exact,pre_advance,A,ar,bridge,2007:Q1,2.9288243316873825,-7.104778797717012
exact,pre_advance,A,ar,bridge,2007:Q2,-0.571880895833992,-7.676659693551004
exact,pre_advance,A,ar,bridge,2007:Q3,-4.421703232049935,-12.098362925600938
exact,pre_advance,A,ar,bridge,2007:Q4,6.981606042021606,-5.116756883579332
exact,pre_advance,A,ar,bridge,2008:Q1,-0.8428265241404629,-5.959583407719795
exact,pre_advance,A,ar,bridge,2008:Q2,-0.577590180740207,-6.537173588460002
exact,pre_advance,A,ar,bridge,2008:Q3,6.239153415743342,-0.2980201727166598
exact,pre_advance,A,ar,bridge,2008:Q4,18.935021625538596,18.637001452821934
exact,pre_advance,A,ar,bridge,2009:Q1,28.976487905078283,47.61348935790022
exact,pre_advance,A,ar,bridge,2009:Q2,-1.09729785178964,46.51619150611058
exact,pre_advance,A,ar,bridge,2009:Q3,4.302859584500106,50.819051090610685
exact,pre_advance,A,ar,bridge,2009:Q4,0.8405391500749353,51.65959024068562
exact,pre_advance,A,ar,bridge,2010:Q1,-7.902887294564819,43.7567029461208
exact,pre_advance,A,ar,bridge,2010:Q2,0.011858308232203796,43.768561254353
exact,pre_advance,A,ar,bridge,2010:Q3,0.18832454713788038,43.956885801490884
exact,pre_advance,A,ar,bridge,2010:Q4,0.2765286183734815,44.23341441986437
exact,pre_advance,A,ar,bridge,2011:Q1,-2.6235720668932383,41.60984235297113
exact,pre_advance,A,ar,bridge,2011:Q2,-1.4729019751695827,40.136940377801544
exact,pre_advance,A,ar,bridge,2011:Q3,-0.0022523077665632663,40.13468807003498
exact,pre_advance,A,ar,bridge,2011:Q4,-1.0827571627863521,39.05193090724863
exact,pre_advance,A,ar,bridge,2012:Q1,-1.0541537717065788,37.99777713554205
exact,pre_advance,A,ar,bridge,2012:Q2,-0.48417209242578196,37.51360504311627
exact,pre_advance,A,ar,bridge,2012:Q3,-0.5745739215873321,36.93903112152894
exact,pre_advance,A,ar,bridge,2012:Q4,-8.166100960885938,28.772930160643003
exact,pre_advance,A,ar,bridge,2013:Q1,0.7861555844576769,29.55908574510068
exact,pre_advance,A,ar,bridge,2013:Q2,-0.38246131422934515,29.176624430871335
exact,pre_advance,A,ar,bridge,2013:Q3,-0.46677534104159646,28.70984908982974
exact,pre_advance,A,ar,bridge,2013:Q4,-0.03976541271587547,28.670083677113862
exact,pre_advance,A,ar,bridge,2014:Q1,3.920388840588135,32.590472517702
exact,pre_advance,A,ar,bridge,2014:Q2,4.10619434075463,36.696666858456624
exact,pre_advance,A,ar,bridge,2014:Q3,-0.056094443733069724,36.64057241472355
exact,pre_advance,A,ar,bridge,2014:Q4,0.15759851648912765,36.79817093121268
exact,pre_advance,A,ar,bridge,2015:Q1,3.3836744740684477,40.18184540528113
exact,pre_advance,A,ar,bridge,2015:Q2,0.8610543008872913,41.04289970616842
exact,pre_advance,A,ar,bridge,2015:Q3,0.6136721270869124,41.656571833255335
exact,pre_advance,A,ar,bridge,2015:Q4,0.6515995292412726,42.30817136249661
exact,pre_advance,A,ar,bridge,2016:Q1,0.7787481652209838,43.08691952771759
exact,pre_advance,A,ar,bridge,2016:Q2,0.05979701929442681,43.14671654701202
exact,pre_advance,A,ar,bridge,2016:Q3,0.36377552260716206,43.51049206961918
exact,pre_advance,A,ar,bridge,2016:Q4,-0.7375381686773931,42.772953900941786
exact,pre_advance,A,ar,bridge,2017:Q1,-0.6640699525926914,42.108883948349096
exact,pre_advance,A,ar,bridge,2017:Q2,-0.12694577975501653,41.98193816859408
exact,pre_advance,A,ar,bridge,2017:Q3,-0.3142545493377593,41.667683619256316
exact,pre_advance,A,ar,bridge,2017:Q4,-1.1500300216843709,40.51765359757194
exact,pre_advance,A,ar,bridge,2018:Q1,-0.8594179119067495,39.6582356856652
exact,pre_advance,A,ar,bridge,2018:Q2,0.39498998888680337,40.053225674552
exact,pre_advance,A,ar,bridge,2018:Q3,-0.14385888757446905,39.909366786977536
exact,pre_advance,A,ar,bridge,2018:Q4,0.09068553162124561,40.00005231859878
exact,pre_advance,A,ar,bridge,2019:Q1,-0.10760998024848467,39.8924423383503
exact,pre_advance,A,ar,bridge,2019:Q2,0.6089661755654483,40.50140851391575
exact,pre_advance,A,ar,bridge,2019:Q3,-0.33271829282384147,40.16869022109191
exact,pre_advance,A,ar,bridge,2019:Q4,-0.1678155923048119,40.000874628787095
exact,pre_advance,A,ar,bridge,2020:Q1,9.102458446038142,49.10333307482524
exact,pre_advance,A,ar,bridge,2020:Q2,532.6153717534214,581.7187048282467
exact,pre_advance,A,ar,bridge,2020:Q3,1642.8717471955658,2224.5904520238128
exact,pre_advance,A,ar,bridge,2020:Q4,-25.236584640080753,2199.353867383732
exact,pre_advance,A,ar,bridge,2021:Q1,12.991205256378658,2212.3450726401106
exact,pre_advance,A,ar,bridge,2021:Q2,15.009953845689985,2227.3550264858004
exact,pre_advance,A,ar,bridge,2021:Q3,-0.30513387574141126,2227.049892610059
exact,pre_advance,A,ar,bridge,2021:Q4,-0.541655458264021,2226.508237151795
exact,pre_advance,A,ar,bridge,2022:Q1,-27.2405600181471,2199.2676771336482
exact,pre_advance,A,ar,bridge,2022:Q2,2.316800833701395,2201.58447796735
exact,pre_advance,A,ar,bridge,2022:Q3,-3.065977252215903,2198.518500715134
exact,pre_advance,A,ar,bridge,2022:Q4,-18.358927656569055,2180.159573058565
exact,pre_advance,A,ar,bridge,2023:Q1,1.7468284771528175,2181.906401535718
exact,pre_advance,A,ar,bridge,2023:Q2,-1.406930289536204,2180.4994712461817
exact,pre_advance,A,ar,bridge,2023:Q3,0.36157263477534407,2180.861043880957
exact,pre_advance,A,ar,bridge,2023:Q4,-6.352938995644128,2174.5081048853126
exact,pre_advance,A,ar,bridge,2024:Q1,0.7855773239734216,2175.293682209286
exact,pre_advance,A,ar,bridge,2024:Q2,-0.6561092188970701,2174.637572990389
exact,pre_advance,A,ar,bridge,2024:Q3,-0.07053545014004434,2174.5670375402487
exact,pre_advance,A,ar,bridge,2024:Q4,-0.00044289376299851135,2174.5665946464856
exact,pre_advance,A,ar,indicator_revision_only_dfm_kalman_em,2005:Q1,-4.7524237957596975,-4.7524237957596975
exact,pre_advance,A,ar,indicator_revision_only_dfm_kalman_em,2005:Q2,0.236101570556958,-4.51632222520274
exact,pre_advance,A,ar,indicator_revision_only_dfm_kalman_em,2005:Q3,0.3221627922820091,-4.19415943292073
exact,pre_advance,A,ar,indicator_revision_only_dfm_kalman_em,2005:Q4,-2.913124121437934,-7.1072835543586645
exact,pre_advance,A,ar,indicator_revision_only_dfm_kalman_em,2006:Q1,8.239964403901324,1.132680849542659
exact,pre_advance,A,ar,indicator_revision_only_dfm_kalman_em,2006:Q2,-0.8748322859947142,0.25784856354794483
exact,pre_advance,A,ar,indicator_revision_only_dfm_kalman_em,2006:Q3,-0.3862203002876823,-0.12837173673973745
exact,pre_advance,A,ar,indicator_revision_only_dfm_kalman_em,2006:Q4,-12.785970996481847,-12.914342733221584
exact,pre_advance,A,ar,indicator_revision_only_dfm_kalman_em,2007:Q1,-6.380630321684889,-19.294973054906475
exact,pre_advance,A,ar,indicator_revision_only_dfm_kalman_em,2007:Q2,-3.3633407360719367,-22.65831379097841
exact,pre_advance,A,ar,indicator_revision_only_dfm_kalman_em,2007:Q3,-8.110121117666647,-30.76843490864506
exact,pre_advance,A,ar,indicator_revision_only_dfm_kalman_em,2007:Q4,0.05984525033077226,-30.70858965831429
exact,pre_advance,A,ar,indicator_revision_only_dfm_kalman_em,2008:Q1,-4.54543757044787,-35.254027228762155
exact,pre_advance,A,ar,indicator_revision_only_dfm_kalman_em,2008:Q2,-0.20439007396012518,-35.45841730272228
exact,pre_advance,A,ar,indicator_revision_only_dfm_kalman_em,2008:Q3,-9.847783071862093,-45.30620037458438
exact,pre_advance,A,ar,indicator_revision_only_dfm_kalman_em,2008:Q4,-11.28124235673788,-56.587442731322255
exact,pre_advance,A,ar,indicator_revision_only_dfm_kalman_em,2009:Q1,31.140655760949073,-25.446786970373182
exact,pre_advance,A,ar,indicator_revision_only_dfm_kalman_em,2009:Q2,-6.692158117109788,-32.138945087482966
exact,pre_advance,A,ar,indicator_revision_only_dfm_kalman_em,2009:Q3,3.802553470968122,-28.336391616514845
exact,pre_advance,A,ar,indicator_revision_only_dfm_kalman_em,2009:Q4,-1.6932926179814682,-30.029684234496315
exact,pre_advance,A,ar,indicator_revision_only_dfm_kalman_em,2010:Q1,-3.2314395769624946,-33.26112381145881
exact,pre_advance,A,ar,indicator_revision_only_dfm_kalman_em,2010:Q2,-0.599406839773712,-33.86053065123252
exact,pre_advance,A,ar,indicator_revision_only_dfm_kalman_em,2010:Q3,0.1927036632500405,-33.66782698798248
exact,pre_advance,A,ar,indicator_revision_only_dfm_kalman_em,2010:Q4,0.7612665049259252,-32.90656048305655
exact,pre_advance,A,ar,indicator_revision_only_dfm_kalman_em,2011:Q1,-8.50117507426911,-41.407735557325665
exact,pre_advance,A,ar,indicator_revision_only_dfm_kalman_em,2011:Q2,-2.9082685653309417,-44.31600412265661
exact,pre_advance,A,ar,indicator_revision_only_dfm_kalman_em,2011:Q3,-1.1287412446637508,-45.44474536732036
exact,pre_advance,A,ar,indicator_revision_only_dfm_kalman_em,2011:Q4,-2.641085505830447,-48.085830873150805
exact,pre_advance,A,ar,indicator_revision_only_dfm_kalman_em,2012:Q1,-5.004843993312818,-53.09067486646362
exact,pre_advance,A,ar,indicator_revision_only_dfm_kalman_em,2012:Q2,-1.6821250263260241,-54.77279989278965
exact,pre_advance,A,ar,indicator_revision_only_dfm_kalman_em,2012:Q3,-0.6859089873774544,-55.4587088801671
exact,pre_advance,A,ar,indicator_revision_only_dfm_kalman_em,2012:Q4,-7.72645934742725,-63.18516822759435
exact,pre_advance,A,ar,indicator_revision_only_dfm_kalman_em,2013:Q1,0.46633279787545234,-62.7188354297189
exact,pre_advance,A,ar,indicator_revision_only_dfm_kalman_em,2013:Q2,-0.38850173706657576,-63.10733716678548
exact,pre_advance,A,ar,indicator_revision_only_dfm_kalman_em,2013:Q3,0.5527685352698429,-62.554568631515636
exact,pre_advance,A,ar,indicator_revision_only_dfm_kalman_em,2013:Q4,-6.208027774041608,-68.76259640555725
exact,pre_advance,A,ar,indicator_revision_only_dfm_kalman_em,2014:Q1,4.049073715557,-64.71352269000025
exact,pre_advance,A,ar,indicator_revision_only_dfm_kalman_em,2014:Q2,6.705584025929174,-58.00793866407107
exact,pre_advance,A,ar,indicator_revision_only_dfm_kalman_em,2014:Q3,0.05167047243760785,-57.95626819163346
exact,pre_advance,A,ar,indicator_revision_only_dfm_kalman_em,2014:Q4,-0.7871265227246984,-58.74339471435816
exact,pre_advance,A,ar,indicator_revision_only_dfm_kalman_em,2015:Q1,4.902105573024556,-53.841289141333604
exact,pre_advance,A,ar,indicator_revision_only_dfm_kalman_em,2015:Q2,-1.081912646038739,-54.92320178737234
exact,pre_advance,A,ar,indicator_revision_only_dfm_kalman_em,2015:Q3,0.7453163453636236,-54.177885442008716
exact,pre_advance,A,ar,indicator_revision_only_dfm_kalman_em,2015:Q4,-2.5947760138996783,-56.77266145590839
exact,pre_advance,A,ar,indicator_revision_only_dfm_kalman_em,2016:Q1,0.7008812312489547,-56.071780224659435
exact,pre_advance,A,ar,indicator_revision_only_dfm_kalman_em,2016:Q2,-1.4003669274988293,-57.472147152158264
exact,pre_advance,A,ar,indicator_revision_only_dfm_kalman_em,2016:Q3,0.9363971076949468,-56.53575004446332
exact,pre_advance,A,ar,indicator_revision_only_dfm_kalman_em,2016:Q4,-1.2205198095975427,-57.75626985406086
exact,pre_advance,A,ar,indicator_revision_only_dfm_kalman_em,2017:Q1,-3.214637295413264,-60.97090714947412
exact,pre_advance,A,ar,indicator_revision_only_dfm_kalman_em,2017:Q2,0.5008520887243839,-60.470055060749736
exact,pre_advance,A,ar,indicator_revision_only_dfm_kalman_em,2017:Q3,-0.8509911636814553,-61.32104622443119
exact,pre_advance,A,ar,indicator_revision_only_dfm_kalman_em,2017:Q4,-11.77968090628883,-73.10072713072002
exact,pre_advance,A,ar,indicator_revision_only_dfm_kalman_em,2018:Q1,-1.2094259211479674,-74.31015305186799
exact,pre_advance,A,ar,indicator_revision_only_dfm_kalman_em,2018:Q2,0.8156533979146032,-73.49449965395338
exact,pre_advance,A,ar,indicator_revision_only_dfm_kalman_em,2018:Q3,0.004459415800450395,-73.49004023815293
exact,pre_advance,A,ar,indicator_revision_only_dfm_kalman_em,2018:Q4,-0.7618572327329838,-74.25189747088591
exact,pre_advance,A,ar,indicator_revision_only_dfm_kalman_em,2019:Q1,-2.745012913853632,-76.99691038473954
exact,pre_advance,A,ar,indicator_revision_only_dfm_kalman_em,2019:Q2,0.6058586580469535,-76.39105172669258
exact,pre_advance,A,ar,indicator_revision_only_dfm_kalman_em,2019:Q3,-2.4180734476527816,-78.80912517434537
exact,pre_advance,A,ar,indicator_revision_only_dfm_kalman_em,2019:Q4,-0.1387239472977546,-78.94784912164312
exact,pre_advance,A,ar,indicator_revision_only_dfm_kalman_em,2020:Q1,33.04535148660028,-45.902497635042835
exact,pre_advance,A,ar,indicator_revision_only_dfm_kalman_em,2020:Q2,711.983736240363,666.0812386053201
exact,pre_advance,A,ar,indicator_revision_only_dfm_kalman_em,2020:Q3,1861.6395132888435,2527.7207518941636
exact,pre_advance,A,ar,indicator_revision_only_dfm_kalman_em,2020:Q4,-2.318438270959839,2525.402313623204
exact,pre_advance,A,ar,indicator_revision_only_dfm_kalman_em,2021:Q1,-1.2120736149465383,2524.1902400082577
exact,pre_advance,A,ar,indicator_revision_only_dfm_kalman_em,2021:Q2,5.000041362582264,2529.19028137084
exact,pre_advance,A,ar,indicator_revision_only_dfm_kalman_em,2021:Q3,-7.709593775044608,2521.480687595795
exact,pre_advance,A,ar,indicator_revision_only_dfm_kalman_em,2021:Q4,14.449987236820121,2535.9306748326153
exact,pre_advance,A,ar,indicator_revision_only_dfm_kalman_em,2022:Q1,-38.18256885815712,2497.748105974458
exact,pre_advance,A,ar,indicator_revision_only_dfm_kalman_em,2022:Q2,-4.148589707407625,2493.5995162670506
exact,pre_advance,A,ar,indicator_revision_only_dfm_kalman_em,2022:Q3,-0.25678089653960373,2493.342735370511
exact,pre_advance,A,ar,indicator_revision_only_dfm_kalman_em,2022:Q4,0.07711066264011938,2493.4198460331513
exact,pre_advance,A,ar,indicator_revision_only_dfm_kalman_em,2023:Q1,-2.9647253851518975,2490.4551206479996
exact,pre_advance,A,ar,indicator_revision_only_dfm_kalman_em,2023:Q2,5.200690496364381e-05,2490.4551726549043
exact,pre_advance,A,ar,indicator_revision_only_dfm_kalman_em,2023:Q3,-3.1857685544289955,2487.269404100475
exact,pre_advance,A,ar,indicator_revision_only_dfm_kalman_em,2023:Q4,0.024358551697127362,2487.2937626521725
exact,pre_advance,A,ar,indicator_revision_only_dfm_kalman_em,2024:Q1,0.7765357285880714,2488.0702983807605
exact,pre_advance,A,ar,indicator_revision_only_dfm_kalman_em,2024:Q2,0.014210427047260638,2488.0845088078077
exact,pre_advance,A,ar,indicator_revision_only_dfm_kalman_em,2024:Q3,-0.1871320113520258,2487.897376796456
exact,pre_advance,A,ar,indicator_revision_only_dfm_kalman_em,2024:Q4,0.01942605027451625,2487.91680284673
exact,pre_advance,A,ar,joint_indicator_revision_dfm_full_kalman_em,2005:Q1,-2.5203203859943204,-2.5203203859943204
exact,pre_advance,A,ar,joint_indicator_revision_dfm_full_kalman_em,2005:Q2,-0.11321400052412528,-2.6335343865184457
exact,pre_advance,A,ar,joint_indicator_revision_dfm_full_kalman_em,2005:Q3,0.40624104281215306,-2.2272933437062927
exact,pre_advance,A,ar,joint_indicator_revision_dfm_full_kalman_em,2005:Q4,-1.2642948017505207,-3.4915881454568134
exact,pre_advance,A,ar,joint_indicator_revision_dfm_full_kalman_em,2006:Q1,6.675593902815036,3.1840057573582228
exact,pre_advance,A,ar,joint_indicator_revision_dfm_full_kalman_em,2006:Q2,-1.0888202176139248,2.095185539744298
exact,pre_advance,A,ar,joint_indicator_revision_dfm_full_kalman_em,2006:Q3,-0.397759039351123,1.697426500393175
exact,pre_advance,A,ar,joint_indicator_revision_dfm_full_kalman_em,2006:Q4,-13.009625054408586,-11.31219855401541
exact,pre_advance,A,ar,joint_indicator_revision_dfm_full_kalman_em,2007:Q1,-19.44010074643603,-30.75229930045144
exact,pre_advance,A,ar,joint_indicator_revision_dfm_full_kalman_em,2007:Q2,-2.2751198291533115,-33.02741912960475
exact,pre_advance,A,ar,joint_indicator_revision_dfm_full_kalman_em,2007:Q3,-9.167180570303556,-42.19459969990831
exact,pre_advance,A,ar,joint_indicator_revision_dfm_full_kalman_em,2007:Q4,0.9021295625224877,-41.29247013738582
exact,pre_advance,A,ar,joint_indicator_revision_dfm_full_kalman_em,2008:Q1,-4.326484228476157,-45.618954365861974
exact,pre_advance,A,ar,joint_indicator_revision_dfm_full_kalman_em,2008:Q2,0.0448348018117547,-45.57411956405022
exact,pre_advance,A,ar,joint_indicator_revision_dfm_full_kalman_em,2008:Q3,-4.281038928217471,-49.85515849226769
exact,pre_advance,A,ar,joint_indicator_revision_dfm_full_kalman_em,2008:Q4,-3.929080984162187,-53.784239476429875
exact,pre_advance,A,ar,joint_indicator_revision_dfm_full_kalman_em,2009:Q1,31.137907770618,-22.646331705811875
exact,pre_advance,A,ar,joint_indicator_revision_dfm_full_kalman_em,2009:Q2,-0.7356226282441173,-23.38195433405599
exact,pre_advance,A,ar,joint_indicator_revision_dfm_full_kalman_em,2009:Q3,7.562322749709804,-15.819631584346187
exact,pre_advance,A,ar,joint_indicator_revision_dfm_full_kalman_em,2009:Q4,-4.9709303405069605,-20.790561924853147
exact,pre_advance,A,ar,joint_indicator_revision_dfm_full_kalman_em,2010:Q1,-0.5721684237223705,-21.362730348575518
exact,pre_advance,A,ar,joint_indicator_revision_dfm_full_kalman_em,2010:Q2,-0.9974086763454946,-22.36013902492101
exact,pre_advance,A,ar,joint_indicator_revision_dfm_full_kalman_em,2010:Q3,0.19559904608585868,-22.16453997883515
exact,pre_advance,A,ar,joint_indicator_revision_dfm_full_kalman_em,2010:Q4,0.5284898063753305,-21.63605017245982
exact,pre_advance,A,ar,joint_indicator_revision_dfm_full_kalman_em,2011:Q1,-6.9072970816273305,-28.543347254087152
exact,pre_advance,A,ar,joint_indicator_revision_dfm_full_kalman_em,2011:Q2,-1.4612745612524147,-30.00462181533957
exact,pre_advance,A,ar,joint_indicator_revision_dfm_full_kalman_em,2011:Q3,-0.7854701906863812,-30.79009200602595
exact,pre_advance,A,ar,joint_indicator_revision_dfm_full_kalman_em,2011:Q4,-1.166620356805205,-31.956712362831155
exact,pre_advance,A,ar,joint_indicator_revision_dfm_full_kalman_em,2012:Q1,-5.122246113075567,-37.078958475906724
exact,pre_advance,A,ar,joint_indicator_revision_dfm_full_kalman_em,2012:Q2,-1.4983569947028221,-38.57731547060955
exact,pre_advance,A,ar,joint_indicator_revision_dfm_full_kalman_em,2012:Q3,-0.5816539735767828,-39.15896944418633
exact,pre_advance,A,ar,joint_indicator_revision_dfm_full_kalman_em,2012:Q4,-8.228194661744373,-47.38716410593071
exact,pre_advance,A,ar,joint_indicator_revision_dfm_full_kalman_em,2013:Q1,0.6963560327661609,-46.69080807316455
exact,pre_advance,A,ar,joint_indicator_revision_dfm_full_kalman_em,2013:Q2,-0.09244707733611146,-46.78325515050066
exact,pre_advance,A,ar,joint_indicator_revision_dfm_full_kalman_em,2013:Q3,0.5471623338373252,-46.23609281666333
exact,pre_advance,A,ar,joint_indicator_revision_dfm_full_kalman_em,2013:Q4,-2.418987881214044,-48.65508069787737
exact,pre_advance,A,ar,joint_indicator_revision_dfm_full_kalman_em,2014:Q1,2.665681835686936,-45.98939886219044
exact,pre_advance,A,ar,joint_indicator_revision_dfm_full_kalman_em,2014:Q2,6.943871937928931,-39.04552692426151
exact,pre_advance,A,ar,joint_indicator_revision_dfm_full_kalman_em,2014:Q3,-0.03847593984706178,-39.08400286410857
exact,pre_advance,A,ar,joint_indicator_revision_dfm_full_kalman_em,2014:Q4,-0.5077069944550003,-39.59170985856357
exact,pre_advance,A,ar,joint_indicator_revision_dfm_full_kalman_em,2015:Q1,3.971927103315828,-35.61978275524774
exact,pre_advance,A,ar,joint_indicator_revision_dfm_full_kalman_em,2015:Q2,0.4116093821012806,-35.20817337314646
exact,pre_advance,A,ar,joint_indicator_revision_dfm_full_kalman_em,2015:Q3,0.06938711445279466,-35.13878625869366
exact,pre_advance,A,ar,joint_indicator_revision_dfm_full_kalman_em,2015:Q4,-0.4388658914920611,-35.57765215018573
exact,pre_advance,A,ar,joint_indicator_revision_dfm_full_kalman_em,2016:Q1,-0.2762392303161909,-35.85389138050192
exact,pre_advance,A,ar,joint_indicator_revision_dfm_full_kalman_em,2016:Q2,-0.8429155597809053,-36.696806940282826
exact,pre_advance,A,ar,joint_indicator_revision_dfm_full_kalman_em,2016:Q3,1.0733085743578417,-35.62349836592499
exact,pre_advance,A,ar,joint_indicator_revision_dfm_full_kalman_em,2016:Q4,-0.5122314100955597,-36.13572977602055
exact,pre_advance,A,ar,joint_indicator_revision_dfm_full_kalman_em,2017:Q1,-2.443750808924712,-38.57948058494526
exact,pre_advance,A,ar,joint_indicator_revision_dfm_full_kalman_em,2017:Q2,0.6905201940637298,-37.88896039088153
exact,pre_advance,A,ar,joint_indicator_revision_dfm_full_kalman_em,2017:Q3,-1.6657233862013465,-39.55468377708288
exact,pre_advance,A,ar,joint_indicator_revision_dfm_full_kalman_em,2017:Q4,-8.364956161565923,-47.9196399386488
exact,pre_advance,A,ar,joint_indicator_revision_dfm_full_kalman_em,2018:Q1,-0.5560919096612126,-48.47573184831001
exact,pre_advance,A,ar,joint_indicator_revision_dfm_full_kalman_em,2018:Q2,0.9723483997912101,-47.503383448518804
exact,pre_advance,A,ar,joint_indicator_revision_dfm_full_kalman_em,2018:Q3,-0.06393900456231216,-47.56732245308112
exact,pre_advance,A,ar,joint_indicator_revision_dfm_full_kalman_em,2018:Q4,-0.12469649769897015,-47.69201895078009
exact,pre_advance,A,ar,joint_indicator_revision_dfm_full_kalman_em,2019:Q1,-2.3964081396708155,-50.08842709045091
exact,pre_advance,A,ar,joint_indicator_revision_dfm_full_kalman_em,2019:Q2,0.5747138158075802,-49.51371327464333
exact,pre_advance,A,ar,joint_indicator_revision_dfm_full_kalman_em,2019:Q3,-1.0690770931573073,-50.582790367800634
exact,pre_advance,A,ar,joint_indicator_revision_dfm_full_kalman_em,2019:Q4,-0.13194584528459308,-50.714736213085224
exact,pre_advance,A,ar,joint_indicator_revision_dfm_full_kalman_em,2020:Q1,31.034934256950642,-19.679801956134582
exact,pre_advance,A,ar,joint_indicator_revision_dfm_full_kalman_em,2020:Q2,703.3081084766828,683.6283065205482
exact,pre_advance,A,ar,joint_indicator_revision_dfm_full_kalman_em,2020:Q3,1730.1895952645602,2413.8179017851085
exact,pre_advance,A,ar,joint_indicator_revision_dfm_full_kalman_em,2020:Q4,-5.823227782005311,2407.9946740031032
exact,pre_advance,A,ar,joint_indicator_revision_dfm_full_kalman_em,2021:Q1,-4.637753036632452,2403.3569209664706
exact,pre_advance,A,ar,joint_indicator_revision_dfm_full_kalman_em,2021:Q2,5.079917832139586,2408.43683879861
exact,pre_advance,A,ar,joint_indicator_revision_dfm_full_kalman_em,2021:Q3,-7.790855905437775,2400.6459828931725
exact,pre_advance,A,ar,joint_indicator_revision_dfm_full_kalman_em,2021:Q4,14.077811223043385,2414.7237941162157
exact,pre_advance,A,ar,joint_indicator_revision_dfm_full_kalman_em,2022:Q1,-29.437121516562236,2385.2866725996532
exact,pre_advance,A,ar,joint_indicator_revision_dfm_full_kalman_em,2022:Q2,-6.131229718936693,2379.1554428807167
exact,pre_advance,A,ar,joint_indicator_revision_dfm_full_kalman_em,2022:Q3,-0.33242364445589995,2378.8230192362607
exact,pre_advance,A,ar,joint_indicator_revision_dfm_full_kalman_em,2022:Q4,0.05094714417984923,2378.8739663804404
exact,pre_advance,A,ar,joint_indicator_revision_dfm_full_kalman_em,2023:Q1,-2.2654374168258684,2376.6085289636144
exact,pre_advance,A,ar,joint_indicator_revision_dfm_full_kalman_em,2023:Q2,-0.046020629667544825,2376.562508333947
exact,pre_advance,A,ar,joint_indicator_revision_dfm_full_kalman_em,2023:Q3,-3.65241890115134,2372.9100894327958
exact,pre_advance,A,ar,joint_indicator_revision_dfm_full_kalman_em,2023:Q4,-0.3472791877399296,2372.562810245056
exact,pre_advance,A,ar,joint_indicator_revision_dfm_full_kalman_em,2024:Q1,0.7974410152679525,2373.360251260324
exact,pre_advance,A,ar,joint_indicator_revision_dfm_full_kalman_em,2024:Q2,-0.09189668694201275,2373.2683545733817
exact,pre_advance,A,ar,joint_indicator_revision_dfm_full_kalman_em,2024:Q3,-0.4451666085394793,2372.823187964842
exact,pre_advance,A,ar,joint_indicator_revision_dfm_full_kalman_em,2024:Q4,0.05707575621716164,2372.8802637210592
exact,pre_advance,A,ar,midas_umidas,2005:Q1,-187.61991516685706,-187.61991516685706
exact,pre_advance,A,ar,midas_umidas,2005:Q2,-221.4071400207663,-409.0270551876233
exact,pre_advance,A,ar,midas_umidas,2005:Q3,-286.14988720392984,-695.1769423915532
exact,pre_advance,A,ar,midas_umidas,2005:Q4,-121.10249273577598,-816.2794351273292
exact,pre_advance,A,ar,midas_umidas,2006:Q1,-416.6870798619977,-1232.966514989327
exact,pre_advance,A,ar,midas_umidas,2006:Q2,-219.9009566134752,-1452.8674716028022
exact,pre_advance,A,ar,midas_umidas,2006:Q3,-16.762423352694537,-1469.6298949554966
exact,pre_advance,A,ar,midas_umidas,2006:Q4,-19.79785816021212,-1489.4277531157088
exact,pre_advance,A,ar,midas_umidas,2007:Q1,-18.208297323579018,-1507.6360504392878
exact,pre_advance,A,ar,midas_umidas,2007:Q2,-90.46093777982132,-1598.096988219109
exact,pre_advance,A,ar,midas_umidas,2007:Q3,-331.12591042394655,-1929.2228986430557
exact,pre_advance,A,ar,midas_umidas,2007:Q4,-28.74381121920389,-1957.9667098622597
exact,pre_advance,A,ar,midas_umidas,2008:Q1,-109.21614314993121,-2067.182853012191
exact,pre_advance,A,ar,midas_umidas,2008:Q2,-565.4112016101046,-2632.5940546222955
exact,pre_advance,A,ar,midas_umidas,2008:Q3,-58.18659707392685,-2690.7806516962223
exact,pre_advance,A,ar,midas_umidas,2008:Q4,-32.72816335872051,-2723.5088150549427
exact,pre_advance,A,ar,midas_umidas,2009:Q1,8.583597191782765,-2714.92521786316
exact,pre_advance,A,ar,midas_umidas,2009:Q2,-53.398857345170725,-2768.3240752083307
exact,pre_advance,A,ar,midas_umidas,2009:Q3,-303.9722662119711,-3072.296341420302
exact,pre_advance,A,ar,midas_umidas,2009:Q4,-64.51058242084478,-3136.8069238411467
exact,pre_advance,A,ar,midas_umidas,2010:Q1,0.5983576798366713,-3136.20856616131
exact,pre_advance,A,ar,midas_umidas,2010:Q2,-15.990555884641354,-3152.1991220459513
exact,pre_advance,A,ar,midas_umidas,2010:Q3,-307.65469542037425,-3459.8538174663254
exact,pre_advance,A,ar,midas_umidas,2010:Q4,-38.15978341148763,-3498.013600877813
exact,pre_advance,A,ar,midas_umidas,2011:Q1,-92.03290211789393,-3590.046502995707
exact,pre_advance,A,ar,midas_umidas,2011:Q2,-306.0219822893376,-3896.068485285045
exact,pre_advance,A,ar,midas_umidas,2011:Q3,-32.87401376613379,-3928.942499051179
exact,pre_advance,A,ar,midas_umidas,2011:Q4,-371.5481785272261,-4300.490677578405
exact,pre_advance,A,ar,midas_umidas,2012:Q1,-122.74567380909892,-4423.236351387503
exact,pre_advance,A,ar,midas_umidas,2012:Q2,-29.887974226324037,-4453.124325613828
exact,pre_advance,A,ar,midas_umidas,2012:Q3,-25.052584811400553,-4478.176910425228
exact,pre_advance,A,ar,midas_umidas,2012:Q4,-236.93183359302026,-4715.108744018248
exact,pre_advance,A,ar,midas_umidas,2013:Q1,-289.46108812634054,-5004.569832144589
exact,pre_advance,A,ar,midas_umidas,2013:Q2,-166.0040906633504,-5170.573922807939
exact,pre_advance,A,ar,midas_umidas,2013:Q3,-133.94421055689682,-5304.518133364836
exact,pre_advance,A,ar,midas_umidas,2013:Q4,0.18443708284159316,-5304.333696281995
exact,pre_advance,A,ar,midas_umidas,2014:Q1,-24.411049418002115,-5328.744745699997
exact,pre_advance,A,ar,midas_umidas,2014:Q2,-6.90491544809671,-5335.649661148093
exact,pre_advance,A,ar,midas_umidas,2014:Q3,-128.28898106589693,-5463.9386422139905
exact,pre_advance,A,ar,midas_umidas,2014:Q4,0.023543689470504364,-5463.91509852452
exact,pre_advance,A,ar,midas_umidas,2015:Q1,-16.38452558657344,-5480.299624111093
exact,pre_advance,A,ar,midas_umidas,2015:Q2,-85.02922229388095,-5565.328846404974
exact,pre_advance,A,ar,midas_umidas,2015:Q3,-1.3449577888954591,-5566.673804193869
exact,pre_advance,A,ar,midas_umidas,2015:Q4,-43.1095889017357,-5609.783393095605
exact,pre_advance,A,ar,midas_umidas,2016:Q1,1.1201030328544062,-5608.66329006275
exact,pre_advance,A,ar,midas_umidas,2016:Q2,-0.6664911310980901,-5609.329781193848
exact,pre_advance,A,ar,midas_umidas,2016:Q3,-25.33526065431418,-5634.665041848162
exact,pre_advance,A,ar,midas_umidas,2016:Q4,-11.497059059703178,-5646.162100907865
exact,pre_advance,A,ar,midas_umidas,2017:Q1,-6.069861218333774,-5652.2319621261995
exact,pre_advance,A,ar,midas_umidas,2017:Q2,0.9452815682099753,-5651.28668055799
exact,pre_advance,A,ar,midas_umidas,2017:Q3,-0.4140412856125233,-5651.700721843602
exact,pre_advance,A,ar,midas_umidas,2017:Q4,-0.13420448164649426,-5651.8349263252485
exact,pre_advance,A,ar,midas_umidas,2018:Q1,-3.99725702453765,-5655.832183349786
exact,pre_advance,A,ar,midas_umidas,2018:Q2,-18.26889602605072,-5674.101079375837
exact,pre_advance,A,ar,midas_umidas,2018:Q3,-2.0214950694258955,-5676.122574445263
exact,pre_advance,A,ar,midas_umidas,2018:Q4,-0.8432647553048285,-5676.965839200568
exact,pre_advance,A,ar,midas_umidas,2019:Q1,-2.4406187212482653,-5679.406457921816
exact,pre_advance,A,ar,midas_umidas,2019:Q2,-0.31022506279465656,-5679.71668298461
exact,pre_advance,A,ar,midas_umidas,2019:Q3,-0.5704491640054846,-5680.2871321486155
exact,pre_advance,A,ar,midas_umidas,2019:Q4,-3.7370281645182963,-5684.0241603131335
exact,pre_advance,A,ar,midas_umidas,2020:Q1,-88.42740718616122,-5772.4515674992945
exact,pre_advance,A,ar,midas_umidas,2020:Q2,-3056.459892531503,-8828.911460030798
exact,pre_advance,A,ar,midas_umidas,2020:Q3,-1182.7855619737256,-10011.697022004524
exact,pre_advance,A,ar,midas_umidas,2020:Q4,-9.845816644277402,-10021.542838648802
exact,pre_advance,A,ar,midas_umidas,2021:Q1,-8.101390902855796,-10029.644229551657
exact,pre_advance,A,ar,midas_umidas,2021:Q2,12.942854477099061,-10016.701375074557
exact,pre_advance,A,ar,midas_umidas,2021:Q3,-36.1065026315115,-10052.80787770607
exact,pre_advance,A,ar,midas_umidas,2021:Q4,-50.13772406877304,-10102.945601774842
exact,pre_advance,A,ar,midas_umidas,2022:Q1,11.516273142385177,-10091.429328632457
exact,pre_advance,A,ar,midas_umidas,2022:Q2,-81.47208354712383,-10172.90141217958
exact,pre_advance,A,ar,midas_umidas,2022:Q3,-10.828589581410334,-10183.73000176099
exact,pre_advance,A,ar,midas_umidas,2022:Q4,-26.164088543113774,-10209.894090304104
exact,pre_advance,A,ar,midas_umidas,2023:Q1,0.9839509254703405,-10208.910139378633
exact,pre_advance,A,ar,midas_umidas,2023:Q2,-4.190128232118403,-10213.100267610751
exact,pre_advance,A,ar,midas_umidas,2023:Q3,5.646110506615628,-10207.454157104135
exact,pre_advance,A,ar,midas_umidas,2023:Q4,-0.5226186986627845,-10207.976775802797
exact,pre_advance,A,ar,midas_umidas,2024:Q1,-6.858121252587562,-10214.834897055385
exact,pre_advance,A,ar,midas_umidas,2024:Q2,-0.009088496400308982,-10214.843985551786
exact,pre_advance,A,ar,midas_umidas,2024:Q3,-3.3941584319243674,-10218.23814398371
exact,pre_advance,A,ar,midas_umidas,2024:Q4,0.053104823491227374,-10218.185039160218
exact,pre_advance,A,ar,monthly_mixed_frequency_kalman_em,2005:Q1,0.018173188429212242,0.018173188429212242
exact,pre_advance,A,ar,monthly_mixed_frequency_kalman_em,2005:Q2,0.23890946748283362,0.2570826559120459
exact,pre_advance,A,ar,monthly_mixed_frequency_kalman_em,2005:Q3,-7.844667157277945,-7.587584501365899
exact,pre_advance,A,ar,monthly_mixed_frequency_kalman_em,2005:Q4,-8.69396642247711,-16.28155092384301
exact,pre_advance,A,ar,monthly_mixed_frequency_kalman_em,2006:Q1,7.588531528665446,-8.693019395177565
exact,pre_advance,A,ar,monthly_mixed_frequency_kalman_em,2006:Q2,1.6013103844283576,-7.091709010749208
exact,pre_advance,A,ar,monthly_mixed_frequency_kalman_em,2006:Q3,-0.6009713745038467,-7.6926803852530545
exact,pre_advance,A,ar,monthly_mixed_frequency_kalman_em,2006:Q4,-11.708660997590854,-19.40134138284391
exact,pre_advance,A,ar,monthly_mixed_frequency_kalman_em,2007:Q1,0.11018022826361307,-19.291161154580298
exact,pre_advance,A,ar,monthly_mixed_frequency_kalman_em,2007:Q2,0.6950035561354648,-18.596157598444833
exact,pre_advance,A,ar,monthly_mixed_frequency_kalman_em,2007:Q3,-7.361439291157256,-25.95759688960209
exact,pre_advance,A,ar,monthly_mixed_frequency_kalman_em,2007:Q4,6.821463586945142,-19.136133302656948
exact,pre_advance,A,ar,monthly_mixed_frequency_kalman_em,2008:Q1,-7.19404811991405,-26.330181422571
exact,pre_advance,A,ar,monthly_mixed_frequency_kalman_em,2008:Q2,-0.17531732591770458,-26.5054987484887
exact,pre_advance,A,ar,monthly_mixed_frequency_kalman_em,2008:Q3,-20.544561462995887,-47.05006021148459
exact,pre_advance,A,ar,monthly_mixed_frequency_kalman_em,2008:Q4,-7.144923000342086,-54.19498321182668
exact,pre_advance,A,ar,monthly_mixed_frequency_kalman_em,2009:Q1,31.072367173043506,-23.122616038783175
exact,pre_advance,A,ar,monthly_mixed_frequency_kalman_em,2009:Q2,-4.730615926623956,-27.85323196540713
exact,pre_advance,A,ar,monthly_mixed_frequency_kalman_em,2009:Q3,4.122733126685716,-23.730498838721413
exact,pre_advance,A,ar,monthly_mixed_frequency_kalman_em,2009:Q4,6.957292262073096,-16.773206576648317
exact,pre_advance,A,ar,monthly_mixed_frequency_kalman_em,2010:Q1,-3.28764008989142,-20.06084666653974
exact,pre_advance,A,ar,monthly_mixed_frequency_kalman_em,2010:Q2,-2.7685804948652826,-22.82942716140502
exact,pre_advance,A,ar,monthly_mixed_frequency_kalman_em,2010:Q3,-2.2744814129072486,-25.10390857431227
exact,pre_advance,A,ar,monthly_mixed_frequency_kalman_em,2010:Q4,0.755568458184872,-24.3483401161274
exact,pre_advance,A,ar,monthly_mixed_frequency_kalman_em,2011:Q1,-3.673892256498101,-28.0222323726255
exact,pre_advance,A,ar,monthly_mixed_frequency_kalman_em,2011:Q2,-1.7402899496645476,-29.762522322290046
exact,pre_advance,A,ar,monthly_mixed_frequency_kalman_em,2011:Q3,-0.10363071304764743,-29.866153035337693
exact,pre_advance,A,ar,monthly_mixed_frequency_kalman_em,2011:Q4,-1.4358451405011128,-31.301998175838804
exact,pre_advance,A,ar,monthly_mixed_frequency_kalman_em,2012:Q1,-3.8007621622253924,-35.10276033806419
exact,pre_advance,A,ar,monthly_mixed_frequency_kalman_em,2012:Q2,0.02130923616051683,-35.081451101903674
exact,pre_advance,A,ar,monthly_mixed_frequency_kalman_em,2012:Q3,-0.39209300000104313,-35.473544101904714
exact,pre_advance,A,ar,monthly_mixed_frequency_kalman_em,2012:Q4,-3.762327129123527,-39.23587123102824
exact,pre_advance,A,ar,monthly_mixed_frequency_kalman_em,2013:Q1,0.3813375413071962,-38.854533689721045
exact,pre_advance,A,ar,monthly_mixed_frequency_kalman_em,2013:Q2,-1.0633649221229666,-39.91789861184401
exact,pre_advance,A,ar,monthly_mixed_frequency_kalman_em,2013:Q3,0.46592278746970567,-39.4519758243743
exact,pre_advance,A,ar,monthly_mixed_frequency_kalman_em,2013:Q4,-2.661877178012555,-42.113853002386854
exact,pre_advance,A,ar,monthly_mixed_frequency_kalman_em,2014:Q1,0.47293437874627653,-41.64091862364058
exact,pre_advance,A,ar,monthly_mixed_frequency_kalman_em,2014:Q2,5.55850691059701,-36.08241171304357
exact,pre_advance,A,ar,monthly_mixed_frequency_kalman_em,2014:Q3,-0.7642269374085385,-36.84663865045211
exact,pre_advance,A,ar,monthly_mixed_frequency_kalman_em,2014:Q4,-1.6385346499189664,-38.48517330037107
exact,pre_advance,A,ar,monthly_mixed_frequency_kalman_em,2015:Q1,4.8424323850786966,-33.64274091529238
exact,pre_advance,A,ar,monthly_mixed_frequency_kalman_em,2015:Q2,0.8040049493553691,-32.83873596593701
exact,pre_advance,A,ar,monthly_mixed_frequency_kalman_em,2015:Q3,0.39666103529673924,-32.442074930640274
exact,pre_advance,A,ar,monthly_mixed_frequency_kalman_em,2015:Q4,0.8376409766880296,-31.604433953952245
exact,pre_advance,A,ar,monthly_mixed_frequency_kalman_em,2016:Q1,1.0582988592813263,-30.54613509467092
exact,pre_advance,A,ar,monthly_mixed_frequency_kalman_em,2016:Q2,-0.41753407032115875,-30.96366916499208
exact,pre_advance,A,ar,monthly_mixed_frequency_kalman_em,2016:Q3,1.0016799051401233,-29.961989259851958
exact,pre_advance,A,ar,monthly_mixed_frequency_kalman_em,2016:Q4,0.5342096592296166,-29.42777960062234
exact,pre_advance,A,ar,monthly_mixed_frequency_kalman_em,2017:Q1,-0.1960578855915478,-29.623837486213887
exact,pre_advance,A,ar,monthly_mixed_frequency_kalman_em,2017:Q2,0.20721842692813452,-29.416619059285754
exact,pre_advance,A,ar,monthly_mixed_frequency_kalman_em,2017:Q3,-4.486696482886576,-33.90331554217233
exact,pre_advance,A,ar,monthly_mixed_frequency_kalman_em,2017:Q4,-3.85547508099829,-37.75879062317062
exact,pre_advance,A,ar,monthly_mixed_frequency_kalman_em,2018:Q1,-2.20662746035083,-39.96541808352145
exact,pre_advance,A,ar,monthly_mixed_frequency_kalman_em,2018:Q2,1.4585077685758996,-38.50691031494555
exact,pre_advance,A,ar,monthly_mixed_frequency_kalman_em,2018:Q3,-0.2178027637613278,-38.72471307870688
exact,pre_advance,A,ar,monthly_mixed_frequency_kalman_em,2018:Q4,0.08737446967177774,-38.6373386090351
exact,pre_advance,A,ar,monthly_mixed_frequency_kalman_em,2019:Q1,-3.162610866000421,-41.79994947503552
exact,pre_advance,A,ar,monthly_mixed_frequency_kalman_em,2019:Q2,-0.3363144671621925,-42.13626394219771
exact,pre_advance,A,ar,monthly_mixed_frequency_kalman_em,2019:Q3,-0.8253349625135493,-42.96159890471126
exact,pre_advance,A,ar,monthly_mixed_frequency_kalman_em,2019:Q4,-0.029456311414731894,-42.99105521612599
exact,pre_advance,A,ar,monthly_mixed_frequency_kalman_em,2020:Q1,33.23380913546108,-9.757246080664913
exact,pre_advance,A,ar,monthly_mixed_frequency_kalman_em,2020:Q2,737.2301764974211,727.4729304167562
exact,pre_advance,A,ar,monthly_mixed_frequency_kalman_em,2020:Q3,2286.6259532660283,3014.0988836827846
exact,pre_advance,A,ar,monthly_mixed_frequency_kalman_em,2020:Q4,-3.067932497812885,3011.030951184972
exact,pre_advance,A,ar,monthly_mixed_frequency_kalman_em,2021:Q1,-25.58429928163224,2985.4466519033394
exact,pre_advance,A,ar,monthly_mixed_frequency_kalman_em,2021:Q2,12.628567805326314,2998.075219708666
exact,pre_advance,A,ar,monthly_mixed_frequency_kalman_em,2021:Q3,-2.27616527574539,2995.7990544329205
exact,pre_advance,A,ar,monthly_mixed_frequency_kalman_em,2021:Q4,6.9024871497108204,3002.7015415826313
exact,pre_advance,A,ar,monthly_mixed_frequency_kalman_em,2022:Q1,-26.552850942148652,2976.1486906404825
exact,pre_advance,A,ar,monthly_mixed_frequency_kalman_em,2022:Q2,-17.39895487425281,2958.7497357662296
exact,pre_advance,A,ar,monthly_mixed_frequency_kalman_em,2022:Q3,-0.30824200273258523,2958.441493763497
exact,pre_advance,A,ar,monthly_mixed_frequency_kalman_em,2022:Q4,-9.200652009805742,2949.2408417536913
exact,pre_advance,A,ar,monthly_mixed_frequency_kalman_em,2023:Q1,1.9244640763117764,2951.165305830003
exact,pre_advance,A,ar,monthly_mixed_frequency_kalman_em,2023:Q2,-0.09685209044873623,2951.068453739554
exact,pre_advance,A,ar,monthly_mixed_frequency_kalman_em,2023:Q3,-0.807517814233508,2950.2609359253206
exact,pre_advance,A,ar,monthly_mixed_frequency_kalman_em,2023:Q4,-8.719372200892387,2941.541563724428
exact,pre_advance,A,ar,monthly_mixed_frequency_kalman_em,2024:Q1,-0.32525975312475186,2941.2163039713037
exact,pre_advance,A,ar,monthly_mixed_frequency_kalman_em,2024:Q2,-1.070296408772818,2940.146007562531
exact,pre_advance,A,ar,monthly_mixed_frequency_kalman_em,2024:Q3,-1.72544540999281,2938.420562152538
exact,pre_advance,A,ar,monthly_mixed_frequency_kalman_em,2024:Q4,-0.6367225372036138,2937.7838396153343
exact,pre_advance,A,ar,no_revision,2005:Q1,0.01829276874886654,0.01829276874886654
exact,pre_advance,A,ar,no_revision,2005:Q2,-0.010434082728868699,0.00785868601999784
exact,pre_advance,A,ar,no_revision,2005:Q3,0.04475723724217473,0.05261592326217257
exact,pre_advance,A,ar,no_revision,2005:Q4,-0.005897102113586961,0.04671882114858561
exact,pre_advance,A,ar,no_revision,2006:Q1,0.14435758559098844,0.19107640673957405
exact,pre_advance,A,ar,no_revision,2006:Q2,0.10645890996238783,0.29753531670196187
exact,pre_advance,A,ar,no_revision,2006:Q3,-0.24152679339726402,0.056008523304697855
exact,pre_advance,A,ar,no_revision,2006:Q4,-0.30824079892148304,-0.2522322756167852
exact,pre_advance,A,ar,no_revision,2007:Q1,-0.23848279984936216,-0.49071507546614734
exact,pre_advance,A,ar,no_revision,2007:Q2,0.05512019812272051,-0.43559487734342683
exact,pre_advance,A,ar,no_revision,2007:Q3,-0.19969014430791188,-0.6352850216513387
exact,pre_advance,A,ar,no_revision,2007:Q4,-0.15567398880635874,-0.7909590104576975
exact,pre_advance,A,ar,no_revision,2008:Q1,0.05559234221203191,-0.7353666682456655
exact,pre_advance,A,ar,no_revision,2008:Q2,0.004622952477093177,-0.7307437157685723
exact,pre_advance,A,ar,no_revision,2008:Q3,-0.15221627551749783,-0.8829599912860702
exact,pre_advance,A,ar,no_revision,2008:Q4,0.5818162017862143,-0.3011437894998559
exact,pre_advance,A,ar,no_revision,2009:Q1,0.45423321116048854,0.15308942166063266
exact,pre_advance,A,ar,no_revision,2009:Q2,0.013307526119774815,0.16639694778040748
exact,pre_advance,A,ar,no_revision,2009:Q3,-1.023992772227114,-0.8575958244467066
exact,pre_advance,A,ar,no_revision,2009:Q4,-1.4621885824992091,-2.3197844069459155
exact,pre_advance,A,ar,no_revision,2010:Q1,0.5154181563893694,-1.804366250556546
exact,pre_advance,A,ar,no_revision,2010:Q2,0.1815894544157976,-1.6227767961407484
exact,pre_advance,A,ar,no_revision,2010:Q3,0.02901155984276077,-1.5937652362979877
exact,pre_advance,A,ar,no_revision,2010:Q4,0.21335030884274386,-1.3804149274552437
exact,pre_advance,A,ar,no_revision,2011:Q1,-0.06757887593352563,-1.4479938033887694
exact,pre_advance,A,ar,no_revision,2011:Q2,0.0202217337142232,-1.4277720696745462
exact,pre_advance,A,ar,no_revision,2011:Q3,-0.052984459561723096,-1.4807565292362692
exact,pre_advance,A,ar,no_revision,2011:Q4,0.01895665554257433,-1.4617998736936948
exact,pre_advance,A,ar,no_revision,2012:Q1,0.02232353618393504,-1.4394763375097597
exact,pre_advance,A,ar,no_revision,2012:Q2,0.11942453052189395,-1.3200518069878657
exact,pre_advance,A,ar,no_revision,2012:Q3,0.0006349170808925357,-1.3194168899069731
exact,pre_advance,A,ar,no_revision,2012:Q4,-0.06262090931865316,-1.3820377992256263
exact,pre_advance,A,ar,no_revision,2013:Q1,-0.008932871015000954,-1.3909706702406273
exact,pre_advance,A,ar,no_revision,2013:Q2,0.06324061631598044,-1.3277300539246468
exact,pre_advance,A,ar,no_revision,2013:Q3,0.0315667756852992,-1.2961632782393475
exact,pre_advance,A,ar,no_revision,2013:Q4,-0.17688786721241778,-1.4730511454517652
exact,pre_advance,A,ar,no_revision,2014:Q1,-0.02480433967617479,-1.49785548512794
exact,pre_advance,A,ar,no_revision,2014:Q2,-0.3039643587409291,-1.801819843868869
exact,pre_advance,A,ar,no_revision,2014:Q3,-0.01009808842494786,-1.811917932293817
exact,pre_advance,A,ar,no_revision,2014:Q4,-0.053005079780955394,-1.8649230120747724
exact,pre_advance,A,ar,no_revision,2015:Q1,0.67193818782102,-1.1929848242537524
exact,pre_advance,A,ar,no_revision,2015:Q2,0.08197493566980374,-1.1110098885839488
exact,pre_advance,A,ar,no_revision,2015:Q3,-0.08264742175217066,-1.1936573103361194
exact,pre_advance,A,ar,no_revision,2015:Q4,-0.12441534043486313,-1.3180726507709826
exact,pre_advance,A,ar,no_revision,2016:Q1,0.2275952927293533,-1.0904773580416292
exact,pre_advance,A,ar,no_revision,2016:Q2,-0.0046545719231812915,-1.0951319299648103
exact,pre_advance,A,ar,no_revision,2016:Q3,-0.04584231925914617,-1.1409742492239565
exact,pre_advance,A,ar,no_revision,2016:Q4,0.10114230910276367,-1.0398319401211928
exact,pre_advance,A,ar,no_revision,2017:Q1,0.246574617300388,-0.7932573228208049
exact,pre_advance,A,ar,no_revision,2017:Q2,-0.15926574147033767,-0.9525230642911425
exact,pre_advance,A,ar,no_revision,2017:Q3,0.022454236955837703,-0.9300688273353048
exact,pre_advance,A,ar,no_revision,2017:Q4,0.004727701091471227,-0.9253411262438336
exact,pre_advance,A,ar,no_revision,2018:Q1,0.03223932073775865,-0.8931018055060749
exact,pre_advance,A,ar,no_revision,2018:Q2,-0.05012498584200742,-0.9432267913480823
exact,pre_advance,A,ar,no_revision,2018:Q3,0.0040716179457951085,-0.9391551734022872
exact,pre_advance,A,ar,no_revision,2018:Q4,0.0107967518642271,-0.92835842153806
exact,pre_advance,A,ar,no_revision,2019:Q1,-0.06475700376940074,-0.9931154253074608
exact,pre_advance,A,ar,no_revision,2019:Q2,-0.08251128198875868,-1.0756267072962196
exact,pre_advance,A,ar,no_revision,2019:Q3,-0.02873654465966108,-1.1043632519558806
exact,pre_advance,A,ar,no_revision,2019:Q4,0.0032282376299231016,-1.1011350143259575
exact,pre_advance,A,ar,no_revision,2020:Q1,-0.47755925650978526,-1.5786942708357428
exact,pre_advance,A,ar,no_revision,2020:Q2,-0.5667662532794111,-2.145460524115154
exact,pre_advance,A,ar,no_revision,2020:Q3,-57.60016029331837,-59.74562081743352
exact,pre_advance,A,ar,no_revision,2020:Q4,-40.65854856282156,-100.40416938025507
exact,pre_advance,A,ar,no_revision,2021:Q1,-27.79553131153419,-128.19970069178925
exact,pre_advance,A,ar,no_revision,2021:Q2,-24.119251842538425,-152.31895253432768
exact,pre_advance,A,ar,no_revision,2021:Q3,-0.30877510409469244,-152.62772763842236
exact,pre_advance,A,ar,no_revision,2021:Q4,3.7679008571371924,-148.85982678128516
exact,pre_advance,A,ar,no_revision,2022:Q1,-0.5234667865097897,-149.38329356779496
exact,pre_advance,A,ar,no_revision,2022:Q2,-1.9855199282110494,-151.36881349600603
exact,pre_advance,A,ar,no_revision,2022:Q3,-0.033925124700511525,-151.40273862070654
exact,pre_advance,A,ar,no_revision,2022:Q4,-0.7384306425890252,-152.14116926329558
exact,pre_advance,A,ar,no_revision,2023:Q1,0.371137610273619,-151.77003165302196
exact,pre_advance,A,ar,no_revision,2023:Q2,-0.00528125482766627,-151.77531290784964
exact,pre_advance,A,ar,no_revision,2023:Q3,-0.5551736828791194,-152.33048659072875
exact,pre_advance,A,ar,no_revision,2023:Q4,-0.20210030709286464,-152.53258689782163
exact,pre_advance,A,ar,no_revision,2024:Q1,-0.31218151521482485,-152.84476841303646
exact,pre_advance,A,ar,no_revision,2024:Q2,0.0978852185130688,-152.7468831945234
exact,pre_advance,A,ar,no_revision,2024:Q3,-0.06291573213851451,-152.80979892666193
exact,pre_advance,A,ar,no_revision,2024:Q4,0.026146771737672124,-152.78365215492425
exact,pre_advance,A,ar,release_dfm,2005:Q1,-0.0007821528217788545,-0.0007821528217788545
exact,pre_advance,A,ar,release_dfm,2005:Q2,0.18717519661325382,0.18639304379147498
exact,pre_advance,A,ar,release_dfm,2005:Q3,-0.19070841299677455,-0.0043153692052995685
exact,pre_advance,A,ar,release_dfm,2005:Q4,1.8335251787286526,1.829209809523353
exact,pre_advance,A,ar,release_dfm,2006:Q1,7.140544440475784,8.969754249999138
exact,pre_advance,A,ar,release_dfm,2006:Q2,0.8269573508294787,9.796711600828617
exact,pre_advance,A,ar,release_dfm,2006:Q3,0.5562770621585442,10.352988662987162
exact,pre_advance,A,ar,release_dfm,2006:Q4,-3.7417827291526127,6.611205933834549
exact,pre_advance,A,ar,release_dfm,2007:Q1,2.9656737152669845,9.576879649101533
exact,pre_advance,A,ar,release_dfm,2007:Q2,0.6908456611861109,10.267725310287645
exact,pre_advance,A,ar,release_dfm,2007:Q3,-7.6652689832189695,2.6024563270686754
exact,pre_advance,A,ar,release_dfm,2007:Q4,6.870115100617308,9.472571427685983
exact,pre_advance,A,ar,release_dfm,2008:Q1,0.9144408701737925,10.387012297859776
exact,pre_advance,A,ar,release_dfm,2008:Q2,-0.05481414330886874,10.332198154550907
exact,pre_advance,A,ar,release_dfm,2008:Q3,5.860833068397045,16.19303122294795
exact,pre_advance,A,ar,release_dfm,2008:Q4,22.241284138628192,38.43431536157614
exact,pre_advance,A,ar,release_dfm,2009:Q1,26.20757831403948,64.64189367561562
exact,pre_advance,A,ar,release_dfm,2009:Q2,-0.6748125588985349,63.96708111671708
exact,pre_advance,A,ar,release_dfm,2009:Q3,7.900005637483222,71.8670867542003
exact,pre_advance,A,ar,release_dfm,2009:Q4,0.06256310955836941,71.92964986375867
exact,pre_advance,A,ar,release_dfm,2010:Q1,-1.8487598268229595,70.08089003693571
exact,pre_advance,A,ar,release_dfm,2010:Q2,-0.46421811614118985,69.61667192079452
exact,pre_advance,A,ar,release_dfm,2010:Q3,-0.13267777651456225,69.48399414427995
exact,pre_advance,A,ar,release_dfm,2010:Q4,0.3340501189303903,69.81804426321034
exact,pre_advance,A,ar,release_dfm,2011:Q1,-6.805589561350281,63.01245470186006
exact,pre_advance,A,ar,release_dfm,2011:Q2,-1.4999643265116371,61.51249037534842
exact,pre_advance,A,ar,release_dfm,2011:Q3,-0.006787891694757631,61.505702483653664
exact,pre_advance,A,ar,release_dfm,2011:Q4,-1.050246363120002,60.45545612053366
exact,pre_advance,A,ar,release_dfm,2012:Q1,-2.474877081486194,57.98057903904747
exact,pre_advance,A,ar,release_dfm,2012:Q2,-0.4227957417381516,57.55778329730932
exact,pre_advance,A,ar,release_dfm,2012:Q3,-0.4963607747092333,57.06142252260009
exact,pre_advance,A,ar,release_dfm,2012:Q4,-8.705898251764705,48.35552427083539
exact,pre_advance,A,ar,release_dfm,2013:Q1,1.4556070853378873,49.81113135617328
exact,pre_advance,A,ar,release_dfm,2013:Q2,-0.5764135629584886,49.23471779321479
exact,pre_advance,A,ar,release_dfm,2013:Q3,0.505066588933149,49.73978438214794
exact,pre_advance,A,ar,release_dfm,2013:Q4,0.12205669947308287,49.86184108162102
exact,pre_advance,A,ar,release_dfm,2014:Q1,2.8091550995411136,52.67099618116214
exact,pre_advance,A,ar,release_dfm,2014:Q2,6.955596031397367,59.62659221255951
exact,pre_advance,A,ar,release_dfm,2014:Q3,-0.2027545568744939,59.42383765568501
exact,pre_advance,A,ar,release_dfm,2014:Q4,0.16032664866285543,59.584164304347865
exact,pre_advance,A,ar,release_dfm,2015:Q1,3.997438432805209,63.58160273715308
exact,pre_advance,A,ar,release_dfm,2015:Q2,0.23395287185264535,63.81555560900572
exact,pre_advance,A,ar,release_dfm,2015:Q3,-0.25823276276692186,63.5573228462388
exact,pre_advance,A,ar,release_dfm,2015:Q4,-0.24755612829726759,63.30976671794153
exact,pre_advance,A,ar,release_dfm,2016:Q1,-1.1396767121918765,62.17009000574965
exact,pre_advance,A,ar,release_dfm,2016:Q2,-1.0186611660854816,61.15142883966417
exact,pre_advance,A,ar,release_dfm,2016:Q3,0.8197405200235188,61.97116935968769
exact,pre_advance,A,ar,release_dfm,2016:Q4,-1.4333230715615168,60.537846288126175
exact,pre_advance,A,ar,release_dfm,2017:Q1,-2.347852272856097,58.18999401527008
exact,pre_advance,A,ar,release_dfm,2017:Q2,0.9338758081867135,59.12386982345679
exact,pre_advance,A,ar,release_dfm,2017:Q3,-0.45279573045163435,58.67107409300516
exact,pre_advance,A,ar,release_dfm,2017:Q4,-1.81335210018258,56.85772199282258
exact,pre_advance,A,ar,release_dfm,2018:Q1,-1.3219494379108407,55.535772554911745
exact,pre_advance,A,ar,release_dfm,2018:Q2,0.5948377765140198,56.130610331425764
exact,pre_advance,A,ar,release_dfm,2018:Q3,-0.2446230630886596,55.885987268337104
exact,pre_advance,A,ar,release_dfm,2018:Q4,0.14859365000516392,56.034580918342265
exact,pre_advance,A,ar,release_dfm,2019:Q1,-1.642616009071777,54.391964909270484
exact,pre_advance,A,ar,release_dfm,2019:Q2,0.5902103584288081,54.98217526769929
exact,pre_advance,A,ar,release_dfm,2019:Q3,-0.11814865827107224,54.864026609428215
exact,pre_advance,A,ar,release_dfm,2019:Q4,0.01634585843007544,54.880372467858294
exact,pre_advance,A,ar,release_dfm,2020:Q1,20.440715826579183,75.32108829443747
exact,pre_advance,A,ar,release_dfm,2020:Q2,677.0559142179914,752.3770025124288
exact,pre_advance,A,ar,release_dfm,2020:Q3,2554.82664039399,3307.203642906419
exact,pre_advance,A,ar,release_dfm,2020:Q4,-10.782469465647605,3296.421173440772
exact,pre_advance,A,ar,release_dfm,2021:Q1,13.089427054107743,3309.5106004948793
exact,pre_advance,A,ar,release_dfm,2021:Q2,11.015941072620668,3320.5265415675
exact,pre_advance,A,ar,release_dfm,2021:Q3,-2.0624372150124235,3318.4641043524875
exact,pre_advance,A,ar,release_dfm,2021:Q4,14.001548201745123,3332.4656525542327
exact,pre_advance,A,ar,release_dfm,2022:Q1,-11.110209683060464,3321.3554428711723
exact,pre_advance,A,ar,release_dfm,2022:Q2,-0.2108098350301173,3321.1446330361423
exact,pre_advance,A,ar,release_dfm,2022:Q3,-0.22267278082561742,3320.9219602553167
exact,pre_advance,A,ar,release_dfm,2022:Q4,-14.965487483907966,3305.9564727714087
exact,pre_advance,A,ar,release_dfm,2023:Q1,1.2582303555459553,3307.2147031269546
exact,pre_advance,A,ar,release_dfm,2023:Q2,-0.28058131840435496,3306.93412180855
exact,pre_advance,A,ar,release_dfm,2023:Q3,-2.0879313441271323,3304.8461904644228
exact,pre_advance,A,ar,release_dfm,2023:Q4,-3.932011085428086,3300.9141793789945
exact,pre_advance,A,ar,release_dfm,2024:Q1,0.6003068965083158,3301.514486275503
exact,pre_advance,A,ar,release_dfm,2024:Q2,-0.6239650691969212,3300.890521206306
exact,pre_advance,A,ar,release_dfm,2024:Q3,0.05200385454902861,3300.942525060855
exact,pre_advance,A,ar,release_dfm,2024:Q4,-0.00126792334690419,3300.9412571375083
exact,pre_advance,A,ar,revision_dfm_kalman_em,2005:Q1,-0.6075304164731528,-0.6075304164731528
exact,pre_advance,A,ar,revision_dfm_kalman_em,2005:Q2,0.23216109170128962,-0.37536932477186313
exact,pre_advance,A,ar,revision_dfm_kalman_em,2005:Q3,0.5644463054266127,0.18907698065474954
exact,pre_advance,A,ar,revision_dfm_kalman_em,2005:Q4,-7.433408988194333,-7.244332007539583
exact,pre_advance,A,ar,revision_dfm_kalman_em,2006:Q1,6.853908287455305,-0.3904237200842786
exact,pre_advance,A,ar,revision_dfm_kalman_em,2006:Q2,-11.599339890004531,-11.98976361008881
exact,pre_advance,A,ar,revision_dfm_kalman_em,2006:Q3,-4.612067214604135,-16.601830824692946
exact,pre_advance,A,ar,revision_dfm_kalman_em,2006:Q4,-8.110162040715844,-24.71199286540879
exact,pre_advance,A,ar,revision_dfm_kalman_em,2007:Q1,-8.212233237083101,-32.924226102491886
exact,pre_advance,A,ar,revision_dfm_kalman_em,2007:Q2,1.9013173216633776,-31.02290878082851
exact,pre_advance,A,ar,revision_dfm_kalman_em,2007:Q3,-7.495584236683469,-38.51849301751198
exact,pre_advance,A,ar,revision_dfm_kalman_em,2007:Q4,6.888962704393068,-31.629530313118913
exact,pre_advance,A,ar,revision_dfm_kalman_em,2008:Q1,0.39188484692294057,-31.23764546619597
exact,pre_advance,A,ar,revision_dfm_kalman_em,2008:Q2,-1.5153191908536412,-32.75296465704961
exact,pre_advance,A,ar,revision_dfm_kalman_em,2008:Q3,-14.126872289284211,-46.879836946333825
exact,pre_advance,A,ar,revision_dfm_kalman_em,2008:Q4,12.061265535156739,-34.81857141117709
exact,pre_advance,A,ar,revision_dfm_kalman_em,2009:Q1,25.630680135385166,-9.187891275791923
exact,pre_advance,A,ar,revision_dfm_kalman_em,2009:Q2,0.7080468107790872,-8.479844465012835
exact,pre_advance,A,ar,revision_dfm_kalman_em,2009:Q3,7.860863307634808,-0.6189811573780277
exact,pre_advance,A,ar,revision_dfm_kalman_em,2009:Q4,-17.041521180588802,-17.66050233796683
exact,pre_advance,A,ar,revision_dfm_kalman_em,2010:Q1,-0.04762888780110275,-17.708131225767932
exact,pre_advance,A,ar,revision_dfm_kalman_em,2010:Q2,-0.1325295671073055,-17.840660792875237
exact,pre_advance,A,ar,revision_dfm_kalman_em,2010:Q3,-0.01987757346398092,-17.860538366339217
exact,pre_advance,A,ar,revision_dfm_kalman_em,2010:Q4,-0.8526161407242249,-18.713154507063443
exact,pre_advance,A,ar,revision_dfm_kalman_em,2011:Q1,-0.8265930437968203,-19.539747550860262
exact,pre_advance,A,ar,revision_dfm_kalman_em,2011:Q2,-2.2657378301043374,-21.8054853809646
exact,pre_advance,A,ar,revision_dfm_kalman_em,2011:Q3,-2.5999440463211707,-24.40542942728577
exact,pre_advance,A,ar,revision_dfm_kalman_em,2011:Q4,-0.971681089173173,-25.377110516458945
exact,pre_advance,A,ar,revision_dfm_kalman_em,2012:Q1,-4.234717868856411,-29.611828385315356
exact,pre_advance,A,ar,revision_dfm_kalman_em,2012:Q2,-1.4878093396780847,-31.09963772499344
exact,pre_advance,A,ar,revision_dfm_kalman_em,2012:Q3,-1.02383016387197,-32.123467888865406
exact,pre_advance,A,ar,revision_dfm_kalman_em,2012:Q4,-12.262315446093963,-44.38578333495937
exact,pre_advance,A,ar,revision_dfm_kalman_em,2013:Q1,0.23250001102173168,-44.153283323937636
exact,pre_advance,A,ar,revision_dfm_kalman_em,2013:Q2,0.0738636727021792,-44.079419651235455
exact,pre_advance,A,ar,revision_dfm_kalman_em,2013:Q3,0.5568975005373014,-43.52252215069815
exact,pre_advance,A,ar,revision_dfm_kalman_em,2013:Q4,-1.4756008667076825,-44.99812301740583
exact,pre_advance,A,ar,revision_dfm_kalman_em,2014:Q1,1.0932225758757035,-43.90490044153013
exact,pre_advance,A,ar,revision_dfm_kalman_em,2014:Q2,6.629333207398071,-37.27556723413206
exact,pre_advance,A,ar,revision_dfm_kalman_em,2014:Q3,0.00844611145556974,-37.26712112267649
exact,pre_advance,A,ar,revision_dfm_kalman_em,2014:Q4,-1.2164037546961222,-38.483524877372616
exact,pre_advance,A,ar,revision_dfm_kalman_em,2015:Q1,3.937883563487529,-34.545641313885085
exact,pre_advance,A,ar,revision_dfm_kalman_em,2015:Q2,-0.31774715494544903,-34.863388468830536
exact,pre_advance,A,ar,revision_dfm_kalman_em,2015:Q3,-1.2773851761816712,-36.14077364501221
exact,pre_advance,A,ar,revision_dfm_kalman_em,2015:Q4,1.0640271532040682,-35.076746491808144
exact,pre_advance,A,ar,revision_dfm_kalman_em,2016:Q1,-0.7451575762603022,-35.82190406806845
exact,pre_advance,A,ar,revision_dfm_kalman_em,2016:Q2,-1.015221974848094,-36.837126042916545
exact,pre_advance,A,ar,revision_dfm_kalman_em,2016:Q3,1.0342268316743584,-35.802899211242185
exact,pre_advance,A,ar,revision_dfm_kalman_em,2016:Q4,-0.7954261048440253,-36.59832531608621
exact,pre_advance,A,ar,revision_dfm_kalman_em,2017:Q1,-1.2892092924814564,-37.88753460856767
exact,pre_advance,A,ar,revision_dfm_kalman_em,2017:Q2,0.9377579437435021,-36.94977666482417
exact,pre_advance,A,ar,revision_dfm_kalman_em,2017:Q3,-1.904606939610248,-38.85438360443442
exact,pre_advance,A,ar,revision_dfm_kalman_em,2017:Q4,-10.025559389110057,-48.879942993544475
exact,pre_advance,A,ar,revision_dfm_kalman_em,2018:Q1,-0.4735960436492001,-49.35353903719368
exact,pre_advance,A,ar,revision_dfm_kalman_em,2018:Q2,1.495909703246105,-47.85762933394757
exact,pre_advance,A,ar,revision_dfm_kalman_em,2018:Q3,-0.3956994583182069,-48.253328792265776
exact,pre_advance,A,ar,revision_dfm_kalman_em,2018:Q4,-0.012829882222262584,-48.26615867448804
exact,pre_advance,A,ar,revision_dfm_kalman_em,2019:Q1,-1.7053292074636826,-49.971487881951724
exact,pre_advance,A,ar,revision_dfm_kalman_em,2019:Q2,0.4071171764515431,-49.56437070550018
exact,pre_advance,A,ar,revision_dfm_kalman_em,2019:Q3,-1.5977910818567511,-51.16216178735693
exact,pre_advance,A,ar,revision_dfm_kalman_em,2019:Q4,-0.15921946890232164,-51.32138125625925
exact,pre_advance,A,ar,revision_dfm_kalman_em,2020:Q1,31.359953653503997,-19.961427602755254
exact,pre_advance,A,ar,revision_dfm_kalman_em,2020:Q2,951.9837834262345,932.0223558234792
exact,pre_advance,A,ar,revision_dfm_kalman_em,2020:Q3,2016.2187678024995,2948.2411236259786
exact,pre_advance,A,ar,revision_dfm_kalman_em,2020:Q4,-0.12907358000675062,2948.112050045972
exact,pre_advance,A,ar,revision_dfm_kalman_em,2021:Q1,-0.294140214994421,2947.8179098309774
exact,pre_advance,A,ar,revision_dfm_kalman_em,2021:Q2,12.290756148191644,2960.108665979169
exact,pre_advance,A,ar,revision_dfm_kalman_em,2021:Q3,-7.15431117092036,2952.954354808249
exact,pre_advance,A,ar,revision_dfm_kalman_em,2021:Q4,4.500452374813905,2957.4548071830627
exact,pre_advance,A,ar,revision_dfm_kalman_em,2022:Q1,-26.39091246868537,2931.0638947143775
exact,pre_advance,A,ar,revision_dfm_kalman_em,2022:Q2,-4.7222167678910605,2926.3416779464865
exact,pre_advance,A,ar,revision_dfm_kalman_em,2022:Q3,0.03308354885928731,2926.374761495346
exact,pre_advance,A,ar,revision_dfm_kalman_em,2022:Q4,-1.1237724238726512,2925.250989071473
exact,pre_advance,A,ar,revision_dfm_kalman_em,2023:Q1,-1.0159813725829254,2924.2350076988905
exact,pre_advance,A,ar,revision_dfm_kalman_em,2023:Q2,-0.009848900787823942,2924.2251587981027
exact,pre_advance,A,ar,revision_dfm_kalman_em,2023:Q3,0.25873229337149084,2924.483891091474
exact,pre_advance,A,ar,revision_dfm_kalman_em,2023:Q4,-1.9525829497839062,2922.5313081416903
exact,pre_advance,A,ar,revision_dfm_kalman_em,2024:Q1,0.764855670074641,2923.296163811765
exact,pre_advance,A,ar,revision_dfm_kalman_em,2024:Q2,0.1159150014138183,2923.4120788131786
exact,pre_advance,A,ar,revision_dfm_kalman_em,2024:Q3,-0.5195846714521464,2922.8924941417263
exact,pre_advance,A,ar,revision_dfm_kalman_em,2024:Q4,0.04505502747156792,2922.937549169198
exact,pre_advance,A,ar,spf,2005:Q1,-0.42517854575438496,-0.42517854575438496
exact,pre_advance,A,ar,spf,2005:Q2,0.08831751947213484,-0.3368610262822501
exact,pre_advance,A,ar,spf,2005:Q3,0.4507088181174133,0.11384779183516319
exact,pre_advance,A,ar,spf,2005:Q4,0.2025752765366695,0.3164230683718327
exact,pre_advance,A,ar,spf,2006:Q1,7.924225342930829,8.240648411302661
exact,pre_advance,A,ar,spf,2006:Q2,0.9735201416432564,9.214168552945917
exact,pre_advance,A,ar,spf,2006:Q3,-0.5016709430059996,8.712497609939918
exact,pre_advance,A,ar,spf,2006:Q4,0.8016502039321348,9.514147813872054
exact,pre_advance,A,ar,spf,2007:Q1,1.6502665112336372,11.16441432510569
exact,pre_advance,A,ar,spf,2007:Q2,0.9864284552164425,12.150842780322133
exact,pre_advance,A,ar,spf,2007:Q3,-0.9193476113978154,11.231495168924317
exact,pre_advance,A,ar,spf,2007:Q4,5.6967814013468345,16.92827657027115
exact,pre_advance,A,ar,spf,2008:Q1,1.204990077036036,18.133266647307188
exact,pre_advance,A,ar,spf,2008:Q2,-3.2238512984891305,14.909415348818058
exact,pre_advance,A,ar,spf,2008:Q3,3.9356302256616567,18.845045574479716
exact,pre_advance,A,ar,spf,2008:Q4,24.09859860416627,42.94364417864598
exact,pre_advance,A,ar,spf,2009:Q1,29.64231503174285,72.58595921038884
exact,pre_advance,A,ar,spf,2009:Q2,0.7444354842419123,73.33039469463075
exact,pre_advance,A,ar,spf,2009:Q3,6.413336075458125,79.74373077008887
exact,pre_advance,A,ar,spf,2009:Q4,-2.6823601235725896,77.06137064651628
exact,pre_advance,A,ar,spf,2010:Q1,0.5057329121489584,77.56710355866524
exact,pre_advance,A,ar,spf,2010:Q2,-0.6110653931217516,76.95603816554349
exact,pre_advance,A,ar,spf,2010:Q3,0.057757461558770956,77.01379562710225
exact,pre_advance,A,ar,spf,2010:Q4,-0.11279743336282044,76.90099819373944
exact,pre_advance,A,ar,spf,2011:Q1,-1.9313760280653232,74.96962216567411
exact,pre_advance,A,ar,spf,2011:Q2,-3.063146223748209,71.9064759419259
exact,pre_advance,A,ar,spf,2011:Q3,0.2947819256509671,72.20125786757687
exact,pre_advance,A,ar,spf,2011:Q4,-0.005129844824395442,72.19612802275248
exact,pre_advance,A,ar,spf,2012:Q1,0.20458547617010198,72.40071349892257
exact,pre_advance,A,ar,spf,2012:Q2,-0.018409770611496512,72.38230372831107
exact,pre_advance,A,ar,spf,2012:Q3,-0.07217463608159123,72.31012909222949
exact,pre_advance,A,ar,spf,2012:Q4,1.942029542373171,74.25215863460267
exact,pre_advance,A,ar,spf,2013:Q1,1.6946220230777251,75.94678065768039
exact,pre_advance,A,ar,spf,2013:Q2,0.6973315171270864,76.64411217480747
exact,pre_advance,A,ar,spf,2013:Q3,0.30591725775643197,76.95002943256391
exact,pre_advance,A,ar,spf,2013:Q4,-1.6325980275425858,75.31743140502132
exact,pre_advance,A,ar,spf,2014:Q1,3.9699001821393285,79.28733158716065
exact,pre_advance,A,ar,spf,2014:Q2,6.438074299007829,85.72540588616847
exact,pre_advance,A,ar,spf,2014:Q3,-0.251635163548447,85.47377072262003
exact,pre_advance,A,ar,spf,2014:Q4,0.15145887412351158,85.62522959674354
exact,pre_advance,A,ar,spf,2015:Q1,-0.5212496814951058,85.10397991524843
exact,pre_advance,A,ar,spf,2015:Q2,0.8318632025934702,85.9358431178419
exact,pre_advance,A,ar,spf,2015:Q3,-0.9288030556021227,85.00704006223978
exact,pre_advance,A,ar,spf,2015:Q4,-2.3284026900794466,82.67863737216034
exact,pre_advance,A,ar,spf,2016:Q1,-1.0743226983875476,81.60431467377279
exact,pre_advance,A,ar,spf,2016:Q2,-0.8018984522303787,80.80241622154242
exact,pre_advance,A,ar,spf,2016:Q3,1.081090054002291,81.8835062755447
exact,pre_advance,A,ar,spf,2016:Q4,0.5801221432004156,82.46362841874512
exact,pre_advance,A,ar,spf,2017:Q1,-0.40971985483717344,82.05390856390794
exact,pre_advance,A,ar,spf,2017:Q2,0.642430113382157,82.6963386772901
exact,pre_advance,A,ar,spf,2017:Q3,0.13811758081006068,82.83445625810016
exact,pre_advance,A,ar,spf,2017:Q4,0.02064702779276604,82.85510328589292
exact,pre_advance,A,ar,spf,2018:Q1,-0.5112817400069796,82.34382154588594
exact,pre_advance,A,ar,spf,2018:Q2,1.9556914179554414,84.29951296384138
exact,pre_advance,A,ar,spf,2018:Q3,-0.16830279942107848,84.1312101644203
exact,pre_advance,A,ar,spf,2018:Q4,0.16799650605565186,84.29920667047595
exact,pre_advance,A,ar,spf,2019:Q1,-2.1668629688608125,82.13234370161514
exact,pre_advance,A,ar,spf,2019:Q2,0.5770120504342601,82.7093557520494
exact,pre_advance,A,ar,spf,2019:Q3,0.12206090810372335,82.83141666015312
exact,pre_advance,A,ar,spf,2019:Q4,-0.11990346709440587,82.71151319305872
exact,pre_advance,A,ar,spf,2020:Q1,8.308627598562644,91.02014079162137
exact,pre_advance,A,ar,spf,2020:Q2,1006.5196753159297,1097.5398161075511
exact,pre_advance,A,ar,spf,2020:Q3,2578.5391004156163,3676.078916523167
exact,pre_advance,A,ar,spf,2020:Q4,0.02681258593660213,3676.105729109104
exact,pre_advance,A,ar,spf,2021:Q1,3.252762678213962,3679.3584917873177
exact,pre_advance,A,ar,spf,2021:Q2,12.68371881776786,3692.0422106050855
exact,pre_advance,A,ar,spf,2021:Q3,-22.331344034562516,3669.710866570523
exact,pre_advance,A,ar,spf,2021:Q4,15.240271989586443,3684.9511385601095
exact,pre_advance,A,ar,spf,2022:Q1,7.091401681972036,3692.0425402420815
exact,pre_advance,A,ar,spf,2022:Q2,1.1551812488577688,3693.1977214909393
exact,pre_advance,A,ar,spf,2022:Q3,-1.638800736536628,3691.5589207544026
exact,pre_advance,A,ar,spf,2022:Q4,-3.345468483020446,3688.2134522713823
exact,pre_advance,A,ar,spf,2023:Q1,1.8011756926901332,3690.0146279640726
exact,pre_advance,A,ar,spf,2023:Q2,-2.467037637592867,3687.5475903264796
exact,pre_advance,A,ar,spf,2023:Q3,-3.7624631138196234,3683.78512721266
exact,pre_advance,A,ar,spf,2023:Q4,-4.231139798306024,3679.5539874143537
exact,pre_advance,A,ar,spf,2024:Q1,0.6176035835239486,3680.1715909978775
exact,pre_advance,A,ar,spf,2024:Q2,-0.5427808169482209,3679.628810180929
exact,pre_advance,A,ar,spf,2024:Q3,-0.8072172383919204,3678.8215929425373
exact,pre_advance,A,ar,spf,2024:Q4,-0.05692555044772479,3678.7646673920895
exact,pre_advance,A,ar,standard_dfm,2005:Q1,-0.0007821528217788545,-0.0007821528217788545
exact,pre_advance,A,ar,standard_dfm,2005:Q2,0.18717519661325382,0.18639304379147498
exact,pre_advance,A,ar,standard_dfm,2005:Q3,-0.19070841299677455,-0.0043153692052995685
exact,pre_advance,A,ar,standard_dfm,2005:Q4,1.8335251787286526,1.829209809523353
exact,pre_advance,A,ar,standard_dfm,2006:Q1,7.140544440475784,8.969754249999138
exact,pre_advance,A,ar,standard_dfm,2006:Q2,0.8269573508294787,9.796711600828617
exact,pre_advance,A,ar,standard_dfm,2006:Q3,0.5562770621585442,10.352988662987162
exact,pre_advance,A,ar,standard_dfm,2006:Q4,-3.7417827291526127,6.611205933834549
exact,pre_advance,A,ar,standard_dfm,2007:Q1,2.9656737152669845,9.576879649101533
exact,pre_advance,A,ar,standard_dfm,2007:Q2,0.6908456611861109,10.267725310287645
exact,pre_advance,A,ar,standard_dfm,2007:Q3,-7.6652689832189695,2.6024563270686754
exact,pre_advance,A,ar,standard_dfm,2007:Q4,6.870115100617308,9.472571427685983
exact,pre_advance,A,ar,standard_dfm,2008:Q1,0.9144408701737925,10.387012297859776
exact,pre_advance,A,ar,standard_dfm,2008:Q2,-0.05481414330886874,10.332198154550907
exact,pre_advance,A,ar,standard_dfm,2008:Q3,5.860833068397045,16.19303122294795
exact,pre_advance,A,ar,standard_dfm,2008:Q4,22.241284138628192,38.43431536157614
exact,pre_advance,A,ar,standard_dfm,2009:Q1,26.20757831403948,64.64189367561562
exact,pre_advance,A,ar,standard_dfm,2009:Q2,-0.6748125588985349,63.96708111671708
exact,pre_advance,A,ar,standard_dfm,2009:Q3,7.900005637483222,71.8670867542003
exact,pre_advance,A,ar,standard_dfm,2009:Q4,0.06256310955836941,71.92964986375867
exact,pre_advance,A,ar,standard_dfm,2010:Q1,-1.8487598268229595,70.08089003693571
exact,pre_advance,A,ar,standard_dfm,2010:Q2,-0.46421811614118985,69.61667192079452
exact,pre_advance,A,ar,standard_dfm,2010:Q3,-0.13267777651456225,69.48399414427995
exact,pre_advance,A,ar,standard_dfm,2010:Q4,0.3340501189303903,69.81804426321034
exact,pre_advance,A,ar,standard_dfm,2011:Q1,-6.805589561350281,63.01245470186006
exact,pre_advance,A,ar,standard_dfm,2011:Q2,-1.4999643265116371,61.51249037534842
exact,pre_advance,A,ar,standard_dfm,2011:Q3,-0.006787891694757631,61.505702483653664
exact,pre_advance,A,ar,standard_dfm,2011:Q4,-1.050246363120002,60.45545612053366
exact,pre_advance,A,ar,standard_dfm,2012:Q1,-2.474877081486194,57.98057903904747
exact,pre_advance,A,ar,standard_dfm,2012:Q2,-0.4227957417381516,57.55778329730932
exact,pre_advance,A,ar,standard_dfm,2012:Q3,-0.4963607747092333,57.06142252260009
exact,pre_advance,A,ar,standard_dfm,2012:Q4,-8.705898251764705,48.35552427083539
exact,pre_advance,A,ar,standard_dfm,2013:Q1,1.4556070853378873,49.81113135617328
exact,pre_advance,A,ar,standard_dfm,2013:Q2,-0.5764135629584886,49.23471779321479
exact,pre_advance,A,ar,standard_dfm,2013:Q3,0.505066588933149,49.73978438214794
exact,pre_advance,A,ar,standard_dfm,2013:Q4,0.12205669947308287,49.86184108162102
exact,pre_advance,A,ar,standard_dfm,2014:Q1,2.8091550995411136,52.67099618116214
exact,pre_advance,A,ar,standard_dfm,2014:Q2,6.955596031397367,59.62659221255951
exact,pre_advance,A,ar,standard_dfm,2014:Q3,-0.2027545568744939,59.42383765568501
exact,pre_advance,A,ar,standard_dfm,2014:Q4,0.16032664866285543,59.584164304347865
exact,pre_advance,A,ar,standard_dfm,2015:Q1,3.997438432805209,63.58160273715308
exact,pre_advance,A,ar,standard_dfm,2015:Q2,0.23395287185264535,63.81555560900572
exact,pre_advance,A,ar,standard_dfm,2015:Q3,-0.25823276276692186,63.5573228462388
exact,pre_advance,A,ar,standard_dfm,2015:Q4,-0.24755612829726759,63.30976671794153
exact,pre_advance,A,ar,standard_dfm,2016:Q1,-1.1396767121918765,62.17009000574965
exact,pre_advance,A,ar,standard_dfm,2016:Q2,-1.0186611660854816,61.15142883966417
exact,pre_advance,A,ar,standard_dfm,2016:Q3,0.8197405200235188,61.97116935968769
exact,pre_advance,A,ar,standard_dfm,2016:Q4,-1.4333230715615168,60.537846288126175
exact,pre_advance,A,ar,standard_dfm,2017:Q1,-2.347852272856097,58.18999401527008
exact,pre_advance,A,ar,standard_dfm,2017:Q2,0.9338758081867135,59.12386982345679
exact,pre_advance,A,ar,standard_dfm,2017:Q3,-0.45279573045163435,58.67107409300516
exact,pre_advance,A,ar,standard_dfm,2017:Q4,-1.81335210018258,56.85772199282258
exact,pre_advance,A,ar,standard_dfm,2018:Q1,-1.3219494379108407,55.535772554911745
exact,pre_advance,A,ar,standard_dfm,2018:Q2,0.5948377765140198,56.130610331425764
exact,pre_advance,A,ar,standard_dfm,2018:Q3,-0.2446230630886596,55.885987268337104
exact,pre_advance,A,ar,standard_dfm,2018:Q4,0.14859365000516392,56.034580918342265
exact,pre_advance,A,ar,standard_dfm,2019:Q1,-1.642616009071777,54.391964909270484
exact,pre_advance,A,ar,standard_dfm,2019:Q2,0.5902103584288081,54.98217526769929
exact,pre_advance,A,ar,standard_dfm,2019:Q3,-0.11814865827107224,54.864026609428215
exact,pre_advance,A,ar,standard_dfm,2019:Q4,0.01634585843007544,54.880372467858294
exact,pre_advance,A,ar,standard_dfm,2020:Q1,20.440715826579183,75.32108829443747
exact,pre_advance,A,ar,standard_dfm,2020:Q2,677.0559142179914,752.3770025124288
exact,pre_advance,A,ar,standard_dfm,2020:Q3,2554.82664039399,3307.203642906419
exact,pre_advance,A,ar,standard_dfm,2020:Q4,-10.782469465647605,3296.421173440772
exact,pre_advance,A,ar,standard_dfm,2021:Q1,13.089427054107743,3309.5106004948793
exact,pre_advance,A,ar,standard_dfm,2021:Q2,11.015941072620668,3320.5265415675
exact,pre_advance,A,ar,standard_dfm,2021:Q3,-2.0624372150124235,3318.4641043524875
exact,pre_advance,A,ar,standard_dfm,2021:Q4,14.001548201745123,3332.4656525542327
exact,pre_advance,A,ar,standard_dfm,2022:Q1,-11.110209683060464,3321.3554428711723
exact,pre_advance,A,ar,standard_dfm,2022:Q2,-0.2108098350301173,3321.1446330361423
exact,pre_advance,A,ar,standard_dfm,2022:Q3,-0.22267278082561742,3320.9219602553167
exact,pre_advance,A,ar,standard_dfm,2022:Q4,-14.965487483907966,3305.9564727714087
exact,pre_advance,A,ar,standard_dfm,2023:Q1,1.2582303555459553,3307.2147031269546
exact,pre_advance,A,ar,standard_dfm,2023:Q2,-0.28058131840435496,3306.93412180855
exact,pre_advance,A,ar,standard_dfm,2023:Q3,-2.0879313441271323,3304.8461904644228
exact,pre_advance,A,ar,standard_dfm,2023:Q4,-3.932011085428086,3300.9141793789945
exact,pre_advance,A,ar,standard_dfm,2024:Q1,0.6003068965083158,3301.514486275503
exact,pre_advance,A,ar,standard_dfm,2024:Q2,-0.6239650691969212,3300.890521206306
exact,pre_advance,A,ar,standard_dfm,2024:Q3,0.05200385454902861,3300.942525060855
exact,pre_advance,A,ar,standard_dfm,2024:Q4,-0.00126792334690419,3300.9412571375083
exact,pre_advance,A,no_revision,ar,2005:Q1,-0.01829276874886654,-0.01829276874886654
exact,pre_advance,A,no_revision,ar,2005:Q2,0.010434082728868699,-0.00785868601999784
exact,pre_advance,A,no_revision,ar,2005:Q3,-0.04475723724217473,-0.05261592326217257
exact,pre_advance,A,no_revision,ar,2005:Q4,0.005897102113586961,-0.04671882114858561
exact,pre_advance,A,no_revision,ar,2006:Q1,-0.14435758559098844,-0.19107640673957405
exact,pre_advance,A,no_revision,ar,2006:Q2,-0.10645890996238783,-0.29753531670196187
exact,pre_advance,A,no_revision,ar,2006:Q3,0.24152679339726402,-0.056008523304697855
exact,pre_advance,A,no_revision,ar,2006:Q4,0.30824079892148304,0.2522322756167852
exact,pre_advance,A,no_revision,ar,2007:Q1,0.23848279984936216,0.49071507546614734
exact,pre_advance,A,no_revision,ar,2007:Q2,-0.05512019812272051,0.43559487734342683
exact,pre_advance,A,no_revision,ar,2007:Q3,0.19969014430791188,0.6352850216513387
exact,pre_advance,A,no_revision,ar,2007:Q4,0.15567398880635874,0.7909590104576975
exact,pre_advance,A,no_revision,ar,2008:Q1,-0.05559234221203191,0.7353666682456655
exact,pre_advance,A,no_revision,ar,2008:Q2,-0.004622952477093177,0.7307437157685723
exact,pre_advance,A,no_revision,ar,2008:Q3,0.15221627551749783,0.8829599912860702
exact,pre_advance,A,no_revision,ar,2008:Q4,-0.5818162017862143,0.3011437894998559
exact,pre_advance,A,no_revision,ar,2009:Q1,-0.45423321116048854,-0.15308942166063266
exact,pre_advance,A,no_revision,ar,2009:Q2,-0.013307526119774815,-0.16639694778040748
exact,pre_advance,A,no_revision,ar,2009:Q3,1.023992772227114,0.8575958244467066
exact,pre_advance,A,no_revision,ar,2009:Q4,1.4621885824992091,2.3197844069459155
exact,pre_advance,A,no_revision,ar,2010:Q1,-0.5154181563893694,1.804366250556546
exact,pre_advance,A,no_revision,ar,2010:Q2,-0.1815894544157976,1.6227767961407484
exact,pre_advance,A,no_revision,ar,2010:Q3,-0.02901155984276077,1.5937652362979877
exact,pre_advance,A,no_revision,ar,2010:Q4,-0.21335030884274386,1.3804149274552437
exact,pre_advance,A,no_revision,ar,2011:Q1,0.06757887593352563,1.4479938033887694
exact,pre_advance,A,no_revision,ar,2011:Q2,-0.0202217337142232,1.4277720696745462
exact,pre_advance,A,no_revision,ar,2011:Q3,0.052984459561723096,1.4807565292362692
exact,pre_advance,A,no_revision,ar,2011:Q4,-0.01895665554257433,1.4617998736936948
exact,pre_advance,A,no_revision,ar,2012:Q1,-0.02232353618393504,1.4394763375097597
exact,pre_advance,A,no_revision,ar,2012:Q2,-0.11942453052189395,1.3200518069878657
exact,pre_advance,A,no_revision,ar,2012:Q3,-0.0006349170808925357,1.3194168899069731
exact,pre_advance,A,no_revision,ar,2012:Q4,0.06262090931865316,1.3820377992256263
exact,pre_advance,A,no_revision,ar,2013:Q1,0.008932871015000954,1.3909706702406273
exact,pre_advance,A,no_revision,ar,2013:Q2,-0.06324061631598044,1.3277300539246468
exact,pre_advance,A,no_revision,ar,2013:Q3,-0.0315667756852992,1.2961632782393475
exact,pre_advance,A,no_revision,ar,2013:Q4,0.17688786721241778,1.4730511454517652
exact,pre_advance,A,no_revision,ar,2014:Q1,0.02480433967617479,1.49785548512794
exact,pre_advance,A,no_revision,ar,2014:Q2,0.3039643587409291,1.801819843868869
exact,pre_advance,A,no_revision,ar,2014:Q3,0.01009808842494786,1.811917932293817
exact,pre_advance,A,no_revision,ar,2014:Q4,0.053005079780955394,1.8649230120747724
exact,pre_advance,A,no_revision,ar,2015:Q1,-0.67193818782102,1.1929848242537524
exact,pre_advance,A,no_revision,ar,2015:Q2,-0.08197493566980374,1.1110098885839488
exact,pre_advance,A,no_revision,ar,2015:Q3,0.08264742175217066,1.1936573103361194
exact,pre_advance,A,no_revision,ar,2015:Q4,0.12441534043486313,1.3180726507709826
exact,pre_advance,A,no_revision,ar,2016:Q1,-0.2275952927293533,1.0904773580416292
exact,pre_advance,A,no_revision,ar,2016:Q2,0.0046545719231812915,1.0951319299648103
exact,pre_advance,A,no_revision,ar,2016:Q3,0.04584231925914617,1.1409742492239565
exact,pre_advance,A,no_revision,ar,2016:Q4,-0.10114230910276367,1.0398319401211928
exact,pre_advance,A,no_revision,ar,2017:Q1,-0.246574617300388,0.7932573228208049
exact,pre_advance,A,no_revision,ar,2017:Q2,0.15926574147033767,0.9525230642911425
exact,pre_advance,A,no_revision,ar,2017:Q3,-0.022454236955837703,0.9300688273353048
exact,pre_advance,A,no_revision,ar,2017:Q4,-0.004727701091471227,0.9253411262438336
exact,pre_advance,A,no_revision,ar,2018:Q1,-0.03223932073775865,0.8931018055060749
exact,pre_advance,A,no_revision,ar,2018:Q2,0.05012498584200742,0.9432267913480823
exact,pre_advance,A,no_revision,ar,2018:Q3,-0.0040716179457951085,0.9391551734022872
exact,pre_advance,A,no_revision,ar,2018:Q4,-0.0107967518642271,0.92835842153806
exact,pre_advance,A,no_revision,ar,2019:Q1,0.06475700376940074,0.9931154253074608
exact,pre_advance,A,no_revision,ar,2019:Q2,0.08251128198875868,1.0756267072962196
exact,pre_advance,A,no_revision,ar,2019:Q3,0.02873654465966108,1.1043632519558806
exact,pre_advance,A,no_revision,ar,2019:Q4,-0.0032282376299231016,1.1011350143259575
exact,pre_advance,A,no_revision,ar,2020:Q1,0.47755925650978526,1.5786942708357428
exact,pre_advance,A,no_revision,ar,2020:Q2,0.5667662532794111,2.145460524115154
exact,pre_advance,A,no_revision,ar,2020:Q3,57.60016029331837,59.74562081743352
exact,pre_advance,A,no_revision,ar,2020:Q4,40.65854856282156,100.40416938025507
exact,pre_advance,A,no_revision,ar,2021:Q1,27.79553131153419,128.19970069178925
exact,pre_advance,A,no_revision,ar,2021:Q2,24.119251842538425,152.31895253432768
exact,pre_advance,A,no_revision,ar,2021:Q3,0.30877510409469244,152.62772763842236
exact,pre_advance,A,no_revision,ar,2021:Q4,-3.7679008571371924,148.85982678128516
exact,pre_advance,A,no_revision,ar,2022:Q1,0.5234667865097897,149.38329356779496
exact,pre_advance,A,no_revision,ar,2022:Q2,1.9855199282110494,151.36881349600603
exact,pre_advance,A,no_revision,ar,2022:Q3,0.033925124700511525,151.40273862070654
exact,pre_advance,A,no_revision,ar,2022:Q4,0.7384306425890252,152.14116926329558
exact,pre_advance,A,no_revision,ar,2023:Q1,-0.371137610273619,151.77003165302196
exact,pre_advance,A,no_revision,ar,2023:Q2,0.00528125482766627,151.77531290784964
exact,pre_advance,A,no_revision,ar,2023:Q3,0.5551736828791194,152.33048659072875
exact,pre_advance,A,no_revision,ar,2023:Q4,0.20210030709286464,152.53258689782163
exact,pre_advance,A,no_revision,ar,2024:Q1,0.31218151521482485,152.84476841303646
exact,pre_advance,A,no_revision,ar,2024:Q2,-0.0978852185130688,152.7468831945234
exact,pre_advance,A,no_revision,ar,2024:Q3,0.06291573213851451,152.80979892666193
exact,pre_advance,A,no_revision,ar,2024:Q4,-0.026146771737672124,152.78365215492425
exact,pre_advance,A,no_revision,bridge,2005:Q1,0.008215597414184327,0.008215597414184327
exact,pre_advance,A,no_revision,bridge,2005:Q2,0.2664849976095034,0.2747005950236877
exact,pre_advance,A,no_revision,bridge,2005:Q3,-0.15934170783751533,0.11535888718617238
exact,pre_advance,A,no_revision,bridge,2005:Q4,-1.0611563148113392,-0.9457974276251668
exact,pre_advance,A,no_revision,bridge,2006:Q1,1.4912925400289465,0.5454951124037797
exact,pre_advance,A,no_revision,bridge,2006:Q2,0.6612398447418184,1.206734957145598
exact,pre_advance,A,no_revision,bridge,2006:Q3,0.1273893744255441,1.3341243315711422
exact,pre_advance,A,no_revision,bridge,2006:Q4,-11.115495185358752,-9.78137085378761
exact,pre_advance,A,no_revision,bridge,2007:Q1,3.1673071315367447,-6.614063722250865
exact,pre_advance,A,no_revision,bridge,2007:Q2,-0.6270010939567126,-7.241064816207578
exact,pre_advance,A,no_revision,bridge,2007:Q3,-4.222013087742023,-11.4630779039496
exact,pre_advance,A,no_revision,bridge,2007:Q4,7.137280030827965,-4.325797873121635
exact,pre_advance,A,no_revision,bridge,2008:Q1,-0.8984188663524948,-5.22421673947413
exact,pre_advance,A,no_revision,bridge,2008:Q2,-0.5822131332173002,-5.80642987269143
exact,pre_advance,A,no_revision,bridge,2008:Q3,6.39136969126084,0.5849398185694099
exact,pre_advance,A,no_revision,bridge,2008:Q4,18.35320542375238,18.93814524232179
exact,pre_advance,A,no_revision,bridge,2009:Q1,28.522254693917795,47.46039993623958
exact,pre_advance,A,no_revision,bridge,2009:Q2,-1.1106053779094145,46.34979455833017
exact,pre_advance,A,no_revision,bridge,2009:Q3,5.32685235672722,51.67664691505739
exact,pre_advance,A,no_revision,bridge,2009:Q4,2.3027277325741444,53.97937464763153
exact,pre_advance,A,no_revision,bridge,2010:Q1,-8.418305450954188,45.561069196677344
exact,pre_advance,A,no_revision,bridge,2010:Q2,-0.1697311461835938,45.39133805049375
exact,pre_advance,A,no_revision,bridge,2010:Q3,0.1593129872951196,45.55065103778887
exact,pre_advance,A,no_revision,bridge,2010:Q4,0.06317830953073766,45.61382934731961
exact,pre_advance,A,no_revision,bridge,2011:Q1,-2.555993190959713,43.0578361563599
exact,pre_advance,A,no_revision,bridge,2011:Q2,-1.493123708883806,41.56471244747609
exact,pre_advance,A,no_revision,bridge,2011:Q3,0.05073215179515983,41.61544459927125
exact,pre_advance,A,no_revision,bridge,2011:Q4,-1.1017138183289266,40.513730780942325
exact,pre_advance,A,no_revision,bridge,2012:Q1,-1.0764773078905139,39.43725347305181
exact,pre_advance,A,no_revision,bridge,2012:Q2,-0.6035966229476759,38.833656850104134
exact,pre_advance,A,no_revision,bridge,2012:Q3,-0.5752088386682247,38.25844801143591
exact,pre_advance,A,no_revision,bridge,2012:Q4,-8.103480051567285,30.154967959868625
exact,pre_advance,A,no_revision,bridge,2013:Q1,0.7950884554726778,30.9500564153413
exact,pre_advance,A,no_revision,bridge,2013:Q2,-0.4457019305453256,30.504354484795975
exact,pre_advance,A,no_revision,bridge,2013:Q3,-0.49834211672689566,30.00601236806908
exact,pre_advance,A,no_revision,bridge,2013:Q4,0.1371224544965423,30.14313482256562
exact,pre_advance,A,no_revision,bridge,2014:Q1,3.94519318026431,34.08832800282993
exact,pre_advance,A,no_revision,bridge,2014:Q2,4.410158699495559,38.49848670232549
exact,pre_advance,A,no_revision,bridge,2014:Q3,-0.045996355308121864,38.452490347017374
exact,pre_advance,A,no_revision,bridge,2014:Q4,0.21060359627008304,38.66309394328746
exact,pre_advance,A,no_revision,bridge,2015:Q1,2.7117362862474277,41.374830229534886
exact,pre_advance,A,no_revision,bridge,2015:Q2,0.7790793652174877,42.15390959475238
exact,pre_advance,A,no_revision,bridge,2015:Q3,0.6963195488390831,42.85022914359146
exact,pre_advance,A,no_revision,bridge,2015:Q4,0.7760148696761358,43.6262440132676
exact,pre_advance,A,no_revision,bridge,2016:Q1,0.5511528724916305,44.17739688575923
exact,pre_advance,A,no_revision,bridge,2016:Q2,0.0644515912176081,44.241848476976834
exact,pre_advance,A,no_revision,bridge,2016:Q3,0.40961784186630823,44.65146631884314
exact,pre_advance,A,no_revision,bridge,2016:Q4,-0.8386804777801568,43.81278584106298
exact,pre_advance,A,no_revision,bridge,2017:Q1,-0.9106445698930794,42.9021412711699
exact,pre_advance,A,no_revision,bridge,2017:Q2,0.032319961715321144,42.934461232885226
exact,pre_advance,A,no_revision,bridge,2017:Q3,-0.336708786293597,42.59775244659163
exact,pre_advance,A,no_revision,bridge,2017:Q4,-1.154757722775842,41.44299472381579
exact,pre_advance,A,no_revision,bridge,2018:Q1,-0.8916572326445082,40.55133749117128
exact,pre_advance,A,no_revision,bridge,2018:Q2,0.4451149747288108,40.99645246590009
exact,pre_advance,A,no_revision,bridge,2018:Q3,-0.14793050552026416,40.84852196037983
exact,pre_advance,A,no_revision,bridge,2018:Q4,0.07988877975701851,40.92841074013685
exact,pre_advance,A,no_revision,bridge,2019:Q1,-0.042852976479083926,40.885557763657765
exact,pre_advance,A,no_revision,bridge,2019:Q2,0.691477457554207,41.57703522121197
exact,pre_advance,A,no_revision,bridge,2019:Q3,-0.30398174816418033,41.27305347304779
exact,pre_advance,A,no_revision,bridge,2019:Q4,-0.17104382993473502,41.10200964311306
exact,pre_advance,A,no_revision,bridge,2020:Q1,9.580017702547927,50.682027345660984
exact,pre_advance,A,no_revision,bridge,2020:Q2,533.1821380067008,583.8641653523619
exact,pre_advance,A,no_revision,bridge,2020:Q3,1700.4719074888842,2284.3360728412463
exact,pre_advance,A,no_revision,bridge,2020:Q4,15.421963922740805,2299.758036763987
exact,pre_advance,A,no_revision,bridge,2021:Q1,40.78673656791285,2340.5447733319
exact,pre_advance,A,no_revision,bridge,2021:Q2,39.12920568822841,2379.6739790201286
exact,pre_advance,A,no_revision,bridge,2021:Q3,0.0036412283532811784,2379.677620248482
exact,pre_advance,A,no_revision,bridge,2021:Q4,-4.309556315401213,2375.368063933081
exact,pre_advance,A,no_revision,bridge,2022:Q1,-26.71709323163731,2348.650970701444
exact,pre_advance,A,no_revision,bridge,2022:Q2,4.302320761912444,2352.9532914633564
exact,pre_advance,A,no_revision,bridge,2022:Q3,-3.0320521275153913,2349.921239335841
exact,pre_advance,A,no_revision,bridge,2022:Q4,-17.62049701398003,2332.300742321861
exact,pre_advance,A,no_revision,bridge,2023:Q1,1.3756908668791987,2333.6764331887402
exact,pre_advance,A,no_revision,bridge,2023:Q2,-1.4016490347085375,2332.2747841540317
exact,pre_advance,A,no_revision,bridge,2023:Q3,0.9167463176544635,2333.1915304716863
exact,pre_advance,A,no_revision,bridge,2023:Q4,-6.150838688551263,2327.040691783135
exact,pre_advance,A,no_revision,bridge,2024:Q1,1.0977588391882465,2328.1384506223235
exact,pre_advance,A,no_revision,bridge,2024:Q2,-0.7539944374101389,2327.3844561849132
exact,pre_advance,A,no_revision,bridge,2024:Q3,-0.007619718001529829,2327.3768364669118
exact,pre_advance,A,no_revision,bridge,2024:Q4,-0.026589665500670635,2327.3502468014112
exact,pre_advance,A,no_revision,indicator_revision_only_dfm_kalman_em,2005:Q1,-4.7707165645085645,-4.7707165645085645
exact,pre_advance,A,no_revision,indicator_revision_only_dfm_kalman_em,2005:Q2,0.2465356532858267,-4.524180911222738
exact,pre_advance,A,no_revision,indicator_revision_only_dfm_kalman_em,2005:Q3,0.2774055550398344,-4.246775356182903
exact,pre_advance,A,no_revision,indicator_revision_only_dfm_kalman_em,2005:Q4,-2.9072270193243472,-7.15400237550725
exact,pre_advance,A,no_revision,indicator_revision_only_dfm_kalman_em,2006:Q1,8.095606818310335,0.9416044428030848
exact,pre_advance,A,no_revision,indicator_revision_only_dfm_kalman_em,2006:Q2,-0.981291195957102,-0.03968675315401726
exact,pre_advance,A,no_revision,indicator_revision_only_dfm_kalman_em,2006:Q3,-0.14469350689041827,-0.18438026004443553
exact,pre_advance,A,no_revision,indicator_revision_only_dfm_kalman_em,2006:Q4,-12.477730197560364,-12.662110457604799
exact,pre_advance,A,no_revision,indicator_revision_only_dfm_kalman_em,2007:Q1,-6.142147521835527,-18.804257979440326
exact,pre_advance,A,no_revision,indicator_revision_only_dfm_kalman_em,2007:Q2,-3.4184609341946572,-22.222718913634985
exact,pre_advance,A,no_revision,indicator_revision_only_dfm_kalman_em,2007:Q3,-7.910430973358735,-30.13314988699372
exact,pre_advance,A,no_revision,indicator_revision_only_dfm_kalman_em,2007:Q4,0.215519239137131,-29.91763064785659
exact,pre_advance,A,no_revision,indicator_revision_only_dfm_kalman_em,2008:Q1,-4.601029912659902,-34.518660560516494
exact,pre_advance,A,no_revision,indicator_revision_only_dfm_kalman_em,2008:Q2,-0.20901302643721836,-34.72767358695371
exact,pre_advance,A,no_revision,indicator_revision_only_dfm_kalman_em,2008:Q3,-9.695566796344593,-44.42324038329831
exact,pre_advance,A,no_revision,indicator_revision_only_dfm_kalman_em,2008:Q4,-11.863058558524095,-56.2862989418224
exact,pre_advance,A,no_revision,indicator_revision_only_dfm_kalman_em,2009:Q1,30.686422549788585,-25.599876392033817
exact,pre_advance,A,no_revision,indicator_revision_only_dfm_kalman_em,2009:Q2,-6.705465643229563,-32.30534203526338
exact,pre_advance,A,no_revision,indicator_revision_only_dfm_kalman_em,2009:Q3,4.826546243195236,-27.478795792068144
exact,pre_advance,A,no_revision,indicator_revision_only_dfm_kalman_em,2009:Q4,-0.2311040354822591,-27.7098998275504
exact,pre_advance,A,no_revision,indicator_revision_only_dfm_kalman_em,2010:Q1,-3.7468577333518636,-31.456757560902265
exact,pre_advance,A,no_revision,indicator_revision_only_dfm_kalman_em,2010:Q2,-0.7809962941895097,-32.237753855091775
exact,pre_advance,A,no_revision,indicator_revision_only_dfm_kalman_em,2010:Q3,0.16369210340727974,-32.074061751684496
exact,pre_advance,A,no_revision,indicator_revision_only_dfm_kalman_em,2010:Q4,0.5479161960831813,-31.526145555601314
exact,pre_advance,A,no_revision,indicator_revision_only_dfm_kalman_em,2011:Q1,-8.433596198335584,-39.959741753936896
exact,pre_advance,A,no_revision,indicator_revision_only_dfm_kalman_em,2011:Q2,-2.928490299045165,-42.88823205298206
exact,pre_advance,A,no_revision,indicator_revision_only_dfm_kalman_em,2011:Q3,-1.0757567851020275,-43.96398883808409
exact,pre_advance,A,no_revision,indicator_revision_only_dfm_kalman_em,2011:Q4,-2.6600421613730214,-46.62403099945711
exact,pre_advance,A,no_revision,indicator_revision_only_dfm_kalman_em,2012:Q1,-5.027167529496753,-51.65119852895386
exact,pre_advance,A,no_revision,indicator_revision_only_dfm_kalman_em,2012:Q2,-1.801549556847918,-53.45274808580178
exact,pre_advance,A,no_revision,indicator_revision_only_dfm_kalman_em,2012:Q3,-0.686543904458347,-54.139291990260126
exact,pre_advance,A,no_revision,indicator_revision_only_dfm_kalman_em,2012:Q4,-7.663838438108597,-61.803130428368725
exact,pre_advance,A,no_revision,indicator_revision_only_dfm_kalman_em,2013:Q1,0.4752656688904533,-61.327864759478274
exact,pre_advance,A,no_revision,indicator_revision_only_dfm_kalman_em,2013:Q2,-0.4517423533825562,-61.77960711286083
exact,pre_advance,A,no_revision,indicator_revision_only_dfm_kalman_em,2013:Q3,0.5212017595845437,-61.25840535327629
exact,pre_advance,A,no_revision,indicator_revision_only_dfm_kalman_em,2013:Q4,-6.031139906829191,-67.28954526010548
exact,pre_advance,A,no_revision,indicator_revision_only_dfm_kalman_em,2014:Q1,4.073878055233175,-63.21566720487231
exact,pre_advance,A,no_revision,indicator_revision_only_dfm_kalman_em,2014:Q2,7.009548384670103,-56.20611882020221
exact,pre_advance,A,no_revision,indicator_revision_only_dfm_kalman_em,2014:Q3,0.06176856086255571,-56.14435025933965
exact,pre_advance,A,no_revision,indicator_revision_only_dfm_kalman_em,2014:Q4,-0.734121442943743,-56.8784717022834
exact,pre_advance,A,no_revision,indicator_revision_only_dfm_kalman_em,2015:Q1,4.230167385203536,-52.64830431707986
exact,pre_advance,A,no_revision,indicator_revision_only_dfm_kalman_em,2015:Q2,-1.1638875817085426,-53.812191898788406
exact,pre_advance,A,no_revision,indicator_revision_only_dfm_kalman_em,2015:Q3,0.8279637671157942,-52.98422813167261
exact,pre_advance,A,no_revision,indicator_revision_only_dfm_kalman_em,2015:Q4,-2.4703606734648154,-55.454588805137426
exact,pre_advance,A,no_revision,indicator_revision_only_dfm_kalman_em,2016:Q1,0.4732859385196014,-54.981302866617824
exact,pre_advance,A,no_revision,indicator_revision_only_dfm_kalman_em,2016:Q2,-1.3957123555756479,-56.37701522219347
exact,pre_advance,A,no_revision,indicator_revision_only_dfm_kalman_em,2016:Q3,0.9822394269540929,-55.394775795239376
exact,pre_advance,A,no_revision,indicator_revision_only_dfm_kalman_em,2016:Q4,-1.3216621187003064,-56.716437913939686
exact,pre_advance,A,no_revision,indicator_revision_only_dfm_kalman_em,2017:Q1,-3.461211912713652,-60.17764982665334
exact,pre_advance,A,no_revision,indicator_revision_only_dfm_kalman_em,2017:Q2,0.6601178301947215,-59.517531996458615
exact,pre_advance,A,no_revision,indicator_revision_only_dfm_kalman_em,2017:Q3,-0.873445400637293,-60.39097739709591
exact,pre_advance,A,no_revision,indicator_revision_only_dfm_kalman_em,2017:Q4,-11.784408607380302,-72.17538600447621
exact,pre_advance,A,no_revision,indicator_revision_only_dfm_kalman_em,2018:Q1,-1.2416652418857261,-73.41705124636194
exact,pre_advance,A,no_revision,indicator_revision_only_dfm_kalman_em,2018:Q2,0.8657783837566106,-72.55127286260533
exact,pre_advance,A,no_revision,indicator_revision_only_dfm_kalman_em,2018:Q3,0.00038779785465528627,-72.55088506475067
exact,pre_advance,A,no_revision,indicator_revision_only_dfm_kalman_em,2018:Q4,-0.7726539845972109,-73.32353904934789
exact,pre_advance,A,no_revision,indicator_revision_only_dfm_kalman_em,2019:Q1,-2.6802559100842314,-76.00379495943211
exact,pre_advance,A,no_revision,indicator_revision_only_dfm_kalman_em,2019:Q2,0.6883699400357122,-75.3154250193964
exact,pre_advance,A,no_revision,indicator_revision_only_dfm_kalman_em,2019:Q3,-2.389336902993121,-77.70476192238952
exact,pre_advance,A,no_revision,indicator_revision_only_dfm_kalman_em,2019:Q4,-0.14195218492767772,-77.8467141073172
exact,pre_advance,A,no_revision,indicator_revision_only_dfm_kalman_em,2020:Q1,33.522910743110074,-44.32380336420712
exact,pre_advance,A,no_revision,indicator_revision_only_dfm_kalman_em,2020:Q2,712.5505024936424,668.2266991294352
exact,pre_advance,A,no_revision,indicator_revision_only_dfm_kalman_em,2020:Q3,1919.239673582162,2587.466372711597
exact,pre_advance,A,no_revision,indicator_revision_only_dfm_kalman_em,2020:Q4,38.34011029186172,2625.806483003459
exact,pre_advance,A,no_revision,indicator_revision_only_dfm_kalman_em,2021:Q1,26.583457696587654,2652.3899407000467
exact,pre_advance,A,no_revision,indicator_revision_only_dfm_kalman_em,2021:Q2,29.119293205120687,2681.5092339051675
exact,pre_advance,A,no_revision,indicator_revision_only_dfm_kalman_em,2021:Q3,-7.400818670949915,2674.108415234218
exact,pre_advance,A,no_revision,indicator_revision_only_dfm_kalman_em,2021:Q4,10.682086379682929,2684.7905016139007
exact,pre_advance,A,no_revision,indicator_revision_only_dfm_kalman_em,2022:Q1,-37.659102071647325,2647.1313995422533
exact,pre_advance,A,no_revision,indicator_revision_only_dfm_kalman_em,2022:Q2,-2.163069779196576,2644.9683297630568
exact,pre_advance,A,no_revision,indicator_revision_only_dfm_kalman_em,2022:Q3,-0.2228557718390922,2644.7454739912178
exact,pre_advance,A,no_revision,indicator_revision_only_dfm_kalman_em,2022:Q4,0.8155413052291447,2645.561015296447
exact,pre_advance,A,no_revision,indicator_revision_only_dfm_kalman_em,2023:Q1,-3.335862995425517,2642.2251523010214
exact,pre_advance,A,no_revision,indicator_revision_only_dfm_kalman_em,2023:Q2,0.005333261732629913,2642.230485562754
exact,pre_advance,A,no_revision,indicator_revision_only_dfm_kalman_em,2023:Q3,-2.630594871549876,2639.599890691204
exact,pre_advance,A,no_revision,indicator_revision_only_dfm_kalman_em,2023:Q4,0.226458858789992,2639.826349549994
exact,pre_advance,A,no_revision,indicator_revision_only_dfm_kalman_em,2024:Q1,1.0887172438028963,2640.915066793797
exact,pre_advance,A,no_revision,indicator_revision_only_dfm_kalman_em,2024:Q2,-0.08367479146580817,2640.831392002331
exact,pre_advance,A,no_revision,indicator_revision_only_dfm_kalman_em,2024:Q3,-0.1242162792135113,2640.7071757231174
exact,pre_advance,A,no_revision,indicator_revision_only_dfm_kalman_em,2024:Q4,-0.006720721463155874,2640.700455001654
exact,pre_advance,A,no_revision,joint_indicator_revision_dfm_full_kalman_em,2005:Q1,-2.538613154743187,-2.538613154743187
exact,pre_advance,A,no_revision,joint_indicator_revision_dfm_full_kalman_em,2005:Q2,-0.10277991779525658,-2.6413930725384436
exact,pre_advance,A,no_revision,joint_indicator_revision_dfm_full_kalman_em,2005:Q3,0.36148380556997833,-2.279909266968465
exact,pre_advance,A,no_revision,joint_indicator_revision_dfm_full_kalman_em,2005:Q4,-1.2583976996369337,-3.538306966605399
exact,pre_advance,A,no_revision,joint_indicator_revision_dfm_full_kalman_em,2006:Q1,6.531236317224048,2.992929350618649
exact,pre_advance,A,no_revision,joint_indicator_revision_dfm_full_kalman_em,2006:Q2,-1.1952791275763126,1.7976502230423363
exact,pre_advance,A,no_revision,joint_indicator_revision_dfm_full_kalman_em,2006:Q3,-0.15623224595385898,1.6414179770884774
exact,pre_advance,A,no_revision,joint_indicator_revision_dfm_full_kalman_em,2006:Q4,-12.701384255487103,-11.059966278398626
exact,pre_advance,A,no_revision,joint_indicator_revision_dfm_full_kalman_em,2007:Q1,-19.20161794658667,-30.261584224985295
exact,pre_advance,A,no_revision,joint_indicator_revision_dfm_full_kalman_em,2007:Q2,-2.330240027276032,-32.591824252261326
exact,pre_advance,A,no_revision,joint_indicator_revision_dfm_full_kalman_em,2007:Q3,-8.967490425995644,-41.55931467825697
exact,pre_advance,A,no_revision,joint_indicator_revision_dfm_full_kalman_em,2007:Q4,1.0578035513288464,-40.50151112692812
exact,pre_advance,A,no_revision,joint_indicator_revision_dfm_full_kalman_em,2008:Q1,-4.382076570688189,-44.88358769761631
exact,pre_advance,A,no_revision,joint_indicator_revision_dfm_full_kalman_em,2008:Q2,0.04021184933466152,-44.84337584828165
exact,pre_advance,A,no_revision,joint_indicator_revision_dfm_full_kalman_em,2008:Q3,-4.128822652699973,-48.97219850098163
exact,pre_advance,A,no_revision,joint_indicator_revision_dfm_full_kalman_em,2008:Q4,-4.5108971859484015,-53.48309568693003
exact,pre_advance,A,no_revision,joint_indicator_revision_dfm_full_kalman_em,2009:Q1,30.68367455945751,-22.799421127472517
exact,pre_advance,A,no_revision,joint_indicator_revision_dfm_full_kalman_em,2009:Q2,-0.7489301543638921,-23.54835128183641
exact,pre_advance,A,no_revision,joint_indicator_revision_dfm_full_kalman_em,2009:Q3,8.586315521936918,-14.962035759899493
exact,pre_advance,A,no_revision,joint_indicator_revision_dfm_full_kalman_em,2009:Q4,-3.5087417580077513,-18.470777517907244
exact,pre_advance,A,no_revision,joint_indicator_revision_dfm_full_kalman_em,2010:Q1,-1.08758658011174,-19.558364098018984
exact,pre_advance,A,no_revision,joint_indicator_revision_dfm_full_kalman_em,2010:Q2,-1.1789981307612922,-20.737362228780277
exact,pre_advance,A,no_revision,joint_indicator_revision_dfm_full_kalman_em,2010:Q3,0.1665874862430979,-20.57077474253718
exact,pre_advance,A,no_revision,joint_indicator_revision_dfm_full_kalman_em,2010:Q4,0.31513949753258663,-20.25563524500459
exact,pre_advance,A,no_revision,joint_indicator_revision_dfm_full_kalman_em,2011:Q1,-6.839718205693805,-27.095353450698397
exact,pre_advance,A,no_revision,joint_indicator_revision_dfm_full_kalman_em,2011:Q2,-1.4814962949666381,-28.576849745665037
exact,pre_advance,A,no_revision,joint_indicator_revision_dfm_full_kalman_em,2011:Q3,-0.7324857311246581,-29.309335476789695
exact,pre_advance,A,no_revision,joint_indicator_revision_dfm_full_kalman_em,2011:Q4,-1.1855770123477793,-30.494912489137473
exact,pre_advance,A,no_revision,joint_indicator_revision_dfm_full_kalman_em,2012:Q1,-5.144569649259503,-35.63948213839698
exact,pre_advance,A,no_revision,joint_indicator_revision_dfm_full_kalman_em,2012:Q2,-1.617781525224716,-37.25726366362169
exact,pre_advance,A,no_revision,joint_indicator_revision_dfm_full_kalman_em,2012:Q3,-0.5822888906576754,-37.839552554279365
exact,pre_advance,A,no_revision,joint_indicator_revision_dfm_full_kalman_em,2012:Q4,-8.16557375242572,-46.00512630670509
exact,pre_advance,A,no_revision,joint_indicator_revision_dfm_full_kalman_em,2013:Q1,0.7052889037811618,-45.29983740292393
exact,pre_advance,A,no_revision,joint_indicator_revision_dfm_full_kalman_em,2013:Q2,-0.1556876936520919,-45.45552509657602
exact,pre_advance,A,no_revision,joint_indicator_revision_dfm_full_kalman_em,2013:Q3,0.515595558152026,-44.93992953842399
exact,pre_advance,A,no_revision,joint_indicator_revision_dfm_full_kalman_em,2013:Q4,-2.242100014001626,-47.18202955242562
exact,pre_advance,A,no_revision,joint_indicator_revision_dfm_full_kalman_em,2014:Q1,2.6904861753631106,-44.491543377062506
exact,pre_advance,A,no_revision,joint_indicator_revision_dfm_full_kalman_em,2014:Q2,7.24783629666986,-37.243707080392646
exact,pre_advance,A,no_revision,joint_indicator_revision_dfm_full_kalman_em,2014:Q3,-0.028377851422113923,-37.27208493181476
exact,pre_advance,A,no_revision,joint_indicator_revision_dfm_full_kalman_em,2014:Q4,-0.45470191467404497,-37.72678684648881
exact,pre_advance,A,no_revision,joint_indicator_revision_dfm_full_kalman_em,2015:Q1,3.299988915494808,-34.426797930994
exact,pre_advance,A,no_revision,joint_indicator_revision_dfm_full_kalman_em,2015:Q2,0.3296344464314769,-34.09716348456252
exact,pre_advance,A,no_revision,joint_indicator_revision_dfm_full_kalman_em,2015:Q3,0.15203453620496532,-33.94512894835756
exact,pre_advance,A,no_revision,joint_indicator_revision_dfm_full_kalman_em,2015:Q4,-0.314450551057198,-34.259579499414755
exact,pre_advance,A,no_revision,joint_indicator_revision_dfm_full_kalman_em,2016:Q1,-0.5038345230455442,-34.7634140224603
