haminh109/Revision-Aware-DFM/outputs/full_state_space_release_revision_dfm/sensitivity_k3_max_iter100_journal_evidence/cumulative_loss_revision.csv
timing_mode,checkpoint_id,outcome_id,baseline_model,model_id,target_quarter,loss_diff_baseline_minus_model,cumulative_loss_diff
exact,pre_advance,DELTA_SA,ar,bridge,2005:Q1,-0.013846057404504227,-0.013846057404504227
exact,pre_advance,DELTA_SA,ar,bridge,2005:Q2,-0.001650279197283805,-0.015496336601788032
exact,pre_advance,DELTA_SA,ar,bridge,2005:Q3,-0.11888984019706639,-0.13438617679885442
exact,pre_advance,DELTA_SA,ar,bridge,2005:Q4,-0.0033836766731657753,-0.1377698534720202
exact,pre_advance,DELTA_SA,ar,bridge,2006:Q1,-0.04844188468453351,-0.1862117381565537
exact,pre_advance,DELTA_SA,ar,bridge,2006:Q2,-0.1371256323997568,-0.3233373705563105
exact,pre_advance,DELTA_SA,ar,bridge,2006:Q3,-0.0642914456374126,-0.38762881619372314
exact,pre_advance,DELTA_SA,ar,bridge,2006:Q4,0.3455791908551027,-0.042049625338620444
exact,pre_advance,DELTA_SA,ar,bridge,2007:Q1,-0.007824031136799381,-0.049873656475419824
exact,pre_advance,DELTA_SA,ar,bridge,2007:Q2,0.06896631884463494,0.01909266236921512
exact,pre_advance,DELTA_SA,ar,bridge,2007:Q3,0.059803740894769475,0.07889640326398459
exact,pre_advance,DELTA_SA,ar,bridge,2007:Q4,-0.012197856569414467,0.06669854669457012
exact,pre_advance,DELTA_SA,ar,bridge,2008:Q1,-0.004344598103960446,0.06235394859060968
exact,pre_advance,DELTA_SA,ar,bridge,2008:Q2,-0.5744071113634033,-0.5120531627727936
exact,pre_advance,DELTA_SA,ar,bridge,2008:Q3,0.6190200450590351,0.10696688228624152
exact,pre_advance,DELTA_SA,ar,bridge,2008:Q4,3.9506126973357536,4.057579579621995
exact,pre_advance,DELTA_SA,ar,bridge,2009:Q1,-6.0988802018433,-2.0413006222213044
exact,pre_advance,DELTA_SA,ar,bridge,2009:Q2,0.12681370682327298,-1.9144869153980313
exact,pre_advance,DELTA_SA,ar,bridge,2009:Q3,-0.06823089199504906,-1.9827178073930805
exact,pre_advance,DELTA_SA,ar,bridge,2009:Q4,-0.034868451184771665,-2.017586258577852
exact,pre_advance,DELTA_SA,ar,bridge,2010:Q1,-0.08867270219654097,-2.106258960774393
exact,pre_advance,DELTA_SA,ar,bridge,2010:Q2,-0.09358245387922448,-2.1998414146536174
exact,pre_advance,DELTA_SA,ar,bridge,2010:Q3,0.09492216977372347,-2.104919244879894
exact,pre_advance,DELTA_SA,ar,bridge,2010:Q4,-0.5663990366542817,-2.671318281534176
exact,pre_advance,DELTA_SA,ar,bridge,2011:Q1,0.006841226592887183,-2.6644770549412886
exact,pre_advance,DELTA_SA,ar,bridge,2011:Q2,-0.1050182175676507,-2.7694952725089395
exact,pre_advance,DELTA_SA,ar,bridge,2011:Q3,-0.12148482455549064,-2.89098009706443
exact,pre_advance,DELTA_SA,ar,bridge,2011:Q4,0.0628784200154297,-2.8281016770490006
exact,pre_advance,DELTA_SA,ar,bridge,2012:Q1,-0.03588771304329322,-2.8639893900922937
exact,pre_advance,DELTA_SA,ar,bridge,2012:Q2,-0.04882398210555089,-2.9128133721978444
exact,pre_advance,DELTA_SA,ar,bridge,2012:Q3,0.007775069522668765,-2.905038302675176
exact,pre_advance,DELTA_SA,ar,bridge,2012:Q4,0.004271385099178677,-2.9007669175759974
exact,pre_advance,DELTA_SA,ar,bridge,2013:Q1,0.08666220076802948,-2.814104716807968
exact,pre_advance,DELTA_SA,ar,bridge,2013:Q2,0.02549697621248881,-2.788607740595479
exact,pre_advance,DELTA_SA,ar,bridge,2013:Q3,-0.06520892381398459,-2.8538166644094636
exact,pre_advance,DELTA_SA,ar,bridge,2013:Q4,-0.4483601219941009,-3.3021767864035647
exact,pre_advance,DELTA_SA,ar,bridge,2014:Q1,0.08408982928439113,-3.2180869571191737
exact,pre_advance,DELTA_SA,ar,bridge,2014:Q2,0.16274947653538804,-3.055337480583786
exact,pre_advance,DELTA_SA,ar,bridge,2014:Q3,0.02095518071252679,-3.034382299871259
exact,pre_advance,DELTA_SA,ar,bridge,2014:Q4,0.04340036392903157,-2.9909819359422274
exact,pre_advance,DELTA_SA,ar,bridge,2015:Q1,0.09722612747043768,-2.8937558084717896
exact,pre_advance,DELTA_SA,ar,bridge,2015:Q2,0.5270016182401944,-2.366754190231595
exact,pre_advance,DELTA_SA,ar,bridge,2015:Q3,0.006413618385182668,-2.3603405718464123
exact,pre_advance,DELTA_SA,ar,bridge,2015:Q4,0.00046354735142317607,-2.359877024494989
exact,pre_advance,DELTA_SA,ar,bridge,2016:Q1,-0.028693367546870584,-2.38857039204186
exact,pre_advance,DELTA_SA,ar,bridge,2016:Q2,-0.006980417169187542,-2.3955508092110476
exact,pre_advance,DELTA_SA,ar,bridge,2016:Q3,0.008611368466014832,-2.386939440745033
exact,pre_advance,DELTA_SA,ar,bridge,2016:Q4,-0.0009847649917328026,-2.387924205736766
exact,pre_advance,DELTA_SA,ar,bridge,2017:Q1,0.006128595802208259,-2.3817956099345574
exact,pre_advance,DELTA_SA,ar,bridge,2017:Q2,-0.02510746702309855,-2.406903076957656
exact,pre_advance,DELTA_SA,ar,bridge,2017:Q3,0.001522476533105824,-2.40538060042455
exact,pre_advance,DELTA_SA,ar,bridge,2017:Q4,-0.012532396692822634,-2.417912997117373
exact,pre_advance,DELTA_SA,ar,bridge,2018:Q1,-0.0010255262763060394,-2.418938523393679
exact,pre_advance,DELTA_SA,ar,bridge,2018:Q2,0.02459572516719096,-2.394342798226488
exact,pre_advance,DELTA_SA,ar,bridge,2018:Q3,-0.0028625928778965534,-2.3972053911043845
exact,pre_advance,DELTA_SA,ar,bridge,2019:Q1,-0.3022766661113521,-2.6994820572157368
exact,pre_advance,DELTA_SA,ar,bridge,2019:Q2,-0.004735905859539672,-2.7042179630752763
exact,pre_advance,DELTA_SA,ar,bridge,2019:Q3,0.015341164816805735,-2.6888767982584705
exact,pre_advance,DELTA_SA,ar,bridge,2019:Q4,-0.044503658959923934,-2.7333804572183946
exact,pre_advance,DELTA_SA,ar,bridge,2020:Q1,0.04438608098788961,-2.688994376230505
exact,pre_advance,DELTA_SA,ar,bridge,2020:Q2,-3.0940398410540886,-5.783034217284594
exact,pre_advance,DELTA_SA,ar,bridge,2020:Q3,1.4176473053505774,-4.365386911934016
exact,pre_advance,DELTA_SA,ar,bridge,2020:Q4,0.34996403492923833,-4.015422877004778
exact,pre_advance,DELTA_SA,ar,bridge,2021:Q1,-0.013363060193281307,-4.02878593719806
exact,pre_advance,DELTA_SA,ar,bridge,2021:Q2,-0.035774116514449394,-4.064560053712509
exact,pre_advance,DELTA_SA,ar,bridge,2021:Q3,0.0032954658604867682,-4.061264587852023
exact,pre_advance,DELTA_SA,ar,bridge,2021:Q4,-0.0018903674062236324,-4.063154955258247
exact,pre_advance,DELTA_SA,ar,bridge,2022:Q1,-0.0341551593556946,-4.097310114613942
exact,pre_advance,DELTA_SA,ar,bridge,2022:Q2,-0.017409303051808128,-4.11471941766575
exact,pre_advance,DELTA_SA,ar,bridge,2022:Q3,0.00910814997588863,-4.105611267689861
exact,pre_advance,DELTA_SA,ar,bridge,2022:Q4,-0.07401877594323691,-4.179630043633098
exact,pre_advance,DELTA_SA,ar,bridge,2023:Q1,0.0027256207132850974,-4.176904422919813
exact,pre_advance,DELTA_SA,ar,bridge,2023:Q2,-0.21283992077671984,-4.389744343696533
exact,pre_advance,DELTA_SA,ar,bridge,2023:Q3,-0.029134879013246184,-4.418879222709779
exact,pre_advance,DELTA_SA,ar,bridge,2023:Q4,-0.054897300557348844,-4.473776523267128
exact,pre_advance,DELTA_SA,ar,bridge,2024:Q1,0.08308195917709753,-4.390694564090031
exact,pre_advance,DELTA_SA,ar,bridge,2024:Q2,-0.04089950912320479,-4.431594073213235
exact,pre_advance,DELTA_SA,ar,bridge,2024:Q3,0.0020789175935691188,-4.429515155619666
exact,pre_advance,DELTA_SA,ar,bridge,2024:Q4,-0.00014364795373978442,-4.429658803573406
exact,pre_advance,DELTA_SA,ar,indicator_revision_only_dfm_kalman_em,2005:Q1,-0.15257503321613658,-0.15257503321613658
exact,pre_advance,DELTA_SA,ar,indicator_revision_only_dfm_kalman_em,2005:Q2,0.10304262774761302,-0.049532405468523555
exact,pre_advance,DELTA_SA,ar,indicator_revision_only_dfm_kalman_em,2005:Q3,0.03151683579611303,-0.018015569672410525
exact,pre_advance,DELTA_SA,ar,indicator_revision_only_dfm_kalman_em,2005:Q4,-0.17958946757420496,-0.1976050372466155
exact,pre_advance,DELTA_SA,ar,indicator_revision_only_dfm_kalman_em,2006:Q1,-0.22225097588053042,-0.41985601312714593
exact,pre_advance,DELTA_SA,ar,indicator_revision_only_dfm_kalman_em,2006:Q2,-0.1338214718146227,-0.5536774849417686
exact,pre_advance,DELTA_SA,ar,indicator_revision_only_dfm_kalman_em,2006:Q3,-0.2655324769569707,-0.8192099618987393
exact,pre_advance,DELTA_SA,ar,indicator_revision_only_dfm_kalman_em,2006:Q4,1.1280810824986391,0.30887112059989985
exact,pre_advance,DELTA_SA,ar,indicator_revision_only_dfm_kalman_em,2007:Q1,-0.36488258133290913,-0.05601146073300928
exact,pre_advance,DELTA_SA,ar,indicator_revision_only_dfm_kalman_em,2007:Q2,0.2101220628635298,0.15411060213052052
exact,pre_advance,DELTA_SA,ar,indicator_revision_only_dfm_kalman_em,2007:Q3,-0.5038879623481906,-0.34977736021767003
exact,pre_advance,DELTA_SA,ar,indicator_revision_only_dfm_kalman_em,2007:Q4,0.23194641324995732,-0.11783094696771271
exact,pre_advance,DELTA_SA,ar,indicator_revision_only_dfm_kalman_em,2008:Q1,-0.06565748592115798,-0.18348843288887068
exact,pre_advance,DELTA_SA,ar,indicator_revision_only_dfm_kalman_em,2008:Q2,-0.7051418869943866,-0.8886303198832572
exact,pre_advance,DELTA_SA,ar,indicator_revision_only_dfm_kalman_em,2008:Q3,0.8839041046210189,-0.004726215262238376
exact,pre_advance,DELTA_SA,ar,indicator_revision_only_dfm_kalman_em,2008:Q4,0.39399862829546173,0.38927241303322335
exact,pre_advance,DELTA_SA,ar,indicator_revision_only_dfm_kalman_em,2009:Q1,1.3203689037955737,1.709641316828797
exact,pre_advance,DELTA_SA,ar,indicator_revision_only_dfm_kalman_em,2009:Q2,0.36877932291984866,2.0784206397486455
exact,pre_advance,DELTA_SA,ar,indicator_revision_only_dfm_kalman_em,2009:Q3,0.31974831955083616,2.3981689592994817
exact,pre_advance,DELTA_SA,ar,indicator_revision_only_dfm_kalman_em,2009:Q4,0.2461874095178597,2.6443563688173413
exact,pre_advance,DELTA_SA,ar,indicator_revision_only_dfm_kalman_em,2010:Q1,0.012274663642203441,2.656631032459545
exact,pre_advance,DELTA_SA,ar,indicator_revision_only_dfm_kalman_em,2010:Q2,-0.10097637669884518,2.5556546557606996
exact,pre_advance,DELTA_SA,ar,indicator_revision_only_dfm_kalman_em,2010:Q3,0.41001530272678194,2.9656699584874815
exact,pre_advance,DELTA_SA,ar,indicator_revision_only_dfm_kalman_em,2010:Q4,0.33708017745408314,3.3027501359415647
exact,pre_advance,DELTA_SA,ar,indicator_revision_only_dfm_kalman_em,2011:Q1,0.05273638935335863,3.3554865252949235
exact,pre_advance,DELTA_SA,ar,indicator_revision_only_dfm_kalman_em,2011:Q2,0.0864949621817803,3.4419814874767036
exact,pre_advance,DELTA_SA,ar,indicator_revision_only_dfm_kalman_em,2011:Q3,-0.03822954602021156,3.403751941456492
exact,pre_advance,DELTA_SA,ar,indicator_revision_only_dfm_kalman_em,2011:Q4,0.1042486389810256,3.5080005804375176
exact,pre_advance,DELTA_SA,ar,indicator_revision_only_dfm_kalman_em,2012:Q1,0.12270345028699549,3.6307040307245133
exact,pre_advance,DELTA_SA,ar,indicator_revision_only_dfm_kalman_em,2012:Q2,0.05124300972150874,3.681947040446022
exact,pre_advance,DELTA_SA,ar,indicator_revision_only_dfm_kalman_em,2012:Q3,-0.19803121584843814,3.483915824597584
exact,pre_advance,DELTA_SA,ar,indicator_revision_only_dfm_kalman_em,2012:Q4,-0.06160444841889918,3.4223113761786847
exact,pre_advance,DELTA_SA,ar,indicator_revision_only_dfm_kalman_em,2013:Q1,0.13839352919058448,3.560704905369269
exact,pre_advance,DELTA_SA,ar,indicator_revision_only_dfm_kalman_em,2013:Q2,0.010665904843470964,3.5713708102127404
exact,pre_advance,DELTA_SA,ar,indicator_revision_only_dfm_kalman_em,2013:Q3,-0.49085393179229264,3.0805168784204477
exact,pre_advance,DELTA_SA,ar,indicator_revision_only_dfm_kalman_em,2013:Q4,0.8147882022650561,3.895305080685504
exact,pre_advance,DELTA_SA,ar,indicator_revision_only_dfm_kalman_em,2014:Q1,-0.6728261778290336,3.22247890285647
exact,pre_advance,DELTA_SA,ar,indicator_revision_only_dfm_kalman_em,2014:Q2,0.3153905835886226,3.537869486445093
exact,pre_advance,DELTA_SA,ar,indicator_revision_only_dfm_kalman_em,2014:Q3,-0.05736992828325174,3.480499558161841
exact,pre_advance,DELTA_SA,ar,indicator_revision_only_dfm_kalman_em,2014:Q4,0.18045818425062124,3.6609577424124624
exact,pre_advance,DELTA_SA,ar,indicator_revision_only_dfm_kalman_em,2015:Q1,-0.30424364925329495,3.3567140931591677
exact,pre_advance,DELTA_SA,ar,indicator_revision_only_dfm_kalman_em,2015:Q2,1.0249249122593762,4.381639005418544
exact,pre_advance,DELTA_SA,ar,indicator_revision_only_dfm_kalman_em,2015:Q3,-0.3345827492334456,4.0470562561850985
exact,pre_advance,DELTA_SA,ar,indicator_revision_only_dfm_kalman_em,2015:Q4,-0.09676443992777004,3.9502918162573284
exact,pre_advance,DELTA_SA,ar,indicator_revision_only_dfm_kalman_em,2016:Q1,-0.09029065158363185,3.8600011646736965
exact,pre_advance,DELTA_SA,ar,indicator_revision_only_dfm_kalman_em,2016:Q2,0.1360297525459644,3.996030917219661
exact,pre_advance,DELTA_SA,ar,indicator_revision_only_dfm_kalman_em,2016:Q3,-0.021175007572158712,3.974855909647502
exact,pre_advance,DELTA_SA,ar,indicator_revision_only_dfm_kalman_em,2016:Q4,0.02734587565242416,4.002201785299926
exact,pre_advance,DELTA_SA,ar,indicator_revision_only_dfm_kalman_em,2017:Q1,-0.056295362083760514,3.945906423216165
exact,pre_advance,DELTA_SA,ar,indicator_revision_only_dfm_kalman_em,2017:Q2,-0.1998229027002102,3.746083520515955
exact,pre_advance,DELTA_SA,ar,indicator_revision_only_dfm_kalman_em,2017:Q3,-0.09239460605426397,3.653688914461691
exact,pre_advance,DELTA_SA,ar,indicator_revision_only_dfm_kalman_em,2017:Q4,0.035699658663772574,3.6893885731254636
exact,pre_advance,DELTA_SA,ar,indicator_revision_only_dfm_kalman_em,2018:Q1,0.012703611098869368,3.702092184224333
exact,pre_advance,DELTA_SA,ar,indicator_revision_only_dfm_kalman_em,2018:Q2,0.0030213569949030655,3.705113541219236
exact,pre_advance,DELTA_SA,ar,indicator_revision_only_dfm_kalman_em,2018:Q3,0.0032310710133240618,3.70834461223256
exact,pre_advance,DELTA_SA,ar,indicator_revision_only_dfm_kalman_em,2019:Q1,0.3134694480182471,4.021814060250807
exact,pre_advance,DELTA_SA,ar,indicator_revision_only_dfm_kalman_em,2019:Q2,-0.00020861065790184213,4.021605449592905
exact,pre_advance,DELTA_SA,ar,indicator_revision_only_dfm_kalman_em,2019:Q3,-0.020795440927072837,4.000810008665832
exact,pre_advance,DELTA_SA,ar,indicator_revision_only_dfm_kalman_em,2019:Q4,0.022807340587339162,4.023617349253171
exact,pre_advance,DELTA_SA,ar,indicator_revision_only_dfm_kalman_em,2020:Q1,0.04374626691208146,4.067363616165252
exact,pre_advance,DELTA_SA,ar,indicator_revision_only_dfm_kalman_em,2020:Q2,-0.4848885887598303,3.582475027405422
exact,pre_advance,DELTA_SA,ar,indicator_revision_only_dfm_kalman_em,2020:Q3,6.6030936783793335,10.185568705784755
exact,pre_advance,DELTA_SA,ar,indicator_revision_only_dfm_kalman_em,2020:Q4,0.3494364241901803,10.535005129974936
exact,pre_advance,DELTA_SA,ar,indicator_revision_only_dfm_kalman_em,2021:Q1,0.010481372036795358,10.54548650201173
exact,pre_advance,DELTA_SA,ar,indicator_revision_only_dfm_kalman_em,2021:Q2,0.005674643654305938,10.551161145666036
exact,pre_advance,DELTA_SA,ar,indicator_revision_only_dfm_kalman_em,2021:Q3,-0.00428446848418562,10.546876677181851
exact,pre_advance,DELTA_SA,ar,indicator_revision_only_dfm_kalman_em,2021:Q4,-0.009636975615624089,10.537239701566227
exact,pre_advance,DELTA_SA,ar,indicator_revision_only_dfm_kalman_em,2022:Q1,0.05376352283472801,10.591003224400955
exact,pre_advance,DELTA_SA,ar,indicator_revision_only_dfm_kalman_em,2022:Q2,-0.01747374549873487,10.57352947890222
exact,pre_advance,DELTA_SA,ar,indicator_revision_only_dfm_kalman_em,2022:Q3,-0.038912176234116996,10.534617302668103
exact,pre_advance,DELTA_SA,ar,indicator_revision_only_dfm_kalman_em,2022:Q4,0.058622083054108,10.59323938572221
exact,pre_advance,DELTA_SA,ar,indicator_revision_only_dfm_kalman_em,2023:Q1,-0.02740533844308022,10.56583404727913
exact,pre_advance,DELTA_SA,ar,indicator_revision_only_dfm_kalman_em,2023:Q2,0.06172819389498699,10.627562241174118
exact,pre_advance,DELTA_SA,ar,indicator_revision_only_dfm_kalman_em,2023:Q3,-0.03194758936873526,10.595614651805382
exact,pre_advance,DELTA_SA,ar,indicator_revision_only_dfm_kalman_em,2023:Q4,0.03690159867203891,10.63251625047742
exact,pre_advance,DELTA_SA,ar,indicator_revision_only_dfm_kalman_em,2024:Q1,0.07155817897030346,10.704074429447724
exact,pre_advance,DELTA_SA,ar,indicator_revision_only_dfm_kalman_em,2024:Q2,-0.009033581491366181,10.695040847956358
exact,pre_advance,DELTA_SA,ar,indicator_revision_only_dfm_kalman_em,2024:Q3,0.00727617350536104,10.702317021461718
exact,pre_advance,DELTA_SA,ar,indicator_revision_only_dfm_kalman_em,2024:Q4,-0.008788760628669104,10.69352826083305
exact,pre_advance,DELTA_SA,ar,joint_indicator_revision_dfm_full_kalman_em,2005:Q1,0.003439751654592446,0.003439751654592446
exact,pre_advance,DELTA_SA,ar,joint_indicator_revision_dfm_full_kalman_em,2005:Q2,-0.1255096412754043,-0.12206988962081185
exact,pre_advance,DELTA_SA,ar,joint_indicator_revision_dfm_full_kalman_em,2005:Q3,0.2461148974747394,0.12404500785392757
exact,pre_advance,DELTA_SA,ar,joint_indicator_revision_dfm_full_kalman_em,2005:Q4,-0.07559860547972129,0.04844640237420628
exact,pre_advance,DELTA_SA,ar,joint_indicator_revision_dfm_full_kalman_em,2006:Q1,0.011012458637508191,0.059458861011714464
exact,pre_advance,DELTA_SA,ar,joint_indicator_revision_dfm_full_kalman_em,2006:Q2,-0.4976233819678305,-0.438164520956116
exact,pre_advance,DELTA_SA,ar,joint_indicator_revision_dfm_full_kalman_em,2006:Q3,-0.2528242396545823,-0.6909887606106984
exact,pre_advance,DELTA_SA,ar,joint_indicator_revision_dfm_full_kalman_em,2006:Q4,1.8688272157868306,1.1778384551761323
exact,pre_advance,DELTA_SA,ar,joint_indicator_revision_dfm_full_kalman_em,2007:Q1,-0.32615805948556736,0.851680395690565
exact,pre_advance,DELTA_SA,ar,joint_indicator_revision_dfm_full_kalman_em,2007:Q2,0.36147674474776637,1.2131571404383314
exact,pre_advance,DELTA_SA,ar,joint_indicator_revision_dfm_full_kalman_em,2007:Q3,-0.4169720829021272,0.7961850575362043
exact,pre_advance,DELTA_SA,ar,joint_indicator_revision_dfm_full_kalman_em,2007:Q4,0.04163038512049497,0.8378154426566993
exact,pre_advance,DELTA_SA,ar,joint_indicator_revision_dfm_full_kalman_em,2008:Q1,-0.05925188031587003,0.7785635623408292
exact,pre_advance,DELTA_SA,ar,joint_indicator_revision_dfm_full_kalman_em,2008:Q2,-0.2402272998357915,0.5383362625050377
exact,pre_advance,DELTA_SA,ar,joint_indicator_revision_dfm_full_kalman_em,2008:Q3,0.36582803478739356,0.9041642972924313
exact,pre_advance,DELTA_SA,ar,joint_indicator_revision_dfm_full_kalman_em,2008:Q4,2.819429007964011,3.7235933052564425
exact,pre_advance,DELTA_SA,ar,joint_indicator_revision_dfm_full_kalman_em,2009:Q1,1.441536380739842,5.165129685996284
exact,pre_advance,DELTA_SA,ar,joint_indicator_revision_dfm_full_kalman_em,2009:Q2,-0.031118099489821083,5.134011586506463
exact,pre_advance,DELTA_SA,ar,joint_indicator_revision_dfm_full_kalman_em,2009:Q3,-1.0367366890124186,4.097274897494044
exact,pre_advance,DELTA_SA,ar,joint_indicator_revision_dfm_full_kalman_em,2009:Q4,0.2825632096151472,4.379838107109191
exact,pre_advance,DELTA_SA,ar,joint_indicator_revision_dfm_full_kalman_em,2010:Q1,-0.8858600608220681,3.493978046287123
exact,pre_advance,DELTA_SA,ar,joint_indicator_revision_dfm_full_kalman_em,2010:Q2,-0.05014135071150905,3.4438366955756137
exact,pre_advance,DELTA_SA,ar,joint_indicator_revision_dfm_full_kalman_em,2010:Q3,0.6398057983771492,4.0836424939527625
exact,pre_advance,DELTA_SA,ar,joint_indicator_revision_dfm_full_kalman_em,2010:Q4,-0.311432118514862,3.7722103754379006
exact,pre_advance,DELTA_SA,ar,joint_indicator_revision_dfm_full_kalman_em,2011:Q1,0.06123705207179952,3.8334474275097
exact,pre_advance,DELTA_SA,ar,joint_indicator_revision_dfm_full_kalman_em,2011:Q2,-0.5367502828305438,3.296697144679156
exact,pre_advance,DELTA_SA,ar,joint_indicator_revision_dfm_full_kalman_em,2011:Q3,-0.1817506504517586,3.1149464942273974
exact,pre_advance,DELTA_SA,ar,joint_indicator_revision_dfm_full_kalman_em,2011:Q4,0.14871711173418548,3.263663605961583
exact,pre_advance,DELTA_SA,ar,joint_indicator_revision_dfm_full_kalman_em,2012:Q1,0.14425684120175344,3.4079204471633364
exact,pre_advance,DELTA_SA,ar,joint_indicator_revision_dfm_full_kalman_em,2012:Q2,0.0700935824286458,3.478014029591982
exact,pre_advance,DELTA_SA,ar,joint_indicator_revision_dfm_full_kalman_em,2012:Q3,-0.058238885172681554,3.4197751444193005
exact,pre_advance,DELTA_SA,ar,joint_indicator_revision_dfm_full_kalman_em,2012:Q4,-0.1460830212322363,3.273692123187064
exact,pre_advance,DELTA_SA,ar,joint_indicator_revision_dfm_full_kalman_em,2013:Q1,0.09897779948774038,3.3726699226748047
exact,pre_advance,DELTA_SA,ar,joint_indicator_revision_dfm_full_kalman_em,2013:Q2,0.2053317151644114,3.578001637839216
exact,pre_advance,DELTA_SA,ar,joint_indicator_revision_dfm_full_kalman_em,2013:Q3,-0.719660781733646,2.85834085610557
exact,pre_advance,DELTA_SA,ar,joint_indicator_revision_dfm_full_kalman_em,2013:Q4,-1.0414341859539211,1.816906670151649
exact,pre_advance,DELTA_SA,ar,joint_indicator_revision_dfm_full_kalman_em,2014:Q1,-0.35850722773220556,1.4583994424194433
exact,pre_advance,DELTA_SA,ar,joint_indicator_revision_dfm_full_kalman_em,2014:Q2,0.347761819792434,1.8061612622118772
exact,pre_advance,DELTA_SA,ar,joint_indicator_revision_dfm_full_kalman_em,2014:Q3,0.04687253305134001,1.8530337952632172
exact,pre_advance,DELTA_SA,ar,joint_indicator_revision_dfm_full_kalman_em,2014:Q4,0.02365405828971795,1.8766878535529352
exact,pre_advance,DELTA_SA,ar,joint_indicator_revision_dfm_full_kalman_em,2015:Q1,0.14528113490270023,2.0219689884556353
exact,pre_advance,DELTA_SA,ar,joint_indicator_revision_dfm_full_kalman_em,2015:Q2,2.1655141649587453,4.18748315341438
exact,pre_advance,DELTA_SA,ar,joint_indicator_revision_dfm_full_kalman_em,2015:Q3,-2.049333521766531,2.138149631647849
exact,pre_advance,DELTA_SA,ar,joint_indicator_revision_dfm_full_kalman_em,2015:Q4,-0.032937519017670204,2.105212112630179
exact,pre_advance,DELTA_SA,ar,joint_indicator_revision_dfm_full_kalman_em,2016:Q1,-0.37370640103854924,1.7315057115916295
exact,pre_advance,DELTA_SA,ar,joint_indicator_revision_dfm_full_kalman_em,2016:Q2,-0.08882819983251647,1.642677511759113
exact,pre_advance,DELTA_SA,ar,joint_indicator_revision_dfm_full_kalman_em,2016:Q3,0.040244979654030406,1.6829224914131435
exact,pre_advance,DELTA_SA,ar,joint_indicator_revision_dfm_full_kalman_em,2016:Q4,-0.03630276279880744,1.646619728614336
exact,pre_advance,DELTA_SA,ar,joint_indicator_revision_dfm_full_kalman_em,2017:Q1,0.105811402748196,1.752431131362532
exact,pre_advance,DELTA_SA,ar,joint_indicator_revision_dfm_full_kalman_em,2017:Q2,-0.029901293269084635,1.7225298380934475
exact,pre_advance,DELTA_SA,ar,joint_indicator_revision_dfm_full_kalman_em,2017:Q3,0.001955748586448949,1.7244855866798965
exact,pre_advance,DELTA_SA,ar,joint_indicator_revision_dfm_full_kalman_em,2017:Q4,-0.14606144940329566,1.5784241372766008
exact,pre_advance,DELTA_SA,ar,joint_indicator_revision_dfm_full_kalman_em,2018:Q1,-0.19337446756033136,1.3850496697162695
exact,pre_advance,DELTA_SA,ar,joint_indicator_revision_dfm_full_kalman_em,2018:Q2,0.0043328464631604315,1.38938251617943
exact,pre_advance,DELTA_SA,ar,joint_indicator_revision_dfm_full_kalman_em,2018:Q3,-0.021415569473542652,1.3679669467058873
exact,pre_advance,DELTA_SA,ar,joint_indicator_revision_dfm_full_kalman_em,2019:Q1,0.32260288462133035,1.6905698313272177
exact,pre_advance,DELTA_SA,ar,joint_indicator_revision_dfm_full_kalman_em,2019:Q2,-0.010248492594520504,1.6803213387326972
exact,pre_advance,DELTA_SA,ar,joint_indicator_revision_dfm_full_kalman_em,2019:Q3,-0.01962008955129192,1.6607012491814053
exact,pre_advance,DELTA_SA,ar,joint_indicator_revision_dfm_full_kalman_em,2019:Q4,0.01594110424863448,1.6766423534300396
exact,pre_advance,DELTA_SA,ar,joint_indicator_revision_dfm_full_kalman_em,2020:Q1,0.09062245160618405,1.7672648050362236
exact,pre_advance,DELTA_SA,ar,joint_indicator_revision_dfm_full_kalman_em,2020:Q2,-1.9401970971762643,-0.1729322921400407
exact,pre_advance,DELTA_SA,ar,joint_indicator_revision_dfm_full_kalman_em,2020:Q3,6.036537624042628,5.863605331902588
exact,pre_advance,DELTA_SA,ar,joint_indicator_revision_dfm_full_kalman_em,2020:Q4,0.3333273631238806,6.196932695026469
exact,pre_advance,DELTA_SA,ar,joint_indicator_revision_dfm_full_kalman_em,2021:Q1,-0.24150131130367597,5.955431383722793
exact,pre_advance,DELTA_SA,ar,joint_indicator_revision_dfm_full_kalman_em,2021:Q2,-0.00032566814340800193,5.955105715579385
exact,pre_advance,DELTA_SA,ar,joint_indicator_revision_dfm_full_kalman_em,2021:Q3,-0.01778333524822216,5.937322380331163
exact,pre_advance,DELTA_SA,ar,joint_indicator_revision_dfm_full_kalman_em,2021:Q4,-0.03172420549756454,5.905598174833599
exact,pre_advance,DELTA_SA,ar,joint_indicator_revision_dfm_full_kalman_em,2022:Q1,-0.11561464323116606,5.789983531602433
exact,pre_advance,DELTA_SA,ar,joint_indicator_revision_dfm_full_kalman_em,2022:Q2,-0.5085554659826534,5.281428065619779
exact,pre_advance,DELTA_SA,ar,joint_indicator_revision_dfm_full_kalman_em,2022:Q3,-0.1481705418881811,5.133257523731598
exact,pre_advance,DELTA_SA,ar,joint_indicator_revision_dfm_full_kalman_em,2022:Q4,0.07962775128375207,5.21288527501535
exact,pre_advance,DELTA_SA,ar,joint_indicator_revision_dfm_full_kalman_em,2023:Q1,0.015837716087299704,5.22872299110265
exact,pre_advance,DELTA_SA,ar,joint_indicator_revision_dfm_full_kalman_em,2023:Q2,-0.1807484378602255,5.047974553242424
exact,pre_advance,DELTA_SA,ar,joint_indicator_revision_dfm_full_kalman_em,2023:Q3,-0.06759629253251864,4.980378260709905
exact,pre_advance,DELTA_SA,ar,joint_indicator_revision_dfm_full_kalman_em,2023:Q4,-0.017045365882279145,4.963332894827626
exact,pre_advance,DELTA_SA,ar,joint_indicator_revision_dfm_full_kalman_em,2024:Q1,0.1302028841271176,5.0935357789547435
exact,pre_advance,DELTA_SA,ar,joint_indicator_revision_dfm_full_kalman_em,2024:Q2,0.001452150028350675,5.094987928983095
exact,pre_advance,DELTA_SA,ar,joint_indicator_revision_dfm_full_kalman_em,2024:Q3,-0.0224405175671933,5.0725474114159015
exact,pre_advance,DELTA_SA,ar,joint_indicator_revision_dfm_full_kalman_em,2024:Q4,-1.0258966509651449e-05,5.072537152449391
exact,pre_advance,DELTA_SA,ar,midas_umidas,2005:Q1,-39.79782442511904,-39.79782442511904
exact,pre_advance,DELTA_SA,ar,midas_umidas,2005:Q2,-10.838923677867209,-50.636748102986246
exact,pre_advance,DELTA_SA,ar,midas_umidas,2005:Q3,-2.2266161401965463,-52.863364243182794
exact,pre_advance,DELTA_SA,ar,midas_umidas,2005:Q4,-76.51074939414345,-129.37411363732625
exact,pre_advance,DELTA_SA,ar,midas_umidas,2006:Q1,-624.8393306210296,-754.2134442583558
exact,pre_advance,DELTA_SA,ar,midas_umidas,2006:Q2,-51.604849767086456,-805.8182940254422
exact,pre_advance,DELTA_SA,ar,midas_umidas,2006:Q3,-2.8960525487067064,-808.714346574149
exact,pre_advance,DELTA_SA,ar,midas_umidas,2006:Q4,-20.201108426803746,-828.9154550009528
exact,pre_advance,DELTA_SA,ar,midas_umidas,2007:Q1,-339.2425280076646,-1168.1579830086173
exact,pre_advance,DELTA_SA,ar,midas_umidas,2007:Q2,-454.633511999568,-1622.7914950081854
exact,pre_advance,DELTA_SA,ar,midas_umidas,2007:Q3,-1445.2558135582553,-3068.0473085664407
exact,pre_advance,DELTA_SA,ar,midas_umidas,2007:Q4,-109.85550522513594,-3177.9028137915766
exact,pre_advance,DELTA_SA,ar,midas_umidas,2008:Q1,-0.35365323404709553,-3178.256467025624
exact,pre_advance,DELTA_SA,ar,midas_umidas,2008:Q2,-411.67335213949457,-3589.9298191651183
exact,pre_advance,DELTA_SA,ar,midas_umidas,2008:Q3,-16.45737417434109,-3606.3871933394594
exact,pre_advance,DELTA_SA,ar,midas_umidas,2008:Q4,-658.2226269869519,-4264.609820326411
exact,pre_advance,DELTA_SA,ar,midas_umidas,2009:Q1,-1734.2252989344995,-5998.835119260911
exact,pre_advance,DELTA_SA,ar,midas_umidas,2009:Q2,0.22143764520773843,-5998.613681615703
exact,pre_advance,DELTA_SA,ar,midas_umidas,2009:Q3,-124.17561613037812,-6122.7892977460815
exact,pre_advance,DELTA_SA,ar,midas_umidas,2009:Q4,-110.45342341383031,-6233.2427211599115
exact,pre_advance,DELTA_SA,ar,midas_umidas,2010:Q1,-275.02931495153865,-6508.27203611145
exact,pre_advance,DELTA_SA,ar,midas_umidas,2010:Q2,-53.8374493565124,-6562.109485467962
exact,pre_advance,DELTA_SA,ar,midas_umidas,2010:Q3,-504.14983455244965,-7066.259320020412
exact,pre_advance,DELTA_SA,ar,midas_umidas,2010:Q4,-149.3442294107893,-7215.603549431201
exact,pre_advance,DELTA_SA,ar,midas_umidas,2011:Q1,-76.18270495068337,-7291.786254381885
exact,pre_advance,DELTA_SA,ar,midas_umidas,2011:Q2,-451.8456247825397,-7743.631879164424
exact,pre_advance,DELTA_SA,ar,midas_umidas,2011:Q3,0.13060850678497912,-7743.501270657639
exact,pre_advance,DELTA_SA,ar,midas_umidas,2011:Q4,-178.48758528523038,-7921.988855942869
exact,pre_advance,DELTA_SA,ar,midas_umidas,2012:Q1,-165.68145473592898,-8087.670310678798
exact,pre_advance,DELTA_SA,ar,midas_umidas,2012:Q2,-47.673541919471,-8135.343852598269
exact,pre_advance,DELTA_SA,ar,midas_umidas,2012:Q3,-52.97128713099698,-8188.315139729266
exact,pre_advance,DELTA_SA,ar,midas_umidas,2012:Q4,-35.87250645483025,-8224.187646184097
exact,pre_advance,DELTA_SA,ar,midas_umidas,2013:Q1,-78.68787456065915,-8302.875520744756
exact,pre_advance,DELTA_SA,ar,midas_umidas,2013:Q2,-223.52534495242105,-8526.400865697176
exact,pre_advance,DELTA_SA,ar,midas_umidas,2013:Q3,-20.601764879937992,-8547.002630577115
exact,pre_advance,DELTA_SA,ar,midas_umidas,2013:Q4,-23.13177722937727,-8570.134407806492
exact,pre_advance,DELTA_SA,ar,midas_umidas,2014:Q1,-86.83478800644839,-8656.96919581294
exact,pre_advance,DELTA_SA,ar,midas_umidas,2014:Q2,-148.1537614965949,-8805.122957309535
exact,pre_advance,DELTA_SA,ar,midas_umidas,2014:Q3,-21.563616269845912,-8826.686573579382
exact,pre_advance,DELTA_SA,ar,midas_umidas,2014:Q4,-15.719381848727583,-8842.405955428108
exact,pre_advance,DELTA_SA,ar,midas_umidas,2015:Q1,-3.243395945480688,-8845.64935137359
exact,pre_advance,DELTA_SA,ar,midas_umidas,2015:Q2,2.8534791315047823,-8842.795872242084
exact,pre_advance,DELTA_SA,ar,midas_umidas,2015:Q3,-43.68811698390882,-8886.483989225993
exact,pre_advance,DELTA_SA,ar,midas_umidas,2015:Q4,-24.97376828407593,-8911.457757510068
exact,pre_advance,DELTA_SA,ar,midas_umidas,2016:Q1,-25.74251643989478,-8937.200273949964
exact,pre_advance,DELTA_SA,ar,midas_umidas,2016:Q2,-7.70255962492451,-8944.902833574888
exact,pre_advance,DELTA_SA,ar,midas_umidas,2016:Q3,-0.41864452076651637,-8945.321478095655
exact,pre_advance,DELTA_SA,ar,midas_umidas,2016:Q4,-1.6878248577374164,-8947.009302953393
exact,pre_advance,DELTA_SA,ar,midas_umidas,2017:Q1,-1.3964693699196922,-8948.405772323313
exact,pre_advance,DELTA_SA,ar,midas_umidas,2017:Q2,-0.2386418337186688,-8948.644414157032
exact,pre_advance,DELTA_SA,ar,midas_umidas,2017:Q3,-9.894772171959557,-8958.539186328991
exact,pre_advance,DELTA_SA,ar,midas_umidas,2017:Q4,-0.06785400372468789,-8958.607040332716
exact,pre_advance,DELTA_SA,ar,midas_umidas,2018:Q1,-0.8285480132734977,-8959.435588345988
exact,pre_advance,DELTA_SA,ar,midas_umidas,2018:Q2,-12.28694297591861,-8971.722531321908
exact,pre_advance,DELTA_SA,ar,midas_umidas,2018:Q3,-4.533494700401264,-8976.256026022309
exact,pre_advance,DELTA_SA,ar,midas_umidas,2019:Q1,0.29472275296400396,-8975.961303269345
exact,pre_advance,DELTA_SA,ar,midas_umidas,2019:Q2,-0.4369629347732412,-8976.398266204118
exact,pre_advance,DELTA_SA,ar,midas_umidas,2019:Q3,-1.0739336795414602,-8977.47219988366
exact,pre_advance,DELTA_SA,ar,midas_umidas,2019:Q4,-0.7868392335368706,-8978.259039117196
exact,pre_advance,DELTA_SA,ar,midas_umidas,2020:Q1,-1.0551657413495503,-8979.314204858545
exact,pre_advance,DELTA_SA,ar,midas_umidas,2020:Q2,-2064.4350325083146,-11043.74923736686
exact,pre_advance,DELTA_SA,ar,midas_umidas,2020:Q3,-4078.7524783177178,-15122.501715684577
exact,pre_advance,DELTA_SA,ar,midas_umidas,2020:Q4,-6.506950483246874,-15129.008666167823
exact,pre_advance,DELTA_SA,ar,midas_umidas,2021:Q1,-4.596760703579255,-15133.605426871403
exact,pre_advance,DELTA_SA,ar,midas_umidas,2021:Q2,-8.287139872261893,-15141.892566743665
exact,pre_advance,DELTA_SA,ar,midas_umidas,2021:Q3,-0.14777608474144385,-15142.040342828406
exact,pre_advance,DELTA_SA,ar,midas_umidas,2021:Q4,-0.6833823726336178,-15142.72372520104
exact,pre_advance,DELTA_SA,ar,midas_umidas,2022:Q1,-0.3538272900297053,-15143.07755249107
exact,pre_advance,DELTA_SA,ar,midas_umidas,2022:Q2,0.08787319677965562,-15142.989679294289
exact,pre_advance,DELTA_SA,ar,midas_umidas,2022:Q3,0.09018879892358536,-15142.899490495365
exact,pre_advance,DELTA_SA,ar,midas_umidas,2022:Q4,-4.967035646848841,-15147.866526142214
exact,pre_advance,DELTA_SA,ar,midas_umidas,2023:Q1,-0.7470003290390502,-15148.613526471252
exact,pre_advance,DELTA_SA,ar,midas_umidas,2023:Q2,-3.5272575221531364,-15152.140783993405
exact,pre_advance,DELTA_SA,ar,midas_umidas,2023:Q3,-0.22947939040660967,-15152.370263383813
exact,pre_advance,DELTA_SA,ar,midas_umidas,2023:Q4,-0.11970627412494547,-15152.489969657938
exact,pre_advance,DELTA_SA,ar,midas_umidas,2024:Q1,0.18674922130366314,-15152.303220436634
exact,pre_advance,DELTA_SA,ar,midas_umidas,2024:Q2,0.002997525708536584,-15152.300222910924
exact,pre_advance,DELTA_SA,ar,midas_umidas,2024:Q3,-0.20633145236124312,-15152.506554363286
exact,pre_advance,DELTA_SA,ar,midas_umidas,2024:Q4,-1.6360489328221843,-15154.142603296108
exact,pre_advance,DELTA_SA,ar,monthly_mixed_frequency_kalman_em,2005:Q1,-0.08300200997235942,-0.08300200997235942
exact,pre_advance,DELTA_SA,ar,monthly_mixed_frequency_kalman_em,2005:Q2,0.10946245197815938,0.02646044200579996
exact,pre_advance,DELTA_SA,ar,monthly_mixed_frequency_kalman_em,2005:Q3,-0.059467219105510394,-0.033006777099710435
exact,pre_advance,DELTA_SA,ar,monthly_mixed_frequency_kalman_em,2005:Q4,-0.07501752347761213,-0.10802430057732257
exact,pre_advance,DELTA_SA,ar,monthly_mixed_frequency_kalman_em,2006:Q1,-0.18886532336135275,-0.29688962393867535
exact,pre_advance,DELTA_SA,ar,monthly_mixed_frequency_kalman_em,2006:Q2,-0.08101065644063252,-0.3779002803793079
exact,pre_advance,DELTA_SA,ar,monthly_mixed_frequency_kalman_em,2006:Q3,-0.4836836368398007,-0.8615839172191087
exact,pre_advance,DELTA_SA,ar,monthly_mixed_frequency_kalman_em,2006:Q4,1.0336145074375132,0.1720305902184045
exact,pre_advance,DELTA_SA,ar,monthly_mixed_frequency_kalman_em,2007:Q1,-0.30843388293964374,-0.13640329272123924
exact,pre_advance,DELTA_SA,ar,monthly_mixed_frequency_kalman_em,2007:Q2,0.40838203124033384,0.2719787385190946
exact,pre_advance,DELTA_SA,ar,monthly_mixed_frequency_kalman_em,2007:Q3,-0.5334040112515134,-0.2614252727324188
exact,pre_advance,DELTA_SA,ar,monthly_mixed_frequency_kalman_em,2007:Q4,0.22069908952805373,-0.04072618320436505
exact,pre_advance,DELTA_SA,ar,monthly_mixed_frequency_kalman_em,2008:Q1,-0.08672194925251721,-0.12744813245688225
exact,pre_advance,DELTA_SA,ar,monthly_mixed_frequency_kalman_em,2008:Q2,-0.07114762686770137,-0.19859575932458362
exact,pre_advance,DELTA_SA,ar,monthly_mixed_frequency_kalman_em,2008:Q3,0.925305802182651,0.7267100428580674
exact,pre_advance,DELTA_SA,ar,monthly_mixed_frequency_kalman_em,2008:Q4,1.7157870103334592,2.4424970531915267
exact,pre_advance,DELTA_SA,ar,monthly_mixed_frequency_kalman_em,2009:Q1,1.4889468318520807,3.931443885043607
exact,pre_advance,DELTA_SA,ar,monthly_mixed_frequency_kalman_em,2009:Q2,0.15010636938940783,4.081550254433015
exact,pre_advance,DELTA_SA,ar,monthly_mixed_frequency_kalman_em,2009:Q3,-0.6139363175483327,3.4676139368846823
exact,pre_advance,DELTA_SA,ar,monthly_mixed_frequency_kalman_em,2009:Q4,0.211849749070737,3.6794636859554193
exact,pre_advance,DELTA_SA,ar,monthly_mixed_frequency_kalman_em,2010:Q1,-0.129905279709135,3.5495584062462844
exact,pre_advance,DELTA_SA,ar,monthly_mixed_frequency_kalman_em,2010:Q2,0.17511994140354703,3.7246783476498315
exact,pre_advance,DELTA_SA,ar,monthly_mixed_frequency_kalman_em,2010:Q3,0.4768442960737327,4.201522643723564
exact,pre_advance,DELTA_SA,ar,monthly_mixed_frequency_kalman_em,2010:Q4,0.05131673460775488,4.252839378331319
exact,pre_advance,DELTA_SA,ar,monthly_mixed_frequency_kalman_em,2011:Q1,-0.01633343653788097,4.236505941793438
exact,pre_advance,DELTA_SA,ar,monthly_mixed_frequency_kalman_em,2011:Q2,-0.05933850288094694,4.177167438912491
exact,pre_advance,DELTA_SA,ar,monthly_mixed_frequency_kalman_em,2011:Q3,-0.1712113243497151,4.0059561145627764
exact,pre_advance,DELTA_SA,ar,monthly_mixed_frequency_kalman_em,2011:Q4,0.15066295268672641,4.156619067249503
exact,pre_advance,DELTA_SA,ar,monthly_mixed_frequency_kalman_em,2012:Q1,-0.052609168528232136,4.104009898721271
exact,pre_advance,DELTA_SA,ar,monthly_mixed_frequency_kalman_em,2012:Q2,0.08886596758287135,4.192875866304142
exact,pre_advance,DELTA_SA,ar,monthly_mixed_frequency_kalman_em,2012:Q3,0.23455636200114838,4.427432228305291
exact,pre_advance,DELTA_SA,ar,monthly_mixed_frequency_kalman_em,2012:Q4,-0.05457376801350216,4.372858460291789
exact,pre_advance,DELTA_SA,ar,monthly_mixed_frequency_kalman_em,2013:Q1,0.14348051399468154,4.51633897428647
exact,pre_advance,DELTA_SA,ar,monthly_mixed_frequency_kalman_em,2013:Q2,0.3032837128017486,4.819622687088219
exact,pre_advance,DELTA_SA,ar,monthly_mixed_frequency_kalman_em,2013:Q3,-0.3625167164385121,4.457105970649707
exact,pre_advance,DELTA_SA,ar,monthly_mixed_frequency_kalman_em,2013:Q4,0.7093856362814555,5.166491606931162
exact,pre_advance,DELTA_SA,ar,monthly_mixed_frequency_kalman_em,2014:Q1,-0.4920025939656083,4.674489012965553
exact,pre_advance,DELTA_SA,ar,monthly_mixed_frequency_kalman_em,2014:Q2,0.33360327757147845,5.008092290537032
exact,pre_advance,DELTA_SA,ar,monthly_mixed_frequency_kalman_em,2014:Q3,0.06276740876216783,5.0708596992992
exact,pre_advance,DELTA_SA,ar,monthly_mixed_frequency_kalman_em,2014:Q4,0.17590541639599278,5.246765115695193
exact,pre_advance,DELTA_SA,ar,monthly_mixed_frequency_kalman_em,2015:Q1,-0.3982606709234696,4.848504444771724
exact,pre_advance,DELTA_SA,ar,monthly_mixed_frequency_kalman_em,2015:Q2,1.7326971873157544,6.5812016320874775
exact,pre_advance,DELTA_SA,ar,monthly_mixed_frequency_kalman_em,2015:Q3,-0.3087772692644138,6.272424362823064
exact,pre_advance,DELTA_SA,ar,monthly_mixed_frequency_kalman_em,2015:Q4,0.0017429868144774904,6.274167349637541
exact,pre_advance,DELTA_SA,ar,monthly_mixed_frequency_kalman_em,2016:Q1,-0.07967222044700425,6.194495129190537
exact,pre_advance,DELTA_SA,ar,monthly_mixed_frequency_kalman_em,2016:Q2,0.031656097825294716,6.226151227015832
exact,pre_advance,DELTA_SA,ar,monthly_mixed_frequency_kalman_em,2016:Q3,0.03572379961343977,6.261875026629271
exact,pre_advance,DELTA_SA,ar,monthly_mixed_frequency_kalman_em,2016:Q4,-0.10752889877738468,6.154346127851887
exact,pre_advance,DELTA_SA,ar,monthly_mixed_frequency_kalman_em,2017:Q1,0.07830856594593431,6.232654693797821
exact,pre_advance,DELTA_SA,ar,monthly_mixed_frequency_kalman_em,2017:Q2,-0.04377664940670807,6.188878044391113
exact,pre_advance,DELTA_SA,ar,monthly_mixed_frequency_kalman_em,2017:Q3,-0.0005121305794878396,6.188365913811625
exact,pre_advance,DELTA_SA,ar,monthly_mixed_frequency_kalman_em,2017:Q4,-0.025158953851782802,6.163206959959842
exact,pre_advance,DELTA_SA,ar,monthly_mixed_frequency_kalman_em,2018:Q1,0.006316420107473096,6.169523380067315
exact,pre_advance,DELTA_SA,ar,monthly_mixed_frequency_kalman_em,2018:Q2,0.025165695672826883,6.1946890757401425
exact,pre_advance,DELTA_SA,ar,monthly_mixed_frequency_kalman_em,2018:Q3,0.0011024057572205977,6.195791481497363
exact,pre_advance,DELTA_SA,ar,monthly_mixed_frequency_kalman_em,2019:Q1,0.2891583904708305,6.484949871968193
exact,pre_advance,DELTA_SA,ar,monthly_mixed_frequency_kalman_em,2019:Q2,-0.01043224782489495,6.4745176241432985
exact,pre_advance,DELTA_SA,ar,monthly_mixed_frequency_kalman_em,2019:Q3,-0.03007492637126818,6.44444269777203
exact,pre_advance,DELTA_SA,ar,monthly_mixed_frequency_kalman_em,2019:Q4,0.02263851917435642,6.4670812169463865
exact,pre_advance,DELTA_SA,ar,monthly_mixed_frequency_kalman_em,2020:Q1,0.017534368030426725,6.4846155849768135
exact,pre_advance,DELTA_SA,ar,monthly_mixed_frequency_kalman_em,2020:Q2,-1.624622921964824,4.859992663011989
exact,pre_advance,DELTA_SA,ar,monthly_mixed_frequency_kalman_em,2020:Q3,5.753512523006971,10.61350518601896
exact,pre_advance,DELTA_SA,ar,monthly_mixed_frequency_kalman_em,2020:Q4,0.32039781025508685,10.933902996274046
exact,pre_advance,DELTA_SA,ar,monthly_mixed_frequency_kalman_em,2021:Q1,-0.04522397945643847,10.888679016817608
exact,pre_advance,DELTA_SA,ar,monthly_mixed_frequency_kalman_em,2021:Q2,0.008426168166523185,10.897105184984131
exact,pre_advance,DELTA_SA,ar,monthly_mixed_frequency_kalman_em,2021:Q3,0.001280593027953626,10.898385778012084
exact,pre_advance,DELTA_SA,ar,monthly_mixed_frequency_kalman_em,2021:Q4,-0.005312144265472903,10.893073633746612
exact,pre_advance,DELTA_SA,ar,monthly_mixed_frequency_kalman_em,2022:Q1,0.03851751911393778,10.93159115286055
exact,pre_advance,DELTA_SA,ar,monthly_mixed_frequency_kalman_em,2022:Q2,0.03953075174608153,10.971121904606632
exact,pre_advance,DELTA_SA,ar,monthly_mixed_frequency_kalman_em,2022:Q3,0.06713105617222362,11.038252960778856
exact,pre_advance,DELTA_SA,ar,monthly_mixed_frequency_kalman_em,2022:Q4,0.0984146940103582,11.136667654789214
exact,pre_advance,DELTA_SA,ar,monthly_mixed_frequency_kalman_em,2023:Q1,0.007319944521401568,11.143987599310616
exact,pre_advance,DELTA_SA,ar,monthly_mixed_frequency_kalman_em,2023:Q2,-0.24564993894572298,10.898337660364893
exact,pre_advance,DELTA_SA,ar,monthly_mixed_frequency_kalman_em,2023:Q3,0.003868358024989589,10.902206018389883
exact,pre_advance,DELTA_SA,ar,monthly_mixed_frequency_kalman_em,2023:Q4,0.025121223459535495,10.927327241849419
exact,pre_advance,DELTA_SA,ar,monthly_mixed_frequency_kalman_em,2024:Q1,-0.0793237701873502,10.848003471662068
exact,pre_advance,DELTA_SA,ar,monthly_mixed_frequency_kalman_em,2024:Q2,0.0017542895674012762,10.849757761229469
exact,pre_advance,DELTA_SA,ar,monthly_mixed_frequency_kalman_em,2024:Q3,0.004554420916756117,10.854312182146225
exact,pre_advance,DELTA_SA,ar,monthly_mixed_frequency_kalman_em,2024:Q4,-0.012391521749057544,10.841920660397168
exact,pre_advance,DELTA_SA,ar,no_revision,2005:Q1,-0.15257503321613658,-0.15257503321613658
exact,pre_advance,DELTA_SA,ar,no_revision,2005:Q2,0.10304262774761302,-0.049532405468523555
exact,pre_advance,DELTA_SA,ar,no_revision,2005:Q3,0.03151683579611303,-0.018015569672410525
exact,pre_advance,DELTA_SA,ar,no_revision,2005:Q4,-0.17958946757420496,-0.1976050372466155
exact,pre_advance,DELTA_SA,ar,no_revision,2006:Q1,-0.22225097588053042,-0.41985601312714593
exact,pre_advance,DELTA_SA,ar,no_revision,2006:Q2,-0.1338214718146227,-0.5536774849417686
exact,pre_advance,DELTA_SA,ar,no_revision,2006:Q3,-0.2655324769569707,-0.8192099618987393
exact,pre_advance,DELTA_SA,ar,no_revision,2006:Q4,1.1280810824986391,0.30887112059989985
exact,pre_advance,DELTA_SA,ar,no_revision,2007:Q1,-0.36488258133290913,-0.05601146073300928
exact,pre_advance,DELTA_SA,ar,no_revision,2007:Q2,0.2101220628635298,0.15411060213052052
exact,pre_advance,DELTA_SA,ar,no_revision,2007:Q3,-0.5038879623481906,-0.34977736021767003
exact,pre_advance,DELTA_SA,ar,no_revision,2007:Q4,0.23194641324995732,-0.11783094696771271
exact,pre_advance,DELTA_SA,ar,no_revision,2008:Q1,-0.06565748592115798,-0.18348843288887068
exact,pre_advance,DELTA_SA,ar,no_revision,2008:Q2,-0.7051418869943866,-0.8886303198832572
exact,pre_advance,DELTA_SA,ar,no_revision,2008:Q3,0.8839041046210189,-0.004726215262238376
exact,pre_advance,DELTA_SA,ar,no_revision,2008:Q4,0.39399862829546173,0.38927241303322335
exact,pre_advance,DELTA_SA,ar,no_revision,2009:Q1,1.3203689037955737,1.709641316828797
exact,pre_advance,DELTA_SA,ar,no_revision,2009:Q2,0.36877932291984866,2.0784206397486455
exact,pre_advance,DELTA_SA,ar,no_revision,2009:Q3,0.31974831955083616,2.3981689592994817
exact,pre_advance,DELTA_SA,ar,no_revision,2009:Q4,0.2461874095178597,2.6443563688173413
exact,pre_advance,DELTA_SA,ar,no_revision,2010:Q1,0.012274663642203441,2.656631032459545
exact,pre_advance,DELTA_SA,ar,no_revision,2010:Q2,-0.10097637669884518,2.5556546557606996
exact,pre_advance,DELTA_SA,ar,no_revision,2010:Q3,0.41001530272678194,2.9656699584874815
exact,pre_advance,DELTA_SA,ar,no_revision,2010:Q4,0.33708017745408314,3.3027501359415647
exact,pre_advance,DELTA_SA,ar,no_revision,2011:Q1,0.05273638935335863,3.3554865252949235
exact,pre_advance,DELTA_SA,ar,no_revision,2011:Q2,0.0864949621817803,3.4419814874767036
exact,pre_advance,DELTA_SA,ar,no_revision,2011:Q3,-0.03822954602021156,3.403751941456492
exact,pre_advance,DELTA_SA,ar,no_revision,2011:Q4,0.1042486389810256,3.5080005804375176
exact,pre_advance,DELTA_SA,ar,no_revision,2012:Q1,0.12270345028699549,3.6307040307245133
exact,pre_advance,DELTA_SA,ar,no_revision,2012:Q2,0.05124300972150874,3.681947040446022
exact,pre_advance,DELTA_SA,ar,no_revision,2012:Q3,-0.19803121584843814,3.483915824597584
exact,pre_advance,DELTA_SA,ar,no_revision,2012:Q4,-0.06160444841889918,3.4223113761786847
exact,pre_advance,DELTA_SA,ar,no_revision,2013:Q1,0.13839352919058448,3.560704905369269
exact,pre_advance,DELTA_SA,ar,no_revision,2013:Q2,0.010665904843470964,3.5713708102127404
exact,pre_advance,DELTA_SA,ar,no_revision,2013:Q3,-0.49085393179229264,3.0805168784204477
exact,pre_advance,DELTA_SA,ar,no_revision,2013:Q4,0.8147882022650561,3.895305080685504
exact,pre_advance,DELTA_SA,ar,no_revision,2014:Q1,-0.6728261778290336,3.22247890285647
exact,pre_advance,DELTA_SA,ar,no_revision,2014:Q2,0.3153905835886226,3.537869486445093
exact,pre_advance,DELTA_SA,ar,no_revision,2014:Q3,-0.05736992828325174,3.480499558161841
exact,pre_advance,DELTA_SA,ar,no_revision,2014:Q4,0.18045818425062124,3.6609577424124624
exact,pre_advance,DELTA_SA,ar,no_revision,2015:Q1,-0.30424364925329495,3.3567140931591677
exact,pre_advance,DELTA_SA,ar,no_revision,2015:Q2,1.0249249122593762,4.381639005418544
exact,pre_advance,DELTA_SA,ar,no_revision,2015:Q3,-0.3345827492334456,4.0470562561850985
exact,pre_advance,DELTA_SA,ar,no_revision,2015:Q4,-0.09676443992777004,3.9502918162573284
exact,pre_advance,DELTA_SA,ar,no_revision,2016:Q1,-0.09029065158363185,3.8600011646736965
exact,pre_advance,DELTA_SA,ar,no_revision,2016:Q2,0.1360297525459644,3.996030917219661
exact,pre_advance,DELTA_SA,ar,no_revision,2016:Q3,-0.021175007572158712,3.974855909647502
exact,pre_advance,DELTA_SA,ar,no_revision,2016:Q4,0.02734587565242416,4.002201785299926
exact,pre_advance,DELTA_SA,ar,no_revision,2017:Q1,-0.056295362083760514,3.945906423216165
exact,pre_advance,DELTA_SA,ar,no_revision,2017:Q2,-0.1998229027002102,3.746083520515955
exact,pre_advance,DELTA_SA,ar,no_revision,2017:Q3,-0.09239460605426397,3.653688914461691
exact,pre_advance,DELTA_SA,ar,no_revision,2017:Q4,0.035699658663772574,3.6893885731254636
exact,pre_advance,DELTA_SA,ar,no_revision,2018:Q1,0.012703611098869368,3.702092184224333
exact,pre_advance,DELTA_SA,ar,no_revision,2018:Q2,0.0030213569949030655,3.705113541219236
exact,pre_advance,DELTA_SA,ar,no_revision,2018:Q3,0.0032310710133240618,3.70834461223256
exact,pre_advance,DELTA_SA,ar,no_revision,2019:Q1,0.3134694480182471,4.021814060250807
exact,pre_advance,DELTA_SA,ar,no_revision,2019:Q2,-0.00020861065790184213,4.021605449592905
exact,pre_advance,DELTA_SA,ar,no_revision,2019:Q3,-0.020795440927072837,4.000810008665832
exact,pre_advance,DELTA_SA,ar,no_revision,2019:Q4,0.022807340587339162,4.023617349253171
exact,pre_advance,DELTA_SA,ar,no_revision,2020:Q1,0.04374626691208146,4.067363616165252
exact,pre_advance,DELTA_SA,ar,no_revision,2020:Q2,-0.4848885887598303,3.582475027405422
exact,pre_advance,DELTA_SA,ar,no_revision,2020:Q3,6.6030936783793335,10.185568705784755
exact,pre_advance,DELTA_SA,ar,no_revision,2020:Q4,0.3494364241901803,10.535005129974936
exact,pre_advance,DELTA_SA,ar,no_revision,2021:Q1,0.010481372036795358,10.54548650201173
exact,pre_advance,DELTA_SA,ar,no_revision,2021:Q2,0.005674643654305938,10.551161145666036
exact,pre_advance,DELTA_SA,ar,no_revision,2021:Q3,-0.00428446848418562,10.546876677181851
exact,pre_advance,DELTA_SA,ar,no_revision,2021:Q4,-0.009636975615624089,10.537239701566227
exact,pre_advance,DELTA_SA,ar,no_revision,2022:Q1,0.05376352283472801,10.591003224400955
exact,pre_advance,DELTA_SA,ar,no_revision,2022:Q2,-0.01747374549873487,10.57352947890222
exact,pre_advance,DELTA_SA,ar,no_revision,2022:Q3,-0.038912176234116996,10.534617302668103
exact,pre_advance,DELTA_SA,ar,no_revision,2022:Q4,0.058622083054108,10.59323938572221
exact,pre_advance,DELTA_SA,ar,no_revision,2023:Q1,-0.02740533844308022,10.56583404727913
exact,pre_advance,DELTA_SA,ar,no_revision,2023:Q2,0.06172819389498699,10.627562241174118
exact,pre_advance,DELTA_SA,ar,no_revision,2023:Q3,-0.03194758936873526,10.595614651805382
exact,pre_advance,DELTA_SA,ar,no_revision,2023:Q4,0.03690159867203891,10.63251625047742
exact,pre_advance,DELTA_SA,ar,no_revision,2024:Q1,0.07155817897030346,10.704074429447724
exact,pre_advance,DELTA_SA,ar,no_revision,2024:Q2,-0.009033581491366181,10.695040847956358
exact,pre_advance,DELTA_SA,ar,no_revision,2024:Q3,0.00727617350536104,10.702317021461718
exact,pre_advance,DELTA_SA,ar,no_revision,2024:Q4,-0.008788760628669104,10.69352826083305
exact,pre_advance,DELTA_SA,ar,release_dfm,2005:Q1,-0.0431916524410005,-0.0431916524410005
exact,pre_advance,DELTA_SA,ar,release_dfm,2005:Q2,0.036114876907866175,-0.007076775533134322
exact,pre_advance,DELTA_SA,ar,release_dfm,2005:Q3,0.11916359831664095,0.11208682278350662
exact,pre_advance,DELTA_SA,ar,release_dfm,2005:Q4,-0.25765698049293434,-0.14557015770942772
exact,pre_advance,DELTA_SA,ar,release_dfm,2006:Q1,-0.052775399688157566,-0.19834555739758528
exact,pre_advance,DELTA_SA,ar,release_dfm,2006:Q2,-0.19462418810163268,-0.3929697454992179
exact,pre_advance,DELTA_SA,ar,release_dfm,2006:Q3,-0.25432690657427676,-0.6472966520734946
exact,pre_advance,DELTA_SA,ar,release_dfm,2006:Q4,0.8065340562446708,0.15923740417117616
exact,pre_advance,DELTA_SA,ar,release_dfm,2007:Q1,-0.390564243936253,-0.23132683976507684
exact,pre_advance,DELTA_SA,ar,release_dfm,2007:Q2,0.256620304159339,0.025293464394262166
exact,pre_advance,DELTA_SA,ar,release_dfm,2007:Q3,-0.7028305472815647,-0.6775370828873025
exact,pre_advance,DELTA_SA,ar,release_dfm,2007:Q4,0.22517303047138754,-0.452364052415915
exact,pre_advance,DELTA_SA,ar,release_dfm,2008:Q1,-0.12189714301863067,-0.5742611954345457
exact,pre_advance,DELTA_SA,ar,release_dfm,2008:Q2,-0.8148156596880958,-1.3890768551226413
exact,pre_advance,DELTA_SA,ar,release_dfm,2008:Q3,0.8847301704727072,-0.5043466846499342
exact,pre_advance,DELTA_SA,ar,release_dfm,2008:Q4,1.9261617073781823,1.4218150227282482
exact,pre_advance,DELTA_SA,ar,release_dfm,2009:Q1,-1.7615186490363592,-0.339703626308111
exact,pre_advance,DELTA_SA,ar,release_dfm,2009:Q2,0.22681644914059873,-0.11288717716751229
exact,pre_advance,DELTA_SA,ar,release_dfm,2009:Q3,-0.09680489578487406,-0.20969207295238634
exact,pre_advance,DELTA_SA,ar,release_dfm,2009:Q4,0.27011375096089496,0.06042167800850862
exact,pre_advance,DELTA_SA,ar,release_dfm,2010:Q1,-0.17695913216509826,-0.11653745415658964
exact,pre_advance,DELTA_SA,ar,release_dfm,2010:Q2,-0.29871461901526686,-0.41525207317185653
exact,pre_advance,DELTA_SA,ar,release_dfm,2010:Q3,0.5246061849569268,0.10935411178507026
exact,pre_advance,DELTA_SA,ar,release_dfm,2010:Q4,0.2679230626207071,0.37727717440577735
exact,pre_advance,DELTA_SA,ar,release_dfm,2011:Q1,0.030648253598559487,0.40792542800433684
exact,pre_advance,DELTA_SA,ar,release_dfm,2011:Q2,-0.004865266651429334,0.4030601613529075
exact,pre_advance,DELTA_SA,ar,release_dfm,2011:Q3,-0.2615593627455368,0.1415007986073707
exact,pre_advance,DELTA_SA,ar,release_dfm,2011:Q4,0.15675615739737872,0.29825695600474944
exact,pre_advance,DELTA_SA,ar,release_dfm,2012:Q1,-0.07293709665314582,0.22531985935160362
exact,pre_advance,DELTA_SA,ar,release_dfm,2012:Q2,0.08327408032211919,0.30859393967372284
exact,pre_advance,DELTA_SA,ar,release_dfm,2012:Q3,-0.02732375462272718,0.28127018505099566
exact,pre_advance,DELTA_SA,ar,release_dfm,2012:Q4,0.009204699436613803,0.29047488448760944
exact,pre_advance,DELTA_SA,ar,release_dfm,2013:Q1,0.10809650395223871,0.3985713884398482
exact,pre_advance,DELTA_SA,ar,release_dfm,2013:Q2,0.18052361053891552,0.5790949989787637
exact,pre_advance,DELTA_SA,ar,release_dfm,2013:Q3,-0.41693054488064174,0.16216445409812197
exact,pre_advance,DELTA_SA,ar,release_dfm,2013:Q4,0.3892553773598455,0.5514198314579675
exact,pre_advance,DELTA_SA,ar,release_dfm,2014:Q1,-0.8004676973766127,-0.24904786591864525
exact,pre_advance,DELTA_SA,ar,release_dfm,2014:Q2,0.36545847850269086,0.11641061258404561
exact,pre_advance,DELTA_SA,ar,release_dfm,2014:Q3,0.022978525826129026,0.13938913841017464
exact,pre_advance,DELTA_SA,ar,release_dfm,2014:Q4,0.056338895980955817,0.19572803439113046
exact,pre_advance,DELTA_SA,ar,release_dfm,2015:Q1,-0.2841772421770675,-0.08844920778593707
exact,pre_advance,DELTA_SA,ar,release_dfm,2015:Q2,1.545494977460395,1.4570457696744579
exact,pre_advance,DELTA_SA,ar,release_dfm,2015:Q3,-0.28861366459954085,1.168432105074917
exact,pre_advance,DELTA_SA,ar,release_dfm,2015:Q4,-0.04989574717156486,1.118536357903352
exact,pre_advance,DELTA_SA,ar,release_dfm,2016:Q1,-0.07671629241574716,1.0418200654876049
exact,pre_advance,DELTA_SA,ar,release_dfm,2016:Q2,0.10687245357094631,1.148692519058551
exact,pre_advance,DELTA_SA,ar,release_dfm,2016:Q3,0.01583928912741706,1.1645318081859681
exact,pre_advance,DELTA_SA,ar,release_dfm,2016:Q4,-0.010981628781780831,1.1535501794041874
exact,pre_advance,DELTA_SA,ar,release_dfm,2017:Q1,0.029255099279750868,1.1828052786839383
exact,pre_advance,DELTA_SA,ar,release_dfm,2017:Q2,-0.1422624862852929,1.0405427923986454
exact,pre_advance,DELTA_SA,ar,release_dfm,2017:Q3,-0.05539264250299365,0.9851501498956517
exact,pre_advance,DELTA_SA,ar,release_dfm,2017:Q4,-0.037013915996237746,0.948136233899414
exact,pre_advance,DELTA_SA,ar,release_dfm,2018:Q1,-0.05713990329786253,0.8909963306015515
exact,pre_advance,DELTA_SA,ar,release_dfm,2018:Q2,0.0201125289663193,0.9111088595678708
exact,pre_advance,DELTA_SA,ar,release_dfm,2018:Q3,-0.004289904454946062,0.9068189551129248
exact,pre_advance,DELTA_SA,ar,release_dfm,2019:Q1,0.30344092927060373,1.2102598843835284
exact,pre_advance,DELTA_SA,ar,release_dfm,2019:Q2,-0.015309165599788734,1.1949507187837396
exact,pre_advance,DELTA_SA,ar,release_dfm,2019:Q3,0.020240379630149036,1.2151910984138887
exact,pre_advance,DELTA_SA,ar,release_dfm,2019:Q4,0.0030144011880495446,1.2182054996019382
exact,pre_advance,DELTA_SA,ar,release_dfm,2020:Q1,0.06125186457488628,1.2794573641768245
exact,pre_advance,DELTA_SA,ar,release_dfm,2020:Q2,-6.083904372079216,-4.804447007902391
exact,pre_advance,DELTA_SA,ar,release_dfm,2020:Q3,6.470297668389885,1.6658506604874939
exact,pre_advance,DELTA_SA,ar,release_dfm,2020:Q4,0.35567098464117214,2.021521645128666
exact,pre_advance,DELTA_SA,ar,release_dfm,2021:Q1,-0.09810809691906655,1.9234135482095993
exact,pre_advance,DELTA_SA,ar,release_dfm,2021:Q2,0.008375820439164225,1.9317893686487635
exact,pre_advance,DELTA_SA,ar,release_dfm,2021:Q3,-0.0060161534274989215,1.9257732152212645
exact,pre_advance,DELTA_SA,ar,release_dfm,2021:Q4,9.583413032162726e-05,1.9258690493515862
exact,pre_advance,DELTA_SA,ar,release_dfm,2022:Q1,-0.2961123403271621,1.629756709024424
exact,pre_advance,DELTA_SA,ar,release_dfm,2022:Q2,0.005088694565271071,1.634845403589695
exact,pre_advance,DELTA_SA,ar,release_dfm,2022:Q3,-0.247679063020798,1.3871663405688972
exact,pre_advance,DELTA_SA,ar,release_dfm,2022:Q4,-0.11652446681693462,1.2706418737519627
exact,pre_advance,DELTA_SA,ar,release_dfm,2023:Q1,0.007134468142252815,1.2777763418942154
exact,pre_advance,DELTA_SA,ar,release_dfm,2023:Q2,-0.14784468284664734,1.129931659047568
exact,pre_advance,DELTA_SA,ar,release_dfm,2023:Q3,-0.022355969404468365,1.1075756896430997
exact,pre_advance,DELTA_SA,ar,release_dfm,2023:Q4,-0.026358468148810432,1.0812172214942892
exact,pre_advance,DELTA_SA,ar,release_dfm,2024:Q1,0.004387603203695051,1.0856048246979844
exact,pre_advance,DELTA_SA,ar,release_dfm,2024:Q2,-0.006995616891798064,1.0786092078061862
exact,pre_advance,DELTA_SA,ar,release_dfm,2024:Q3,0.007188809834182618,1.0857980176403688
exact,pre_advance,DELTA_SA,ar,release_dfm,2024:Q4,-0.0007835474668220177,1.0850144701735467
exact,pre_advance,DELTA_SA,ar,revision_dfm_kalman_em,2005:Q1,0.0026962141086752517,0.0026962141086752517
exact,pre_advance,DELTA_SA,ar,revision_dfm_kalman_em,2005:Q2,-0.11449171501220778,-0.11179550090353253
exact,pre_advance,DELTA_SA,ar,revision_dfm_kalman_em,2005:Q3,0.20918175520132332,0.09738625429779078
exact,pre_advance,DELTA_SA,ar,revision_dfm_kalman_em,2005:Q4,-0.11135996373144642,-0.01397370943365564
exact,pre_advance,DELTA_SA,ar,revision_dfm_kalman_em,2006:Q1,0.011804518973346459,-0.002169190460309181
exact,pre_advance,DELTA_SA,ar,revision_dfm_kalman_em,2006:Q2,0.03976668032530241,0.03759748986499323
exact,pre_advance,DELTA_SA,ar,revision_dfm_kalman_em,2006:Q3,0.10076875856535628,0.1383662484303495
exact,pre_advance,DELTA_SA,ar,revision_dfm_kalman_em,2006:Q4,1.2329661891811479,1.3713324376114975
exact,pre_advance,DELTA_SA,ar,revision_dfm_kalman_em,2007:Q1,-0.37736402587212653,0.993968411739371
exact,pre_advance,DELTA_SA,ar,revision_dfm_kalman_em,2007:Q2,0.5016905197139729,1.495658931453344
exact,pre_advance,DELTA_SA,ar,revision_dfm_kalman_em,2007:Q3,-0.8685301157526123,0.6271288157007316
exact,pre_advance,DELTA_SA,ar,revision_dfm_kalman_em,2007:Q4,-0.027413982521083263,0.5997148331796484
exact,pre_advance,DELTA_SA,ar,revision_dfm_kalman_em,2008:Q1,-0.01206636272266087,0.5876484704569875
exact,pre_advance,DELTA_SA,ar,revision_dfm_kalman_em,2008:Q2,-0.46591090125601053,0.121737569200977
exact,pre_advance,DELTA_SA,ar,revision_dfm_kalman_em,2008:Q3,0.6992246249875749,0.8209621941885519
exact,pre_advance,DELTA_SA,ar,revision_dfm_kalman_em,2008:Q4,2.1670645743958827,2.988026768584435
exact,pre_advance,DELTA_SA,ar,revision_dfm_kalman_em,2009:Q1,0.8975429869260902,3.885569755510525
exact,pre_advance,DELTA_SA,ar,revision_dfm_kalman_em,2009:Q2,0.3244033255098416,4.209973081020367
exact,pre_advance,DELTA_SA,ar,revision_dfm_kalman_em,2009:Q3,-0.6968547454841788,3.513118335536188
exact,pre_advance,DELTA_SA,ar,revision_dfm_kalman_em,2009:Q4,0.2739214281662532,3.7870397637024413
exact,pre_advance,DELTA_SA,ar,revision_dfm_kalman_em,2010:Q1,-0.8689666906268136,2.918073073075628
exact,pre_advance,DELTA_SA,ar,revision_dfm_kalman_em,2010:Q2,-0.12122257871163011,2.796850494363998
exact,pre_advance,DELTA_SA,ar,revision_dfm_kalman_em,2010:Q3,0.6692327478651533,3.466083242229151
exact,pre_advance,DELTA_SA,ar,revision_dfm_kalman_em,2010:Q4,-0.18806258002631088,3.2780206622028403
exact,pre_advance,DELTA_SA,ar,revision_dfm_kalman_em,2011:Q1,0.03842542669250261,3.316446088895343
exact,pre_advance,DELTA_SA,ar,revision_dfm_kalman_em,2011:Q2,-0.20965849698028774,3.1067875919150554
exact,pre_advance,DELTA_SA,ar,revision_dfm_kalman_em,2011:Q3,-0.5819832535117254,2.52480433840333
exact,pre_advance,DELTA_SA,ar,revision_dfm_kalman_em,2011:Q4,0.07109318847996629,2.595897526883296
exact,pre_advance,DELTA_SA,ar,revision_dfm_kalman_em,2012:Q1,-0.01974291208479359,2.5761546147985026
exact,pre_advance,DELTA_SA,ar,revision_dfm_kalman_em,2012:Q2,0.06091711652703764,2.6370717313255403
exact,pre_advance,DELTA_SA,ar,revision_dfm_kalman_em,2012:Q3,0.11001993456717794,2.747091665892718
exact,pre_advance,DELTA_SA,ar,revision_dfm_kalman_em,2012:Q4,0.010261328838501402,2.7573529947312196
exact,pre_advance,DELTA_SA,ar,revision_dfm_kalman_em,2013:Q1,0.13965261036359886,2.8970056050948183
exact,pre_advance,DELTA_SA,ar,revision_dfm_kalman_em,2013:Q2,0.19252186552076123,3.0895274706155798
exact,pre_advance,DELTA_SA,ar,revision_dfm_kalman_em,2013:Q3,-0.4377835740286373,2.651743896586942
exact,pre_advance,DELTA_SA,ar,revision_dfm_kalman_em,2013:Q4,0.2321898147264263,2.8839337113133685
exact,pre_advance,DELTA_SA,ar,revision_dfm_kalman_em,2014:Q1,-0.9724760660754803,1.9114576452378882
exact,pre_advance,DELTA_SA,ar,revision_dfm_kalman_em,2014:Q2,0.3540451076655858,2.265502752903474
exact,pre_advance,DELTA_SA,ar,revision_dfm_kalman_em,2014:Q3,0.03306917813262855,2.2985719310361024
exact,pre_advance,DELTA_SA,ar,revision_dfm_kalman_em,2014:Q4,0.0983525324878321,2.3969244635239346
exact,pre_advance,DELTA_SA,ar,revision_dfm_kalman_em,2015:Q1,-0.08006071843323703,2.3168637450906977
exact,pre_advance,DELTA_SA,ar,revision_dfm_kalman_em,2015:Q2,2.339672244454227,4.656535989544924
exact,pre_advance,DELTA_SA,ar,revision_dfm_kalman_em,2015:Q3,-1.3280939206407847,3.328442068904139
exact,pre_advance,DELTA_SA,ar,revision_dfm_kalman_em,2015:Q4,-0.031475112451908774,3.2969669564522306
exact,pre_advance,DELTA_SA,ar,revision_dfm_kalman_em,2016:Q1,-0.23387655733960813,3.0630903991126224
exact,pre_advance,DELTA_SA,ar,revision_dfm_kalman_em,2016:Q2,0.10192734360789577,3.165017742720518
exact,pre_advance,DELTA_SA,ar,revision_dfm_kalman_em,2016:Q3,0.010555822563971883,3.17557356528449
exact,pre_advance,DELTA_SA,ar,revision_dfm_kalman_em,2016:Q4,-0.10266513870895987,3.07290842657553
exact,pre_advance,DELTA_SA,ar,revision_dfm_kalman_em,2017:Q1,0.014016745075875858,3.086925171651406
exact,pre_advance,DELTA_SA,ar,revision_dfm_kalman_em,2017:Q2,-0.1925996247472727,2.8943255469041334
exact,pre_advance,DELTA_SA,ar,revision_dfm_kalman_em,2017:Q3,0.0021117224241757626,2.896437269328309
exact,pre_advance,DELTA_SA,ar,revision_dfm_kalman_em,2017:Q4,-0.06671611042671968,2.8297211589015894
exact,pre_advance,DELTA_SA,ar,revision_dfm_kalman_em,2018:Q1,-0.2375000595022655,2.5922210993993238
exact,pre_advance,DELTA_SA,ar,revision_dfm_kalman_em,2018:Q2,0.011464632882665856,2.6036857322819897
exact,pre_advance,DELTA_SA,ar,revision_dfm_kalman_em,2018:Q3,-0.01602151219039593,2.587664220091594
exact,pre_advance,DELTA_SA,ar,revision_dfm_kalman_em,2019:Q1,0.2601584812848515,2.8478227013764457
exact,pre_advance,DELTA_SA,ar,revision_dfm_kalman_em,2019:Q2,-0.00402942624843402,2.8437932751280117
exact,pre_advance,DELTA_SA,ar,revision_dfm_kalman_em,2019:Q3,0.021011152527302585,2.864804427655314
exact,pre_advance,DELTA_SA,ar,revision_dfm_kalman_em,2019:Q4,-0.04096085778995516,2.823843569865359
exact,pre_advance,DELTA_SA,ar,revision_dfm_kalman_em,2020:Q1,-0.03878351475628418,2.7850600551090747
exact,pre_advance,DELTA_SA,ar,revision_dfm_kalman_em,2020:Q2,-3.341293305898675,-0.5562332507896004
exact,pre_advance,DELTA_SA,ar,revision_dfm_kalman_em,2020:Q3,6.515955099987229,5.959721849197629
exact,pre_advance,DELTA_SA,ar,revision_dfm_kalman_em,2020:Q4,-0.13491560305189693,5.824806246145732
exact,pre_advance,DELTA_SA,ar,revision_dfm_kalman_em,2021:Q1,-0.21551011147014518,5.609296134675587
exact,pre_advance,DELTA_SA,ar,revision_dfm_kalman_em,2021:Q2,-0.011338599474063243,5.597957535201523
exact,pre_advance,DELTA_SA,ar,revision_dfm_kalman_em,2021:Q3,-0.011787088270022965,5.5861704469315
exact,pre_advance,DELTA_SA,ar,revision_dfm_kalman_em,2021:Q4,-0.08428488817519861,5.501885558756301
exact,pre_advance,DELTA_SA,ar,revision_dfm_kalman_em,2022:Q1,0.039637549819463574,5.541523108575765
exact,pre_advance,DELTA_SA,ar,revision_dfm_kalman_em,2022:Q2,0.10977177007707821,5.651294878652843
exact,pre_advance,DELTA_SA,ar,revision_dfm_kalman_em,2022:Q3,0.022831686650846006,5.674126565303689
exact,pre_advance,DELTA_SA,ar,revision_dfm_kalman_em,2022:Q4,0.10203683400121467,5.776163399304904
exact,pre_advance,DELTA_SA,ar,revision_dfm_kalman_em,2023:Q1,-0.09467747936447107,5.6814859199404335
exact,pre_advance,DELTA_SA,ar,revision_dfm_kalman_em,2023:Q2,-0.1476327963228151,5.533853123617618
exact,pre_advance,DELTA_SA,ar,revision_dfm_kalman_em,2023:Q3,0.04194194121692327,5.575795064834542
exact,pre_advance,DELTA_SA,ar,revision_dfm_kalman_em,2023:Q4,0.041525134238351025,5.617320199072893
exact,pre_advance,DELTA_SA,ar,revision_dfm_kalman_em,2024:Q1,0.04946310629282932,5.666783305365722
exact,pre_advance,DELTA_SA,ar,revision_dfm_kalman_em,2024:Q2,-0.027232714928011346,5.63955059043771
exact,pre_advance,DELTA_SA,ar,revision_dfm_kalman_em,2024:Q3,-0.01267285674397191,5.626877733693738
exact,pre_advance,DELTA_SA,ar,revision_dfm_kalman_em,2024:Q4,-0.006039477775218567,5.620838255918519
exact,pre_advance,DELTA_SA,ar,spf,2005:Q1,-0.15257503321613658,-0.15257503321613658
exact,pre_advance,DELTA_SA,ar,spf,2005:Q2,0.10304262774761302,-0.049532405468523555
exact,pre_advance,DELTA_SA,ar,spf,2005:Q3,0.03151683579611303,-0.018015569672410525
exact,pre_advance,DELTA_SA,ar,spf,2005:Q4,-0.17958946757420496,-0.1976050372466155
exact,pre_advance,DELTA_SA,ar,spf,2006:Q1,-0.22225097588053042,-0.41985601312714593
exact,pre_advance,DELTA_SA,ar,spf,2006:Q2,-0.1338214718146227,-0.5536774849417686
exact,pre_advance,DELTA_SA,ar,spf,2006:Q3,-0.2655324769569707,-0.8192099618987393
exact,pre_advance,DELTA_SA,ar,spf,2006:Q4,1.1280810824986391,0.30887112059989985
exact,pre_advance,DELTA_SA,ar,spf,2007:Q1,-0.36488258133290913,-0.05601146073300928
exact,pre_advance,DELTA_SA,ar,spf,2007:Q2,0.2101220628635298,0.15411060213052052
exact,pre_advance,DELTA_SA,ar,spf,2007:Q3,-0.5038879623481906,-0.34977736021767003
exact,pre_advance,DELTA_SA,ar,spf,2007:Q4,0.23194641324995732,-0.11783094696771271
exact,pre_advance,DELTA_SA,ar,spf,2008:Q1,-0.06565748592115798,-0.18348843288887068
exact,pre_advance,DELTA_SA,ar,spf,2008:Q2,-0.7051418869943866,-0.8886303198832572
exact,pre_advance,DELTA_SA,ar,spf,2008:Q3,0.8839041046210189,-0.004726215262238376
exact,pre_advance,DELTA_SA,ar,spf,2008:Q4,0.39399862829546173,0.38927241303322335
exact,pre_advance,DELTA_SA,ar,spf,2009:Q1,1.3203689037955737,1.709641316828797
exact,pre_advance,DELTA_SA,ar,spf,2009:Q2,0.36877932291984866,2.0784206397486455
exact,pre_advance,DELTA_SA,ar,spf,2009:Q3,0.31974831955083616,2.3981689592994817
exact,pre_advance,DELTA_SA,ar,spf,2009:Q4,0.2461874095178597,2.6443563688173413
exact,pre_advance,DELTA_SA,ar,spf,2010:Q1,0.012274663642203441,2.656631032459545
exact,pre_advance,DELTA_SA,ar,spf,2010:Q2,-0.10097637669884518,2.5556546557606996
exact,pre_advance,DELTA_SA,ar,spf,2010:Q3,0.41001530272678194,2.9656699584874815
exact,pre_advance,DELTA_SA,ar,spf,2010:Q4,0.33708017745408314,3.3027501359415647
exact,pre_advance,DELTA_SA,ar,spf,2011:Q1,0.05273638935335863,3.3554865252949235
exact,pre_advance,DELTA_SA,ar,spf,2011:Q2,0.0864949621817803,3.4419814874767036
exact,pre_advance,DELTA_SA,ar,spf,2011:Q3,-0.03822954602021156,3.403751941456492
exact,pre_advance,DELTA_SA,ar,spf,2011:Q4,0.1042486389810256,3.5080005804375176
exact,pre_advance,DELTA_SA,ar,spf,2012:Q1,0.12270345028699549,3.6307040307245133
exact,pre_advance,DELTA_SA,ar,spf,2012:Q2,0.05124300972150874,3.681947040446022
exact,pre_advance,DELTA_SA,ar,spf,2012:Q3,-0.19803121584843814,3.483915824597584
exact,pre_advance,DELTA_SA,ar,spf,2012:Q4,-0.06160444841889918,3.4223113761786847
exact,pre_advance,DELTA_SA,ar,spf,2013:Q1,0.13839352919058448,3.560704905369269
exact,pre_advance,DELTA_SA,ar,spf,2013:Q2,0.010665904843470964,3.5713708102127404
exact,pre_advance,DELTA_SA,ar,spf,2013:Q3,-0.49085393179229264,3.0805168784204477
exact,pre_advance,DELTA_SA,ar,spf,2013:Q4,0.8147882022650561,3.895305080685504
exact,pre_advance,DELTA_SA,ar,spf,2014:Q1,-0.6728261778290336,3.22247890285647
exact,pre_advance,DELTA_SA,ar,spf,2014:Q2,0.3153905835886226,3.537869486445093
exact,pre_advance,DELTA_SA,ar,spf,2014:Q3,-0.05736992828325174,3.480499558161841
exact,pre_advance,DELTA_SA,ar,spf,2014:Q4,0.18045818425062124,3.6609577424124624
exact,pre_advance,DELTA_SA,ar,spf,2015:Q1,-0.30424364925329495,3.3567140931591677
exact,pre_advance,DELTA_SA,ar,spf,2015:Q2,1.0249249122593762,4.381639005418544
exact,pre_advance,DELTA_SA,ar,spf,2015:Q3,-0.3345827492334456,4.0470562561850985
exact,pre_advance,DELTA_SA,ar,spf,2015:Q4,-0.09676443992777004,3.9502918162573284
exact,pre_advance,DELTA_SA,ar,spf,2016:Q1,-0.09029065158363185,3.8600011646736965
exact,pre_advance,DELTA_SA,ar,spf,2016:Q2,0.1360297525459644,3.996030917219661
exact,pre_advance,DELTA_SA,ar,spf,2016:Q3,-0.021175007572158712,3.974855909647502
exact,pre_advance,DELTA_SA,ar,spf,2016:Q4,0.02734587565242416,4.002201785299926
exact,pre_advance,DELTA_SA,ar,spf,2017:Q1,-0.056295362083760514,3.945906423216165
exact,pre_advance,DELTA_SA,ar,spf,2017:Q2,-0.1998229027002102,3.746083520515955
exact,pre_advance,DELTA_SA,ar,spf,2017:Q3,-0.09239460605426397,3.653688914461691
exact,pre_advance,DELTA_SA,ar,spf,2017:Q4,0.035699658663772574,3.6893885731254636
exact,pre_advance,DELTA_SA,ar,spf,2018:Q1,0.012703611098869368,3.702092184224333
exact,pre_advance,DELTA_SA,ar,spf,2018:Q2,0.0030213569949030655,3.705113541219236
exact,pre_advance,DELTA_SA,ar,spf,2018:Q3,0.0032310710133240618,3.70834461223256
exact,pre_advance,DELTA_SA,ar,spf,2019:Q1,0.3134694480182471,4.021814060250807
exact,pre_advance,DELTA_SA,ar,spf,2019:Q2,-0.00020861065790184213,4.021605449592905
exact,pre_advance,DELTA_SA,ar,spf,2019:Q3,-0.020795440927072837,4.000810008665832
exact,pre_advance,DELTA_SA,ar,spf,2019:Q4,0.022807340587339162,4.023617349253171
exact,pre_advance,DELTA_SA,ar,spf,2020:Q1,0.04374626691208146,4.067363616165252
exact,pre_advance,DELTA_SA,ar,spf,2020:Q2,-0.4848885887598303,3.582475027405422
exact,pre_advance,DELTA_SA,ar,spf,2020:Q3,6.6030936783793335,10.185568705784755
exact,pre_advance,DELTA_SA,ar,spf,2020:Q4,0.3494364241901803,10.535005129974936
exact,pre_advance,DELTA_SA,ar,spf,2021:Q1,0.010481372036795358,10.54548650201173
exact,pre_advance,DELTA_SA,ar,spf,2021:Q2,0.005674643654305938,10.551161145666036
exact,pre_advance,DELTA_SA,ar,spf,2021:Q3,-0.00428446848418562,10.546876677181851
exact,pre_advance,DELTA_SA,ar,spf,2021:Q4,-0.009636975615624089,10.537239701566227
exact,pre_advance,DELTA_SA,ar,spf,2022:Q1,0.05376352283472801,10.591003224400955
exact,pre_advance,DELTA_SA,ar,spf,2022:Q2,-0.01747374549873487,10.57352947890222
exact,pre_advance,DELTA_SA,ar,spf,2022:Q3,-0.038912176234116996,10.534617302668103
exact,pre_advance,DELTA_SA,ar,spf,2022:Q4,0.058622083054108,10.59323938572221
exact,pre_advance,DELTA_SA,ar,spf,2023:Q1,-0.02740533844308022,10.56583404727913
exact,pre_advance,DELTA_SA,ar,spf,2023:Q2,0.06172819389498699,10.627562241174118
exact,pre_advance,DELTA_SA,ar,spf,2023:Q3,-0.03194758936873526,10.595614651805382
exact,pre_advance,DELTA_SA,ar,spf,2023:Q4,0.03690159867203891,10.63251625047742
exact,pre_advance,DELTA_SA,ar,spf,2024:Q1,0.07155817897030346,10.704074429447724
exact,pre_advance,DELTA_SA,ar,spf,2024:Q2,-0.009033581491366181,10.695040847956358
exact,pre_advance,DELTA_SA,ar,spf,2024:Q3,0.00727617350536104,10.702317021461718
exact,pre_advance,DELTA_SA,ar,spf,2024:Q4,-0.008788760628669104,10.69352826083305
exact,pre_advance,DELTA_SA,ar,standard_dfm,2005:Q1,-0.0431916524410005,-0.0431916524410005
exact,pre_advance,DELTA_SA,ar,standard_dfm,2005:Q2,0.036114876907866175,-0.007076775533134322
exact,pre_advance,DELTA_SA,ar,standard_dfm,2005:Q3,0.11916359831664095,0.11208682278350662
exact,pre_advance,DELTA_SA,ar,standard_dfm,2005:Q4,-0.25765698049293434,-0.14557015770942772
exact,pre_advance,DELTA_SA,ar,standard_dfm,2006:Q1,-0.052775399688157566,-0.19834555739758528
exact,pre_advance,DELTA_SA,ar,standard_dfm,2006:Q2,-0.19462418810163268,-0.3929697454992179
exact,pre_advance,DELTA_SA,ar,standard_dfm,2006:Q3,-0.25432690657427676,-0.6472966520734946
exact,pre_advance,DELTA_SA,ar,standard_dfm,2006:Q4,0.8065340562446708,0.15923740417117616
exact,pre_advance,DELTA_SA,ar,standard_dfm,2007:Q1,-0.390564243936253,-0.23132683976507684
exact,pre_advance,DELTA_SA,ar,standard_dfm,2007:Q2,0.256620304159339,0.025293464394262166
exact,pre_advance,DELTA_SA,ar,standard_dfm,2007:Q3,-0.7028305472815647,-0.6775370828873025
exact,pre_advance,DELTA_SA,ar,standard_dfm,2007:Q4,0.22517303047138754,-0.452364052415915
exact,pre_advance,DELTA_SA,ar,standard_dfm,2008:Q1,-0.12189714301863067,-0.5742611954345457
exact,pre_advance,DELTA_SA,ar,standard_dfm,2008:Q2,-0.8148156596880958,-1.3890768551226413
exact,pre_advance,DELTA_SA,ar,standard_dfm,2008:Q3,0.8847301704727072,-0.5043466846499342
exact,pre_advance,DELTA_SA,ar,standard_dfm,2008:Q4,1.9261617073781823,1.4218150227282482
exact,pre_advance,DELTA_SA,ar,standard_dfm,2009:Q1,-1.7615186490363592,-0.339703626308111
exact,pre_advance,DELTA_SA,ar,standard_dfm,2009:Q2,0.22681644914059873,-0.11288717716751229
exact,pre_advance,DELTA_SA,ar,standard_dfm,2009:Q3,-0.09680489578487406,-0.20969207295238634
exact,pre_advance,DELTA_SA,ar,standard_dfm,2009:Q4,0.27011375096089496,0.06042167800850862
exact,pre_advance,DELTA_SA,ar,standard_dfm,2010:Q1,-0.17695913216509826,-0.11653745415658964
exact,pre_advance,DELTA_SA,ar,standard_dfm,2010:Q2,-0.29871461901526686,-0.41525207317185653
exact,pre_advance,DELTA_SA,ar,standard_dfm,2010:Q3,0.5246061849569268,0.10935411178507026
exact,pre_advance,DELTA_SA,ar,standard_dfm,2010:Q4,0.2679230626207071,0.37727717440577735
exact,pre_advance,DELTA_SA,ar,standard_dfm,2011:Q1,0.030648253598559487,0.40792542800433684
exact,pre_advance,DELTA_SA,ar,standard_dfm,2011:Q2,-0.004865266651429334,0.4030601613529075
exact,pre_advance,DELTA_SA,ar,standard_dfm,2011:Q3,-0.2615593627455368,0.1415007986073707
exact,pre_advance,DELTA_SA,ar,standard_dfm,2011:Q4,0.15675615739737872,0.29825695600474944
exact,pre_advance,DELTA_SA,ar,standard_dfm,2012:Q1,-0.07293709665314582,0.22531985935160362
exact,pre_advance,DELTA_SA,ar,standard_dfm,2012:Q2,0.08327408032211919,0.30859393967372284
exact,pre_advance,DELTA_SA,ar,standard_dfm,2012:Q3,-0.02732375462272718,0.28127018505099566
exact,pre_advance,DELTA_SA,ar,standard_dfm,2012:Q4,0.009204699436613803,0.29047488448760944
exact,pre_advance,DELTA_SA,ar,standard_dfm,2013:Q1,0.10809650395223871,0.3985713884398482
exact,pre_advance,DELTA_SA,ar,standard_dfm,2013:Q2,0.18052361053891552,0.5790949989787637
exact,pre_advance,DELTA_SA,ar,standard_dfm,2013:Q3,-0.41693054488064174,0.16216445409812197
exact,pre_advance,DELTA_SA,ar,standard_dfm,2013:Q4,0.3892553773598455,0.5514198314579675
exact,pre_advance,DELTA_SA,ar,standard_dfm,2014:Q1,-0.8004676973766127,-0.24904786591864525
exact,pre_advance,DELTA_SA,ar,standard_dfm,2014:Q2,0.36545847850269086,0.11641061258404561
exact,pre_advance,DELTA_SA,ar,standard_dfm,2014:Q3,0.022978525826129026,0.13938913841017464
exact,pre_advance,DELTA_SA,ar,standard_dfm,2014:Q4,0.056338895980955817,0.19572803439113046
exact,pre_advance,DELTA_SA,ar,standard_dfm,2015:Q1,-0.2841772421770675,-0.08844920778593707
exact,pre_advance,DELTA_SA,ar,standard_dfm,2015:Q2,1.545494977460395,1.4570457696744579
exact,pre_advance,DELTA_SA,ar,standard_dfm,2015:Q3,-0.28861366459954085,1.168432105074917
exact,pre_advance,DELTA_SA,ar,standard_dfm,2015:Q4,-0.04989574717156486,1.118536357903352
exact,pre_advance,DELTA_SA,ar,standard_dfm,2016:Q1,-0.07671629241574716,1.0418200654876049
exact,pre_advance,DELTA_SA,ar,standard_dfm,2016:Q2,0.10687245357094631,1.148692519058551
exact,pre_advance,DELTA_SA,ar,standard_dfm,2016:Q3,0.01583928912741706,1.1645318081859681
exact,pre_advance,DELTA_SA,ar,standard_dfm,2016:Q4,-0.010981628781780831,1.1535501794041874
exact,pre_advance,DELTA_SA,ar,standard_dfm,2017:Q1,0.029255099279750868,1.1828052786839383
exact,pre_advance,DELTA_SA,ar,standard_dfm,2017:Q2,-0.1422624862852929,1.0405427923986454
exact,pre_advance,DELTA_SA,ar,standard_dfm,2017:Q3,-0.05539264250299365,0.9851501498956517
exact,pre_advance,DELTA_SA,ar,standard_dfm,2017:Q4,-0.037013915996237746,0.948136233899414
exact,pre_advance,DELTA_SA,ar,standard_dfm,2018:Q1,-0.05713990329786253,0.8909963306015515
exact,pre_advance,DELTA_SA,ar,standard_dfm,2018:Q2,0.0201125289663193,0.9111088595678708
exact,pre_advance,DELTA_SA,ar,standard_dfm,2018:Q3,-0.004289904454946062,0.9068189551129248
exact,pre_advance,DELTA_SA,ar,standard_dfm,2019:Q1,0.30344092927060373,1.2102598843835284
exact,pre_advance,DELTA_SA,ar,standard_dfm,2019:Q2,-0.015309165599788734,1.1949507187837396
exact,pre_advance,DELTA_SA,ar,standard_dfm,2019:Q3,0.020240379630149036,1.2151910984138887
exact,pre_advance,DELTA_SA,ar,standard_dfm,2019:Q4,0.0030144011880495446,1.2182054996019382
exact,pre_advance,DELTA_SA,ar,standard_dfm,2020:Q1,0.06125186457488628,1.2794573641768245
exact,pre_advance,DELTA_SA,ar,standard_dfm,2020:Q2,-6.083904372079216,-4.804447007902391
exact,pre_advance,DELTA_SA,ar,standard_dfm,2020:Q3,6.470297668389885,1.6658506604874939
exact,pre_advance,DELTA_SA,ar,standard_dfm,2020:Q4,0.35567098464117214,2.021521645128666
exact,pre_advance,DELTA_SA,ar,standard_dfm,2021:Q1,-0.09810809691906655,1.9234135482095993
exact,pre_advance,DELTA_SA,ar,standard_dfm,2021:Q2,0.008375820439164225,1.9317893686487635
exact,pre_advance,DELTA_SA,ar,standard_dfm,2021:Q3,-0.0060161534274989215,1.9257732152212645
exact,pre_advance,DELTA_SA,ar,standard_dfm,2021:Q4,9.583413032162726e-05,1.9258690493515862
exact,pre_advance,DELTA_SA,ar,standard_dfm,2022:Q1,-0.2961123403271621,1.629756709024424
exact,pre_advance,DELTA_SA,ar,standard_dfm,2022:Q2,0.005088694565271071,1.634845403589695
exact,pre_advance,DELTA_SA,ar,standard_dfm,2022:Q3,-0.247679063020798,1.3871663405688972
exact,pre_advance,DELTA_SA,ar,standard_dfm,2022:Q4,-0.11652446681693462,1.2706418737519627
exact,pre_advance,DELTA_SA,ar,standard_dfm,2023:Q1,0.007134468142252815,1.2777763418942154
exact,pre_advance,DELTA_SA,ar,standard_dfm,2023:Q2,-0.14784468284664734,1.129931659047568
exact,pre_advance,DELTA_SA,ar,standard_dfm,2023:Q3,-0.022355969404468365,1.1075756896430997
exact,pre_advance,DELTA_SA,ar,standard_dfm,2023:Q4,-0.026358468148810432,1.0812172214942892
exact,pre_advance,DELTA_SA,ar,standard_dfm,2024:Q1,0.004387603203695051,1.0856048246979844
exact,pre_advance,DELTA_SA,ar,standard_dfm,2024:Q2,-0.006995616891798064,1.0786092078061862
exact,pre_advance,DELTA_SA,ar,standard_dfm,2024:Q3,0.007188809834182618,1.0857980176403688
exact,pre_advance,DELTA_SA,ar,standard_dfm,2024:Q4,-0.0007835474668220177,1.0850144701735467
exact,pre_advance,DELTA_SA,no_revision,ar,2005:Q1,0.15257503321613658,0.15257503321613658
exact,pre_advance,DELTA_SA,no_revision,ar,2005:Q2,-0.10304262774761302,0.049532405468523555
exact,pre_advance,DELTA_SA,no_revision,ar,2005:Q3,-0.03151683579611303,0.018015569672410525
exact,pre_advance,DELTA_SA,no_revision,ar,2005:Q4,0.17958946757420496,0.1976050372466155
exact,pre_advance,DELTA_SA,no_revision,ar,2006:Q1,0.22225097588053042,0.41985601312714593
exact,pre_advance,DELTA_SA,no_revision,ar,2006:Q2,0.1338214718146227,0.5536774849417686
exact,pre_advance,DELTA_SA,no_revision,ar,2006:Q3,0.2655324769569707,0.8192099618987393
exact,pre_advance,DELTA_SA,no_revision,ar,2006:Q4,-1.1280810824986391,-0.30887112059989985
exact,pre_advance,DELTA_SA,no_revision,ar,2007:Q1,0.36488258133290913,0.05601146073300928
exact,pre_advance,DELTA_SA,no_revision,ar,2007:Q2,-0.2101220628635298,-0.15411060213052052
exact,pre_advance,DELTA_SA,no_revision,ar,2007:Q3,0.5038879623481906,0.34977736021767003
exact,pre_advance,DELTA_SA,no_revision,ar,2007:Q4,-0.23194641324995732,0.11783094696771271
exact,pre_advance,DELTA_SA,no_revision,ar,2008:Q1,0.06565748592115798,0.18348843288887068
exact,pre_advance,DELTA_SA,no_revision,ar,2008:Q2,0.7051418869943866,0.8886303198832572
exact,pre_advance,DELTA_SA,no_revision,ar,2008:Q3,-0.8839041046210189,0.004726215262238376
exact,pre_advance,DELTA_SA,no_revision,ar,2008:Q4,-0.39399862829546173,-0.38927241303322335
exact,pre_advance,DELTA_SA,no_revision,ar,2009:Q1,-1.3203689037955737,-1.709641316828797
exact,pre_advance,DELTA_SA,no_revision,ar,2009:Q2,-0.36877932291984866,-2.0784206397486455
exact,pre_advance,DELTA_SA,no_revision,ar,2009:Q3,-0.31974831955083616,-2.3981689592994817
exact,pre_advance,DELTA_SA,no_revision,ar,2009:Q4,-0.2461874095178597,-2.6443563688173413
exact,pre_advance,DELTA_SA,no_revision,ar,2010:Q1,-0.012274663642203441,-2.656631032459545
exact,pre_advance,DELTA_SA,no_revision,ar,2010:Q2,0.10097637669884518,-2.5556546557606996
exact,pre_advance,DELTA_SA,no_revision,ar,2010:Q3,-0.41001530272678194,-2.9656699584874815
exact,pre_advance,DELTA_SA,no_revision,ar,2010:Q4,-0.33708017745408314,-3.3027501359415647
exact,pre_advance,DELTA_SA,no_revision,ar,2011:Q1,-0.05273638935335863,-3.3554865252949235
exact,pre_advance,DELTA_SA,no_revision,ar,2011:Q2,-0.0864949621817803,-3.4419814874767036
exact,pre_advance,DELTA_SA,no_revision,ar,2011:Q3,0.03822954602021156,-3.403751941456492
exact,pre_advance,DELTA_SA,no_revision,ar,2011:Q4,-0.1042486389810256,-3.5080005804375176
exact,pre_advance,DELTA_SA,no_revision,ar,2012:Q1,-0.12270345028699549,-3.6307040307245133
exact,pre_advance,DELTA_SA,no_revision,ar,2012:Q2,-0.05124300972150874,-3.681947040446022
exact,pre_advance,DELTA_SA,no_revision,ar,2012:Q3,0.19803121584843814,-3.483915824597584
exact,pre_advance,DELTA_SA,no_revision,ar,2012:Q4,0.06160444841889918,-3.4223113761786847
exact,pre_advance,DELTA_SA,no_revision,ar,2013:Q1,-0.13839352919058448,-3.560704905369269
exact,pre_advance,DELTA_SA,no_revision,ar,2013:Q2,-0.010665904843470964,-3.5713708102127404
exact,pre_advance,DELTA_SA,no_revision,ar,2013:Q3,0.49085393179229264,-3.0805168784204477
exact,pre_advance,DELTA_SA,no_revision,ar,2013:Q4,-0.8147882022650561,-3.895305080685504
exact,pre_advance,DELTA_SA,no_revision,ar,2014:Q1,0.6728261778290336,-3.22247890285647
exact,pre_advance,DELTA_SA,no_revision,ar,2014:Q2,-0.3153905835886226,-3.537869486445093
exact,pre_advance,DELTA_SA,no_revision,ar,2014:Q3,0.05736992828325174,-3.480499558161841
exact,pre_advance,DELTA_SA,no_revision,ar,2014:Q4,-0.18045818425062124,-3.6609577424124624
exact,pre_advance,DELTA_SA,no_revision,ar,2015:Q1,0.30424364925329495,-3.3567140931591677
exact,pre_advance,DELTA_SA,no_revision,ar,2015:Q2,-1.0249249122593762,-4.381639005418544
exact,pre_advance,DELTA_SA,no_revision,ar,2015:Q3,0.3345827492334456,-4.0470562561850985
exact,pre_advance,DELTA_SA,no_revision,ar,2015:Q4,0.09676443992777004,-3.9502918162573284
exact,pre_advance,DELTA_SA,no_revision,ar,2016:Q1,0.09029065158363185,-3.8600011646736965
exact,pre_advance,DELTA_SA,no_revision,ar,2016:Q2,-0.1360297525459644,-3.996030917219661
exact,pre_advance,DELTA_SA,no_revision,ar,2016:Q3,0.021175007572158712,-3.974855909647502
exact,pre_advance,DELTA_SA,no_revision,ar,2016:Q4,-0.02734587565242416,-4.002201785299926
exact,pre_advance,DELTA_SA,no_revision,ar,2017:Q1,0.056295362083760514,-3.945906423216165
exact,pre_advance,DELTA_SA,no_revision,ar,2017:Q2,0.1998229027002102,-3.746083520515955
exact,pre_advance,DELTA_SA,no_revision,ar,2017:Q3,0.09239460605426397,-3.653688914461691
exact,pre_advance,DELTA_SA,no_revision,ar,2017:Q4,-0.035699658663772574,-3.6893885731254636
exact,pre_advance,DELTA_SA,no_revision,ar,2018:Q1,-0.012703611098869368,-3.702092184224333
exact,pre_advance,DELTA_SA,no_revision,ar,2018:Q2,-0.0030213569949030655,-3.705113541219236
exact,pre_advance,DELTA_SA,no_revision,ar,2018:Q3,-0.0032310710133240618,-3.70834461223256
exact,pre_advance,DELTA_SA,no_revision,ar,2019:Q1,-0.3134694480182471,-4.021814060250807
exact,pre_advance,DELTA_SA,no_revision,ar,2019:Q2,0.00020861065790184213,-4.021605449592905
exact,pre_advance,DELTA_SA,no_revision,ar,2019:Q3,0.020795440927072837,-4.000810008665832
exact,pre_advance,DELTA_SA,no_revision,ar,2019:Q4,-0.022807340587339162,-4.023617349253171
exact,pre_advance,DELTA_SA,no_revision,ar,2020:Q1,-0.04374626691208146,-4.067363616165252
exact,pre_advance,DELTA_SA,no_revision,ar,2020:Q2,0.4848885887598303,-3.582475027405422
exact,pre_advance,DELTA_SA,no_revision,ar,2020:Q3,-6.6030936783793335,-10.185568705784755
exact,pre_advance,DELTA_SA,no_revision,ar,2020:Q4,-0.3494364241901803,-10.535005129974936
exact,pre_advance,DELTA_SA,no_revision,ar,2021:Q1,-0.010481372036795358,-10.54548650201173
exact,pre_advance,DELTA_SA,no_revision,ar,2021:Q2,-0.005674643654305938,-10.551161145666036
exact,pre_advance,DELTA_SA,no_revision,ar,2021:Q3,0.00428446848418562,-10.546876677181851
exact,pre_advance,DELTA_SA,no_revision,ar,2021:Q4,0.009636975615624089,-10.537239701566227
exact,pre_advance,DELTA_SA,no_revision,ar,2022:Q1,-0.05376352283472801,-10.591003224400955
exact,pre_advance,DELTA_SA,no_revision,ar,2022:Q2,0.01747374549873487,-10.57352947890222
exact,pre_advance,DELTA_SA,no_revision,ar,2022:Q3,0.038912176234116996,-10.534617302668103
exact,pre_advance,DELTA_SA,no_revision,ar,2022:Q4,-0.058622083054108,-10.59323938572221
exact,pre_advance,DELTA_SA,no_revision,ar,2023:Q1,0.02740533844308022,-10.56583404727913
exact,pre_advance,DELTA_SA,no_revision,ar,2023:Q2,-0.06172819389498699,-10.627562241174118
exact,pre_advance,DELTA_SA,no_revision,ar,2023:Q3,0.03194758936873526,-10.595614651805382
exact,pre_advance,DELTA_SA,no_revision,ar,2023:Q4,-0.03690159867203891,-10.63251625047742
exact,pre_advance,DELTA_SA,no_revision,ar,2024:Q1,-0.07155817897030346,-10.704074429447724
exact,pre_advance,DELTA_SA,no_revision,ar,2024:Q2,0.009033581491366181,-10.695040847956358
exact,pre_advance,DELTA_SA,no_revision,ar,2024:Q3,-0.00727617350536104,-10.702317021461718
exact,pre_advance,DELTA_SA,no_revision,ar,2024:Q4,0.008788760628669104,-10.69352826083305
exact,pre_advance,DELTA_SA,no_revision,bridge,2005:Q1,0.13872897581163235,0.13872897581163235
exact,pre_advance,DELTA_SA,no_revision,bridge,2005:Q2,-0.10469290694489683,0.03403606886673552
exact,pre_advance,DELTA_SA,no_revision,bridge,2005:Q3,-0.15040667599317942,-0.1163706071264439
exact,pre_advance,DELTA_SA,no_revision,bridge,2005:Q4,0.17620579090103922,0.05983518377459532
exact,pre_advance,DELTA_SA,no_revision,bridge,2006:Q1,0.1738090911959969,0.23364427497059223
exact,pre_advance,DELTA_SA,no_revision,bridge,2006:Q2,-0.0033041605851341083,0.23034011438545812
exact,pre_advance,DELTA_SA,no_revision,bridge,2006:Q3,0.2012410313195581,0.4315811457050162
exact,pre_advance,DELTA_SA,no_revision,bridge,2006:Q4,-0.7825018916435365,-0.35092074593852024
exact,pre_advance,DELTA_SA,no_revision,bridge,2007:Q1,0.35705855019610977,0.00613780425758953
exact,pre_advance,DELTA_SA,no_revision,bridge,2007:Q2,-0.14115574401889486,-0.13501793976130533
exact,pre_advance,DELTA_SA,no_revision,bridge,2007:Q3,0.56369170324296,0.4286737634816547
exact,pre_advance,DELTA_SA,no_revision,bridge,2007:Q4,-0.2441442698193718,0.1845294936622829
exact,pre_advance,DELTA_SA,no_revision,bridge,2008:Q1,0.061312887817197535,0.24584238147948045
exact,pre_advance,DELTA_SA,no_revision,bridge,2008:Q2,0.13073477563098335,0.3765771571104638
exact,pre_advance,DELTA_SA,no_revision,bridge,2008:Q3,-0.2648840595619838,0.11169309754848
exact,pre_advance,DELTA_SA,no_revision,bridge,2008:Q4,3.556614069040292,3.6683071665887717
exact,pre_advance,DELTA_SA,no_revision,bridge,2009:Q1,-7.419249105638873,-3.7509419390501018
exact,pre_advance,DELTA_SA,no_revision,bridge,2009:Q2,-0.24196561609657566,-3.9929075551466773
exact,pre_advance,DELTA_SA,no_revision,bridge,2009:Q3,-0.3879792115458852,-4.380886766692562
exact,pre_advance,DELTA_SA,no_revision,bridge,2009:Q4,-0.2810558607026314,-4.661942627395193
exact,pre_advance,DELTA_SA,no_revision,bridge,2010:Q1,-0.10094736583874442,-4.762889993233938
exact,pre_advance,DELTA_SA,no_revision,bridge,2010:Q2,0.007393922819620702,-4.755496070414317
exact,pre_advance,DELTA_SA,no_revision,bridge,2010:Q3,-0.31509313295305846,-5.070589203367375
exact,pre_advance,DELTA_SA,no_revision,bridge,2010:Q4,-0.9034792141083648,-5.97406841747574
exact,pre_advance,DELTA_SA,no_revision,bridge,2011:Q1,-0.045895162760471446,-6.019963580236212
exact,pre_advance,DELTA_SA,no_revision,bridge,2011:Q2,-0.191513179749431,-6.211476759985643
exact,pre_advance,DELTA_SA,no_revision,bridge,2011:Q3,-0.08325527853527909,-6.294732038520921
exact,pre_advance,DELTA_SA,no_revision,bridge,2011:Q4,-0.0413702189655959,-6.336102257486517
exact,pre_advance,DELTA_SA,no_revision,bridge,2012:Q1,-0.15859116333028872,-6.494693420816805
exact,pre_advance,DELTA_SA,no_revision,bridge,2012:Q2,-0.10006699182705964,-6.594760412643865
exact,pre_advance,DELTA_SA,no_revision,bridge,2012:Q3,0.2058062853711069,-6.388954127272758
exact,pre_advance,DELTA_SA,no_revision,bridge,2012:Q4,0.06587583351807785,-6.32307829375468
exact,pre_advance,DELTA_SA,no_revision,bridge,2013:Q1,-0.051731328422555005,-6.374809622177235
exact,pre_advance,DELTA_SA,no_revision,bridge,2013:Q2,0.014831071369017845,-6.359978550808217
exact,pre_advance,DELTA_SA,no_revision,bridge,2013:Q3,0.42564500797830807,-5.934333542829909
exact,pre_advance,DELTA_SA,no_revision,bridge,2013:Q4,-1.263148324259157,-7.197481867089065
exact,pre_advance,DELTA_SA,no_revision,bridge,2014:Q1,0.7569160071134248,-6.44056585997564
exact,pre_advance,DELTA_SA,no_revision,bridge,2014:Q2,-0.15264110705323453,-6.593206967028875
exact,pre_advance,DELTA_SA,no_revision,bridge,2014:Q3,0.07832510899577853,-6.514881858033097
exact,pre_advance,DELTA_SA,no_revision,bridge,2014:Q4,-0.13705782032158967,-6.651939678354687
exact,pre_advance,DELTA_SA,no_revision,bridge,2015:Q1,0.40146977672373263,-6.250469901630954
exact,pre_advance,DELTA_SA,no_revision,bridge,2015:Q2,-0.4979232940191818,-6.748393195650135
exact,pre_advance,DELTA_SA,no_revision,bridge,2015:Q3,0.3409963676186283,-6.407396828031507
exact,pre_advance,DELTA_SA,no_revision,bridge,2015:Q4,0.09722798727919321,-6.310168840752314
exact,pre_advance,DELTA_SA,no_revision,bridge,2016:Q1,0.06159728403676126,-6.248571556715553
exact,pre_advance,DELTA_SA,no_revision,bridge,2016:Q2,-0.14301016971515193,-6.391581726430704
exact,pre_advance,DELTA_SA,no_revision,bridge,2016:Q3,0.029786376038173544,-6.361795350392531
exact,pre_advance,DELTA_SA,no_revision,bridge,2016:Q4,-0.02833064064415696,-6.390125991036688
exact,pre_advance,DELTA_SA,no_revision,bridge,2017:Q1,0.06242395788596877,-6.327702033150719
exact,pre_advance,DELTA_SA,no_revision,bridge,2017:Q2,0.17471543567711162,-6.152986597473608
exact,pre_advance,DELTA_SA,no_revision,bridge,2017:Q3,0.0939170825873698,-6.059069514886238
exact,pre_advance,DELTA_SA,no_revision,bridge,2017:Q4,-0.04823205535659521,-6.107301570242833
exact,pre_advance,DELTA_SA,no_revision,bridge,2018:Q1,-0.013729137375175407,-6.121030707618009
exact,pre_advance,DELTA_SA,no_revision,bridge,2018:Q2,0.021574368172287896,-6.099456339445721
exact,pre_advance,DELTA_SA,no_revision,bridge,2018:Q3,-0.006093663891220615,-6.105550003336942
exact,pre_advance,DELTA_SA,no_revision,bridge,2019:Q1,-0.6157461141295992,-6.721296117466542
exact,pre_advance,DELTA_SA,no_revision,bridge,2019:Q2,-0.00452729520163783,-6.72582341266818
exact,pre_advance,DELTA_SA,no_revision,bridge,2019:Q3,0.03613660574387857,-6.689686806924301
exact,pre_advance,DELTA_SA,no_revision,bridge,2019:Q4,-0.06731099954726309,-6.7569978064715635
exact,pre_advance,DELTA_SA,no_revision,bridge,2020:Q1,0.0006398140758081539,-6.756357992395755
exact,pre_advance,DELTA_SA,no_revision,bridge,2020:Q2,-2.609151252294258,-9.365509244690013
exact,pre_advance,DELTA_SA,no_revision,bridge,2020:Q3,-5.185446373028756,-14.55095561771877
exact,pre_advance,DELTA_SA,no_revision,bridge,2020:Q4,0.0005276107390580565,-14.550428006979713
exact,pre_advance,DELTA_SA,no_revision,bridge,2021:Q1,-0.023844432230076665,-14.574272439209789
exact,pre_advance,DELTA_SA,no_revision,bridge,2021:Q2,-0.04144876016875534,-14.615721199378545
exact,pre_advance,DELTA_SA,no_revision,bridge,2021:Q3,0.007579934344672388,-14.608141265033872
exact,pre_advance,DELTA_SA,no_revision,bridge,2021:Q4,0.0077466082094004565,-14.600394656824472
exact,pre_advance,DELTA_SA,no_revision,bridge,2022:Q1,-0.08791868219042262,-14.688313339014895
exact,pre_advance,DELTA_SA,no_revision,bridge,2022:Q2,6.44424469267435e-05,-14.688248896567968
exact,pre_advance,DELTA_SA,no_revision,bridge,2022:Q3,0.048020326210005626,-14.640228570357962
exact,pre_advance,DELTA_SA,no_revision,bridge,2022:Q4,-0.1326408589973449,-14.772869429355307
exact,pre_advance,DELTA_SA,no_revision,bridge,2023:Q1,0.030130959156365315,-14.742738470198942
exact,pre_advance,DELTA_SA,no_revision,bridge,2023:Q2,-0.27456811467170683,-15.01730658487065
exact,pre_advance,DELTA_SA,no_revision,bridge,2023:Q3,0.0028127103554890787,-15.01449387451516
exact,pre_advance,DELTA_SA,no_revision,bridge,2023:Q4,-0.09179889922938775,-15.10629277374455
exact,pre_advance,DELTA_SA,no_revision,bridge,2024:Q1,0.011523780206794065,-15.094768993537755
exact,pre_advance,DELTA_SA,no_revision,bridge,2024:Q2,-0.031865927631838604,-15.126634921169593
exact,pre_advance,DELTA_SA,no_revision,bridge,2024:Q3,-0.005197255911791921,-15.131832177081385
exact,pre_advance,DELTA_SA,no_revision,bridge,2024:Q4,0.00864511267492932,-15.123187064406457
exact,pre_advance,DELTA_SA,no_revision,indicator_revision_only_dfm_kalman_em,2005:Q1,0.0,0.0
exact,pre_advance,DELTA_SA,no_revision,indicator_revision_only_dfm_kalman_em,2005:Q2,0.0,0.0
exact,pre_advance,DELTA_SA,no_revision,indicator_revision_only_dfm_kalman_em,2005:Q3,0.0,0.0
exact,pre_advance,DELTA_SA,no_revision,indicator_revision_only_dfm_kalman_em,2005:Q4,0.0,0.0
exact,pre_advance,DELTA_SA,no_revision,indicator_revision_only_dfm_kalman_em,2006:Q1,0.0,0.0
exact,pre_advance,DELTA_SA,no_revision,indicator_revision_only_dfm_kalman_em,2006:Q2,0.0,0.0
exact,pre_advance,DELTA_SA,no_revision,indicator_revision_only_dfm_kalman_em,2006:Q3,0.0,0.0
exact,pre_advance,DELTA_SA,no_revision,indicator_revision_only_dfm_kalman_em,2006:Q4,0.0,0.0
exact,pre_advance,DELTA_SA,no_revision,indicator_revision_only_dfm_kalman_em,2007:Q1,0.0,0.0
exact,pre_advance,DELTA_SA,no_revision,indicator_revision_only_dfm_kalman_em,2007:Q2,0.0,0.0
exact,pre_advance,DELTA_SA,no_revision,indicator_revision_only_dfm_kalman_em,2007:Q3,0.0,0.0
exact,pre_advance,DELTA_SA,no_revision,indicator_revision_only_dfm_kalman_em,2007:Q4,0.0,0.0
exact,pre_advance,DELTA_SA,no_revision,indicator_revision_only_dfm_kalman_em,2008:Q1,0.0,0.0
exact,pre_advance,DELTA_SA,no_revision,indicator_revision_only_dfm_kalman_em,2008:Q2,0.0,0.0
exact,pre_advance,DELTA_SA,no_revision,indicator_revision_only_dfm_kalman_em,2008:Q3,0.0,0.0
exact,pre_advance,DELTA_SA,no_revision,indicator_revision_only_dfm_kalman_em,2008:Q4,0.0,0.0
exact,pre_advance,DELTA_SA,no_revision,indicator_revision_only_dfm_kalman_em,2009:Q1,0.0,0.0
exact,pre_advance,DELTA_SA,no_revision,indicator_revision_only_dfm_kalman_em,2009:Q2,0.0,0.0
exact,pre_advance,DELTA_SA,no_revision,indicator_revision_only_dfm_kalman_em,2009:Q3,0.0,0.0
exact,pre_advance,DELTA_SA,no_revision,indicator_revision_only_dfm_kalman_em,2009:Q4,0.0,0.0
exact,pre_advance,DELTA_SA,no_revision,indicator_revision_only_dfm_kalman_em,2010:Q1,0.0,0.0
exact,pre_advance,DELTA_SA,no_revision,indicator_revision_only_dfm_kalman_em,2010:Q2,0.0,0.0
exact,pre_advance,DELTA_SA,no_revision,indicator_revision_only_dfm_kalman_em,2010:Q3,0.0,0.0
exact,pre_advance,DELTA_SA,no_revision,indicator_revision_only_dfm_kalman_em,2010:Q4,0.0,0.0
exact,pre_advance,DELTA_SA,no_revision,indicator_revision_only_dfm_kalman_em,2011:Q1,0.0,0.0
exact,pre_advance,DELTA_SA,no_revision,indicator_revision_only_dfm_kalman_em,2011:Q2,0.0,0.0
exact,pre_advance,DELTA_SA,no_revision,indicator_revision_only_dfm_kalman_em,2011:Q3,0.0,0.0
exact,pre_advance,DELTA_SA,no_revision,indicator_revision_only_dfm_kalman_em,2011:Q4,0.0,0.0
exact,pre_advance,DELTA_SA,no_revision,indicator_revision_only_dfm_kalman_em,2012:Q1,0.0,0.0
exact,pre_advance,DELTA_SA,no_revision,indicator_revision_only_dfm_kalman_em,2012:Q2,0.0,0.0
exact,pre_advance,DELTA_SA,no_revision,indicator_revision_only_dfm_kalman_em,2012:Q3,0.0,0.0
exact,pre_advance,DELTA_SA,no_revision,indicator_revision_only_dfm_kalman_em,2012:Q4,0.0,0.0
exact,pre_advance,DELTA_SA,no_revision,indicator_revision_only_dfm_kalman_em,2013:Q1,0.0,0.0
exact,pre_advance,DELTA_SA,no_revision,indicator_revision_only_dfm_kalman_em,2013:Q2,0.0,0.0
exact,pre_advance,DELTA_SA,no_revision,indicator_revision_only_dfm_kalman_em,2013:Q3,0.0,0.0
exact,pre_advance,DELTA_SA,no_revision,indicator_revision_only_dfm_kalman_em,2013:Q4,0.0,0.0
exact,pre_advance,DELTA_SA,no_revision,indicator_revision_only_dfm_kalman_em,2014:Q1,0.0,0.0
exact,pre_advance,DELTA_SA,no_revision,indicator_revision_only_dfm_kalman_em,2014:Q2,0.0,0.0
exact,pre_advance,DELTA_SA,no_revision,indicator_revision_only_dfm_kalman_em,2014:Q3,0.0,0.0
exact,pre_advance,DELTA_SA,no_revision,indicator_revision_only_dfm_kalman_em,2014:Q4,0.0,0.0
exact,pre_advance,DELTA_SA,no_revision,indicator_revision_only_dfm_kalman_em,2015:Q1,0.0,0.0
exact,pre_advance,DELTA_SA,no_revision,indicator_revision_only_dfm_kalman_em,2015:Q2,0.0,0.0
exact,pre_advance,DELTA_SA,no_revision,indicator_revision_only_dfm_kalman_em,2015:Q3,0.0,0.0
exact,pre_advance,DELTA_SA,no_revision,indicator_revision_only_dfm_kalman_em,2015:Q4,0.0,0.0
exact,pre_advance,DELTA_SA,no_revision,indicator_revision_only_dfm_kalman_em,2016:Q1,0.0,0.0
exact,pre_advance,DELTA_SA,no_revision,indicator_revision_only_dfm_kalman_em,2016:Q2,0.0,0.0
exact,pre_advance,DELTA_SA,no_revision,indicator_revision_only_dfm_kalman_em,2016:Q3,0.0,0.0
exact,pre_advance,DELTA_SA,no_revision,indicator_revision_only_dfm_kalman_em,2016:Q4,0.0,0.0
exact,pre_advance,DELTA_SA,no_revision,indicator_revision_only_dfm_kalman_em,2017:Q1,0.0,0.0
exact,pre_advance,DELTA_SA,no_revision,indicator_revision_only_dfm_kalman_em,2017:Q2,0.0,0.0
exact,pre_advance,DELTA_SA,no_revision,indicator_revision_only_dfm_kalman_em,2017:Q3,0.0,0.0
exact,pre_advance,DELTA_SA,no_revision,indicator_revision_only_dfm_kalman_em,2017:Q4,0.0,0.0
exact,pre_advance,DELTA_SA,no_revision,indicator_revision_only_dfm_kalman_em,2018:Q1,0.0,0.0
exact,pre_advance,DELTA_SA,no_revision,indicator_revision_only_dfm_kalman_em,2018:Q2,0.0,0.0
exact,pre_advance,DELTA_SA,no_revision,indicator_revision_only_dfm_kalman_em,2018:Q3,0.0,0.0
exact,pre_advance,DELTA_SA,no_revision,indicator_revision_only_dfm_kalman_em,2019:Q1,0.0,0.0
exact,pre_advance,DELTA_SA,no_revision,indicator_revision_only_dfm_kalman_em,2019:Q2,0.0,0.0
exact,pre_advance,DELTA_SA,no_revision,indicator_revision_only_dfm_kalman_em,2019:Q3,0.0,0.0
exact,pre_advance,DELTA_SA,no_revision,indicator_revision_only_dfm_kalman_em,2019:Q4,0.0,0.0
exact,pre_advance,DELTA_SA,no_revision,indicator_revision_only_dfm_kalman_em,2020:Q1,0.0,0.0
exact,pre_advance,DELTA_SA,no_revision,indicator_revision_only_dfm_kalman_em,2020:Q2,0.0,0.0
exact,pre_advance,DELTA_SA,no_revision,indicator_revision_only_dfm_kalman_em,2020:Q3,0.0,0.0
exact,pre_advance,DELTA_SA,no_revision,indicator_revision_only_dfm_kalman_em,2020:Q4,0.0,0.0
exact,pre_advance,DELTA_SA,no_revision,indicator_revision_only_dfm_kalman_em,2021:Q1,0.0,0.0
exact,pre_advance,DELTA_SA,no_revision,indicator_revision_only_dfm_kalman_em,2021:Q2,0.0,0.0
exact,pre_advance,DELTA_SA,no_revision,indicator_revision_only_dfm_kalman_em,2021:Q3,0.0,0.0
exact,pre_advance,DELTA_SA,no_revision,indicator_revision_only_dfm_kalman_em,2021:Q4,0.0,0.0
exact,pre_advance,DELTA_SA,no_revision,indicator_revision_only_dfm_kalman_em,2022:Q1,0.0,0.0
exact,pre_advance,DELTA_SA,no_revision,indicator_revision_only_dfm_kalman_em,2022:Q2,0.0,0.0
exact,pre_advance,DELTA_SA,no_revision,indicator_revision_only_dfm_kalman_em,2022:Q3,0.0,0.0
exact,pre_advance,DELTA_SA,no_revision,indicator_revision_only_dfm_kalman_em,2022:Q4,0.0,0.0
exact,pre_advance,DELTA_SA,no_revision,indicator_revision_only_dfm_kalman_em,2023:Q1,0.0,0.0
exact,pre_advance,DELTA_SA,no_revision,indicator_revision_only_dfm_kalman_em,2023:Q2,0.0,0.0
exact,pre_advance,DELTA_SA,no_revision,indicator_revision_only_dfm_kalman_em,2023:Q3,0.0,0.0
exact,pre_advance,DELTA_SA,no_revision,indicator_revision_only_dfm_kalman_em,2023:Q4,0.0,0.0
exact,pre_advance,DELTA_SA,no_revision,indicator_revision_only_dfm_kalman_em,2024:Q1,0.0,0.0
exact,pre_advance,DELTA_SA,no_revision,indicator_revision_only_dfm_kalman_em,2024:Q2,0.0,0.0
exact,pre_advance,DELTA_SA,no_revision,indicator_revision_only_dfm_kalman_em,2024:Q3,0.0,0.0
exact,pre_advance,DELTA_SA,no_revision,indicator_revision_only_dfm_kalman_em,2024:Q4,0.0,0.0
exact,pre_advance,DELTA_SA,no_revision,joint_indicator_revision_dfm_full_kalman_em,2005:Q1,0.15601478487072903,0.15601478487072903
exact,pre_advance,DELTA_SA,no_revision,joint_indicator_revision_dfm_full_kalman_em,2005:Q2,-0.2285522690230173,-0.07253748415228828
exact,pre_advance,DELTA_SA,no_revision,joint_indicator_revision_dfm_full_kalman_em,2005:Q3,0.21459806167862638,0.1420605775263381
exact,pre_advance,DELTA_SA,no_revision,joint_indicator_revision_dfm_full_kalman_em,2005:Q4,0.10399086209448369,0.2460514396208218
exact,pre_advance,DELTA_SA,no_revision,joint_indicator_revision_dfm_full_kalman_em,2006:Q1,0.2332634345180386,0.4793148741388604
exact,pre_advance,DELTA_SA,no_revision,joint_indicator_revision_dfm_full_kalman_em,2006:Q2,-0.36380191015320784,0.11551296398565258
exact,pre_advance,DELTA_SA,no_revision,joint_indicator_revision_dfm_full_kalman_em,2006:Q3,0.012708237302388403,0.128221201288041
