haminh109/Revision-Aware-DFM/outputs/full_state_space_release_revision_dfm/sensitivity_midas_lags4_max_iter2_journal_evidence/density_point_records.csv
model_id,timing_mode,checkpoint_id,outcome_id,forecast_origin,forecast_origin_date,target_quarter,forecast_value,realized_value,forecast_error,calibration_n,predictive_variance,predictive_sd,log_score,crps,pit,prob_below_zero,prob_large_positive_revision_gt_0p2,prob_large_negative_revision_lt_minus_0p2,realized_below_zero,realized_large_positive_revision_gt_0p2,realized_large_negative_revision_lt_minus_0p2,lower_68,upper_68,covered_68,lower_90,upper_90,covered_90,density_method
indicator_revision_only_dfm_kalman_em,exact,pre_advance,A,2024:Q1:pre_advance:exact,2024-04-24,2024:Q1,2.391432945597634,1.5897,0.8017329455976341,0,7.909606377476431,2.812402243185784,-1.9936101403745183,0.7478102166076614,0.38779506081409676,0.197574482465142,0.7820699996621522,0.17841287961286756,False,True,False,-0.42096929758815005,5.203835188783418,True,-2.234557084552959,7.017422975748227,True,model_implied_state_space
indicator_revision_only_dfm_kalman_em,exact,pre_advance,A,2024:Q2:pre_advance:exact,2024-07-24,2024:Q2,3.0190924828807173,2.8401,0.1789924828807172,1,8.384546472074591,2.895608135102986,-1.9840442431689556,0.6811017488215584,0.4753550149478598,0.14855627866278287,0.8348662658178985,0.1331302438788685,False,True,False,0.12348434777773143,5.914700617983703,True,-1.743759060373618,7.7819440261350525,True,model_implied_state_space
indicator_revision_only_dfm_kalman_em,exact,pre_advance,A,2024:Q3:pre_advance:exact,2024-10-29,2024:Q3,2.205412668488058,2.8248,-0.619387331511942,2,8.336860703023502,2.887362239661574,-2.0022905994693585,0.7275667389965248,0.5849279154632129,0.22248853370322788,0.7563308036374063,0.20239893372236695,False,True,False,-0.681949571173516,5.092774908149632,True,-2.543875583742008,6.954700920718125,True,model_implied_state_space
indicator_revision_only_dfm_kalman_em,exact,pre_advance,A,2024:Q4:pre_advance:exact,2025-01-29,2024:Q4,2.5145709718275087,2.2512,0.2633709718275088,3,8.295976687516998,2.8802737174645396,-1.98100446052013,0.6827063504099854,0.4635716630937549,0.19132283239914707,0.7891842847911601,0.17297608491161284,False,True,False,-0.365702745637031,5.394844689292048,True,-2.223057698957039,7.252199642612057,True,model_implied_state_space
indicator_revision_only_dfm_kalman_em,exact,pre_second,S,2024:Q1:pre_second:exact,2024-05-29,2024:Q1,1.8475306797974784,1.2492,0.5983306797974781,0,5.334373330816941,2.3096262318429233,-1.7895801595849636,0.6012418771957782,0.39779465578578277,0.21187676029571312,0.7621798807678555,0.18766859375905798,False,True,False,-0.46209555204544484,4.157156911640402,True,-1.951466404551616,5.6465277641465725,True,model_implied_state_space
indicator_revision_only_dfm_kalman_em,exact,pre_second,S,2024:Q2:pre_second:exact,2024-08-28,2024:Q2,2.815124217064797,2.9514,-0.1362757829352028,1,5.309210401661814,2.3041723897447026,-1.7554090453608033,0.5416879584916401,0.5235809151680506,0.11090095960096005,0.871802207899714,0.0953434550455344,False,True,False,0.5109518273200946,5.1192966068095,True,-0.9749020953282179,6.605150529457813,True,model_implied_state_space
indicator_revision_only_dfm_kalman_em,exact,pre_second,S,2024:Q3:pre_second:exact,2024-11-26,2024:Q3,2.6016903818090613,2.8336,-0.2319096181909388,2,5.284448341298098,2.2987928008626826,-1.7564113611229564,0.5465419927474902,0.5401784178893496,0.12886688392392517,0.8519334103618292,0.11146652011311928,False,True,False,0.30289758094637875,4.900483182671744,True,-1.1794872942998555,6.382868057917978,True,model_implied_state_space
indicator_revision_only_dfm_kalman_em,exact,pre_second,S,2024:Q4:pre_second:exact,2025-02-26,2024:Q4,2.3487728220334714,2.3451,0.0036728220334714,3,5.2548691586605685,2.2923501387572904,-1.7485173695260507,0.5357130611629772,0.49936081170765706,0.15277280393578363,0.825715033416992,0.13309913749045496,False,True,False,0.05642268327618094,4.641122960790762,True,-1.4218076179441685,6.119353262011112,True,model_implied_state_space
indicator_revision_only_dfm_kalman_em,exact,pre_third,T,2024:Q1:pre_third:exact,2024-06-26,2024:Q1,1.6339130021798278,1.4095,0.2244130021798278,0,4.115279238737196,2.0286151036451434,-1.6324106850923892,0.4839709773107943,0.45595735819255023,0.21028500524717625,0.76016806979127,0.18299182627568197,False,True,False,-0.3947021014653156,3.662528105824971,True,-1.702861908739423,4.970687913099079,True,model_implied_state_space
indicator_revision_only_dfm_kalman_em,exact,pre_third,T,2024:Q2:pre_third:exact,2024-09-25,2024:Q2,2.880384880454009,2.9895,-0.1091151195459909,1,4.093409614894478,2.023217639033052,-1.6250819701353718,0.4751629027694576,0.5215051217176674,0.07727168201098451,0.9073833967547343,0.06393969366823866,False,True,False,0.857167241420957,4.903602519487061,True,-0.44751199122170116,6.20828175212972,True,model_implied_state_space
indicator_revision_only_dfm_kalman_em,exact,pre_third,T,2024:Q3:pre_third:exact,2024-12-18,2024:Q3,2.6862622243219456,3.073,-0.3867377756780543,2,4.658334132136503,2.1583174308095883,-1.7043210885835611,0.5319599328818678,0.5711037187100997,0.10663767643671639,0.8753280912667862,0.09056657402679494,False,True,False,0.5279447935123573,4.844579655131534,True,-0.8638540298577886,6.236378478501679,True,model_implied_state_space
indicator_revision_only_dfm_kalman_em,exact,pre_third,T,2024:Q4:pre_third:exact,2025-03-26,2024:Q4,2.3589547156559663,2.4495,-0.0905452843440337,3,4.632740883984384,2.1523802833106385,-1.6863977092695845,0.5045198143762655,0.5167775607244754,0.1365448845649912,0.8420827153757309,0.11724044288559944,False,True,False,0.2065744323453278,4.511334998966605,True,-1.1813957999263747,5.899305231238307,True,model_implied_state_space
indicator_revision_only_dfm_kalman_em,pseudo,pre_advance,A,2024:Q1:pre_advance:pseudo,2024-04-30,2024:Q1,2.396698038689583,1.5897,0.806998038689583,0,7.909526210977531,2.8123879908322627,-1.994140922296333,0.7489926584869719,0.38707757527902703,0.19705342353412,0.7826220716317058,0.1779235723344463,False,True,False,-0.4156899521426798,5.2090860295218455,True,-2.229268548425628,7.022664625804794,True,model_implied_state_space
indicator_revision_only_dfm_kalman_em,pseudo,pre_advance,A,2024:Q2:pre_advance:pseudo,2024-07-31,2024:Q2,2.9103395186810825,2.8401,0.0702395186810824,1,8.38346524038058,2.8954214270776855,-1.9823634495710079,0.6773251801796105,0.49032307858945756,0.15741175887460412,0.8253834160303365,0.1413605044130498,False,True,False,0.014918091603397077,5.805760945758768,True,-1.8522049172006563,7.672883954562821,True,model_implied_state_space
indicator_revision_only_dfm_kalman_em,pseudo,pre_advance,A,2024:Q3:pre_advance:pseudo,2024-10-31,2024:Q3,2.218128687984078,2.8248,-0.6066713120159224,2,8.336940577959032,2.8873760714460164,-2.0013601390811564,0.725431680522159,0.5832097282703423,0.22117941495788632,0.7577080558030106,0.20116053384991592,False,True,False,-0.6692473834619386,5.105504759430094,True,-2.531182315506795,6.967439691474951,True,model_implied_state_space
indicator_revision_only_dfm_kalman_em,pseudo,pre_advance,A,2024:Q4:pre_advance:pseudo,2025-01-31,2024:Q4,2.5209291320428937,2.2512,0.2697291320428938,3,8.295965427701718,2.8802717628206054,-1.981208075773746,0.6831747104816553,0.46269474207541744,0.1907216594874371,0.7898215262027205,0.17241166696466523,False,True,False,-0.35934263077771167,5.401200894863499,True,-2.216696323638489,7.2585545877242765,True,model_implied_state_space
indicator_revision_only_dfm_kalman_em,pseudo,pre_second,S,2024:Q1:pre_second:pseudo,2024-05-31,2024:Q1,1.8473934934774157,1.2492,0.5981934934774156,0,5.334343583402401,2.309619791957629,-1.78956217258496,0.6012125025034735,0.39781729163161617,0.21189332255517054,0.7621621223708973,0.18768392478004534,False,True,False,-0.46222629848021324,4.157013285435045,True,-1.9515929982029947,5.646379985157826,True,model_implied_state_space
indicator_revision_only_dfm_kalman_em,pseudo,pre_second,S,2024:Q2:pre_second:pseudo,2024-08-31,2024:Q2,2.815306948340223,2.9514,-0.1360930516597771,1,5.309212888821334,2.304172929452417,-1.755404591607935,0.5416794716978909,0.5235493269449158,0.1108860149175258,0.8718187663417971,0.09533006808661569,False,True,False,0.5111340188878057,5.1194798777926405,True,-0.9747202517929843,6.60533414847343,True,model_implied_state_space
indicator_revision_only_dfm_kalman_em,pseudo,pre_second,S,2024:Q3:pre_second:pseudo,2024-11-30,2024:Q3,2.6030668754778805,2.8336,-0.2305331245221196,2,5.284364806894108,2.29877463160139,-1.7563433081863666,0.5464275358799713,0.5399410553059569,0.12873914099883443,0.8520736840927393,0.1113510659911635,False,True,False,0.30429224387649034,4.90184150707927,True,-1.1780809148557005,6.384214665811461,True,model_implied_state_space
indicator_revision_only_dfm_kalman_em,pseudo,pre_second,S,2024:Q4:pre_second:pseudo,2025-02-28,2024:Q4,2.350289448033455,2.3451,0.0051894480334548,3,5.254887788092674,2.292354202145182,-1.7485204209866907,0.5357163498669825,0.49909687234972533,0.15261713646129185,0.8258846555797325,0.1329573599948191,False,True,False,0.057935245888272924,4.642643650178637,True,-1.4202976756224959,6.120876571689406,True,model_implied_state_space
indicator_revision_only_dfm_kalman_em,pseudo,pre_third,T,2024:Q1:pre_third:pseudo,2024-06-30,2024:Q1,1.639740047564461,1.4095,0.230240047564461,0,4.114728281014603,2.0284793025847225,-1.6326664863724853,0.4844598498628747,0.4548155873116353,0.20944189597216803,0.7610745167063835,0.18221521877247654,False,True,False,-0.3887392550202615,3.6682193501491835,True,-1.6968114904880127,4.976291585616934,True,model_implied_state_space
indicator_revision_only_dfm_kalman_em,pseudo,pre_third,T,2024:Q2:pre_third:pseudo,2024-09-30,2024:Q2,2.8803475386093385,2.9895,-0.1091524613906615,1,4.093073581526312,2.0231345930328786,-1.62504203783678,0.4751451980562014,0.5215133563480276,0.07726589256124199,0.90738935556895,0.063934180843307,False,True,False,0.8572129455764599,4.9034821316422175,True,-0.44741273455178243,6.208107811770459,True,model_implied_state_space
indicator_revision_only_dfm_kalman_em,pseudo,pre_third,T,2024:Q3:pre_third:pseudo,2024-12-31,2024:Q3,2.6869611773482305,3.073,-0.3860388226517695,2,4.658328661893431,2.158316163562102,-1.7042625451458546,0.5318603453228112,0.5709766196100354,0.1065780056629451,0.875394759451435,0.0905136228626843,False,True,False,0.5286450137861283,4.845277340910332,True,-0.8631529923948804,6.237075347091341,True,model_implied_state_space
indicator_revision_only_dfm_kalman_em,pseudo,pre_third,T,2024:Q4:pre_third:pseudo,2025-03-31,2024:Q4,2.3582401929939825,2.4495,-0.0912598070060175,3,4.632739261619111,2.1523799064335996,-1.686411554681193,0.5045437970114736,0.5169098819333571,0.13661749619536248,0.8420026630858667,0.1173057392244471,False,True,False,0.2058602865603829,4.510620099427582,True,-1.182109702680794,5.898590088668759,True,model_implied_state_space
joint_indicator_revision_dfm_full_kalman_em,exact,pre_advance,A,2024:Q1:pre_advance:exact,2024-04-24,2024:Q1,2.1525689653103957,1.5897,0.5628689653103958,0,11.099541487294848,3.331597437760878,-2.13666226022698,0.8164254050629245,0.4329185070515681,0.259104978728636,0.7210877444575694,0.2400510292103591,False,True,False,-1.1790284724504825,5.484166403071274,True,-3.327421163732817,7.632559094353608,True,model_implied_state_space
joint_indicator_revision_dfm_full_kalman_em,exact,pre_advance,A,2024:Q2:pre_advance:exact,2024-07-24,2024:Q2,3.05149369776614,2.8401,0.2113936977661397,1,11.605715201936173,3.406716190400394,-2.146612594493993,0.8013638738712591,0.4752606939551693,0.18519882082809705,0.798709676167141,0.16993141194049188,False,True,False,-0.35522249263425376,6.458209888166534,True,-2.55205578400825,8.655043179540531,True,model_implied_state_space
joint_indicator_revision_dfm_full_kalman_em,exact,pre_advance,A,2024:Q3:pre_advance:exact,2024-10-29,2024:Q3,1.987703046057904,2.8248,-0.8370969539420963,2,11.53974503745566,3.3970200231166814,-2.1721987628392463,0.8757457176540347,0.5973218107996519,0.2792296870395829,0.700644914745025,0.25978560278263163,False,True,False,-1.4093169770587775,5.384723069174585,True,-3.5998976597923438,7.575303751908152,True,model_implied_state_space
joint_indicator_revision_dfm_full_kalman_em,exact,pre_advance,A,2024:Q4:pre_advance:exact,2025-01-29,2024:Q4,2.3642994197187788,2.2512,0.1130994197187789,3,11.486917469569864,3.38923552878372,-2.1400997060870575,0.7935528475791154,0.48668969230291315,0.24271657798246993,0.7384520362260798,0.22464443306613494,False,True,False,-1.0249361090649414,5.753534948502499,True,-3.210496932393914,7.939095771831472,True,model_implied_state_space
joint_indicator_revision_dfm_full_kalman_em,exact,pre_second,S,2024:Q1:pre_second:exact,2024-05-29,2024:Q1,2.024655217153817,1.2492,0.7754552171538167,0,5.610531622172561,2.368656079335403,-1.8348507389700839,0.653927535540383,0.3716895130091411,0.19633935455339976,0.7794489664813788,0.17381257954382756,False,True,False,-0.344000862181586,4.39331129648922,True,-1.8714373259416743,5.9207477602493075,True,model_implied_state_space
joint_indicator_revision_dfm_full_kalman_em,exact,pre_second,S,2024:Q2:pre_second:exact,2024-08-28,2024:Q2,2.839116802189998,2.9514,-0.1122831978100018,1,5.587994370735087,2.3638939000587755,-1.7803768397953126,0.5545574373219068,0.5189423377282905,0.11486901822286538,0.8678804645626574,0.09928434665153094,False,True,False,0.47522290213122265,5.203010702248774,True,-1.0491426530501395,6.7273762574301355,True,model_implied_state_space
joint_indicator_revision_dfm_full_kalman_em,exact,pre_second,S,2024:Q3:pre_second:exact,2024-11-26,2024:Q3,2.6352708462346546,2.8336,-0.1983291537653455,2,5.561518730360434,2.3582872450913257,-1.7804104501795368,0.5577700215363095,0.533511065086339,0.1319007329290886,0.8491147029002682,0.11463169841059875,False,True,False,0.2769836011433289,4.99355809132598,True,-1.2437664822472079,6.514308174716517,True,model_implied_state_space
joint_indicator_revision_dfm_full_kalman_em,exact,pre_second,S,2024:Q4:pre_second:exact,2025-02-26,2024:Q4,2.4545678634433616,2.3451,0.1094678634433616,3,5.534094749132655,2.3524656743792574,-1.7754852059329413,0.5517912157372472,0.4814426182334512,0.14838102719411986,0.831065677044272,0.12957142296274604,False,True,False,0.10210218906410429,4.807033537822619,True,-1.4148938333382008,6.324029560224924,True,model_implied_state_space
joint_indicator_revision_dfm_full_kalman_em,exact,pre_third,T,2024:Q1:pre_third:exact,2024-06-26,2024:Q1,1.7298945199431155,1.4095,0.3203945199431155,0,4.281514900420569,2.069182181544334,-1.6580798697631531,0.5033096610164108,0.4384732801524084,0.20156953770139677,0.7701593057070749,0.175491398680314,False,True,False,-0.33928766160121837,3.7990767014874494,True,-1.6736072961934418,5.133396336079673,True,model_implied_state_space
joint_indicator_revision_dfm_full_kalman_em,exact,pre_third,T,2024:Q2:pre_third:exact,2024-09-25,2024:Q2,2.908312499524671,2.9895,-0.081187500475329,1,4.262250808283357,2.0645219321390984,-1.6446104541104352,0.4837419470105237,0.5156843964299249,0.0794604821033283,0.9052121238739089,0.06608691763360168,False,True,False,0.8437905673855726,4.972834431663769,True,-0.48752388847518624,6.304148887524528,True,model_implied_state_space
joint_indicator_revision_dfm_full_kalman_em,exact,pre_third,T,2024:Q3:pre_third:exact,2024-12-18,2024:Q3,2.714506050277103,3.073,-0.3584939497228969,2,4.743719986588297,2.1780082613682383,-1.710895461490978,0.5324770077224411,0.5653694622030168,0.1063225597405845,0.875851958608931,0.09042345082859167,False,True,False,0.5364977889088647,4.892514311645341,True,-0.8679987379647138,6.29701083851892,True,model_implied_state_space
joint_indicator_revision_dfm_full_kalman_em,exact,pre_third,T,2024:Q4:pre_third:exact,2025-03-26,2024:Q4,2.4216221867154464,2.4495,-0.0278778132845536,3,4.720620872372069,2.172698983378063,-1.6949910158209638,0.5078915388401122,0.5051186719058647,0.1325176540586668,0.8467319234249925,0.11378924807038276,False,True,False,0.24892320333738338,4.59432117009351,True,-1.152149616367737,5.99539398979863,True,model_implied_state_space
joint_indicator_revision_dfm_full_kalman_em,pseudo,pre_advance,A,2024:Q1:pre_advance:pseudo,2024-04-30,2024:Q1,2.1588080792533555,1.5897,0.5691080792533556,0,11.09943039526081,3.3315807652315454,-2.1369755471709344,0.8172633543336556,0.43218177171176964,0.2584979359205988,0.721717593575077,0.23946807156439429,False,True,False,-1.17277268597819,5.490388844484901,True,-3.3211546259195135,7.6387707844262245,True,model_implied_state_space
joint_indicator_revision_dfm_full_kalman_em,pseudo,pre_advance,A,2024:Q2:pre_advance:pseudo,2024-07-31,2024:Q2,2.9212652855765366,2.8401,0.0811652855765365,1,11.604262681054838,3.406502998832503,-2.1449086375053543,0.7968541149965739,0.4904954727334602,0.19556898593403402,0.7878096315924275,0.17976351271589175,False,True,False,-0.48523771325596643,6.327768284409039,True,-2.6819335272741727,8.524464098427245,True,model_implied_state_space
joint_indicator_revision_dfm_full_kalman_em,pseudo,pre_advance,A,2024:Q3:pre_advance:pseudo,2024-10-31,2024:Q3,2.002411893021734,2.8248,-0.8223881069782664,2,11.539867071486697,3.3970379849932053,-2.1711461299414334,0.8729111749598831,0.5956446933075021,0.2777769725780209,0.7021462420362877,0.25838479107837187,False,True,False,-1.3946260919714715,5.39944987801494,True,-3.585218357486261,7.590042143529729,True,model_implied_state_space
joint_indicator_revision_dfm_full_kalman_em,pseudo,pre_advance,A,2024:Q4:pre_advance:pseudo,2025-01-31,2024:Q4,2.37179957050103,2.2512,0.1205995705010307,3,11.486899089967254,3.3892328173153365,-2.140175201594147,0.7937584914467172,0.4858073731674831,0.24202477636742195,0.7391716878078343,0.2239817153994665,False,True,False,-1.0174332468143064,5.761032387816367,True,-3.2029923216430576,7.946591462645118,True,model_implied_state_space
joint_indicator_revision_dfm_full_kalman_em,pseudo,pre_second,S,2024:Q1:pre_second:pseudo,2024-05-31,2024:Q1,2.0242115053128544,1.2492,0.7750115053128543,0,5.610504750530261,2.368650406989233,-1.8347872908509368,0.6538126114995199,0.37176005185378624,0.19639065465449002,0.7793939636653556,0.1738600862272084,False,True,False,-0.3444389016763787,4.392861912302088,True,-1.8718717076034666,5.920294718229176,True,model_implied_state_space
joint_indicator_revision_dfm_full_kalman_em,pseudo,pre_second,S,2024:Q2:pre_second:pseudo,2024-08-31,2024:Q2,2.839311186689076,2.9514,-0.1120888133109239,1,5.5879968410266505,2.3638944225634635,-1.7803731578209425,0.5545502011362146,0.5189095651967179,0.11485312226109287,0.8678980019051485,0.09927004121727677,False,True,False,0.4754167641256126,5.20320560925254,True,-1.048949127994793,6.727571501372945,True,model_implied_state_space
joint_indicator_revision_dfm_full_kalman_em,pseudo,pre_second,S,2024:Q3:pre_second:pseudo,2024-11-30,2024:Q3,2.6363516127543325,2.8336,-0.1972483872456676,2,5.5614380406747035,2.3582701373410773,-1.7803648104212364,0.5576938328300564,0.5333291191275705,0.13180110091221414,0.8492237037386143,0.11454128274996801,False,True,False,0.27808147541325523,4.99462175009541,True,-1.2426575759824847,6.51536080149115,True,model_implied_state_space
joint_indicator_revision_dfm_full_kalman_em,pseudo,pre_second,S,2024:Q4:pre_second:pseudo,2025-02-28,2024:Q4,2.455967270710949,2.3451,0.110867270710949,3,5.534114683934914,2.3524699113771708,-1.7755148611062859,0.551844472562259,0.4812055940342973,0.14824380765627354,0.8312151265502976,0.12944633994477756,False,True,False,0.10349735933377824,4.80843718208812,True,-1.4135013953119988,6.325435936733896,True,model_implied_state_space
joint_indicator_revision_dfm_full_kalman_em,pseudo,pre_third,T,2024:Q1:pre_third:pseudo,2024-06-30,2024:Q1,1.7359113633223662,1.4095,0.3264113633223662,0,4.28109326639029,2.0690802948146527,-1.6584863343289427,0.5040341448222735,0.43732424385830304,0.20074102888066778,0.771052043460157,0.1747296501004992,False,True,False,-0.33316893149228655,3.804991658137019,True,-1.6674228640573365,5.139245590702069,True,model_implied_state_space
joint_indicator_revision_dfm_full_kalman_em,pseudo,pre_third,T,2024:Q2:pre_third:pseudo,2024-09-30,2024:Q2,2.9083506624360687,2.9895,-0.0811493375639313,1,4.261988451525021,2.064458391812492,-1.6445789971733444,0.48372594026248456,0.5156775098983295,0.07945133544203464,0.9052220558176628,0.06607859224697857,False,True,False,0.8438922706235767,4.972809054248561,True,-0.4873812110271123,6.30408253589925,True,model_implied_state_space
joint_indicator_revision_dfm_full_kalman_em,pseudo,pre_third,T,2024:Q3:pre_third:pseudo,2024-12-31,2024:Q3,2.715207522791458,3.073,-0.3577924772085419,2,4.74371552871945,2.1780072379860105,-1.7108420442560053,0.5323851586642445,0.5652427304023351,0.10626336779784394,0.8759180406315428,0.09037087576660605,False,True,False,0.5372002848054476,4.893214760777468,True,-0.8672955821363897,6.297710627719306,True,model_implied_state_space
joint_indicator_revision_dfm_full_kalman_em,pseudo,pre_third,T,2024:Q4:pre_third:pseudo,2025-03-31,2024:Q4,2.4209045067292716,2.4495,-0.0285954932707284,3,4.720618991068614,2.1726985504364413,-1.6949951094333253,0.5078988793966838,0.5052504393463622,0.1325884282904182,0.8466538307516865,0.113852848501263,False,True,False,0.24820595629283027,4.593603057165713,True,-1.152866584228315,5.994675597686858,True,model_implied_state_space
monthly_mixed_frequency_kalman_em,exact,pre_advance,A,2024:Q1:pre_advance:exact,2024-04-24,2024:Q1,1.7394015871846262,1.5897,0.1497015871846263,0,13.5128676747613,3.6759852658520407,-2.2215889600320353,0.8614911000569705,0.48375788135444586,0.3180424914180765,0.6623088024542418,0.29889305153552315,False,True,False,-1.9365836786674144,5.415386853036667,True,-4.307056109972274,7.785859284341527,True,model_implied_state_space
monthly_mixed_frequency_kalman_em,exact,pre_advance,A,2024:Q2:pre_advance:exact,2024-07-24,2024:Q2,2.6106934231151886,2.8401,-0.2294065768848114,1,14.615611772131246,3.823036982835929,-2.261784043947038,0.8989146755392384,0.5239247198842245,0.24733985461668212,0.7358392251215935,0.23110911763793118,False,True,False,-1.2123435597207406,6.433730405951118,True,-3.6776428240721026,8.899029670302479,True,model_implied_state_space
monthly_mixed_frequency_kalman_em,exact,pre_advance,A,2024:Q3:pre_advance:exact,2024-10-29,2024:Q3,2.289596461493975,2.8248,-0.5352035385060252,2,14.55291931815283,3.8148288714112497,-2.2676757617135466,0.9214125597730537,0.5557867623989333,0.2741920514752121,0.7080703680001484,0.25700378471886476,False,True,False,-1.5252324099172747,6.104425332905224,True,-3.98523864384601,8.56443156683396,True,model_implied_state_space
monthly_mixed_frequency_kalman_em,exact,pre_advance,A,2024:Q4:pre_advance:exact,2025-01-29,2024:Q4,2.4988883066155108,2.2512,0.2476883066155109,3,14.496063284769455,3.8073696018077174,-2.257993165099563,0.8961891848363344,0.47406511748816227,0.255806127793828,0.7270115628686467,0.23920598214557812,False,True,False,-1.3084812951922067,6.306257908423229,True,-3.7636773920626956,8.761454005293718,True,model_implied_state_space
monthly_mixed_frequency_kalman_em,exact,pre_second,S,2024:Q1:pre_second:exact,2024-05-29,2024:Q1,1.797915732248116,1.2492,0.548715732248116,0,5.1231443522341875,2.263436403399527,-1.7652078960176438,0.5817638071859936,0.4042250623543949,0.2135016340110007,0.7598962642869302,0.18870152876439614,False,True,False,-0.46552067115141105,4.061352135647644,True,-1.9251058452575918,5.520937309753824,True,model_implied_state_space
monthly_mixed_frequency_kalman_em,exact,pre_second,S,2024:Q2:pre_second:exact,2024-08-28,2024:Q2,2.6270674276678334,2.9514,-0.3243325723321666,1,6.130575980432769,2.4759999960486208,-1.8341621469942153,0.5955534321049304,0.5521086038760874,0.14434206602698027,0.8365154894706207,0.126771046868045,False,True,False,0.15106743161921266,5.103067423716454,True,-1.4455901461645708,6.699725001500237,True,model_implied_state_space
monthly_mixed_frequency_kalman_em,exact,pre_second,S,2024:Q3:pre_second:exact,2024-11-26,2024:Q3,2.619268571677938,2.8336,-0.2143314283220623,2,6.104437576147902,2.4707160047540677,-1.8272091917228013,0.584806796305554,0.5345643716724682,0.14454379722540076,0.8362537631703668,0.12691966790497608,False,True,False,0.1485525669238701,5.0899845764320055,True,-1.4446976099088413,6.683234753264717,True,model_implied_state_space
monthly_mixed_frequency_kalman_em,exact,pre_second,S,2024:Q4:pre_second:exact,2025-02-26,2024:Q4,2.232932376904082,2.3451,-0.1121676230959178,3,5.0539364482784,2.2480961830576556,-1.7302669806792967,0.5276010224707377,0.5198967677838117,0.16029289372060962,0.8170793504813472,0.13957761652064227,False,True,False,-0.01516380615357349,4.481028559961738,True,-1.4648567835340636,5.930721537342228,True,model_implied_state_space
monthly_mixed_frequency_kalman_em,exact,pre_third,T,2024:Q1:pre_third:exact,2024-06-26,2024:Q1,1.8200299895922825,1.4095,0.4105299895922822,0,6.813827267542263,2.6103308731925656,-1.890782640293566,0.6357257880034405,0.4375155401935697,0.24282595847517544,0.7325759735624575,0.21950686787196905,False,True,False,-0.7903008836002832,4.430360862784848,True,-2.4735822147219126,6.113642193906478,True,model_implied_state_space
monthly_mixed_frequency_kalman_em,exact,pre_third,T,2024:Q2:pre_third:exact,2024-09-25,2024:Q2,2.7163243893614317,2.9895,-0.2731756106385683,1,5.597980440693442,2.3660051649760705,-1.78680682428953,0.5654923905967295,0.5459591777323268,0.1254711562827536,0.8562298285209292,0.10886358946278828,False,True,False,0.3503192243853612,5.082329554337502,True,-1.1754077876353741,6.608056566358238,True,model_implied_state_space
monthly_mixed_frequency_kalman_em,exact,pre_third,T,2024:Q3:pre_third:exact,2024-12-18,2024:Q3,2.644935064846067,3.073,-0.4280649351539329,2,6.754903024248268,2.5990196275227064,-1.8876362915171316,0.6354411890897372,0.5654109110360781,0.15441824940441704,0.8265743689399278,0.1368418953030202,False,True,False,0.045915437323360564,5.243954692368773,True,-1.6300717960027211,6.9199419256948556,True,model_implied_state_space
monthly_mixed_frequency_kalman_em,exact,pre_third,T,2024:Q4:pre_third:exact,2025-03-26,2024:Q4,2.475500534296884,2.4495,0.0260005342968838,3,6.720813323590258,2.5924531478100543,-1.8715934155577385,0.6059473097611286,0.4959989485010522,0.16981735154215583,0.8099576581961597,0.1510280279920742,False,True,False,-0.11695261351317043,5.067953682106938,True,-1.7887054285802448,6.739706497174012,True,model_implied_state_space
monthly_mixed_frequency_kalman_em,pseudo,pre_advance,A,2024:Q1:pre_advance:pseudo,2024-04-30,2024:Q1,1.7433321211802868,1.5897,0.1536321211802869,0,13.512296694705668,3.675907601491864,-2.2216119850744396,0.86160236000564,0.483331324733647,0.3176576262096449,0.6627027120430299,0.2985181349438513,False,True,False,-1.932575480311577,5.419239722672151,True,-4.302997829472092,7.789662071832666,True,model_implied_state_space
monthly_mixed_frequency_kalman_em,pseudo,pre_advance,A,2024:Q2:pre_advance:pseudo,2024-07-31,2024:Q2,2.538546992065067,2.8401,-0.3015530079349329,1,14.614200400898694,3.822852390676194,-2.2630465358040945,0.9028661277350758,0.5314366313162489,0.2533306733459617,0.7296412324436901,0.23688386104435272,False,True,False,-1.284305398611127,6.361399382741261,True,-3.749485628038777,8.826579612168912,True,model_implied_state_space
monthly_mixed_frequency_kalman_em,pseudo,pre_advance,A,2024:Q3:pre_advance:pseudo,2024-10-31,2024:Q3,2.284542880327197,2.8248,-0.5402571196728032,2,14.551754345684888,3.8146761783518253,-2.2678232673598724,0.9219445821549237,0.5563122639315992,0.27462561457035295,0.707622854214291,0.25742267793028956,False,True,False,-1.5301332980246283,6.099219058679022,True,-3.990041067280184,8.559126827934577,True,model_implied_state_space
monthly_mixed_frequency_kalman_em,pseudo,pre_advance,A,2024:Q4:pre_advance:pseudo,2025-01-31,2024:Q4,2.4878870351419473,2.2512,0.2366870351419474,3,14.494943324270904,3.8072225209817856,-2.2577708833741474,0.8955970614511444,0.4752145619111344,0.2567282417587008,0.7260578148157056,0.24009505406048667,False,True,False,-1.3193354858398383,6.295109556123733,True,-3.7744367371062704,8.750210807390165,True,model_implied_state_space
monthly_mixed_frequency_kalman_em,pseudo,pre_second,S,2024:Q1:pre_second:pseudo,2024-05-31,2024:Q1,1.789564070261719,1.2492,0.540364070261719,0,5.123057150458173,2.263417140179462,-1.7643121708409812,0.5801719188661241,0.40565430778235945,0.21457499328842167,0.7587492996615066,0.18969819402012378,False,True,False,-0.4738530699177428,4.052981210441181,True,-1.9334258220665976,5.512553962590036,True,model_implied_state_space
monthly_mixed_frequency_kalman_em,pseudo,pre_second,S,2024:Q2:pre_second:pseudo,2024-08-31,2024:Q2,2.6280791986963883,2.9514,-0.3233208013036117,1,6.130538317223876,2.47599239038085,-1.834105684271661,0.5954464257988917,0.5519471305384192,0.14424849419102842,0.836617042899322,0.12668539005437163,False,True,False,0.15208680831553822,5.104071589077238,True,-1.444565864925798,6.700724262318575,True,model_implied_state_space
monthly_mixed_frequency_kalman_em,pseudo,pre_second,S,2024:Q3:pre_second:pseudo,2024-11-30,2024:Q3,2.6178614072981317,2.8336,-0.2157385927018684,2,6.104413964883477,2.4707112265263778,-1.8272568413155188,0.5849032881886291,0.5347907922839177,0.14467290518089482,0.8361135111744344,0.12703774105678844,False,True,False,0.1471501807717539,5.088572633824509,True,-1.4460969148035012,6.6818197293997645,True,model_implied_state_space
monthly_mixed_frequency_kalman_em,pseudo,pre_second,S,2024:Q4:pre_second:pseudo,2025-02-28,2024:Q4,2.231085501059124,2.3451,-0.1140144989408757,3,5.053754028824919,2.248055610705598,-1.7302903067316908,0.5276656807803943,0.52022446061574,0.16048873538639757,0.8168658424968134,0.13975583674891454,False,True,False,-0.01697010964647383,4.479141111764722,True,-1.4666369237985855,5.928807925916834,True,model_implied_state_space
monthly_mixed_frequency_kalman_em,pseudo,pre_third,T,2024:Q1:pre_third:pseudo,2024-06-30,2024:Q1,1.826687876322202,1.4095,0.4171878763222019,0,6.815122708462272,2.610578998701681,-1.8912796507208802,0.6366199809604298,0.43651669394391834,0.24204947212252914,0.7333951387030834,0.2187751507572631,False,True,False,-0.7838911223794791,4.437266875023884,True,-2.4673324581356004,6.120708210780005,True,model_implied_state_space
monthly_mixed_frequency_kalman_em,pseudo,pre_third,T,2024:Q2:pre_third:pseudo,2024-09-30,2024:Q2,2.731500563937244,2.9895,-0.257999436062756,1,5.5990026244748545,2.366221169813772,-1.7861770197491766,0.5641854653285742,0.5434123854968274,0.12417374951000021,0.8576564741098538,0.10769211549004494,False,True,False,0.3652793941234722,5.0977217337510154,True,-1.160586909400294,6.623588037274782,True,model_implied_state_space
monthly_mixed_frequency_kalman_em,pseudo,pre_third,T,2024:Q3:pre_third:pseudo,2024-12-31,2024:Q3,2.646235609375676,3.073,-0.4267643906243239,2,6.754869567515631,2.599013191100736,-1.8875515902017141,0.635269870230596,0.565214122408773,0.15429873781583764,0.8267031874519695,0.1367316728778347,False,True,False,0.047222418274940114,5.245248800476412,True,-1.6287606645010895,6.9212318832524415,True,model_implied_state_space
monthly_mixed_frequency_kalman_em,pseudo,pre_third,T,2024:Q4:pre_third:pseudo,2025-03-31,2024:Q4,2.4694091948570995,2.4495,0.0199091948570995,3,6.720784209886868,2.592447532716307,-1.871570444841369,0.6059029637541972,0.49693627684847286,0.17041167099386192,0.8093198175386083,0.1515785097231861,False,True,False,-0.12303833785920748,5.0618567275734065,True,-1.7947875320127138,6.733605921726912,True,model_implied_state_space
revision_dfm_kalman_em,exact,pre_advance,A,2024:Q1:pre_advance:exact,2024-04-24,2024:Q1,1.8838828385238515,1.5897,0.2941828385238516,0,12.513749470293726,3.5374778402547946,-2.185810470029369,0.8364452090841867,0.46686146425362146,0.29717265718596897,0.6829671799269006,0.2779013970715357,False,True,False,-1.653595001730943,5.421360678778646,True,-3.9347504172797083,7.702516094327411,True,model_implied_state_space
revision_dfm_kalman_em,exact,pre_advance,A,2024:Q2:pre_advance:exact,2024-07-24,2024:Q2,3.4308030342214435,2.8401,0.5907030342214434,1,11.784828821700112,3.4329038468474633,-2.1671492451158634,0.8427022548708051,0.431690874399947,0.15880337654636548,0.8266804481902741,0.14510803192132912,False,True,False,-0.002100812626019799,6.863706881068907,True,-2.2158213092412673,9.077427377684154,True,model_implied_state_space
revision_dfm_kalman_em,exact,pre_advance,A,2024:Q3:pre_advance:exact,2024-10-29,2024:Q3,2.0563255892585035,2.8248,-0.7684744107414967,2,11.71764786392916,3.423105003345524,-2.174685862658431,0.8685002252290959,0.5888144275268881,0.2740134471844186,0.7061916320513981,0.2549010453236137,False,True,False,-1.3667794140870204,5.479430592604027,True,-3.5741810909301126,7.68683226944712,True,model_implied_state_space
revision_dfm_kalman_em,exact,pre_advance,A,2024:Q4:pre_advance:exact,2025-01-29,2024:Q4,2.386012790127001,2.2512,0.1348127901270013,3,11.663107882864375,3.4151292629803014,-2.147933021356677,0.8002213536923474,0.4842557768889287,0.24238239869324987,0.7389451156111662,0.2244582799447061,False,True,False,-1.0291164728533002,5.801142053107302,True,-3.2313749645942558,8.003400544848258,True,model_implied_state_space
revision_dfm_kalman_em,exact,pre_second,S,2024:Q1:pre_second:exact,2024-05-29,2024:Q1,1.9989000752878752,1.2492,0.7497000752878753,0,5.682272067030794,2.3837516789780753,-1.8370705825637321,0.6503672054993195,0.3765690379599128,0.20086033820593716,0.7747707282361671,0.17814603773587329,False,True,False,-0.3848516036902001,4.38265175426595,True,-1.9220225196308733,5.9198226702066234,True,model_implied_state_space
revision_dfm_kalman_em,exact,pre_second,S,2024:Q2:pre_second:exact,2024-08-28,2024:Q2,2.9470364002902145,2.9514,-0.0043635997097855,1,5.1809713155650154,2.2761747111250084,-1.7414366464699136,0.5319339346365517,0.5007648021674987,0.09770633601692197,0.8862579990271828,0.08339396022412848,False,True,False,0.6708616891652062,5.223211111415223,True,-0.796937828878975,6.691010629459404,True,model_implied_state_space
revision_dfm_kalman_em,exact,pre_second,S,2024:Q3:pre_second:exact,2024-11-26,2024:Q3,2.697739846341322,2.8336,-0.1358601536586783,2,5.156405003686817,2.2707718960051486,-1.7408481602440298,0.5339098240337641,0.5238544614862676,0.11741125412819889,0.8643234586344868,0.10095947644072825,False,True,False,0.4269679503361732,4.96851174234647,True,-1.0373475427822183,6.4328272354648615,True,model_implied_state_space
revision_dfm_kalman_em,exact,pre_second,S,2024:Q4:pre_second:exact,2025-02-26,2024:Q4,2.425441644438571,2.3451,0.0803416444385711,3,5.605623654825283,2.3676198290319506,-1.7813994336197045,0.5543883836149361,0.4864650868552402,0.15281801710121026,0.826378112636701,0.13373775382328948,False,True,False,0.05782181540662057,4.793061473470521,True,-1.468946418586857,6.319829707463999,True,model_implied_state_space
revision_dfm_kalman_em,exact,pre_third,T,2024:Q1:pre_third:exact,2024-06-26,2024:Q1,1.7154975430533417,1.4095,0.3059975430533415,0,4.294195582926625,2.0722440934712845,-1.658473105355125,0.5022665877939421,0.4413036499136619,0.20387905681636578,0.7677116766075989,0.1776497087516625,False,True,False,-0.3567465504179428,3.7877416365246264,True,-1.6930406700216662,5.124035756128349,True,model_implied_state_space
revision_dfm_kalman_em,exact,pre_third,T,2024:Q2:pre_third:exact,2024-09-25,2024:Q2,2.931041834843552,2.9895,-0.0584581651564479,1,4.275633765488667,2.0677605677371513,-1.6458043351643747,0.4838845408964577,0.5112770926145458,0.07816901674921709,0.9067114277142378,0.06498518307440643,False,True,False,0.8632812671064007,4.998802402580703,True,-0.47012163466613677,6.332205304353241,True,model_implied_state_space
revision_dfm_kalman_em,exact,pre_third,T,2024:Q3:pre_third:exact,2024-12-18,2024:Q3,2.7483631124271213,3.073,-0.3246368875728787,2,4.755966907749624,2.1808179446596694,-1.7097182158180653,0.5288897612802892,0.5591680069788885,0.10379064569002351,0.8787045789206585,0.08819519391658719,False,True,False,0.5675451677674519,4.92918105708679,True,-0.8387631935671909,6.335489418421433,True,model_implied_state_space
revision_dfm_kalman_em,exact,pre_third,T,2024:Q4:pre_third:exact,2025-03-26,2024:Q4,2.4421966351419258,2.4495,-0.0073033648580742,3,4.232605769571298,2.057329766851026,-1.6403537464709508,0.48079797619364145,0.5014162119065617,0.11759979544757213,0.8621120782104432,0.09952122224142995,False,True,False,0.3848668682908998,4.499526401992952,True,-0.941809693698211,5.8262029639820625,True,model_implied_state_space
revision_dfm_kalman_em,pseudo,pre_advance,A,2024:Q1:pre_advance:pseudo,2024-04-30,2024:Q1,1.8931423513850485,1.5897,0.3034423513850486,0,12.5136384079001,3.537462142256804,-2.186027170566349,0.8370649150966549,0.46582078212666367,0.29626627796497507,0.6838997524177753,0.2770232868022854,False,True,False,-1.6443197908717557,5.4306044936418525,True,-3.9254650835095806,7.711749786279677,True,model_implied_state_space
revision_dfm_kalman_em,pseudo,pre_advance,A,2024:Q2:pre_advance:pseudo,2024-07-31,2024:Q2,3.318079594004101,2.8401,0.4779795940041009,1,11.784431905205889,3.4328460357560298,-2.1620216861011863,0.8287466714692698,0.4446313884946962,0.16687998499944748,0.8181420935543631,0.1527219797426409,False,True,False,-0.11476644175192874,6.750925629760131,True,-2.328449658675188,8.96460884668339,True,model_implied_state_space
revision_dfm_kalman_em,pseudo,pre_advance,A,2024:Q3:pre_advance:pseudo,2024-10-31,2024:Q3,2.0595500029560414,2.8248,-0.7652499970439588,2,11.717634643811412,3.4231030723323848,-2.1744743047811617,0.8679282446912837,0.5884480031234434,0.27369967567709086,0.7065160552040517,0.2545986099157259,False,True,False,-1.3635530693763434,5.482653075288426,True,-3.570953500998609,7.690053506910692,True,model_implied_state_space
revision_dfm_kalman_em,pseudo,pre_advance,A,2024:Q4:pre_advance:pseudo,2025-01-31,2024:Q4,2.395379103744911,2.2512,0.1441791037449111,3,11.663090778328655,3.415126758749762,-2.148044314655976,0.8005259405793764,0.48316254048466856,0.2415258710832086,0.739835944137408,0.2236375521262863,False,True,False,-1.019747655004851,5.810505862494673,True,-3.2220045318836603,8.012762739373482,True,model_implied_state_space
revision_dfm_kalman_em,pseudo,pre_second,S,2024:Q1:pre_second:pseudo,2024-05-31,2024:Q1,1.9971380465744075,1.2492,0.7479380465744074,0,5.682226420049542,2.383742104349701,-1.8368347583553986,0.6499308516731508,0.376849253768625,0.2010669347026739,0.7745497574087528,0.1783378399745003,False,True,False,-0.3866040577752936,4.380880150924108,True,-1.9237687994821329,5.918044892630948,True,model_implied_state_space
revision_dfm_kalman_em,pseudo,pre_second,S,2024:Q2:pre_second:pseudo,2024-08-31,2024:Q2,2.947376682997725,2.9514,-0.0040233170022752,1,5.180971699296881,2.2761747954181555,-1.7414364080790863,0.5319334541321664,0.5007051613202557,0.09768055189629934,0.8862867793159794,0.08337103801322014,False,True,False,0.6712018875795693,5.22355147841588,True,-0.7965976848213536,6.691351050816803,True,model_implied_state_space
revision_dfm_kalman_em,pseudo,pre_second,S,2024:Q3:pre_second:pseudo,2024-11-30,2024:Q3,2.702511216411072,2.8336,-0.131088783588928,2,5.15638629864971,2.270767777349703,-1.7407228447477985,0.5336852227395259,0.5230176884291589,0.11699744598862416,0.8647811417015774,0.1005882283452771,False,True,False,0.431743439061369,4.9732789937607755,True,-1.0325693981271202,6.437591830949264,True,model_implied_state_space
revision_dfm_kalman_em,pseudo,pre_second,S,2024:Q4:pre_second:pseudo,2025-02-28,2024:Q4,2.4274413248253044,2.3451,0.0823413248253044,3,5.605639614180658,2.367623199366964,-1.7814298721572799,0.5544439740077267,0.4861283606541186,0.1526190703214083,0.8265943082638657,0.13355598142941139,False,True,False,0.05981812545834053,4.795064524192268,True,-1.4669522819078948,6.321834931558504,True,model_implied_state_space
revision_dfm_kalman_em,pseudo,pre_third,T,2024:Q1:pre_third:pseudo,2024-06-30,2024:Q1,1.725287426170992,1.4095,0.3157874261709921,0,4.294587243362054,2.0723385928371005,-1.6592264187687904,0.5034553090893161,0.4394427644305514,0.20255446620272102,0.769141437908662,0.17643393095531615,False,True,False,-0.34705116666610847,3.7976260190080926,True,-1.683406224528623,5.133981076870607,True,model_implied_state_space
revision_dfm_kalman_em,pseudo,pre_third,T,2024:Q2:pre_third:pseudo,2024-09-30,2024:Q2,2.9315944345941336,2.9895,-0.0579055654058664,1,4.275576925385439,2.0677468233285814,-1.6457901736996412,0.4838689286516677,0.5111705935055508,0.07812860818463016,0.9067574513844774,0.06495003510386446,False,True,False,0.8638476112655522,4.999341257922715,True,-0.4695464273752683,6.332735296563536,True,model_implied_state_space
revision_dfm_kalman_em,pseudo,pre_third,T,2024:Q3:pre_third:pseudo,2024-12-31,2024:Q3,2.749639810389015,3.073,-0.3233601896109848,2,4.755962962785888,2.1808170401906457,-1.709630835607312,0.5287387733473828,0.5589370451272824,0.10368502971380716,0.8788226328733176,0.08810149683347325,False,True,False,0.5688227701983695,4.930456850579661,True,-0.8374850078861429,6.336764628664174,True,model_implied_state_space
revision_dfm_kalman_em,pseudo,pre_third,T,2024:Q4:pre_third:pseudo,2025-03-31,2024:Q4,2.4410048472950137,2.4495,-0.0084951527049863,3,4.232603748141445,2.0573292755758485,-1.640355731901,0.4808015124602332,0.501647313340597,0.11771401790894151,0.8619844866917992,0.09962251466107014,False,True,False,0.3836755717191651,4.498334122870862,True,-0.9430006734693657,5.825010368059393,True,model_implied_state_space
