haminh109/Revision-Aware-DFM/outputs/full_state_space_release_revision_dfm/frozen/q2_manuscript_best_v1/initialization_audit/seed_3/forecast_results.csv
model_id,timing_mode,forecast_origin,forecast_origin_date,checkpoint_id,target_id,target_quarter,forecast_value,forecast_variance,forecast_sd,density_source,realized_value,forecast_error,revision_target_flag,converged,n_iter,loglikelihood,llf_initial,llf_final,llf_last_improvement,llf_relative_last_improvement,llf_history_length,n_indicators,initialization_seed,initialization_jitter
ar,exact,2019:Q1:pre_advance:exact,2019-04-25,pre_advance,A,2019:Q1,2.544004133182678,,,not_available,3.1705,-0.6264958668173222,False,True,0,,,,,,,14,3,0.02
no_revision,exact,2019:Q1:pre_advance:exact,2019-04-25,pre_advance,A,2019:Q1,2.494294354572081,,,not_available,3.1705,-0.676205645427919,False,True,0,,,,,,,14,3,0.02
bridge,exact,2019:Q1:pre_advance:exact,2019-04-25,pre_advance,A,2019:Q1,2.463317526102582,,,not_available,3.1705,-0.7071824738974182,False,True,0,,,,,,,14,3,0.02
midas_umidas,exact,2019:Q1:pre_advance:exact,2019-04-25,pre_advance,A,2019:Q1,4.853686202530027,,,not_available,3.1705,1.683186202530027,False,True,0,,,,,,,14,3,0.02
monthly_mixed_frequency_kalman_em,exact,2019:Q1:pre_advance:exact,2019-04-25,pre_advance,A,2019:Q1,1.6706465197439566,3.1904042636923116,1.7861702784707598,model_implied_state_space,3.1705,-1.4998534802560435,False,True,54,-6285.22325928218,-7334.434583170255,-6285.22325928218,0.6243558635778754,9.931143584166545e-05,54.0,14,3,0.02
standard_dfm,exact,2019:Q1:pre_advance:exact,2019-04-25,pre_advance,A,2019:Q1,1.8414926723620524,,,not_available,3.1705,-1.3290073276379477,False,True,0,,,,,,,14,3,0.02
release_dfm,exact,2019:Q1:pre_advance:exact,2019-04-25,pre_advance,A,2019:Q1,1.8414926723620524,,,not_available,3.1705,-1.3290073276379477,False,True,0,,,,,,,14,3,0.02
revision_dfm_kalman_em,exact,2019:Q1:pre_advance:exact,2019-04-25,pre_advance,A,2019:Q1,1.4379632518006353,3.216704515894967,1.793517358682365,model_implied_state_space,3.1705,-1.7325367481993648,False,True,21,-1989.6783225865336,-2960.884259003378,-1989.6783225865336,0.17825497534340684,8.95368241753048e-05,21.0,14,3,0.02
indicator_revision_only_dfm_kalman_em,exact,2019:Q1:pre_advance:exact,2019-04-25,pre_advance,A,2019:Q1,1.4685011530053727,3.709578165853824,1.9260265226247077,model_implied_state_space,3.1705,-1.7019988469946274,False,True,25,-3681.951917224259,-4861.490014242766,-3681.951917224259,0.34962075251132774,9.492048069009677e-05,25.0,14,3,0.02
joint_indicator_revision_dfm_full_kalman_em,exact,2019:Q1:pre_advance:exact,2019-04-25,pre_advance,A,2019:Q1,1.5254680969131746,2.6553809436066342,1.629533965158945,model_implied_state_space,3.1705,-1.6450319030868255,False,True,26,-3646.6387677430453,-4875.293806501157,-3646.6387677430453,0.34585581893998096,9.48073675273002e-05,26.0,14,3,0.02
ar,exact,2019:Q1:pre_second:exact,2019-05-29,pre_second,S,2019:Q1,3.0088930533858775,,,not_available,3.0658,-0.05690694661412232,False,True,0,,,,,,,14,3,0.02
no_revision,exact,2019:Q1:pre_second:exact,2019-05-29,pre_second,S,2019:Q1,3.1705,,,not_available,3.0658,0.10470000000000024,False,True,0,,,,,,,14,3,0.02
bridge,exact,2019:Q1:pre_second:exact,2019-05-29,pre_second,S,2019:Q1,1.421798536985786,,,not_available,3.0658,-1.644001463014214,False,True,0,,,,,,,14,3,0.02
midas_umidas,exact,2019:Q1:pre_second:exact,2019-05-29,pre_second,S,2019:Q1,3.776783996287483,,,not_available,3.0658,0.7109839962874833,False,True,0,,,,,,,14,3,0.02
monthly_mixed_frequency_kalman_em,exact,2019:Q1:pre_second:exact,2019-05-29,pre_second,S,2019:Q1,3.3924495359859783,0.35099787842523383,0.5924507392393344,model_implied_state_space,3.0658,0.32664953598597846,False,True,50,-6312.701696013429,-7328.980019682591,-6312.701696013429,0.6195132228340299,9.811240231615679e-05,50.0,14,3,0.02
standard_dfm,exact,2019:Q1:pre_second:exact,2019-05-29,pre_second,S,2019:Q1,1.741965267784774,,,not_available,3.0658,-1.323834732215226,False,True,0,,,,,,,14,3,0.02
release_dfm,exact,2019:Q1:pre_second:exact,2019-05-29,pre_second,S,2019:Q1,3.258302538296523,,,not_available,3.0658,0.19250253829652308,False,True,0,,,,,,,14,3,0.02
revision_dfm_kalman_em,exact,2019:Q1:pre_second:exact,2019-05-29,pre_second,S,2019:Q1,3.3356254059042074,0.40134989419221045,0.6335218182448104,model_implied_state_space,3.0658,0.26982540590420756,False,True,21,-1990.5399115378243,-2962.0155340976125,-1990.5399115378243,0.18105677604330594,9.090468942373152e-05,21.0,14,3,0.02
indicator_revision_only_dfm_kalman_em,exact,2019:Q1:pre_second:exact,2019-05-29,pre_second,S,2019:Q1,2.9655262168131737,0.39284557457500285,0.6267739421633631,model_implied_state_space,3.0658,-0.10027378318682612,False,True,25,-3683.1529963238027,-4862.694542802622,-3683.1529963238027,0.3507922448316094,9.52074593924861e-05,25.0,14,3,0.02
joint_indicator_revision_dfm_full_kalman_em,exact,2019:Q1:pre_second:exact,2019-05-29,pre_second,S,2019:Q1,3.281525079143252,0.3900985000312507,0.624578658001737,model_implied_state_space,3.0658,0.21572507914325234,False,True,26,-3647.810862388998,-4876.599290830378,-3647.810862388998,0.3466826048315852,9.500346328077523e-05,26.0,14,3,0.02
ar,exact,2019:Q1:pre_third:exact,2019-06-26,pre_third,T,2019:Q1,2.445392866771208,,,not_available,3.1268,-0.6814071332287917,False,True,0,,,,,,,14,3,0.02
no_revision,exact,2019:Q1:pre_third:exact,2019-06-26,pre_third,T,2019:Q1,3.0658,,,not_available,3.1268,-0.06099999999999994,False,True,0,,,,,,,14,3,0.02
bridge,exact,2019:Q1:pre_third:exact,2019-06-26,pre_third,T,2019:Q1,2.2734338386671746,,,not_available,3.1268,-0.8533661613328252,False,True,0,,,,,,,14,3,0.02
midas_umidas,exact,2019:Q1:pre_third:exact,2019-06-26,pre_third,T,2019:Q1,4.146205141121396,,,not_available,3.1268,1.0194051411213958,False,True,0,,,,,,,14,3,0.02
monthly_mixed_frequency_kalman_em,exact,2019:Q1:pre_third:exact,2019-06-26,pre_third,T,2019:Q1,3.3103944704163646,0.14291941677752384,0.3780468446866391,model_implied_state_space,3.1268,0.18359447041636479,False,True,52,-6328.886922084899,-7349.5487198973715,-6328.886922084899,0.6279233508239486,9.918993417678798e-05,52.0,14,3,0.02
standard_dfm,exact,2019:Q1:pre_third:exact,2019-06-26,pre_third,T,2019:Q1,1.7778168513068795,,,not_available,3.1268,-1.3489831486931203,False,True,0,,,,,,,14,3,0.02
release_dfm,exact,2019:Q1:pre_third:exact,2019-06-26,pre_third,T,2019:Q1,3.178066193022631,,,not_available,3.1268,0.051266193022631246,False,True,0,,,,,,,14,3,0.02
revision_dfm_kalman_em,exact,2019:Q1:pre_third:exact,2019-06-26,pre_third,T,2019:Q1,3.09085120919418,0.1477467218174446,0.38437835763404343,model_implied_state_space,3.1268,-0.03594879080581981,False,True,22,-1989.3687586715732,-2974.414444133602,-1989.3687586715732,0.1779685815783978,8.940688462208819e-05,22.0,14,3,0.02
indicator_revision_only_dfm_kalman_em,exact,2019:Q1:pre_third:exact,2019-06-26,pre_third,T,2019:Q1,3.0587435915714867,0.15213046541091804,0.3900390562634953,model_implied_state_space,3.1268,-0.06805640842851313,False,True,25,-3681.856489949318,-4863.338979690496,-3681.856489949318,0.3523810437704924,9.567229448909351e-05,25.0,14,3,0.02
joint_indicator_revision_dfm_full_kalman_em,exact,2019:Q1:pre_third:exact,2019-06-26,pre_third,T,2019:Q1,3.084029559828087,0.14739557738827141,0.3839213166630259,model_implied_state_space,3.1268,-0.04277044017191267,False,True,26,-3646.5659899680163,-4877.215777015035,-3646.5659899680163,0.3492922080781682,9.575118418589056e-05,26.0,14,3,0.02
ar,pseudo,2019:Q1:pre_advance:pseudo,2019-04-30,pre_advance,A,2019:Q1,2.544004133182678,,,not_available,3.1705,-0.6264958668173222,False,True,0,,,,,,,14,3,0.02
no_revision,pseudo,2019:Q1:pre_advance:pseudo,2019-04-30,pre_advance,A,2019:Q1,2.494294354572081,,,not_available,3.1705,-0.676205645427919,False,True,0,,,,,,,14,3,0.02
bridge,pseudo,2019:Q1:pre_advance:pseudo,2019-04-30,pre_advance,A,2019:Q1,2.4633884141498354,,,not_available,3.1705,-0.7071115858501646,False,True,0,,,,,,,14,3,0.02
midas_umidas,pseudo,2019:Q1:pre_advance:pseudo,2019-04-30,pre_advance,A,2019:Q1,4.923193803822225,,,not_available,3.1705,1.752693803822225,False,True,0,,,,,,,14,3,0.02
monthly_mixed_frequency_kalman_em,pseudo,2019:Q1:pre_advance:pseudo,2019-04-30,pre_advance,A,2019:Q1,1.6594276342989491,3.188071753329054,1.785517222915829,model_implied_state_space,3.1705,-1.511072365701051,False,True,54,-6287.947680874189,-7337.221342752908,-6287.947680874189,0.6241217620436146,9.923120072848489e-05,54.0,14,3,0.02
standard_dfm,pseudo,2019:Q1:pre_advance:pseudo,2019-04-30,pre_advance,A,2019:Q1,1.8406746253161013,,,not_available,3.1705,-1.3298253746838988,False,True,0,,,,,,,14,3,0.02
release_dfm,pseudo,2019:Q1:pre_advance:pseudo,2019-04-30,pre_advance,A,2019:Q1,1.8406746253161013,,,not_available,3.1705,-1.3298253746838988,False,True,0,,,,,,,14,3,0.02
revision_dfm_kalman_em,pseudo,2019:Q1:pre_advance:pseudo,2019-04-30,pre_advance,A,2019:Q1,1.4374596098441423,3.2166911528355615,1.7935136333007233,model_implied_state_space,3.1705,-1.7330403901558578,False,True,21,-1989.6773012507583,-2960.8843601728595,-1989.6773012507583,0.17825329407492063,8.953602568905329e-05,21.0,14,3,0.02
indicator_revision_only_dfm_kalman_em,pseudo,2019:Q1:pre_advance:pseudo,2019-04-30,pre_advance,A,2019:Q1,1.4681059815545714,3.7095602107509174,1.9260218614415874,model_implied_state_space,3.1705,-1.7023940184454287,False,True,25,-3681.952057311822,-4861.4890631551225,-3681.952057311822,0.34961668951245883,9.491937409858005e-05,25.0,14,3,0.02
joint_indicator_revision_dfm_full_kalman_em,pseudo,2019:Q1:pre_advance:pseudo,2019-04-30,pre_advance,A,2019:Q1,1.5250160387141494,2.655372735907157,1.6295314467377293,model_implied_state_space,3.1705,-1.6454839612858507,False,True,26,-3646.638779607895,-4875.292853382954,-3646.638779607895,0.3458549287852293,9.480712322933216e-05,26.0,14,3,0.02
ar,pseudo,2019:Q1:pre_second:pseudo,2019-05-31,pre_second,S,2019:Q1,3.0088930533858775,,,not_available,3.0658,-0.05690694661412232,False,True,0,,,,,,,14,3,0.02
no_revision,pseudo,2019:Q1:pre_second:pseudo,2019-05-31,pre_second,S,2019:Q1,3.1705,,,not_available,3.0658,0.10470000000000024,False,True,0,,,,,,,14,3,0.02
bridge,pseudo,2019:Q1:pre_second:pseudo,2019-05-31,pre_second,S,2019:Q1,1.4218172198520036,,,not_available,3.0658,-1.6439827801479963,False,True,0,,,,,,,14,3,0.02
midas_umidas,pseudo,2019:Q1:pre_second:pseudo,2019-05-31,pre_second,S,2019:Q1,3.7955827815763,,,not_available,3.0658,0.7297827815763003,False,True,0,,,,,,,14,3,0.02
monthly_mixed_frequency_kalman_em,pseudo,2019:Q1:pre_second:pseudo,2019-05-31,pre_second,S,2019:Q1,3.3919479549178164,0.35098859636512447,0.5924429055741359,model_implied_state_space,3.0658,0.32614795491781656,False,True,50,-6314.183496918036,-7330.413930259353,-6314.183496918036,0.6163609765144429,9.759032749335954e-05,50.0,14,3,0.02
standard_dfm,pseudo,2019:Q1:pre_second:pseudo,2019-05-31,pre_second,S,2019:Q1,1.7397240301912387,,,not_available,3.0658,-1.3260759698087612,False,True,0,,,,,,,14,3,0.02
release_dfm,pseudo,2019:Q1:pre_second:pseudo,2019-05-31,pre_second,S,2019:Q1,3.2581766904090235,,,not_available,3.0658,0.1923766904090236,False,True,0,,,,,,,14,3,0.02
revision_dfm_kalman_em,pseudo,2019:Q1:pre_second:pseudo,2019-05-31,pre_second,S,2019:Q1,3.335188875092233,0.40134806568974973,0.6335203751180776,model_implied_state_space,3.0658,0.2693888750922331,False,True,21,-1990.5486487642397,-2962.0088771951914,-1990.5486487642397,0.18101114322143985,9.088138157758313e-05,21.0,14,3,0.02
indicator_revision_only_dfm_kalman_em,pseudo,2019:Q1:pre_second:pseudo,2019-05-31,pre_second,S,2019:Q1,2.9660024565366068,0.39284060623334394,0.6267699787269202,model_implied_state_space,3.0658,-0.09979754346339309,False,True,25,-3683.1557539518867,-4862.676901119962,-3683.1557539518867,0.35086099455793374,9.522604549945518e-05,25.0,14,3,0.02
joint_indicator_revision_dfm_full_kalman_em,pseudo,2019:Q1:pre_second:pseudo,2019-05-31,pre_second,S,2019:Q1,3.281105765489526,0.39009763594406355,0.6245779662652723,model_implied_state_space,3.0658,0.2153057654895263,False,True,26,-3647.814292419116,-4876.581676500991,-3647.814292419116,0.34674998964283077,9.502183806444072e-05,26.0,14,3,0.02
ar,pseudo,2019:Q1:pre_third:pseudo,2019-06-30,pre_third,T,2019:Q1,2.445392866771208,,,not_available,3.1268,-0.6814071332287917,False,True,0,,,,,,,14,3,0.02
no_revision,pseudo,2019:Q1:pre_third:pseudo,2019-06-30,pre_third,T,2019:Q1,3.0658,,,not_available,3.1268,-0.06099999999999994,False,True,0,,,,,,,14,3,0.02
bridge,pseudo,2019:Q1:pre_third:pseudo,2019-06-30,pre_third,T,2019:Q1,2.2684052100145555,,,not_available,3.1268,-0.8583947899854443,False,True,0,,,,,,,14,3,0.02
midas_umidas,pseudo,2019:Q1:pre_third:pseudo,2019-06-30,pre_third,T,2019:Q1,4.13209857753133,,,not_available,3.1268,1.0052985775313306,False,True,0,,,,,,,14,3,0.02
monthly_mixed_frequency_kalman_em,pseudo,2019:Q1:pre_third:pseudo,2019-06-30,pre_third,T,2019:Q1,3.310186438213462,0.14291480612390647,0.37804074664499654,model_implied_state_space,3.1268,0.183386438213462,False,True,52,-6330.262917367987,-7350.951155117272,-6330.262917367987,0.6282721687175581,9.922346261347043e-05,52.0,14,3,0.02
standard_dfm,pseudo,2019:Q1:pre_third:pseudo,2019-06-30,pre_third,T,2019:Q1,1.7705413071187412,,,not_available,3.1268,-1.3562586928812586,False,True,0,,,,,,,14,3,0.02
release_dfm,pseudo,2019:Q1:pre_third:pseudo,2019-06-30,pre_third,T,2019:Q1,3.177975883912608,,,not_available,3.1268,0.05117588391260819,False,True,0,,,,,,,14,3,0.02
revision_dfm_kalman_em,pseudo,2019:Q1:pre_third:pseudo,2019-06-30,pre_third,T,2019:Q1,3.0908508606341583,0.14774653608743024,0.38437811603605926,model_implied_state_space,3.1268,-0.03594913936584154,False,True,22,-1989.354418839428,-2974.4142364836252,-1989.354418839428,0.17795235829385092,8.939937921570967e-05,22.0,14,3,0.02
indicator_revision_only_dfm_kalman_em,pseudo,2019:Q1:pre_third:pseudo,2019-06-30,pre_third,T,2019:Q1,3.058719962195787,0.15213042644806604,0.39003900631611965,model_implied_state_space,3.1268,-0.06808003780421279,False,True,25,-3681.862871954934,-4863.350345312304,-3681.862871954934,0.35241484179186955,9.56813040647328e-05,25.0,14,3,0.02
joint_indicator_revision_dfm_full_kalman_em,pseudo,2019:Q1:pre_third:pseudo,2019-06-30,pre_third,T,2019:Q1,3.0840331581505276,0.1473955210329191,0.3839212432686151,model_implied_state_space,3.1268,-0.042766841849472215,False,True,26,-3646.572630266581,-4877.227122085651,-3646.572630266581,0.3493268575793991,9.576050740262846e-05,26.0,14,3,0.02
ar,exact,2019:Q2:pre_advance:exact,2019-07-25,pre_advance,A,2019:Q2,2.835856491574643,,,not_available,2.055,0.7808564915746428,False,True,0,,,,,,,14,3,0.02
no_revision,exact,2019:Q2:pre_advance:exact,2019-07-25,pre_advance,A,2019:Q2,2.8870145085411787,,,not_available,2.055,0.8320145085411785,False,True,0,,,,,,,14,3,0.02
bridge,exact,2019:Q2:pre_advance:exact,2019-07-25,pre_advance,A,2019:Q2,2.0272387884123937,,,not_available,2.055,-0.02776121158760647,False,True,0,,,,,,,14,3,0.02
midas_umidas,exact,2019:Q2:pre_advance:exact,2019-07-25,pre_advance,A,2019:Q2,1.095853544431865,,,not_available,2.055,-0.9591464555681353,False,True,0,,,,,,,14,3,0.02
monthly_mixed_frequency_kalman_em,exact,2019:Q2:pre_advance:exact,2019-07-25,pre_advance,A,2019:Q2,1.9529338367558156,3.214129048734322,1.792799221534392,model_implied_state_space,2.055,-0.1020661632441846,False,True,50,-6350.581332858644,-7371.17664482267,-6350.581332858644,0.6185725957329851,9.737927095175985e-05,50.0,14,3,0.02
standard_dfm,exact,2019:Q2:pre_advance:exact,2019-07-25,pre_advance,A,2019:Q2,2.2075222586847105,,,not_available,2.055,0.15252225868471037,False,True,0,,,,,,,14,3,0.02
release_dfm,exact,2019:Q2:pre_advance:exact,2019-07-25,pre_advance,A,2019:Q2,2.2075222586847105,,,not_available,2.055,0.15252225868471037,False,True,0,,,,,,,14,3,0.02
revision_dfm_kalman_em,exact,2019:Q2:pre_advance:exact,2019-07-25,pre_advance,A,2019:Q2,2.029839144156757,3.26637385351601,1.8073112220965182,model_implied_state_space,2.055,-0.025160855843243013,False,True,21,-2007.9463809931844,-2983.5572578616257,-2007.9463809931844,0.17967134446803357,8.942761170160672e-05,21.0,14,3,0.02
indicator_revision_only_dfm_kalman_em,exact,2019:Q2:pre_advance:exact,2019-07-25,pre_advance,A,2019:Q2,2.5634979150174546,3.735705794096603,1.932797401202879,model_implied_state_space,2.055,0.5084979150174544,False,True,25,-3718.472582353576,-4902.518927114762,-3718.472582353576,0.3550114244130782,9.543760173371799e-05,25.0,14,3,0.02
joint_indicator_revision_dfm_full_kalman_em,exact,2019:Q2:pre_advance:exact,2019-07-25,pre_advance,A,2019:Q2,2.5344581003801037,2.6823519275183805,1.637788731039013,model_implied_state_space,2.055,0.4794581003801035,False,True,26,-3683.3062783135215,-4916.394810414477,-3683.3062783135215,0.3497553267065996,9.492211037160542e-05,26.0,14,3,0.02
ar,exact,2019:Q2:pre_second:exact,2019-08-28,pre_second,S,2019:Q2,2.809602293515929,,,not_available,2.0379,0.7717022935159288,False,True,0,,,,,,,14,3,0.02
no_revision,exact,2019:Q2:pre_second:exact,2019-08-28,pre_second,S,2019:Q2,2.055,,,not_available,2.0379,0.017100000000000115,False,True,0,,,,,,,14,3,0.02
bridge,exact,2019:Q2:pre_second:exact,2019-08-28,pre_second,S,2019:Q2,1.7903441270878622,,,not_available,2.0379,-0.24755587291213788,False,True,0,,,,,,,14,3,0.02
midas_umidas,exact,2019:Q2:pre_second:exact,2019-08-28,pre_second,S,2019:Q2,2.1500769988566333,,,not_available,2.0379,0.11217699885663324,False,True,0,,,,,,,14,3,0.02
monthly_mixed_frequency_kalman_em,exact,2019:Q2:pre_second:exact,2019-08-28,pre_second,S,2019:Q2,2.0583690569770954,0.348651806292067,0.5904674472755183,model_implied_state_space,2.0379,0.020469056977095335,False,True,52,-6368.1541381053285,-7418.865479658013,-6368.1541381053285,0.635894770505729,9.982978516147965e-05,52.0,14,3,0.02
standard_dfm,exact,2019:Q2:pre_second:exact,2019-08-28,pre_second,S,2019:Q2,2.249521942147944,,,not_available,2.0379,0.21162194214794416,False,True,0,,,,,,,14,3,0.02
release_dfm,exact,2019:Q2:pre_second:exact,2019-08-28,pre_second,S,2019:Q2,2.130270211283246,,,not_available,2.0379,0.09237021128324585,False,True,0,,,,,,,14,3,0.02
revision_dfm_kalman_em,exact,2019:Q2:pre_second:exact,2019-08-28,pre_second,S,2019:Q2,2.1028210524245687,0.39972626437199366,0.6322390879817489,model_implied_state_space,2.0379,0.06492105242456869,False,True,21,-2009.1728162265742,-2984.7168393071556,-2009.1728162265742,0.1818890888207534,9.047611764224347e-05,21.0,14,3,0.02
indicator_revision_only_dfm_kalman_em,exact,2019:Q2:pre_second:exact,2019-08-28,pre_second,S,2019:Q2,2.10318032215371,0.39088848563823525,0.6252107529771344,model_implied_state_space,2.0379,0.06528032215370994,False,True,25,-3719.8081999775704,-4903.8275679466105,-3719.8081999775704,0.3549170619398865,9.537799090684637e-05,25.0,14,3,0.02
joint_indicator_revision_dfm_full_kalman_em,exact,2019:Q2:pre_second:exact,2019-08-28,pre_second,S,2019:Q2,2.101243226786524,0.3884363347880933,0.6232466083245807,model_implied_state_space,2.0379,0.06334322678652393,False,True,26,-3684.4833404266496,-4917.808170662997,-3684.4833404266496,0.34921688060103406,9.47457257407701e-05,26.0,14,3,0.02
ar,exact,2019:Q2:pre_third:exact,2019-09-25,pre_third,T,2019:Q2,2.86498901665629,,,not_available,2.0143,0.8506890166562902,False,True,0,,,,,,,14,3,0.02
no_revision,exact,2019:Q2:pre_third:exact,2019-09-25,pre_third,T,2019:Q2,2.0379,,,not_available,2.0143,0.023600000000000065,False,True,0,,,,,,,14,3,0.02
bridge,exact,2019:Q2:pre_third:exact,2019-09-25,pre_third,T,2019:Q2,2.0335288624287204,,,not_available,2.0143,0.01922886242872046,False,True,0,,,,,,,14,3,0.02
midas_umidas,exact,2019:Q2:pre_third:exact,2019-09-25,pre_third,T,2019:Q2,1.7094667106387418,,,not_available,2.0143,-0.3048332893612582,False,True,0,,,,,,,14,3,0.02
monthly_mixed_frequency_kalman_em,exact,2019:Q2:pre_third:exact,2019-09-25,pre_third,T,2019:Q2,2.0327701108691314,0.14315155390113643,0.3783537417564896,model_implied_state_space,2.0143,0.018470110869131418,False,True,54,-6383.975003426527,-7438.317659323553,-6383.975003426527,0.6276238260634273,9.828732896482518e-05,54.0,14,3,0.02
standard_dfm,exact,2019:Q2:pre_third:exact,2019-09-25,pre_third,T,2019:Q2,2.3153784836701568,,,not_available,2.0143,0.30107848367015677,False,True,0,,,,,,,14,3,0.02
release_dfm,exact,2019:Q2:pre_third:exact,2019-09-25,pre_third,T,2019:Q2,2.1127219183232313,,,not_available,2.0143,0.09842191832323133,False,True,0,,,,,,,14,3,0.02
revision_dfm_kalman_em,exact,2019:Q2:pre_third:exact,2019-09-25,pre_third,T,2019:Q2,2.044640311388838,0.1470641950590592,0.3834894979775316,model_implied_state_space,2.0143,0.03034031138883808,False,True,22,-2008.932185413681,-2997.443662624083,-2008.932185413681,0.18054499746267538,8.981834437999262e-05,22.0,14,3,0.02
indicator_revision_only_dfm_kalman_em,exact,2019:Q2:pre_third:exact,2019-09-25,pre_third,T,2019:Q2,2.0423363041695555,0.15144450361864292,0.38915871263360263,model_implied_state_space,2.0143,0.028036304169555493,False,True,25,-3719.343591810558,-4904.888351070319,-3719.343591810558,0.35569231184445016,9.55982423417879e-05,25.0,14,3,0.02
joint_indicator_revision_dfm_full_kalman_em,exact,2019:Q2:pre_third:exact,2019-09-25,pre_third,T,2019:Q2,2.0422458447286265,0.14671781669527337,0.3830376178592298,model_implied_state_space,2.0143,0.02794584472862649,False,True,26,-3684.003065627458,-4918.842439599913,-3684.003065627458,0.35010628472264216,9.49993849683031e-05,26.0,14,3,0.02
ar,pseudo,2019:Q2:pre_advance:pseudo,2019-07-31,pre_advance,A,2019:Q2,2.835856491574643,,,not_available,2.055,0.7808564915746428,False,True,0,,,,,,,14,3,0.02
no_revision,pseudo,2019:Q2:pre_advance:pseudo,2019-07-31,pre_advance,A,2019:Q2,2.8870145085411787,,,not_available,2.055,0.8320145085411785,False,True,0,,,,,,,14,3,0.02
bridge,pseudo,2019:Q2:pre_advance:pseudo,2019-07-31,pre_advance,A,2019:Q2,2.0262506423041557,,,not_available,2.055,-0.028749357695844413,False,True,0,,,,,,,14,3,0.02
midas_umidas,pseudo,2019:Q2:pre_advance:pseudo,2019-07-31,pre_advance,A,2019:Q2,1.2162629624178303,,,not_available,2.055,-0.8387370375821699,False,True,0,,,,,,,14,3,0.02
monthly_mixed_frequency_kalman_em,pseudo,2019:Q2:pre_advance:pseudo,2019-07-31,pre_advance,A,2019:Q2,1.9854003780147371,3.2156528952706047,1.793224162025095,model_implied_state_space,2.055,-0.06959962198526304,False,True,49,-6352.49700138712,-7372.402001919866,-6352.49700138712,0.6272247180922932,9.871143461681316e-05,49.0,14,3,0.02
standard_dfm,pseudo,2019:Q2:pre_advance:pseudo,2019-07-31,pre_advance,A,2019:Q2,2.258550549919068,,,not_available,2.055,0.20355054991906796,False,True,0,,,,,,,14,3,0.02
release_dfm,pseudo,2019:Q2:pre_advance:pseudo,2019-07-31,pre_advance,A,2019:Q2,2.258550549919068,,,not_available,2.055,0.20355054991906796,False,True,0,,,,,,,14,3,0.02
revision_dfm_kalman_em,pseudo,2019:Q2:pre_advance:pseudo,2019-07-31,pre_advance,A,2019:Q2,2.053558492104357,3.2655038272675494,1.8070705097664421,model_implied_state_space,2.055,-0.0014415078956431238,False,True,21,-2007.6826924174175,-2983.2550426899516,-2007.6826924174175,0.17969702913296715,8.945213473904223e-05,21.0,14,3,0.02
indicator_revision_only_dfm_kalman_em,pseudo,2019:Q2:pre_advance:pseudo,2019-07-31,pre_advance,A,2019:Q2,2.576555133210207,3.734246161417738,1.9324197684296593,model_implied_state_space,2.055,0.5215551332102066,False,True,25,-3717.932877251318,-4902.287609268536,-3717.932877251318,0.35457273956353674,9.533351329551203e-05,25.0,14,3,0.02
joint_indicator_revision_dfm_full_kalman_em,pseudo,2019:Q2:pre_advance:pseudo,2019-07-31,pre_advance,A,2019:Q2,2.5531325515012986,2.6804048083891434,1.6371941877459568,model_implied_state_space,2.055,0.4981325515012984,False,True,26,-3682.7645679889515,-4916.163329614901,-3682.7645679889515,0.3490906535648719,9.475566877420963e-05,26.0,14,3,0.02
ar,pseudo,2019:Q2:pre_second:pseudo,2019-08-31,pre_second,S,2019:Q2,2.809602293515929,,,not_available,2.0379,0.7717022935159288,False,True,0,,,,,,,14,3,0.02
no_revision,pseudo,2019:Q2:pre_second:pseudo,2019-08-31,pre_second,S,2019:Q2,2.055,,,not_available,2.0379,0.017100000000000115,False,True,0,,,,,,,14,3,0.02
bridge,pseudo,2019:Q2:pre_second:pseudo,2019-08-31,pre_second,S,2019:Q2,1.7904080390729669,,,not_available,2.0379,-0.24749196092703318,False,True,0,,,,,,,14,3,0.02
midas_umidas,pseudo,2019:Q2:pre_second:pseudo,2019-08-31,pre_second,S,2019:Q2,2.146409259715819,,,not_available,2.0379,0.10850925971581882,False,True,0,,,,,,,14,3,0.02
monthly_mixed_frequency_kalman_em,pseudo,2019:Q2:pre_second:pseudo,2019-08-31,pre_second,S,2019:Q2,2.0577822748534356,0.34864346061422136,0.5904603802239583,model_implied_state_space,2.0379,0.019882274853435522,False,True,52,-6369.468280958436,-7420.230284323025,-6369.468280958436,0.6364165223421878,9.989107895116457e-05,52.0,14,3,0.02
standard_dfm,pseudo,2019:Q2:pre_second:pseudo,2019-08-31,pre_second,S,2019:Q2,2.248397659127057,,,not_available,2.0379,0.2104976591270571,False,True,0,,,,,,,14,3,0.02
release_dfm,pseudo,2019:Q2:pre_second:pseudo,2019-08-31,pre_second,S,2019:Q2,2.1302045363490407,,,not_available,2.0379,0.09230453634904068,False,True,0,,,,,,,14,3,0.02
revision_dfm_kalman_em,pseudo,2019:Q2:pre_second:pseudo,2019-08-31,pre_second,S,2019:Q2,2.102821708132123,0.39972619114896707,0.6322390300740434,model_implied_state_space,2.0379,0.06492170813212317,False,True,21,-2009.1785183000352,-2984.7190213900863,-2009.1785183000352,0.18189390092129543,9.047825445495951e-05,21.0,14,3,0.02
indicator_revision_only_dfm_kalman_em,pseudo,2019:Q2:pre_second:pseudo,2019-08-31,pre_second,S,2019:Q2,2.103092251728159,0.39088771035124853,0.6252101329563113,model_implied_state_space,2.0379,0.0651922517281589,False,True,25,-3719.8149703575486,-4903.832342491432,-3719.8149703575486,0.3549145871243127,9.537715237357126e-05,25.0,14,3,0.02
joint_indicator_revision_dfm_full_kalman_em,pseudo,2019:Q2:pre_second:pseudo,2019-08-31,pre_second,S,2019:Q2,2.101260389949318,0.3884365780223121,0.6232468034593616,model_implied_state_space,2.0379,0.06336038994931803,False,True,26,-3684.4899356083456,-4917.812961154299,-3684.4899356083456,0.3492130905351587,9.47445280292366e-05,26.0,14,3,0.02
ar,pseudo,2019:Q2:pre_third:pseudo,2019-09-30,pre_third,T,2019:Q2,2.86498901665629,,,not_available,2.0143,0.8506890166562902,False,True,0,,,,,,,14,3,0.02
no_revision,pseudo,2019:Q2:pre_third:pseudo,2019-09-30,pre_third,T,2019:Q2,2.0379,,,not_available,2.0143,0.023600000000000065,False,True,0,,,,,,,14,3,0.02
bridge,pseudo,2019:Q2:pre_third:pseudo,2019-09-30,pre_third,T,2019:Q2,2.0315149833894925,,,not_available,2.0143,0.017214983389492566,False,True,0,,,,,,,14,3,0.02
midas_umidas,pseudo,2019:Q2:pre_third:pseudo,2019-09-30,pre_third,T,2019:Q2,1.7001949812298822,,,not_available,2.0143,-0.31410501877011776,False,True,0,,,,,,,14,3,0.02
monthly_mixed_frequency_kalman_em,pseudo,2019:Q2:pre_third:pseudo,2019-09-30,pre_third,T,2019:Q2,2.0330119011251235,0.14313265104427197,0.3783287605301399,model_implied_state_space,2.0143,0.018711901125123553,False,True,54,-6386.717266298226,-7441.16270349829,-6386.717266298226,0.6266257989755104,9.808892720235168e-05,54.0,14,3,0.02
standard_dfm,pseudo,2019:Q2:pre_third:pseudo,2019-09-30,pre_third,T,2019:Q2,2.3122326767126324,,,not_available,2.0143,0.29793267671263246,False,True,0,,,,,,,14,3,0.02
release_dfm,pseudo,2019:Q2:pre_third:pseudo,2019-09-30,pre_third,T,2019:Q2,2.112680858792247,,,not_available,2.0143,0.09838085879224723,False,True,0,,,,,,,14,3,0.02
revision_dfm_kalman_em,pseudo,2019:Q2:pre_third:pseudo,2019-09-30,pre_third,T,2019:Q2,2.0446390593583446,0.14706413849655384,0.3834894242303871,model_implied_state_space,2.0143,0.030339059358344578,False,True,22,-2008.9216957316364,-2997.439634926565,-2008.9216957316364,0.18053586663472743,8.981427103395626e-05,22.0,14,3,0.02
indicator_revision_only_dfm_kalman_em,pseudo,2019:Q2:pre_third:pseudo,2019-09-30,pre_third,T,2019:Q2,2.0423251453904507,0.15144451317509494,0.3891587249119502,model_implied_state_space,2.0143,0.028025145390450756,False,True,25,-3719.338889427932,-4904.88627784725,-3719.338889427932,0.35570342425853596,9.560134952808978e-05,25.0,14,3,0.02
joint_indicator_revision_dfm_full_kalman_em,pseudo,2019:Q2:pre_third:pseudo,2019-09-30,pre_third,T,2019:Q2,2.0422472558989204,0.14671782327582852,0.3830376264491891,model_implied_state_space,2.0143,0.027947255898920442,False,True,26,-3683.998268527834,-4918.840374814791,-3683.998268527834,0.3501163107307548,9.500222887234349e-05,26.0,14,3,0.02
ar,exact,2019:Q3:pre_advance:exact,2019-10-29,pre_advance,A,2019:Q3,2.279256097331871,,,not_available,1.9188,0.3604560973318711,False,True,0,,,,,,,14,3,0.02
no_revision,exact,2019:Q3:pre_advance:exact,2019-10-29,pre_advance,A,2019:Q3,2.317127933697079,,,not_available,1.9188,0.39832793369707886,False,True,0,,,,,,,14,3,0.02
bridge,exact,2019:Q3:pre_advance:exact,2019-10-29,pre_advance,A,2019:Q3,2.5989815132209673,,,not_available,1.9188,0.6801815132209672,False,True,0,,,,,,,14,3,0.02
midas_umidas,exact,2019:Q3:pre_advance:exact,2019-10-29,pre_advance,A,2019:Q3,2.7556857521246303,,,not_available,1.9188,0.8368857521246302,False,True,0,,,,,,,14,3,0.02
monthly_mixed_frequency_kalman_em,exact,2019:Q3:pre_advance:exact,2019-10-29,pre_advance,A,2019:Q3,2.539287744378626,3.0673289327178286,1.751379151616756,model_implied_state_space,1.9188,0.6204877443786261,False,True,88,-6364.134759274062,-7462.623169084342,-6364.134759274062,0.6169100469369369,9.691079372606745e-05,88.0,14,3,0.02
standard_dfm,exact,2019:Q3:pre_advance:exact,2019-10-29,pre_advance,A,2019:Q3,2.3386766974748623,,,not_available,1.9188,0.4198766974748622,False,True,0,,,,,,,14,3,0.02
release_dfm,exact,2019:Q3:pre_advance:exact,2019-10-29,pre_advance,A,2019:Q3,2.3386766974748623,,,not_available,1.9188,0.4198766974748622,False,True,0,,,,,,,14,3,0.02
revision_dfm_kalman_em,exact,2019:Q3:pre_advance:exact,2019-10-29,pre_advance,A,2019:Q3,2.497723365012995,3.2435892763272745,1.8009967452295061,model_implied_state_space,1.9188,0.578923365012995,False,True,21,-2026.3555920224717,-3006.37591508484,-2026.3555920224717,0.18042473337686715,8.898719030676214e-05,21.0,14,3,0.02
indicator_revision_only_dfm_kalman_em,exact,2019:Q3:pre_advance:exact,2019-10-29,pre_advance,A,2019:Q3,2.568070124470577,3.6973590956345928,1.9228518132281003,model_implied_state_space,1.9188,0.649270124470577,False,True,25,-3753.065389754071,-4922.6415873879305,-3753.065389754071,0.34097009771903686,9.081864482365119e-05,25.0,14,3,0.02
joint_indicator_revision_dfm_full_kalman_em,exact,2019:Q3:pre_advance:exact,2019-10-29,pre_advance,A,2019:Q3,2.4603004379522395,2.6400299927254944,1.6248169105242272,model_implied_state_space,1.9188,0.5415004379522395,False,True,26,-3717.866196487676,-4936.865796116913,-3717.866196487676,0.3464882955795474,9.316173205075518e-05,26.0,14,3,0.02
ar,exact,2019:Q3:pre_second:exact,2019-11-26,pre_second,S,2019:Q3,2.3385524286308836,,,not_available,2.1238,0.2147524286308835,False,True,0,,,,,,,14,3,0.02
no_revision,exact,2019:Q3:pre_second:exact,2019-11-26,pre_second,S,2019:Q3,1.9188,,,not_available,2.1238,-0.20500000000000007,False,True,0,,,,,,,14,3,0.02
bridge,exact,2019:Q3:pre_second:exact,2019-11-26,pre_second,S,2019:Q3,2.759703662352096,,,not_available,2.1238,0.6359036623520957,False,True,0,,,,,,,14,3,0.02
midas_umidas,exact,2019:Q3:pre_second:exact,2019-11-26,pre_second,S,2019:Q3,1.8640393070936114,,,not_available,2.1238,-0.2597606929063887,False,True,0,,,,,,,14,3,0.02
monthly_mixed_frequency_kalman_em,exact,2019:Q3:pre_second:exact,2019-11-26,pre_second,S,2019:Q3,1.6805457182703787,0.34079438783074206,0.5837759740095014,model_implied_state_space,2.1238,-0.44325428172962145,False,True,86,-6380.071972056759,-7481.016055452483,-6380.071972056759,0.6095312175175422,9.551263522079682e-05,86.0,14,3,0.02
standard_dfm,exact,2019:Q3:pre_second:exact,2019-11-26,pre_second,S,2019:Q3,2.4213444454816266,,,not_available,2.1238,0.2975444454816265,False,True,0,,,,,,,14,3,0.02
release_dfm,exact,2019:Q3:pre_second:exact,2019-11-26,pre_second,S,2019:Q3,1.9988734990510797,,,not_available,2.1238,-0.12492650094892044,False,True,0,,,,,,,14,3,0.02
revision_dfm_kalman_em,exact,2019:Q3:pre_second:exact,2019-11-26,pre_second,S,2019:Q3,2.0336931049554603,0.3978038670504557,0.6307169468552876,model_implied_state_space,2.1238,-0.09010689504453984,False,True,21,-2027.2606185061609,-3007.661140699008,-2027.2606185061609,0.18219750609932817,8.982136674550797e-05,21.0,14,3,0.02
indicator_revision_only_dfm_kalman_em,exact,2019:Q3:pre_second:exact,2019-11-26,pre_second,S,2019:Q3,1.9884537159943179,0.3891064780021512,0.6237839994759012,model_implied_state_space,2.1238,-0.13534628400568227,False,True,25,-3754.220576809616,-4944.743808346703,-3754.220576809616,0.3576374113545171,9.522832196658239e-05,25.0,14,3,0.02
joint_indicator_revision_dfm_full_kalman_em,exact,2019:Q3:pre_second:exact,2019-11-26,pre_second,S,2019:Q3,2.0440479906776883,0.3866583119636414,0.6218185522832537,model_implied_state_space,2.1238,-0.07975200932231186,False,True,26,-3718.7002597857854,-4958.7810141792015,-3718.7002597857854,0.35071733638778824,9.427756193252565e-05,26.0,14,3,0.02
ar,exact,2019:Q3:pre_third:exact,2019-12-19,pre_third,T,2019:Q3,2.3786343473599274,,,not_available,2.1024,0.2762343473599276,False,True,0,,,,,,,14,3,0.02
no_revision,exact,2019:Q3:pre_third:exact,2019-12-19,pre_third,T,2019:Q3,2.1238,,,not_available,2.1024,0.021400000000000308,False,True,0,,,,,,,14,3,0.02
bridge,exact,2019:Q3:pre_third:exact,2019-12-19,pre_third,T,2019:Q3,2.7361020837181926,,,not_available,2.1024,0.6337020837181928,False,True,0,,,,,,,14,3,0.02
midas_umidas,exact,2019:Q3:pre_third:exact,2019-12-19,pre_third,T,2019:Q3,3.214676894078797,,,not_available,2.1024,1.1122768940787973,False,True,0,,,,,,,14,3,0.02
monthly_mixed_frequency_kalman_em,exact,2019:Q3:pre_third:exact,2019-12-19,pre_third,T,2019:Q3,1.9273133671702225,0.13462476869731857,0.3669124809778465,model_implied_state_space,2.1024,-0.17508663282977732,False,True,84,-6397.344570870017,-7475.925544386487,-6397.344570870017,0.5613095619301021,8.771961526213476e-05,84.0,14,3,0.02
standard_dfm,exact,2019:Q3:pre_third:exact,2019-12-19,pre_third,T,2019:Q3,2.4553317270171258,,,not_available,2.1024,0.35293172701712594,False,True,0,,,,,,,14,3,0.02
release_dfm,exact,2019:Q3:pre_third:exact,2019-12-19,pre_third,T,2019:Q3,2.1495184018457247,,,not_available,2.1024,0.04711840184572491,False,True,0,,,,,,,14,3,0.02
revision_dfm_kalman_em,exact,2019:Q3:pre_third:exact,2019-12-19,pre_third,T,2019:Q3,2.1210309886576746,0.14639206590781975,0.3826121612126564,model_implied_state_space,2.1024,0.018630988657674763,False,True,22,-2026.6003381448081,-3020.3560511686564,-2026.6003381448081,0.18056036812686216,8.904333217621065e-05,22.0,14,3,0.02
indicator_revision_only_dfm_kalman_em,exact,2019:Q3:pre_third:exact,2019-12-19,pre_third,T,2019:Q3,2.114514927737139,0.15074058357806153,0.38825324670640105,model_implied_state_space,2.1024,0.01211492773713907,False,True,25,-3753.56850958189,-4924.914585966985,-3753.56850958189,0.34410508262863004,9.164130245927814e-05,25.0,14,3,0.02
joint_indicator_revision_dfm_full_kalman_em,exact,2019:Q3:pre_third:exact,2019-12-19,pre_third,T,2019:Q3,2.121715117756097,0.14598039306250676,0.38207380577907557,model_implied_state_space,2.1024,0.019315117756097067,False,True,26,-3718.178759911653,-4939.215144838869,-3718.178759911653,0.3498223822757609,9.405019333391342e-05,26.0,14,3,0.02
ar,pseudo,2019:Q3:pre_advance:pseudo,2019-10-31,pre_advance,A,2019:Q3,2.279256097331871,,,not_available,1.9188,0.3604560973318711,False,True,0,,,,,,,14,3,0.02
no_revision,pseudo,2019:Q3:pre_advance:pseudo,2019-10-31,pre_advance,A,2019:Q3,2.317127933697079,,,not_available,1.9188,0.39832793369707886,False,True,0,,,,,,,14,3,0.02
bridge,pseudo,2019:Q3:pre_advance:pseudo,2019-10-31,pre_advance,A,2019:Q3,2.5967493981997967,,,not_available,1.9188,0.6779493981997966,False,True,0,,,,,,,14,3,0.02
midas_umidas,pseudo,2019:Q3:pre_advance:pseudo,2019-10-31,pre_advance,A,2019:Q3,2.6690577042540142,,,not_available,1.9188,0.7502577042540142,False,True,0,,,,,,,14,3,0.02
monthly_mixed_frequency_kalman_em,pseudo,2019:Q3:pre_advance:pseudo,2019-10-31,pre_advance,A,2019:Q3,2.585880304249913,3.179203707597051,1.7830321667308897,model_implied_state_space,1.9188,0.6670803042499132,False,True,56,-6405.025629257409,-7464.052371991779,-6405.025629257409,0.6391214492350628,9.975884084844128e-05,56.0,14,3,0.02
standard_dfm,pseudo,2019:Q3:pre_advance:pseudo,2019-10-31,pre_advance,A,2019:Q3,2.3597547953357836,,,not_available,1.9188,0.4409547953357835,False,True,0,,,,,,,14,3,0.02
release_dfm,pseudo,2019:Q3:pre_advance:pseudo,2019-10-31,pre_advance,A,2019:Q3,2.3597547953357836,,,not_available,1.9188,0.4409547953357835,False,True,0,,,,,,,14,3,0.02
revision_dfm_kalman_em,pseudo,2019:Q3:pre_advance:pseudo,2019-10-31,pre_advance,A,2019:Q3,2.510611128065879,3.243440972142862,1.8009555719514188,model_implied_state_space,1.9188,0.5918111280658791,False,True,21,-2026.3591326607088,-3006.37984794334,-2026.3591326607088,0.18041677189262373,8.898310858750578e-05,21.0,14,3,0.02
indicator_revision_only_dfm_kalman_em,pseudo,2019:Q3:pre_advance:pseudo,2019-10-31,pre_advance,A,2019:Q3,2.5780258943377805,3.7019112731471697,1.9240351538231233,model_implied_state_space,1.9188,0.6592258943377804,False,True,24,-3753.3740841204135,-4922.605331449985,-3753.3740841204135,0.375409965236031,9.998269280743327e-05,24.0,14,3,0.02
joint_indicator_revision_dfm_full_kalman_em,pseudo,2019:Q3:pre_advance:pseudo,2019-10-31,pre_advance,A,2019:Q3,2.470454709923178,2.6399765607941283,1.6248004679941868,model_implied_state_space,1.9188,0.5516547099231781,False,True,26,-3717.835103429131,-4936.829486518705,-3717.835103429131,0.34639399175512153,9.313715719314394e-05,26.0,14,3,0.02
ar,pseudo,2019:Q3:pre_second:pseudo,2019-11-30,pre_second,S,2019:Q3,2.3385524286308836,,,not_available,2.1238,0.2147524286308835,False,True,0,,,,,,,14,3,0.02
no_revision,pseudo,2019:Q3:pre_second:pseudo,2019-11-30,pre_second,S,2019:Q3,1.9188,,,not_available,2.1238,-0.20500000000000007,False,True,0,,,,,,,14,3,0.02
bridge,pseudo,2019:Q3:pre_second:pseudo,2019-11-30,pre_second,S,2019:Q3,2.755757569281757,,,not_available,2.1238,0.6319575692817567,False,True,0,,,,,,,14,3,0.02
midas_umidas,pseudo,2019:Q3:pre_second:pseudo,2019-11-30,pre_second,S,2019:Q3,1.8794035051159255,,,not_available,2.1238,-0.24439649488407467,False,True,0,,,,,,,14,3,0.02
monthly_mixed_frequency_kalman_em,pseudo,2019:Q3:pre_second:pseudo,2019-11-30,pre_second,S,2019:Q3,1.6809960704656808,0.3407958181701062,0.5837771990837824,model_implied_state_space,2.1238,-0.44280392953431935,False,True,86,-6382.861424006063,-7483.761482383472,-6382.861424006063,0.603163747941835,9.447366175368237e-05,86.0,14,3,0.02
standard_dfm,pseudo,2019:Q3:pre_second:pseudo,2019-11-30,pre_second,S,2019:Q3,2.415863334629673,,,not_available,2.1238,0.29206333462967304,False,True,0,,,,,,,14,3,0.02
release_dfm,pseudo,2019:Q3:pre_second:pseudo,2019-11-30,pre_second,S,2019:Q3,1.9985507776579652,,,not_available,2.1238,-0.12524922234203495,False,True,0,,,,,,,14,3,0.02
revision_dfm_kalman_em,pseudo,2019:Q3:pre_second:pseudo,2019-11-30,pre_second,S,2019:Q3,2.0333336816734167,0.39780842017145995,0.63072055632543,model_implied_state_space,2.1238,-0.09046631832658347,False,True,21,-2027.1442240951992,-3007.6252222421826,-2027.1442240951992,0.1821775091557356,8.981666314240046e-05,21.0,14,3,0.02
indicator_revision_only_dfm_kalman_em,pseudo,2019:Q3:pre_second:pseudo,2019-11-30,pre_second,S,2019:Q3,1.9887012133701034,0.38910391641097614,0.6237819462047424,model_implied_state_space,2.1238,-0.13509878662989672,False,True,25,-3754.194305122813,-4944.748915745379,-3754.194305122813,0.35783483525710835,9.528155166582336e-05,25.0,14,3,0.02
joint_indicator_revision_dfm_full_kalman_em,pseudo,2019:Q3:pre_second:pseudo,2019-11-30,pre_second,S,2019:Q3,2.043733687844661,0.386666880366358,0.6218254420384856,model_implied_state_space,2.1238,-0.08006631215533933,False,True,26,-3718.674182207995,-4958.78615332615,-3718.674182207995,0.3509194549460517,9.433255028015329e-05,26.0,14,3,0.02
ar,pseudo,2019:Q3:pre_third:pseudo,2019-12-31,pre_third,T,2019:Q3,2.3786343473599274,,,not_available,2.1024,0.2762343473599276,False,True,0,,,,,,,14,3,0.02
no_revision,pseudo,2019:Q3:pre_third:pseudo,2019-12-31,pre_third,T,2019:Q3,2.1238,,,not_available,2.1024,0.021400000000000308,False,True,0,,,,,,,14,3,0.02
bridge,pseudo,2019:Q3:pre_third:pseudo,2019-12-31,pre_third,T,2019:Q3,2.7336186979777626,,,not_available,2.1024,0.6312186979777628,False,True,0,,,,,,,14,3,0.02
midas_umidas,pseudo,2019:Q3:pre_third:pseudo,2019-12-31,pre_third,T,2019:Q3,3.204672467793214,,,not_available,2.1024,1.102272467793214,False,True,0,,,,,,,14,3,0.02
monthly_mixed_frequency_kalman_em,pseudo,2019:Q3:pre_third:pseudo,2019-12-31,pre_third,T,2019:Q3,1.926586040179088,0.13462632467763821,0.3669146013415632,model_implied_state_space,2.1024,-0.17581395982091186,False,True,85,-6400.655898089368,-7478.681402652314,-6400.655898089368,0.5302225945315513,8.281899097224487e-05,85.0,14,3,0.02
standard_dfm,pseudo,2019:Q3:pre_third:pseudo,2019-12-31,pre_third,T,2019:Q3,2.451380048869966,,,not_available,2.1024,0.34898004886996636,False,True,0,,,,,,,14,3,0.02
release_dfm,pseudo,2019:Q3:pre_third:pseudo,2019-12-31,pre_third,T,2019:Q3,2.149466156677759,,,not_available,2.1024,0.04706615667775926,False,True,0,,,,,,,14,3,0.02
revision_dfm_kalman_em,pseudo,2019:Q3:pre_third:pseudo,2019-12-31,pre_third,T,2019:Q3,2.1210296116426663,0.14639204419426563,0.38261213283724504,model_implied_state_space,2.1024,0.01862961164266652,False,True,22,-2026.5985037709024,-3020.3543349336373,-2026.5985037709024,0.18055552160308252,8.904102287459195e-05,22.0,14,3,0.02
indicator_revision_only_dfm_kalman_em,pseudo,2019:Q3:pre_third:pseudo,2019-12-31,pre_third,T,2019:Q3,2.1145016249455786,0.1507405865081858,0.38825325047987147,model_implied_state_space,2.1024,0.01210162494557876,False,True,25,-3753.570451491836,-4924.916667481235,-3753.570451491836,0.3441245248436644,9.164643239599913e-05,25.0,14,3,0.02
joint_indicator_revision_dfm_full_kalman_em,pseudo,2019:Q3:pre_third:pseudo,2019-12-31,pre_third,T,2019:Q3,2.1217168038190675,0.14598039141994734,0.38207380362954396,model_implied_state_space,2.1024,0.01931680381906764,False,True,26,-3718.180604900099,-4939.217233624519,-3718.180604900099,0.3498372143653796,9.405413393162216e-05,26.0,14,3,0.02
ar,exact,2019:Q4:pre_advance:exact,2020-01-29,pre_advance,A,2019:Q4,2.2100311607376257,,,not_available,2.0808,0.12923116073762575,False,True,0,,,,,,,14,3,0.02
no_revision,exact,2019:Q4:pre_advance:exact,2020-01-29,pre_advance,A,2019:Q4,2.1968709062412755,,,not_available,2.0808,0.11607090624127547,False,True,0,,,,,,,14,3,0.02
bridge,exact,2019:Q4:pre_advance:exact,2020-01-29,pre_advance,A,2019:Q4,2.510353588287196,,,not_available,2.0808,0.42955358828719614,False,True,0,,,,,,,14,3,0.02
midas_umidas,exact,2019:Q4:pre_advance:exact,2020-01-29,pre_advance,A,2019:Q4,0.14334577927015535,,,not_available,2.0808,-1.9374542207298446,False,True,0,,,,,,,14,3,0.02
monthly_mixed_frequency_kalman_em,exact,2019:Q4:pre_advance:exact,2020-01-29,pre_advance,A,2019:Q4,2.321376306824769,3.1804824465352883,1.783390716173909,model_implied_state_space,2.0808,0.24057630682476905,False,True,50,-6469.2853342069075,-7498.543314628145,-6469.2853342069075,0.6272767151895096,9.693790550203759e-05,50.0,14,3,0.02
standard_dfm,exact,2019:Q4:pre_advance:exact,2020-01-29,pre_advance,A,2019:Q4,1.9184646342382905,,,not_available,2.0808,-0.16233536576170948,False,True,0,,,,,,,14,3,0.02
release_dfm,exact,2019:Q4:pre_advance:exact,2020-01-29,pre_advance,A,2019:Q4,1.9184646342382905,,,not_available,2.0808,-0.16233536576170948,False,True,0,,,,,,,14,3,0.02
revision_dfm_kalman_em,exact,2019:Q4:pre_advance:exact,2020-01-29,pre_advance,A,2019:Q4,1.4328807707748459,3.1845954876326115,1.7845434955844062,model_implied_state_space,2.0808,-0.6479192292251541,False,True,22,-2045.3397213202682,-3041.647464073216,-2045.3397213202682,0.17993572227396726,8.792279207031669e-05,22.0,14,3,0.02
indicator_revision_only_dfm_kalman_em,exact,2019:Q4:pre_advance:exact,2020-01-29,pre_advance,A,2019:Q4,1.6432920715722683,3.692495868458977,1.9215868100241988,model_implied_state_space,2.0808,-0.4375079284277317,False,True,25,-3791.2543537704014,-4986.195792044803,-3791.2543537704014,0.3733883691520532,9.845109895795146e-05,25.0,14,3,0.02
joint_indicator_revision_dfm_full_kalman_em,exact,2019:Q4:pre_advance:exact,2020-01-29,pre_advance,A,2019:Q4,1.5896639837482323,2.644237826221138,1.6261112588691888,model_implied_state_space,2.0808,-0.4911360162517677,False,True,26,-3755.7592329123927,-5000.195891662245,-3755.7592329123927,0.3631677909534119,9.666115505990054e-05,26.0,14,3,0.02
ar,exact,2019:Q4:pre_second:exact,2020-02-26,pre_second,S,2019:Q4,2.3765756189143223,,,not_available,2.0956,0.2809756189143222,False,True,0,,,,,,,14,3,0.02
no_revision,exact,2019:Q4:pre_second:exact,2020-02-26,pre_second,S,2019:Q4,2.0808,,,not_available,2.0956,-0.014800000000000146,False,True,0,,,,,,,14,3,0.02
bridge,exact,2019:Q4:pre_second:exact,2020-02-26,pre_second,S,2019:Q4,2.8435719314230106,,,not_available,2.0956,0.7479719314230104,False,True,0,,,,,,,14,3,0.02
midas_umidas,exact,2019:Q4:pre_second:exact,2020-02-26,pre_second,S,2019:Q4,2.407347471050032,,,not_available,2.0956,0.31174747105003187,False,True,0,,,,,,,14,3,0.02
monthly_mixed_frequency_kalman_em,exact,2019:Q4:pre_second:exact,2020-02-26,pre_second,S,2019:Q4,1.8308919516610667,0.3409102591919393,0.5838752085779454,model_implied_state_space,2.0956,-0.26470804833893347,False,True,87,-6438.970241778739,-7517.704691580865,-6438.970241778739,0.5797461170295719,9.00150015323434e-05,87.0,14,3,0.02
standard_dfm,exact,2019:Q4:pre_second:exact,2020-02-26,pre_second,S,2019:Q4,2.072184393236813,,,not_available,2.0956,-0.023415606763187213,False,True,0,,,,,,,14,3,0.02
release_dfm,exact,2019:Q4:pre_second:exact,2020-02-26,pre_second,S,2019:Q4,2.146839918234161,,,not_available,2.0956,0.051239918234160964,False,True,0,,,,,,,14,3,0.02
revision_dfm_kalman_em,exact,2019:Q4:pre_second:exact,2020-02-26,pre_second,S,2019:Q4,2.2021189970905573,0.3960657806841003,0.6293375729162373,model_implied_state_space,2.0956,0.10651899709055712,False,True,21,-2045.7366008386036,-3031.1501220351465,-2045.7366008386036,0.18330418772461599,8.955122634476422e-05,21.0,14,3,0.02
indicator_revision_only_dfm_kalman_em,exact,2019:Q4:pre_second:exact,2020-02-26,pre_second,S,2019:Q4,2.047329776120273,0.38737026502665295,0.6223907655377391,model_implied_state_space,2.0956,-0.048270223879727236,False,True,25,-3791.6757807909134,-4987.212190467821,-3791.6757807909134,0.3722140493941879,9.813059310098675e-05,25.0,14,3,0.02
joint_indicator_revision_dfm_full_kalman_em,exact,2019:Q4:pre_second:exact,2020-02-26,pre_second,S,2019:Q4,2.167140557470158,0.3852058938478854,0.6206495741139967,model_implied_state_space,2.0956,0.07154055747015775,False,True,26,-3756.046952234478,-5001.313530337535,-3756.046952234478,0.3617111537546407,9.626612012664832e-05,26.0,14,3,0.02
ar,exact,2019:Q4:pre_third:exact,2020-03-25,pre_third,T,2019:Q4,2.41550164741769,,,not_available,2.1275,0.2880016474176901,False,True,0,,,,,,,14,3,0.02
no_revision,exact,2019:Q4:pre_third:exact,2020-03-25,pre_third,T,2019:Q4,2.0956,,,not_available,2.1275,-0.03189999999999982,False,True,0,,,,,,,14,3,0.02
bridge,exact,2019:Q4:pre_third:exact,2020-03-25,pre_third,T,2019:Q4,2.864398639107203,,,not_available,2.1275,0.7368986391072032,False,True,0,,,,,,,14,3,0.02
midas_umidas,exact,2019:Q4:pre_third:exact,2020-03-25,pre_third,T,2019:Q4,2.010628492430776,,,not_available,2.1275,-0.11687150756922415,False,True,0,,,,,,,14,3,0.02
monthly_mixed_frequency_kalman_em,exact,2019:Q4:pre_third:exact,2020-03-25,pre_third,T,2019:Q4,1.9491936121009557,0.14080023833339672,0.3752335783660582,model_implied_state_space,2.1275,-0.1783063878990443,False,True,53,-6506.291415830412,-7539.787496723451,-6506.291415830412,0.6501470142229664,9.990056117510461e-05,53.0,14,3,0.02
standard_dfm,exact,2019:Q4:pre_third:exact,2020-03-25,pre_third,T,2019:Q4,2.132247901709427,,,not_available,2.1275,0.0047479017094271825,False,True,0,,,,,,,14,3,0.02
release_dfm,exact,2019:Q4:pre_third:exact,2020-03-25,pre_third,T,2019:Q4,2.161040249378947,,,not_available,2.1275,0.03354024937894717,False,True,0,,,,,,,14,3,0.02
revision_dfm_kalman_em,exact,2019:Q4:pre_third:exact,2020-03-25,pre_third,T,2019:Q4,2.1067827810260855,0.1457128613972087,0.38172354053320934,model_implied_state_space,2.1275,-0.02071721897391443,False,True,22,-2045.569242045236,-3043.9550846613756,-2045.569242045236,0.18199551322300067,8.891921494089364e-05,22.0,14,3,0.02
indicator_revision_only_dfm_kalman_em,exact,2019:Q4:pre_third:exact,2020-03-25,pre_third,T,2019:Q4,2.092319076213041,0.15004067345767463,0.3873508402697413,model_implied_state_space,2.1275,-0.03518092378695892,False,True,25,-3791.2759280113096,-4967.417669780173,-3791.2759280113096,0.3564352443354437,9.398096366753435e-05,25.0,14,3,0.02
joint_indicator_revision_dfm_full_kalman_em,exact,2019:Q4:pre_third:exact,2020-03-25,pre_third,T,2019:Q4,2.1033097489566135,0.14530953233266344,0.38119487448372574,model_implied_state_space,2.1275,-0.024190251043386457,False,True,26,-3755.7730703232337,-4981.7841137863925,-3755.7730703232337,0.35935761956443457,9.5646780212429e-05,26.0,14,3,0.02
ar,pseudo,2019:Q4:pre_advance:pseudo,2020-01-31,pre_advance,A,2019:Q4,2.2100311607376257,,,not_available,2.0808,0.12923116073762575,False,True,0,,,,,,,14,3,0.02
no_revision,pseudo,2019:Q4:pre_advance:pseudo,2020-01-31,pre_advance,A,2019:Q4,2.1968709062412755,,,not_available,2.0808,0.11607090624127547,False,True,0,,,,,,,14,3,0.02
bridge,pseudo,2019:Q4:pre_advance:pseudo,2020-01-31,pre_advance,A,2019:Q4,2.5104803906747097,,,not_available,2.0808,0.42968039067470976,False,True,0,,,,,,,14,3,0.02
midas_umidas,pseudo,2019:Q4:pre_advance:pseudo,2020-01-31,pre_advance,A,2019:Q4,0.1263758571926259,,,not_available,2.0808,-1.954424142807374,False,True,0,,,,,,,14,3,0.02
monthly_mixed_frequency_kalman_em,pseudo,2019:Q4:pre_advance:pseudo,2020-01-31,pre_advance,A,2019:Q4,2.312207659190274,3.1802250645765655,1.7833185538698815,model_implied_state_space,2.0808,0.23140765919027384,False,True,50,-6470.62796759433,-7499.925111035035,-6470.62796759433,0.6268550275635789,9.685264946191373e-05,50.0,14,3,0.02
standard_dfm,pseudo,2019:Q4:pre_advance:pseudo,2020-01-31,pre_advance,A,2019:Q4,1.9173075948074958,,,not_available,2.0808,-0.1634924051925042,False,True,0,,,,,,,14,3,0.02
release_dfm,pseudo,2019:Q4:pre_advance:pseudo,2020-01-31,pre_advance,A,2019:Q4,1.9173075948074958,,,not_available,2.0808,-0.1634924051925042,False,True,0,,,,,,,14,3,0.02
revision_dfm_kalman_em,pseudo,2019:Q4:pre_advance:pseudo,2020-01-31,pre_advance,A,2019:Q4,1.4321457363510917,3.184584972381935,1.7845405493801296,model_implied_state_space,2.0808,-0.6486542636489083,False,True,22,-2045.3370288621456,-3041.6460322384946,-2045.3370288621456,0.1799313311280457,8.792076226480573e-05,22.0,14,3,0.02
indicator_revision_only_dfm_kalman_em,pseudo,2019:Q4:pre_advance:pseudo,2020-01-31,pre_advance,A,2019:Q4,1.6426656983283636,3.692476385444494,1.9215817405055904,model_implied_state_space,2.0808,-0.43813430167163636,False,True,25,-3791.261007917031,-4986.202229884963,-3791.261007917031,0.37346695778478534,9.847164556956479e-05,25.0,14,3,0.02
joint_indicator_revision_dfm_full_kalman_em,pseudo,2019:Q4:pre_advance:pseudo,2020-01-31,pre_advance,A,2019:Q4,1.589289541570283,2.6442413859859792,1.62611235343256,model_implied_state_space,2.0808,-0.49151045842971697,False,True,26,-3755.7660194870814,-5000.202329819522,-3755.7660194870814,0.3632448249290974,9.66814818908322e-05,26.0,14,3,0.02
ar,pseudo,2019:Q4:pre_second:pseudo,2020-02-29,pre_second,S,2019:Q4,2.3765756189143223,,,not_available,2.0956,0.2809756189143222,False,True,0,,,,,,,14,3,0.02
no_revision,pseudo,2019:Q4:pre_second:pseudo,2020-02-29,pre_second,S,2019:Q4,2.0808,,,not_available,2.0956,-0.014800000000000146,False,True,0,,,,,,,14,3,0.02
bridge,pseudo,2019:Q4:pre_second:pseudo,2020-02-29,pre_second,S,2019:Q4,2.8529123584527927,,,not_available,2.0956,0.7573123584527925,False,True,0,,,,,,,14,3,0.02
midas_umidas,pseudo,2019:Q4:pre_second:pseudo,2020-02-29,pre_second,S,2019:Q4,2.4205851823166946,,,not_available,2.0956,0.3249851823166945,False,True,0,,,,,,,14,3,0.02
monthly_mixed_frequency_kalman_em,pseudo,2019:Q4:pre_second:pseudo,2020-02-29,pre_second,S,2019:Q4,1.9220105592565297,0.3477306015605787,0.5896868673801196,model_implied_state_space,2.0956,-0.17358944074347038,False,True,53,-6488.448639322011,-7520.511986458246,-6488.448639322011,0.6459187049040338,9.952377413440994e-05,53.0,14,3,0.02
standard_dfm,pseudo,2019:Q4:pre_second:pseudo,2020-02-29,pre_second,S,2019:Q4,2.0812869841245267,,,not_available,2.0956,-0.0143130158754734,False,True,0,,,,,,,14,3,0.02
release_dfm,pseudo,2019:Q4:pre_second:pseudo,2020-02-29,pre_second,S,2019:Q4,2.1473853057521275,,,not_available,2.0956,0.051785305752127364,False,True,0,,,,,,,14,3,0.02
revision_dfm_kalman_em,pseudo,2019:Q4:pre_second:pseudo,2020-02-29,pre_second,S,2019:Q4,2.202105443194771,0.39606666126952295,0.6293382725287912,model_implied_state_space,2.0956,0.10650544319477095,False,True,21,-2045.7266423788924,-3031.1380514611806,-2045.7266423788924,0.18329501507651003,8.954718120616131e-05,21.0,14,3,0.02
indicator_revision_only_dfm_kalman_em,pseudo,2019:Q4:pre_second:pseudo,2020-02-29,pre_second,S,2019:Q4,2.0485041467346132,0.38736782572559636,0.6223888059128284,model_implied_state_space,2.0956,-0.0470958532653869,False,True,25,-3791.7138668365346,-4987.245839082501,-3791.7138668365346,0.3723051296428821,9.815361759891014e-05,25.0,14,3,0.02
joint_indicator_revision_dfm_full_kalman_em,pseudo,2019:Q4:pre_second:pseudo,2020-02-29,pre_second,S,2019:Q4,2.1670201696670492,0.3852094194898173,0.6206524143913542,model_implied_state_space,2.0956,0.07142016966704912,False,True,26,-3756.0837263460394,-5001.347276870336,-3756.0837263460394,0.3618000378355646,9.628883114740909e-05,26.0,14,3,0.02
ar,pseudo,2019:Q4:pre_third:pseudo,2020-03-31,pre_third,T,2019:Q4,2.41550164741769,,,not_available,2.1275,0.2880016474176901,False,True,0,,,,,,,14,3,0.02
no_revision,pseudo,2019:Q4:pre_third:pseudo,2020-03-31,pre_third,T,2019:Q4,2.0956,,,not_available,2.1275,-0.03189999999999982,False,True,0,,,,,,,14,3,0.02
bridge,pseudo,2019:Q4:pre_third:pseudo,2020-03-31,pre_third,T,2019:Q4,2.8646820537455304,,,not_available,2.1275,0.7371820537455305,False,True,0,,,,,,,14,3,0.02
midas_umidas,pseudo,2019:Q4:pre_third:pseudo,2020-03-31,pre_third,T,2019:Q4,2.0064379187967267,,,not_available,2.1275,-0.12106208120327322,False,True,0,,,,,,,14,3,0.02
monthly_mixed_frequency_kalman_em,pseudo,2019:Q4:pre_third:pseudo,2020-03-31,pre_third,T,2019:Q4,1.8967459996732918,0.13417929717566401,0.3663049237666128,model_implied_state_space,2.1275,-0.23075400032670812,False,True,87,-6459.905496539938,-7541.2159128546655,-6459.905496539938,0.5675317894992986,8.783319020462265e-05,87.0,14,3,0.02
standard_dfm,pseudo,2019:Q4:pre_third:pseudo,2020-03-31,pre_third,T,2019:Q4,2.132690978022118,,,not_available,2.1275,0.005190978022118209,False,True,0,,,,,,,14,3,0.02
release_dfm,pseudo,2019:Q4:pre_third:pseudo,2020-03-31,pre_third,T,2019:Q4,2.1610461765746436,,,not_available,2.1275,0.03354617657464365,False,True,0,,,,,,,14,3,0.02
revision_dfm_kalman_em,pseudo,2019:Q4:pre_third:pseudo,2020-03-31,pre_third,T,2019:Q4,2.1067829088520655,0.1457128623220338,0.38172354174459006,model_implied_state_space,2.1275,-0.020717091147934408,False,True,22,-2045.5698773448973,-3043.955493434445,-2045.5698773448973,0.18199667030989986,8.891975261899656e-05,22.0,14,3,0.02
indicator_revision_only_dfm_kalman_em,pseudo,2019:Q4:pre_third:pseudo,2020-03-31,pre_third,T,2019:Q4,2.0923206061798236,0.15004067421488437,0.38735084124716235,model_implied_state_space,2.1275,-0.03517939382017632,False,True,25,-3791.276121371706,-4967.417786949347,-3791.276121371706,0.35642984821470236,9.397953621951981e-05,25.0,14,3,0.02
joint_indicator_revision_dfm_full_kalman_em,pseudo,2019:Q4:pre_third:pseudo,2020-03-31,pre_third,T,2019:Q4,2.103309382947942,0.1453095267659987,0.38119486718212603,model_implied_state_space,2.1275,-0.024190617052057828,False,True,26,-3755.7732321862322,-4981.784231038937,-3755.7732321862322,0.35935259261623287,9.564543824513049e-05,26.0,14,3,0.02
ar,exact,2020:Q1:pre_advance:exact,2020-04-28,pre_advance,A,2020:Q1,2.2897072387924506,,,not_available,-4.7832,7.0729072387924505,False,True,0,,,,,,,14,3,0.02
no_revision,exact,2020:Q1:pre_advance:exact,2020-04-28,pre_advance,A,2020:Q1,2.323386808382237,,,not_available,-4.7832,7.106586808382237,False,True,0,,,,,,,14,3,0.02
bridge,exact,2020:Q1:pre_advance:exact,2020-04-28,pre_advance,A,2020:Q1,1.6139523635539974,,,not_available,-4.7832,6.397152363553998,False,True,0,,,,,,,14,3,0.02
midas_umidas,exact,2020:Q1:pre_advance:exact,2020-04-28,pre_advance,A,2020:Q1,6.983423304700622,,,not_available,-4.7832,11.766623304700623,False,True,0,,,,,,,14,3,0.02
monthly_mixed_frequency_kalman_em,exact,2020:Q1:pre_advance:exact,2020-04-28,pre_advance,A,2020:Q1,-0.435795227697092,2.8147618221056883,1.6777251926658574,model_implied_state_space,-4.7832,4.347404772302908,False,True,40,-6365.157784502217,-7570.539615772524,-6365.157784502217,0.5121276228919669,8.04388526436147e-05,40.0,14,3,0.02
standard_dfm,exact,2020:Q1:pre_advance:exact,2020-04-28,pre_advance,A,2020:Q1,0.6240466118451982,,,not_available,-4.7832,5.407246611845198,False,True,0,,,,,,,14,3,0.02
release_dfm,exact,2020:Q1:pre_advance:exact,2020-04-28,pre_advance,A,2020:Q1,0.6240466118451982,,,not_available,-4.7832,5.407246611845198,False,True,0,,,,,,,14,3,0.02
revision_dfm_kalman_em,exact,2020:Q1:pre_advance:exact,2020-04-28,pre_advance,A,2020:Q1,-0.9627842574457692,3.1312765518789507,1.7695413394094388,model_implied_state_space,-4.7832,3.8204157425542307,False,True,21,-2060.000633133646,-3052.4985129182965,-2060.000633133646,0.18577237307454197,9.012885616663664e-05,21.0,14,3,0.02
indicator_revision_only_dfm_kalman_em,exact,2020:Q1:pre_advance:exact,2020-04-28,pre_advance,A,2020:Q1,-0.647584835007045,3.635647575152567,1.9067374164138509,model_implied_state_space,-4.7832,4.135615164992955,False,True,25,-3819.284136159121,-5004.5284538953065,-3819.284136159121,0.36840701265646203,9.642515473302446e-05,25.0,14,3,0.02
joint_indicator_revision_dfm_full_kalman_em,exact,2020:Q1:pre_advance:exact,2020-04-28,pre_advance,A,2020:Q1,-0.5598433837287029,2.588150552047098,1.6087729958098806,model_implied_state_space,-4.7832,4.223356616271297,False,True,26,-3783.619903001256,-5018.881712944194,-3783.619903001256,0.3732366535782603,9.860959843438368e-05,26.0,14,3,0.02
ar,exact,2020:Q1:pre_second:exact,2020-05-27,pre_second,S,2020:Q1,2.362411208093053,,,not_available,-5.0477,7.410111208093053,False,True,0,,,,,,,14,3,0.02
no_revision,exact,2020:Q1:pre_second:exact,2020-05-27,pre_second,S,2020:Q1,-4.7832,,,not_available,-5.0477,0.26449999999999996,False,True,0,,,,,,,14,3,0.02
bridge,exact,2020:Q1:pre_second:exact,2020-05-27,pre_second,S,2020:Q1,1.5192628497722622,,,not_available,-5.0477,6.566962849772262,False,True,0,,,,,,,14,3,0.02
midas_umidas,exact,2020:Q1:pre_second:exact,2020-05-27,pre_second,S,2020:Q1,-5.0219408204296805,,,not_available,-5.0477,0.025759179570319368,False,True,0,,,,,,,14,3,0.02
monthly_mixed_frequency_kalman_em,exact,2020:Q1:pre_second:exact,2020-05-27,pre_second,S,2020:Q1,-4.457447833958721,0.3389045054750804,0.5821550527781069,model_implied_state_space,-5.0477,0.590252166041279,False,True,38,-5904.76722749727,-7387.481874880861,-5904.76722749727,0.5293239996499324,8.962028828636753e-05,38.0,14,3,0.02
standard_dfm,exact,2020:Q1:pre_second:exact,2020-05-27,pre_second,S,2020:Q1,0.4106136891548773,,,not_available,-5.0477,5.458313689154878,False,True,0,,,,,,,14,3,0.02
release_dfm,exact,2020:Q1:pre_second:exact,2020-05-27,pre_second,S,2020:Q1,-5.062017677057046,,,not_available,-5.0477,-0.014317677057046119,False,True,0,,,,,,,14,3,0.02
revision_dfm_kalman_em,exact,2020:Q1:pre_second:exact,2020-05-27,pre_second,S,2020:Q1,-5.092321053509847,0.3955377256558955,0.6289179005688227,model_implied_state_space,-5.0477,-0.044621053509847464,False,True,20,-2059.2392952380087,-3053.8180466867725,-2059.2392952380087,0.20163447764207376,9.785986811565626e-05,20.0,14,3,0.02
indicator_revision_only_dfm_kalman_em,exact,2020:Q1:pre_second:exact,2020-05-27,pre_second,S,2020:Q1,-4.355473209353957,0.387300663082173,0.6223348480377529,model_implied_state_space,-5.0477,0.6922267906460426,False,True,25,-3817.8510392674666,-5005.744614839201,-3817.8510392674666,0.36346646798983784,9.516785910925053e-05,25.0,14,3,0.02
joint_indicator_revision_dfm_full_kalman_em,exact,2020:Q1:pre_second:exact,2020-05-27,pre_second,S,2020:Q1,-4.976089972617918,0.38320645237117157,0.6190367132659997,model_implied_state_space,-5.0477,0.07161002738208211,False,True,26,-3782.801894488609,-5019.764080695212,-3782.801894488609,0.36993854197407927,9.775944600216823e-05,26.0,14,3,0.02
ar,exact,2020:Q1:pre_third:exact,2020-06-24,pre_third,T,2020:Q1,2.4250162204474304,,,not_available,-4.9937,7.41871622044743,False,True,0,,,,,,,14,3,0.02
no_revision,exact,2020:Q1:pre_third:exact,2020-06-24,pre_third,T,2020:Q1,-5.0477,,,not_available,-4.9937,-0.05400000000000027,False,True,0,,,,,,,14,3,0.02
bridge,exact,2020:Q1:pre_third:exact,2020-06-24,pre_third,T,2020:Q1,1.2725491109883,,,not_available,-4.9937,6.2662491109883,False,True,0,,,,,,,14,3,0.02
midas_umidas,exact,2020:Q1:pre_third:exact,2020-06-24,pre_third,T,2020:Q1,-4.6542372064798965,,,not_available,-4.9937,0.3394627935201031,False,True,0,,,,,,,14,3,0.02
monthly_mixed_frequency_kalman_em,exact,2020:Q1:pre_third:exact,2020-06-24,pre_third,T,2020:Q1,-5.349545992541492,0.15257514584676934,0.39060868634321144,model_implied_state_space,-4.9937,-0.3558459925414921,False,True,30,-5842.564757670993,-7569.414509506856,-5842.564757670993,0.568459167846413,9.727005644027727e-05,30.0,14,3,0.02
standard_dfm,exact,2020:Q1:pre_third:exact,2020-06-24,pre_third,T,2020:Q1,0.40658589299139214,,,not_available,-4.9937,5.400285892991391,False,True,0,,,,,,,14,3,0.02
release_dfm,exact,2020:Q1:pre_third:exact,2020-06-24,pre_third,T,2020:Q1,-5.096306401636982,,,not_available,-4.9937,-0.10260640163698209,False,True,0,,,,,,,14,3,0.02
revision_dfm_kalman_em,exact,2020:Q1:pre_third:exact,2020-06-24,pre_third,T,2020:Q1,-5.065650768471395,0.1449476224831058,0.3807198740322152,model_implied_state_space,-4.9937,-0.07195076847139514,False,True,20,-2056.917230821414,-3055.33871615891,-2056.917230821414,0.20518885136016252,9.969710712970417e-05,20.0,14,3,0.02
indicator_revision_only_dfm_kalman_em,exact,2020:Q1:pre_third:exact,2020-06-24,pre_third,T,2020:Q1,-5.001336518878354,0.14932377432708088,0.386424344894419,model_implied_state_space,-4.9937,-0.007636518878354259,False,True,25,-3815.581002822361,-5028.211183595893,-3815.581002822361,0.37177746815132195,9.740164197761587e-05,25.0,14,3,0.02
joint_indicator_revision_dfm_full_kalman_em,exact,2020:Q1:pre_third:exact,2020-06-24,pre_third,T,2020:Q1,-5.056933366257942,0.14465838727725452,0.3803398313051823,model_implied_state_space,-4.9937,-0.06323336625794251,False,True,26,-3779.776556779747,-5041.942490715121,-3779.776556779747,0.370160749369461,9.789642587880103e-05,26.0,14,3,0.02
ar,pseudo,2020:Q1:pre_advance:pseudo,2020-04-30,pre_advance,A,2020:Q1,2.2897072387924506,,,not_available,-4.7832,7.0729072387924505,False,True,0,,,,,,,14,3,0.02
no_revision,pseudo,2020:Q1:pre_advance:pseudo,2020-04-30,pre_advance,A,2020:Q1,2.323386808382237,,,not_available,-4.7832,7.106586808382237,False,True,0,,,,,,,14,3,0.02
bridge,pseudo,2020:Q1:pre_advance:pseudo,2020-04-30,pre_advance,A,2020:Q1,1.6186201510230136,,,not_available,-4.7832,6.4018201510230135,False,True,0,,,,,,,14,3,0.02
midas_umidas,pseudo,2020:Q1:pre_advance:pseudo,2020-04-30,pre_advance,A,2020:Q1,6.412402070448358,,,not_available,-4.7832,11.19560207044836,False,True,0,,,,,,,14,3,0.02
monthly_mixed_frequency_kalman_em,pseudo,2020:Q1:pre_advance:pseudo,2020-04-30,pre_advance,A,2020:Q1,-0.43496932211960404,2.812883517601773,1.6771653220841924,model_implied_state_space,-4.7832,4.348230677880396,False,True,40,-6365.75857504451,-7568.960720705711,-6365.75857504451,0.5585125763955148,8.771552738929141e-05,40.0,14,3,0.02
standard_dfm,pseudo,2020:Q1:pre_advance:pseudo,2020-04-30,pre_advance,A,2020:Q1,0.5327006664243215,,,not_available,-4.7832,5.315900666424321,False,True,0,,,,,,,14,3,0.02
release_dfm,pseudo,2020:Q1:pre_advance:pseudo,2020-04-30,pre_advance,A,2020:Q1,0.5327006664243215,,,not_available,-4.7832,5.315900666424321,False,True,0,,,,,,,14,3,0.02
revision_dfm_kalman_em,pseudo,2020:Q1:pre_advance:pseudo,2020-04-30,pre_advance,A,2020:Q1,-1.0143809465999118,3.1284941739885457,1.7687549785056567,model_implied_state_space,-4.7832,3.768819053400088,False,True,21,-2059.169322040734,-3052.1038254999485,-2059.169322040734,0.1855062084309793,9.003604907637078e-05,21.0,14,3,0.02
indicator_revision_only_dfm_kalman_em,pseudo,2020:Q1:pre_advance:pseudo,2020-04-30,pre_advance,A,2020:Q1,-0.6911244855967444,3.63423605616366,1.9063672406343066,model_implied_state_space,-4.7832,4.0920755144032555,False,True,25,-3818.2685001203195,-5003.882512364432,-3818.2685001203195,0.36690610124742307,9.605788569500443e-05,25.0,14,3,0.02
joint_indicator_revision_dfm_full_kalman_em,pseudo,2020:Q1:pre_advance:pseudo,2020-04-30,pre_advance,A,2020:Q1,-0.6047840712603523,2.586501764105498,1.6082604776918128,model_implied_state_space,-4.7832,4.178415928739648,False,True,26,-3782.592880154957,-5018.235392395421,-3782.592880154957,0.37219744551612166,9.836175490079928e-05,26.0,14,3,0.02
ar,pseudo,2020:Q1:pre_second:pseudo,2020-05-31,pre_second,S,2020:Q1,2.362411208093053,,,not_available,-5.0477,7.410111208093053,False,True,0,,,,,,,14,3,0.02
no_revision,pseudo,2020:Q1:pre_second:pseudo,2020-05-31,pre_second,S,2020:Q1,-4.7832,,,not_available,-5.0477,0.26449999999999996,False,True,0,,,,,,,14,3,0.02
bridge,pseudo,2020:Q1:pre_second:pseudo,2020-05-31,pre_second,S,2020:Q1,1.51011815047926,,,not_available,-5.0477,6.55781815047926,False,True,0,,,,,,,14,3,0.02
midas_umidas,pseudo,2020:Q1:pre_second:pseudo,2020-05-31,pre_second,S,2020:Q1,-5.297727048454643,,,not_available,-5.0477,-0.2500270484546432,False,True,0,,,,,,,14,3,0.02
monthly_mixed_frequency_kalman_em,pseudo,2020:Q1:pre_second:pseudo,2020-05-31,pre_second,S,2020:Q1,-4.534396625304282,0.33888374801190985,0.5821372243826277,model_implied_state_space,-5.0477,0.5133033746957176,False,True,44,-5864.340540144614,-7345.674777637329,-5864.340540144614,0.547686764674836,9.3368087404456e-05,44.0,14,3,0.02
standard_dfm,pseudo,2020:Q1:pre_second:pseudo,2020-05-31,pre_second,S,2020:Q1,0.400962282321097,,,not_available,-5.0477,5.448662282321097,False,True,0,,,,,,,14,3,0.02
release_dfm,pseudo,2020:Q1:pre_second:pseudo,2020-05-31,pre_second,S,2020:Q1,-5.062788567388224,,,not_available,-5.0477,-0.01508856738822395,False,True,0,,,,,,,14,3,0.02
revision_dfm_kalman_em,pseudo,2020:Q1:pre_second:pseudo,2020-05-31,pre_second,S,2020:Q1,-5.091750172900473,0.3954924388497887,0.6288818957879044,model_implied_state_space,-5.0477,-0.04405017290047297,False,True,20,-2060.1747905421435,-3054.2066337089636,-2060.1747905421435,0.2025658285215286,9.826722307563002e-05,20.0,14,3,0.02
indicator_revision_only_dfm_kalman_em,pseudo,2020:Q1:pre_second:pseudo,2020-05-31,pre_second,S,2020:Q1,-4.357133486849975,0.38723638436818825,0.6222832027045148,model_implied_state_space,-5.0477,0.6905665131500252,False,True,25,-3818.6557619167866,-5006.119232087748,-3818.6557619167866,0.3611960625416941,9.455352332591627e-05,25.0,14,3,0.02
joint_indicator_revision_dfm_full_kalman_em,pseudo,2020:Q1:pre_second:pseudo,2020-05-31,pre_second,S,2020:Q1,-4.9751334671807825,0.3831523526495011,0.6189930150248071,model_implied_state_space,-5.0477,0.07256653281921732,False,True,26,-3783.5955768226704,-5020.138789049727,-3783.5955768226704,0.367519143383106,9.709979570865602e-05,26.0,14,3,0.02
ar,pseudo,2020:Q1:pre_third:pseudo,2020-06-30,pre_third,T,2020:Q1,2.4250162204474304,,,not_available,-4.9937,7.41871622044743,False,True,0,,,,,,,14,3,0.02
no_revision,pseudo,2020:Q1:pre_third:pseudo,2020-06-30,pre_third,T,2020:Q1,-5.0477,,,not_available,-4.9937,-0.05400000000000027,False,True,0,,,,,,,14,3,0.02
bridge,pseudo,2020:Q1:pre_third:pseudo,2020-06-30,pre_third,T,2020:Q1,1.2646961124291711,,,not_available,-4.9937,6.258396112429171,False,True,0,,,,,,,14,3,0.02
midas_umidas,pseudo,2020:Q1:pre_third:pseudo,2020-06-30,pre_third,T,2020:Q1,-4.652482852347865,,,not_available,-4.9937,0.3412171476521344,False,True,0,,,,,,,14,3,0.02
monthly_mixed_frequency_kalman_em,pseudo,2020:Q1:pre_third:pseudo,2020-06-30,pre_third,T,2020:Q1,-5.348879665225306,0.1525827713012122,0.39061844721058964,model_implied_state_space,-4.9937,-0.35517966522530653,False,True,30,-5848.09797214537,-7570.982370400096,-5848.09797214537,0.5808403497094332,9.929440031284142e-05,30.0,14,3,0.02
standard_dfm,pseudo,2020:Q1:pre_third:pseudo,2020-06-30,pre_third,T,2020:Q1,0.3938563920230176,,,not_available,-4.9937,5.387556392023017,False,True,0,,,,,,,14,3,0.02
release_dfm,pseudo,2020:Q1:pre_third:pseudo,2020-06-30,pre_third,T,2020:Q1,-5.096460939848946,,,not_available,-4.9937,-0.10276093984894619,False,True,0,,,,,,,14,3,0.02
revision_dfm_kalman_em,pseudo,2020:Q1:pre_third:pseudo,2020-06-30,pre_third,T,2020:Q1,-5.065654534109855,0.14494765326875655,0.38071991446305586,model_implied_state_space,-4.9937,-0.07195453410985575,False,True,20,-2056.822344447731,-3055.298004876104,-2056.822344447731,0.20515102300896615,9.968332466911051e-05,20.0,14,3,0.02
indicator_revision_only_dfm_kalman_em,pseudo,2020:Q1:pre_third:pseudo,2020-06-30,pre_third,T,2020:Q1,-5.00137439750751,0.14932396372604106,0.38642458996037127,model_implied_state_space,-4.9937,-0.0076743975075102,False,True,25,-3815.523189180779,-5028.196630619309,-3815.523189180779,0.37187445231984384,9.74285240018824e-05,25.0,14,3,0.02
joint_indicator_revision_dfm_full_kalman_em,pseudo,2020:Q1:pre_third:pseudo,2020-06-30,pre_third,T,2020:Q1,-5.056929457656619,0.1446583907078921,0.38033983581514585,model_implied_state_space,-4.9937,-0.06322945765661903,False,True,26,-3779.7172675435495,-5041.927944760108,-3779.7172675435495,0.3702604417494513,9.792432441963054e-05,26.0,14,3,0.02
ar,exact,2020:Q2:pre_advance:exact,2020-07-29,pre_advance,A,2020:Q2,-1.1573964624978355,,,not_available,-32.9038,31.74640353750216,False,True,0,,,,,,,14,3,0.02
no_revision,exact,2020:Q2:pre_advance:exact,2020-07-29,pre_advance,A,2020:Q2,-1.1484712531706052,,,not_available,-32.9038,31.75532874682939,False,True,0,,,,,,,14,3,0.02
bridge,exact,2020:Q2:pre_advance:exact,2020-07-29,pre_advance,A,2020:Q2,-11.104287028089175,,,not_available,-32.9038,21.799512971910822,False,True,0,,,,,,,14,3,0.02
midas_umidas,exact,2020:Q2:pre_advance:exact,2020-07-29,pre_advance,A,2020:Q2,30.848015896470223,,,not_available,-32.9038,63.75181589647022,False,True,0,,,,,,,14,3,0.02
monthly_mixed_frequency_kalman_em,exact,2020:Q2:pre_advance:exact,2020-07-29,pre_advance,A,2020:Q2,-17.29279099840882,2.7860907616824515,1.6691586987708662,model_implied_state_space,-32.9038,15.611009001591178,False,True,30,-5800.950420662696,-7576.408237289621,-5800.950420662696,0.543709375088838,9.370270144250838e-05,30.0,14,3,0.02
standard_dfm,exact,2020:Q2:pre_advance:exact,2020-07-29,pre_advance,A,2020:Q2,-15.718307815729272,,,not_available,-32.9038,17.185492184270725,False,True,0,,,,,,,14,3,0.02
release_dfm,exact,2020:Q2:pre_advance:exact,2020-07-29,pre_advance,A,2020:Q2,-15.718307815729272,,,not_available,-32.9038,17.185492184270725,False,True,0,,,,,,,14,3,0.02
revision_dfm_kalman_em,exact,2020:Q2:pre_advance:exact,2020-07-29,pre_advance,A,2020:Q2,-20.59024926185682,2.1415414538897837,1.4634006470853371,model_implied_state_space,-32.9038,12.313550738143178,False,True,28,-1891.621668847944,-3076.725073020588,-1891.621668847944,0.17827217649187332,9.41843734395868e-05,28.0,14,3,0.02
indicator_revision_only_dfm_kalman_em,exact,2020:Q2:pre_advance:exact,2020-07-29,pre_advance,A,2020:Q2,-25.71983495499368,2.8225054467424906,1.680031382665958,model_implied_state_space,-32.9038,7.1839650450063175,False,True,36,-3399.147946942782,-5010.367797774386,-3399.147946942782,0.29091301887183363,8.555160991046733e-05,36.0,14,3,0.02
joint_indicator_revision_dfm_full_kalman_em,exact,2020:Q2:pre_advance:exact,2020-07-29,pre_advance,A,2020:Q2,-26.509465097179707,1.8750756182765949,1.3693340053750929,model_implied_state_space,-32.9038,6.39433490282029,False,True,38,-3358.065254359338,-5024.330168844098,-3358.065254359338,0.28821410392947655,8.579451571117933e-05,38.0,14,3,0.02
ar,exact,2020:Q2:pre_second:exact,2020-08-26,pre_second,S,2020:Q2,-0.9346260921233107,,,not_available,-31.7041,30.76947390787669,False,True,0,,,,,,,14,3,0.02
no_revision,exact,2020:Q2:pre_second:exact,2020-08-26,pre_second,S,2020:Q2,-32.9038,,,not_available,-31.7041,-1.1996999999999964,False,True,0,,,,,,,14,3,0.02
bridge,exact,2020:Q2:pre_second:exact,2020-08-26,pre_second,S,2020:Q2,-11.728274633025507,,,not_available,-31.7041,19.975825366974494,False,True,0,,,,,,,14,3,0.02
midas_umidas,exact,2020:Q2:pre_second:exact,2020-08-26,pre_second,S,2020:Q2,-3.540074893379682,,,not_available,-31.7041,28.16402510662032,False,True,0,,,,,,,14,3,0.02
monthly_mixed_frequency_kalman_em,exact,2020:Q2:pre_second:exact,2020-08-26,pre_second,S,2020:Q2,-33.66595335826234,0.3429319133219236,0.5856038877278084,model_implied_state_space,-31.7041,-1.961853358262342,False,True,30,-5790.936824378299,-7593.671304928383,-5790.936824378299,0.5359329527009322,9.252230871913056e-05,30.0,14,3,0.02
standard_dfm,exact,2020:Q2:pre_second:exact,2020-08-26,pre_second,S,2020:Q2,-17.217326420438106,,,not_available,-31.7041,14.486773579561895,False,True,0,,,,,,,14,3,0.02
release_dfm,exact,2020:Q2:pre_second:exact,2020-08-26,pre_second,S,2020:Q2,-35.1656335115921,,,not_available,-31.7041,-3.4615335115920978,False,True,0,,,,,,,14,3,0.02
revision_dfm_kalman_em,exact,2020:Q2:pre_second:exact,2020-08-26,pre_second,S,2020:Q2,-34.7022207991553,0.38666351452901715,0.6218227356160413,model_implied_state_space,-31.7041,-2.9981207991552985,False,True,24,-1847.5914417908696,-3086.1045212213035,-1847.5914417908696,0.16463219268121065,8.905025113803925e-05,24.0,14,3,0.02
indicator_revision_only_dfm_kalman_em,exact,2020:Q2:pre_second:exact,2020-08-26,pre_second,S,2020:Q2,-32.77789990648172,0.36581325027324935,0.6048249749086502,model_implied_state_space,-31.7041,-1.073799906481721,False,True,42,-3345.7525397795166,-5007.222229746111,-3345.7525397795166,0.2950346747393269,8.814773861929136e-05,42.0,14,3,0.02
joint_indicator_revision_dfm_full_kalman_em,exact,2020:Q2:pre_second:exact,2020-08-26,pre_second,S,2020:Q2,-33.1870572561665,0.3474908858512437,0.5894835755568121,model_implied_state_space,-31.7041,-1.4829572561664968,False,True,44,-3306.768946557713,-5015.572564187978,-3306.768946557713,0.3043938063906353,9.201543468716813e-05,44.0,14,3,0.02
ar,exact,2020:Q2:pre_third:exact,2020-09-29,pre_third,T,2020:Q2,-0.7119618796649088,,,not_available,-31.3827,30.67073812033509,False,True,0,,,,,,,14,3,0.02
no_revision,exact,2020:Q2:pre_third:exact,2020-09-29,pre_third,T,2020:Q2,-31.7041,,,not_available,-31.3827,-0.3214000000000006,False,True,0,,,,,,,14,3,0.02
bridge,exact,2020:Q2:pre_third:exact,2020-09-29,pre_third,T,2020:Q2,-11.706443047869818,,,not_available,-31.3827,19.67625695213018,False,True,0,,,,,,,14,3,0.02
midas_umidas,exact,2020:Q2:pre_third:exact,2020-09-29,pre_third,T,2020:Q2,-62.55032037882182,,,not_available,-31.3827,-31.167620378821823,False,True,0,,,,,,,14,3,0.02
monthly_mixed_frequency_kalman_em,exact,2020:Q2:pre_third:exact,2020-09-29,pre_third,T,2020:Q2,-31.98292276889753,0.14698826089382985,0.3833904809640295,model_implied_state_space,-31.3827,-0.600222768897531,False,True,30,-5763.283163787264,-7611.521640025797,-5763.283163787264,0.5381468727000538,9.335013935383299e-05,30.0,14,3,0.02
standard_dfm,exact,2020:Q2:pre_third:exact,2020-09-29,pre_third,T,2020:Q2,-17.276938736761693,,,not_available,-31.3827,14.105761263238307,False,True,0,,,,,,,14,3,0.02
release_dfm,exact,2020:Q2:pre_third:exact,2020-09-29,pre_third,T,2020:Q2,-32.88490959470745,,,not_available,-31.3827,-1.5022095947074519,False,True,0,,,,,,,14,3,0.02
revision_dfm_kalman_em,exact,2020:Q2:pre_third:exact,2020-09-29,pre_third,T,2020:Q2,-31.82901722561219,0.1444435197805667,0.38005725855529543,model_implied_state_space,-31.3827,-0.4463172256121908,False,True,24,-1808.543292732151,-3089.9445148834416,-1808.543292732151,0.16115494356085946,8.905042133694168e-05,24.0,14,3,0.02
indicator_revision_only_dfm_kalman_em,exact,2020:Q2:pre_third:exact,2020-09-29,pre_third,T,2020:Q2,-31.756448084644987,0.1481211642598826,0.3848651247643551,model_implied_state_space,-31.3827,-0.373748084644987,False,True,37,-3301.8711394099987,-5028.6599449203995,-3301.8711394099987,0.31669698436917315,9.587616570871953e-05,37.0,14,3,0.02
joint_indicator_revision_dfm_full_kalman_em,exact,2020:Q2:pre_third:exact,2020-09-29,pre_third,T,2020:Q2,-31.723228318049443,0.14411549637080942,0.37962546854868606,model_implied_state_space,-31.3827,-0.3405283180494436,False,True,39,-3261.960596199487,-5036.5280288005,-3261.960596199487,0.2882382581328784,8.83286175081975e-05,39.0,14,3,0.02
ar,pseudo,2020:Q2:pre_advance:pseudo,2020-07-31,pre_advance,A,2020:Q2,-1.1573964624978355,,,not_available,-32.9038,31.74640353750216,False,True,0,,,,,,,14,3,0.02
no_revision,pseudo,2020:Q2:pre_advance:pseudo,2020-07-31,pre_advance,A,2020:Q2,-1.1484712531706052,,,not_available,-32.9038,31.75532874682939,False,True,0,,,,,,,14,3,0.02
bridge,pseudo,2020:Q2:pre_advance:pseudo,2020-07-31,pre_advance,A,2020:Q2,-10.908992164679558,,,not_available,-32.9038,21.994807835320437,False,True,0,,,,,,,14,3,0.02
midas_umidas,pseudo,2020:Q2:pre_advance:pseudo,2020-07-31,pre_advance,A,2020:Q2,33.13857262025131,,,not_available,-32.9038,66.04237262025131,False,True,0,,,,,,,14,3,0.02
monthly_mixed_frequency_kalman_em,pseudo,2020:Q2:pre_advance:pseudo,2020-07-31,pre_advance,A,2020:Q2,-17.306620998822268,2.789537862087015,1.6701909657542202,model_implied_state_space,-32.9038,15.597179001177729,False,True,30,-5805.174913630151,-7577.424273802538,-5805.174913630151,0.5482355668964374,9.441393240389759e-05,30.0,14,3,0.02
standard_dfm,pseudo,2020:Q2:pre_advance:pseudo,2020-07-31,pre_advance,A,2020:Q2,-15.575879759710256,,,not_available,-32.9038,17.327920240289743,False,True,0,,,,,,,14,3,0.02
release_dfm,pseudo,2020:Q2:pre_advance:pseudo,2020-07-31,pre_advance,A,2020:Q2,-15.575879759710256,,,not_available,-32.9038,17.327920240289743,False,True,0,,,,,,,14,3,0.02
revision_dfm_kalman_em,pseudo,2020:Q2:pre_advance:pseudo,2020-07-31,pre_advance,A,2020:Q2,-20.46912279215242,2.146529429080173,1.4651038970257955,model_implied_state_space,-32.9038,12.434677207847578,False,True,28,-1897.0305440299715,-3079.2777124665035,-1897.0305440299715,0.16913545924398932,8.910309124564903e-05,28.0,14,3,0.02
indicator_revision_only_dfm_kalman_em,pseudo,2020:Q2:pre_advance:pseudo,2020-07-31,pre_advance,A,2020:Q2,-25.800757611004677,2.8221090241326654,1.6799133978073588,model_implied_state_space,-32.9038,7.10304238899532,False,True,37,-3409.1376164790017,-5013.941035026439,-3409.1376164790017,0.2793564814974161,8.191270560529541e-05,37.0,14,3,0.02
joint_indicator_revision_dfm_full_kalman_em,pseudo,2020:Q2:pre_advance:pseudo,2020-07-31,pre_advance,A,2020:Q2,-26.74974338209008,1.8725723495461764,1.36841965403387,model_implied_state_space,-32.9038,6.154056617909916,False,True,38,-3368.288440662144,-5027.893267191154,-3368.288440662144,0.327113691415434,9.70774517564182e-05,38.0,14,3,0.02
ar,pseudo,2020:Q2:pre_second:pseudo,2020-08-31,pre_second,S,2020:Q2,-0.9346260921233107,,,not_available,-31.7041,30.76947390787669,False,True,0,,,,,,,14,3,0.02
no_revision,pseudo,2020:Q2:pre_second:pseudo,2020-08-31,pre_second,S,2020:Q2,-32.9038,,,not_available,-31.7041,-1.1996999999999964,False,True,0,,,,,,,14,3,0.02
bridge,pseudo,2020:Q2:pre_second:pseudo,2020-08-31,pre_second,S,2020:Q2,-11.717629878838661,,,not_available,-31.7041,19.98647012116134,False,True,0,,,,,,,14,3,0.02
midas_umidas,pseudo,2020:Q2:pre_second:pseudo,2020-08-31,pre_second,S,2020:Q2,-3.5709717284978524,,,not_available,-31.7041,28.133128271502148,False,True,0,,,,,,,14,3,0.02
monthly_mixed_frequency_kalman_em,pseudo,2020:Q2:pre_second:pseudo,2020-08-31,pre_second,S,2020:Q2,-33.665856850705055,0.34295872981940945,0.5856267837278358,model_implied_state_space,-31.7041,-1.9617568507050542,False,True,30,-5794.179609483348,-7595.112622176762,-5794.179609483348,0.5378628933985965,9.280350465013715e-05,30.0,14,3,0.02
standard_dfm,pseudo,2020:Q2:pre_second:pseudo,2020-08-31,pre_second,S,2020:Q2,-17.193668211540995,,,not_available,-31.7041,14.510431788459005,False,True,0,,,,,,,14,3,0.02
release_dfm,pseudo,2020:Q2:pre_second:pseudo,2020-08-31,pre_second,S,2020:Q2,-35.16420465364802,,,not_available,-31.7041,-3.4601046536480204,False,True,0,,,,,,,14,3,0.02
revision_dfm_kalman_em,pseudo,2020:Q2:pre_second:pseudo,2020-08-31,pre_second,S,2020:Q2,-34.702523727944055,0.38667388942728487,0.6218310778879461,model_implied_state_space,-31.7041,-2.998423727944054,False,True,24,-1848.4544567225378,-3086.335096392551,-1848.4544567225378,0.16436027888380522,8.88617034888648e-05,24.0,14,3,0.02
indicator_revision_only_dfm_kalman_em,pseudo,2020:Q2:pre_second:pseudo,2020-08-31,pre_second,S,2020:Q2,-32.778510285672866,0.36581589973313877,0.6048271651745966,model_implied_state_space,-31.7041,-1.0744102856728652,False,True,42,-3346.7494555106514,-5007.275201566255,-3346.7494555106514,0.3050646962419705,9.111700374076317e-05,42.0,14,3,0.02
joint_indicator_revision_dfm_full_kalman_em,pseudo,2020:Q2:pre_second:pseudo,2020-08-31,pre_second,S,2020:Q2,-33.18227912829296,0.34735011419672535,0.589364160936789,model_implied_state_space,-31.7041,-1.478179128292961,False,True,44,-3307.800761311409,-5015.625742779681,-3307.800761311409,0.315799049693851,9.54330389798629e-05,44.0,14,3,0.02
ar,pseudo,2020:Q2:pre_third:pseudo,2020-09-30,pre_third,T,2020:Q2,-0.7119618796649088,,,not_available,-31.3827,30.67073812033509,False,True,0,,,,,,,14,3,0.02
no_revision,pseudo,2020:Q2:pre_third:pseudo,2020-09-30,pre_third,T,2020:Q2,-31.7041,,,not_available,-31.3827,-0.3214000000000006,False,True,0,,,,,,,14,3,0.02
bridge,pseudo,2020:Q2:pre_third:pseudo,2020-09-30,pre_third,T,2020:Q2,-11.706443047869818,,,not_available,-31.3827,19.67625695213018,False,True,0,,,,,,,14,3,0.02
midas_umidas,pseudo,2020:Q2:pre_third:pseudo,2020-09-30,pre_third,T,2020:Q2,-62.55032037882182,,,not_available,-31.3827,-31.167620378821823,False,True,0,,,,,,,14,3,0.02
monthly_mixed_frequency_kalman_em,pseudo,2020:Q2:pre_third:pseudo,2020-09-30,pre_third,T,2020:Q2,-31.98292276889753,0.14698826089382985,0.3833904809640295,model_implied_state_space,-31.3827,-0.600222768897531,False,True,30,-5763.283163787264,-7611.521640025797,-5763.283163787264,0.5381468727000538,9.335013935383299e-05,30.0,14,3,0.02
standard_dfm,pseudo,2020:Q2:pre_third:pseudo,2020-09-30,pre_third,T,2020:Q2,-17.276938736761693,,,not_available,-31.3827,14.105761263238307,False,True,0,,,,,,,14,3,0.02
release_dfm,pseudo,2020:Q2:pre_third:pseudo,2020-09-30,pre_third,T,2020:Q2,-32.88490959470745,,,not_available,-31.3827,-1.5022095947074519,False,True,0,,,,,,,14,3,0.02
revision_dfm_kalman_em,pseudo,2020:Q2:pre_third:pseudo,2020-09-30,pre_third,T,2020:Q2,-31.82901722561219,0.1444435197805667,0.38005725855529543,model_implied_state_space,-31.3827,-0.4463172256121908,False,True,24,-1808.543292732151,-3089.9445148834416,-1808.543292732151,0.16115494356085946,8.905042133694168e-05,24.0,14,3,0.02
indicator_revision_only_dfm_kalman_em,pseudo,2020:Q2:pre_third:pseudo,2020-09-30,pre_third,T,2020:Q2,-31.756448084644987,0.1481211642598826,0.3848651247643551,model_implied_state_space,-31.3827,-0.373748084644987,False,True,37,-3301.8711394099987,-5028.6599449203995,-3301.8711394099987,0.31669698436917315,9.587616570871953e-05,37.0,14,3,0.02
joint_indicator_revision_dfm_full_kalman_em,pseudo,2020:Q2:pre_third:pseudo,2020-09-30,pre_third,T,2020:Q2,-31.723228318049443,0.14411549637080942,0.37962546854868606,model_implied_state_space,-31.3827,-0.3405283180494436,False,True,39,-3261.960596199487,-5036.5280288005,-3261.960596199487,0.2882382581328784,8.83286175081975e-05,39.0,14,3,0.02
ar,exact,2020:Q3:pre_advance:exact,2020-10-28,pre_advance,A,2020:Q3,-19.53626137751003,,,not_available,33.0826,-52.61886137751003,False,True,0,,,,,,,14,3,0.02
no_revision,exact,2020:Q3:pre_advance:exact,2020-10-28,pre_advance,A,2020:Q3,-20.080777742191426,,,not_available,33.0826,-53.16337774219143,False,True,0,,,,,,,14,3,0.02
bridge,exact,2020:Q3:pre_advance:exact,2020-10-28,pre_advance,A,2020:Q3,-0.47142845367528485,,,not_available,33.0826,-33.554028453675286,False,True,0,,,,,,,14,3,0.02
midas_umidas,exact,2020:Q3:pre_advance:exact,2020-10-28,pre_advance,A,2020:Q3,-29.778597368800916,,,not_available,33.0826,-62.861197368800916,False,True,0,,,,,,,14,3,0.02
monthly_mixed_frequency_kalman_em,exact,2020:Q3:pre_advance:exact,2020-10-28,pre_advance,A,2020:Q3,10.815794329781165,3.639724791901018,1.907806277351298,model_implied_state_space,33.0826,-22.266805670218837,False,True,30,-5768.034541426863,-7659.023192441736,-5768.034541426863,0.5548614852687024,9.617001254693144e-05,30.0,14,3,0.02
standard_dfm,exact,2020:Q3:pre_advance:exact,2020-10-28,pre_advance,A,2020:Q3,18.88190202791502,,,not_available,33.0826,-14.200697972084978,False,True,0,,,,,,,14,3,0.02
release_dfm,exact,2020:Q3:pre_advance:exact,2020-10-28,pre_advance,A,2020:Q3,18.88190202791502,,,not_available,33.0826,-14.200697972084978,False,True,0,,,,,,,14,3,0.02
revision_dfm_kalman_em,exact,2020:Q3:pre_advance:exact,2020-10-28,pre_advance,A,2020:Q3,10.162158674830655,2.7570244925830556,1.6604290085947835,model_implied_state_space,33.0826,-22.920441325169342,False,True,26,-1758.1790948049875,-3168.397846192563,-1758.1790948049875,0.16508774581507168,9.38348206407899e-05,26.0,14,3,0.02
indicator_revision_only_dfm_kalman_em,exact,2020:Q3:pre_advance:exact,2020-10-28,pre_advance,A,2020:Q3,10.026627343512429,2.9901508963256247,1.729205278827712,model_implied_state_space,33.0826,-23.05597265648757,False,True,40,-3199.304675969213,-5122.88095794355,-3199.304675969213,0.25709398304024944,8.032776791059554e-05,40.0,14,3,0.02
joint_indicator_revision_dfm_full_kalman_em,exact,2020:Q3:pre_advance:exact,2020-10-28,pre_advance,A,2020:Q3,7.840683600416009,2.2696848683161726,1.5065473335797228,model_implied_state_space,33.0826,-25.241916399583992,False,True,40,-3168.7906826921444,-5132.942348397295,-3168.7906826921444,0.27860572154213514,8.788631925504392e-05,40.0,14,3,0.02
ar,exact,2020:Q3:pre_second:exact,2020-11-24,pre_second,S,2020:Q3,-16.980873036800336,,,not_available,33.0683,-50.04917303680034,False,True,0,,,,,,,14,3,0.02
no_revision,exact,2020:Q3:pre_second:exact,2020-11-24,pre_second,S,2020:Q3,33.0826,,,not_available,33.0683,0.014299999999998647,False,True,0,,,,,,,14,3,0.02
bridge,exact,2020:Q3:pre_second:exact,2020-11-24,pre_second,S,2020:Q3,2.7510477231713444,,,not_available,33.0683,-30.317252276828658,False,True,0,,,,,,,14,3,0.02
midas_umidas,exact,2020:Q3:pre_second:exact,2020-11-24,pre_second,S,2020:Q3,8.800212665578378,,,not_available,33.0683,-24.268087334421622,False,True,0,,,,,,,14,3,0.02
monthly_mixed_frequency_kalman_em,exact,2020:Q3:pre_second:exact,2020-11-24,pre_second,S,2020:Q3,33.550250756515915,0.35793197322276527,0.5982741622557047,model_implied_state_space,33.0683,0.48195075651591424,False,True,37,-5751.403105536458,-7656.96332378251,-5751.403105536458,0.5543315071199686,9.635592009608843e-05,37.0,14,3,0.02
standard_dfm,exact,2020:Q3:pre_second:exact,2020-11-24,pre_second,S,2020:Q3,19.833129890307784,,,not_available,33.0683,-13.235170109692216,False,True,0,,,,,,,14,3,0.02
release_dfm,exact,2020:Q3:pre_second:exact,2020-11-24,pre_second,S,2020:Q3,33.5551410655814,,,not_available,33.0683,0.4868410655814017,False,True,0,,,,,,,14,3,0.02
revision_dfm_kalman_em,exact,2020:Q3:pre_second:exact,2020-11-24,pre_second,S,2020:Q3,34.54352257834453,0.3993748271505514,0.6319610962318419,model_implied_state_space,33.0683,1.4752225783445283,False,True,26,-1735.0548281925103,-3183.4511880592663,-1735.0548281925103,0.15227265920725586,8.770420253007642e-05,26.0,14,3,0.02
indicator_revision_only_dfm_kalman_em,exact,2020:Q3:pre_second:exact,2020-11-24,pre_second,S,2020:Q3,32.8305987230482,0.3686191827821181,0.6071401673272145,model_implied_state_space,33.0683,-0.2377012769518032,False,True,39,-3169.6504193402698,-5133.51146658155,-3169.6504193402698,0.2738817335493877,8.637283881442358e-05,39.0,14,3,0.02
joint_indicator_revision_dfm_full_kalman_em,exact,2020:Q3:pre_second:exact,2020-11-24,pre_second,S,2020:Q3,34.013401711767514,0.3468290035283878,0.5889218993452254,model_implied_state_space,33.0683,0.9451017117675136,False,True,40,-3135.623848441734,-5144.648106082525,-3135.623848441734,0.28769886059808414,9.171404939533542e-05,40.0,14,3,0.02
ar,exact,2020:Q3:pre_third:exact,2020-12-21,pre_third,T,2020:Q3,-15.911115669469648,,,not_available,33.441,-49.352115669469654,False,True,0,,,,,,,14,3,0.02
no_revision,exact,2020:Q3:pre_third:exact,2020-12-21,pre_third,T,2020:Q3,33.0683,,,not_available,33.441,-0.3727000000000018,False,True,0,,,,,,,14,3,0.02
bridge,exact,2020:Q3:pre_third:exact,2020-12-21,pre_third,T,2020:Q3,4.160750997856098,,,not_available,33.441,-29.280249002143904,False,True,0,,,,,,,14,3,0.02
midas_umidas,exact,2020:Q3:pre_third:exact,2020-12-21,pre_third,T,2020:Q3,74.0258756987586,,,not_available,33.441,40.584875698758594,False,True,0,,,,,,,14,3,0.02
monthly_mixed_frequency_kalman_em,exact,2020:Q3:pre_third:exact,2020-12-21,pre_third,T,2020:Q3,33.53328153227935,0.14540948018133482,0.3813259500497374,model_implied_state_space,33.441,0.09228153227934399,False,True,33,-5738.80839494275,-7680.297825146089,-5738.80839494275,0.5482886126919766,9.551472894753632e-05,33.0,14,3,0.02
standard_dfm,exact,2020:Q3:pre_third:exact,2020-12-21,pre_third,T,2020:Q3,20.128692846342442,,,not_available,33.441,-13.31230715365756,False,True,0,,,,,,,14,3,0.02
release_dfm,exact,2020:Q3:pre_third:exact,2020-12-21,pre_third,T,2020:Q3,33.381430367698066,,,not_available,33.441,-0.05956963230193679,False,True,0,,,,,,,14,3,0.02
revision_dfm_kalman_em,exact,2020:Q3:pre_third:exact,2020-12-21,pre_third,T,2020:Q3,33.12814204021917,0.14524679405526736,0.38111257399260307,model_implied_state_space,33.441,-0.3128579597808354,False,True,25,-1705.8713133580484,-3194.5278564274195,-1705.8713133580484,0.14999081074802234,8.786698231692995e-05,25.0,14,3,0.02
indicator_revision_only_dfm_kalman_em,exact,2020:Q3:pre_third:exact,2020-12-21,pre_third,T,2020:Q3,33.05764957641603,0.1475726939814175,0.3841519152385128,model_implied_state_space,33.441,-0.38335042358396976,False,True,39,-3141.05918300422,-5137.996117482822,-3141.05918300422,0.2830434172915375,9.007402660080927e-05,39.0,14,3,0.02
joint_indicator_revision_dfm_full_kalman_em,exact,2020:Q3:pre_third:exact,2020-12-21,pre_third,T,2020:Q3,33.08733455550321,0.14373357768986753,0.3791221144827449,model_implied_state_space,33.441,-0.3536654444967908,False,True,40,-3107.6973332968796,-5146.5953923020725,-3107.6973332968796,0.3053899502765489,9.822762392359324e-05,40.0,14,3,0.02
ar,pseudo,2020:Q3:pre_advance:pseudo,2020-10-31,pre_advance,A,2020:Q3,-19.53626137751003,,,not_available,33.0826,-52.61886137751003,False,True,0,,,,,,,14,3,0.02
no_revision,pseudo,2020:Q3:pre_advance:pseudo,2020-10-31,pre_advance,A,2020:Q3,-20.080777742191426,,,not_available,33.0826,-53.16337774219143,False,True,0,,,,,,,14,3,0.02
bridge,pseudo,2020:Q3:pre_advance:pseudo,2020-10-31,pre_advance,A,2020:Q3,-0.16082314518756657,,,not_available,33.0826,-33.24342314518756,False,True,0,,,,,,,14,3,0.02
midas_umidas,pseudo,2020:Q3:pre_advance:pseudo,2020-10-31,pre_advance,A,2020:Q3,-29.6874130831427,,,not_available,33.0826,-62.7700130831427,False,True,0,,,,,,,14,3,0.02
monthly_mixed_frequency_kalman_em,pseudo,2020:Q3:pre_advance:pseudo,2020-10-31,pre_advance,A,2020:Q3,10.809311286514113,3.642176955793251,1.9084488349948632,model_implied_state_space,33.0826,-22.273288713485886,False,True,30,-5768.210513924089,-7659.314173156125,-5768.210513924089,0.5545354391269939,9.611057545370856e-05,30.0,14,3,0.02
standard_dfm,pseudo,2020:Q3:pre_advance:pseudo,2020-10-31,pre_advance,A,2020:Q3,19.28951008955901,,,not_available,33.0826,-13.79308991044099,False,True,0,,,,,,,14,3,0.02
release_dfm,pseudo,2020:Q3:pre_advance:pseudo,2020-10-31,pre_advance,A,2020:Q3,19.28951008955901,,,not_available,33.0826,-13.79308991044099,False,True,0,,,,,,,14,3,0.02
revision_dfm_kalman_em,pseudo,2020:Q3:pre_advance:pseudo,2020-10-31,pre_advance,A,2020:Q3,10.2271735673145,2.7546857836043386,1.659724610772624,model_implied_state_space,33.0826,-22.855426432685498,False,True,26,-1753.7774531254368,-3166.7264836034574,-1753.7774531254368,0.17125840160156258,9.758598668820642e-05,26.0,14,3,0.02
indicator_revision_only_dfm_kalman_em,pseudo,2020:Q3:pre_advance:pseudo,2020-10-31,pre_advance,A,2020:Q3,9.9824926864314,2.9870806794718985,1.7283172971048744,model_implied_state_space,33.0826,-23.1001073135686,False,True,40,-3193.934398268244,-5120.210697083911,-3193.934398268244,0.2535337982544661,7.93486341476297e-05,40.0,14,3,0.02
joint_indicator_revision_dfm_full_kalman_em,pseudo,2020:Q3:pre_advance:pseudo,2020-10-31,pre_advance,A,2020:Q3,7.7715352624629475,2.2704024492065735,1.506785468872916,model_implied_state_space,33.0826,-25.311064737537052,False,True,40,-3163.41687482212,-5130.270616522247,-3163.41687482212,0.27409796024949173,8.661128767606246e-05,40.0,14,3,0.02
ar,pseudo,2020:Q3:pre_second:pseudo,2020-11-30,pre_second,S,2020:Q3,-16.980873036800336,,,not_available,33.0683,-50.04917303680034,False,True,0,,,,,,,14,3,0.02
no_revision,pseudo,2020:Q3:pre_second:pseudo,2020-11-30,pre_second,S,2020:Q3,33.0826,,,not_available,33.0683,0.014299999999998647,False,True,0,,,,,,,14,3,0.02
bridge,pseudo,2020:Q3:pre_second:pseudo,2020-11-30,pre_second,S,2020:Q3,2.6749579371403445,,,not_available,33.0683,-30.393342062859656,False,True,0,,,,,,,14,3,0.02
midas_umidas,pseudo,2020:Q3:pre_second:pseudo,2020-11-30,pre_second,S,2020:Q3,8.75957808006508,,,not_available,33.0683,-24.30872191993492,False,True,0,,,,,,,14,3,0.02
monthly_mixed_frequency_kalman_em,pseudo,2020:Q3:pre_second:pseudo,2020-11-30,pre_second,S,2020:Q3,33.549794256355,0.35792817807266797,0.5982709904990112,model_implied_state_space,33.0683,0.4814942563549991,False,True,37,-5754.894766050502,-7659.926374435473,-5754.894766050502,0.5539771611884134,9.623592355298789e-05,37.0,14,3,0.02
standard_dfm,pseudo,2020:Q3:pre_second:pseudo,2020-11-30,pre_second,S,2020:Q3,19.937054667069408,,,not_available,33.0683,-13.131245332930593,False,True,0,,,,,,,14,3,0.02
release_dfm,pseudo,2020:Q3:pre_second:pseudo,2020-11-30,pre_second,S,2020:Q3,33.55458278971348,,,not_available,33.0683,0.4862827897134778,False,True,0,,,,,,,14,3,0.02
revision_dfm_kalman_em,pseudo,2020:Q3:pre_second:pseudo,2020-11-30,pre_second,S,2020:Q3,34.54588899623947,0.3993420592698361,0.6319351701478848,model_implied_state_space,33.0683,1.4775889962394686,False,True,26,-1736.0862956346589,-3183.7360563680986,-1736.0862956346589,0.15181633265524397,8.738947851156766e-05,26.0,14,3,0.02
indicator_revision_only_dfm_kalman_em,pseudo,2020:Q3:pre_second:pseudo,2020-11-30,pre_second,S,2020:Q3,32.83113875106768,0.36861461446233995,0.6071364051531912,model_implied_state_space,33.0683,-0.23716124893232404,False,True,39,-3171.3010618706107,-5133.496679464578,-3171.3010618706107,0.30916921769085093,9.744948013509888e-05,39.0,14,3,0.02
joint_indicator_revision_dfm_full_kalman_em,pseudo,2020:Q3:pre_second:pseudo,2020-11-30,pre_second,S,2020:Q3,34.02847506415512,0.3466420731532961,0.5887631723819825,model_implied_state_space,33.0683,0.9601750641551163,False,True,41,-3137.025290386424,-5144.630861100988,-3137.025290386424,0.24970797988953564,7.95685464210516e-05,41.0,14,3,0.02
ar,pseudo,2020:Q3:pre_third:pseudo,2020-12-31,pre_third,T,2020:Q3,-15.911115669469648,,,not_available,33.441,-49.352115669469654,False,True,0,,,,,,,14,3,0.02
no_revision,pseudo,2020:Q3:pre_third:pseudo,2020-12-31,pre_third,T,2020:Q3,33.0683,,,not_available,33.441,-0.3727000000000018,False,True,0,,,,,,,14,3,0.02
bridge,pseudo,2020:Q3:pre_third:pseudo,2020-12-31,pre_third,T,2020:Q3,4.14745085722406,,,not_available,33.441,-29.293549142775944,False,True,0,,,,,,,14,3,0.02
midas_umidas,pseudo,2020:Q3:pre_third:pseudo,2020-12-31,pre_third,T,2020:Q3,74.01504204633113,,,not_available,33.441,40.57404204633113,False,True,0,,,,,,,14,3,0.02
monthly_mixed_frequency_kalman_em,pseudo,2020:Q3:pre_third:pseudo,2020-12-31,pre_third,T,2020:Q3,33.533204972727944,0.14540422258922267,0.38131905615799305,model_implied_state_space,33.441,0.09220497272794148,False,True,33,-5741.948543437359,-7683.204442651881,-5741.948543437359,0.5491872741831685,9.56189590267552e-05,33.0,14,3,0.02
standard_dfm,pseudo,2020:Q3:pre_third:pseudo,2020-12-31,pre_third,T,2020:Q3,20.115730575511265,,,not_available,33.441,-13.325269424488738,False,True,0,,,,,,,14,3,0.02
release_dfm,pseudo,2020:Q3:pre_third:pseudo,2020-12-31,pre_third,T,2020:Q3,33.381575730604204,,,not_available,33.441,-0.059424269395798035,False,True,0,,,,,,,14,3,0.02
revision_dfm_kalman_em,pseudo,2020:Q3:pre_third:pseudo,2020-12-31,pre_third,T,2020:Q3,33.12814550318429,0.14524676552928983,0.38111253656799304,model_implied_state_space,33.441,-0.3128544968157101,False,True,25,-1706.0017848451919,-3194.573495402013,-1706.0017848451919,0.14998232932248357,8.78552992220003e-05,25.0,14,3,0.02
indicator_revision_only_dfm_kalman_em,pseudo,2020:Q3:pre_third:pseudo,2020-12-31,pre_third,T,2020:Q3,33.05765033889754,0.14757266505432054,0.38415187758791514,model_implied_state_space,33.441,-0.38334966110246427,False,True,39,-3141.1437904318345,-5138.02953305462,-3141.1437904318345,0.28280845437848257,8.999683699174385e-05,39.0,14,3,0.02
joint_indicator_revision_dfm_full_kalman_em,pseudo,2020:Q3:pre_third:pseudo,2020-12-31,pre_third,T,2020:Q3,33.08733349638809,0.14373356054346192,0.3791220918694424,model_implied_state_space,33.441,-0.35366650361191176,False,True,40,-3107.782287704233,-5146.628875184576,-3107.782287704233,0.305241301890419,9.817713365824568e-05,40.0,14,3,0.02
ar,exact,2020:Q4:pre_advance:exact,2021-01-27,pre_advance,A,2020:Q4,3.457490434452062,,,not_available,4.0124,-0.5549095655479386,False,True,0,,,,,,,14,3,0.02
no_revision,exact,2020:Q4:pre_advance:exact,2021-01-27,pre_advance,A,2020:Q4,-2.3881056978927964,,,not_available,4.0124,-6.400505697892797,False,True,0,,,,,,,14,3,0.02
bridge,exact,2020:Q4:pre_advance:exact,2021-01-27,pre_advance,A,2020:Q4,9.066557621801813,,,not_available,4.0124,5.054157621801813,False,True,0,,,,,,,14,3,0.02
midas_umidas,exact,2020:Q4:pre_advance:exact,2021-01-27,pre_advance,A,2020:Q4,0.8259064302255368,,,not_available,4.0124,-3.1864935697744636,False,True,0,,,,,,,14,3,0.02
monthly_mixed_frequency_kalman_em,exact,2020:Q4:pre_advance:exact,2021-01-27,pre_advance,A,2020:Q4,1.6030423056758234,3.5461121443761545,1.8831123557494265,model_implied_state_space,4.0124,-2.409357694324177,False,True,32,-5735.998194739421,-7705.548388301524,-5735.998194739421,0.5496989707180546,9.580729972130939e-05,32.0,14,3,0.02
standard_dfm,exact,2020:Q4:pre_advance:exact,2021-01-27,pre_advance,A,2020:Q4,7.1854299729367686,,,not_available,4.0124,3.173029972936768,False,True,0,,,,,,,14,3,0.02
release_dfm,exact,2020:Q4:pre_advance:exact,2021-01-27,pre_advance,A,2020:Q4,7.1854299729367686,,,not_available,4.0124,3.173029972936768,False,True,0,,,,,,,14,3,0.02
revision_dfm_kalman_em,exact,2020:Q4:pre_advance:exact,2021-01-27,pre_advance,A,2020:Q4,2.6267766435989572,2.5832258302207767,1.607241683823804,model_implied_state_space,4.0124,-1.3856233564010432,False,True,28,-1693.66543347325,-3210.8171217615372,-1693.66543347325,0.15755738738766922,9.296391908612295e-05,28.0,14,3,0.02
