haminh109/Revision-Aware-DFM/outputs/full_state_space_release_revision_dfm/frozen/q2_manuscript_best_v1/initialization_audit/seed_3/revision_forecast_results.csv
model_id,timing_mode,forecast_origin,forecast_origin_date,checkpoint_id,target_id,revision_target_id,target_quarter,forecast_value,forecast_variance,forecast_sd,density_source,realized_value,forecast_error,revision_target_flag,converged,n_iter,loglikelihood,llf_initial,llf_final,llf_last_improvement,llf_relative_last_improvement,llf_history_length,n_indicators,initialization_seed,initialization_jitter
ar,exact,2019:Q1:pre_advance:exact,2019-04-25,pre_advance,DELTA_SA,DELTA_SA,2019:Q1,0.4648889202031996,,,not_available,-0.10470000000000024,0.5695889202031998,True,True,0,,,,,,,14,3,0.02
no_revision,exact,2019:Q1:pre_advance:exact,2019-04-25,pre_advance,DELTA_SA,DELTA_SA,2019:Q1,0.0,,,not_available,-0.10470000000000024,0.10470000000000024,True,True,0,,,,,,,14,3,0.02
bridge,exact,2019:Q1:pre_advance:exact,2019-04-25,pre_advance,DELTA_SA,DELTA_SA,2019:Q1,-0.8963490410084507,,,not_available,-0.10470000000000024,-0.7916490410084505,True,True,0,,,,,,,14,3,0.02
midas_umidas,exact,2019:Q1:pre_advance:exact,2019-04-25,pre_advance,DELTA_SA,DELTA_SA,2019:Q1,-0.277062365539126,,,not_available,-0.10470000000000024,-0.17236236553912576,True,True,0,,,,,,,14,3,0.02
monthly_mixed_frequency_kalman_em,exact,2019:Q1:pre_advance:exact,2019-04-25,pre_advance,DELTA_SA,DELTA_SA,2019:Q1,0.0722382020011556,0.3496579782164604,0.5913188464918571,model_implied_state_space,-0.10470000000000024,0.17693820200115584,True,True,54,-6285.22325928218,-7334.434583170255,-6285.22325928218,0.6243558635778754,9.931143584166545e-05,54.0,14,3,0.02
standard_dfm,exact,2019:Q1:pre_advance:exact,2019-04-25,pre_advance,DELTA_SA,DELTA_SA,2019:Q1,0.03229029921893689,,,not_available,-0.10470000000000024,0.13699029921893713,True,True,0,,,,,,,14,3,0.02
release_dfm,exact,2019:Q1:pre_advance:exact,2019-04-25,pre_advance,DELTA_SA,DELTA_SA,2019:Q1,0.03229029921893689,,,not_available,-0.10470000000000024,0.13699029921893713,True,True,0,,,,,,,14,3,0.02
revision_dfm_kalman_em,exact,2019:Q1:pre_advance:exact,2019-04-25,pre_advance,DELTA_SA,DELTA_SA,2019:Q1,0.07623176972754786,0.4108271583173604,0.6409580004316666,model_implied_state_space,-0.10470000000000024,0.1809317697275481,True,True,21,-1989.6783225865336,-2960.884259003378,-1989.6783225865336,0.17825497534340684,8.95368241753048e-05,21.0,14,3,0.02
indicator_revision_only_dfm_kalman_em,exact,2019:Q1:pre_advance:exact,2019-04-25,pre_advance,DELTA_SA,DELTA_SA,2019:Q1,0.0,0.43839198805477686,0.6621117640208312,model_implied_state_space,-0.10470000000000024,0.10470000000000024,True,True,25,-3681.951917224259,-4861.490014242766,-3681.951917224259,0.34962075251132774,9.492048069009677e-05,25.0,14,3,0.02
joint_indicator_revision_dfm_full_kalman_em,exact,2019:Q1:pre_advance:exact,2019-04-25,pre_advance,DELTA_SA,DELTA_SA,2019:Q1,0.036206787828040765,0.3955782303763229,0.6289501016585679,model_implied_state_space,-0.10470000000000024,0.140906787828041,True,True,26,-3646.6387677430453,-4875.293806501157,-3646.6387677430453,0.34585581893998096,9.48073675273002e-05,26.0,14,3,0.02
ar,exact,2019:Q1:pre_second:exact,2019-05-29,pre_second,DELTA_TS,DELTA_TS,2019:Q1,-0.5635001866146694,,,not_available,0.06099999999999994,-0.6245001866146693,True,True,0,,,,,,,14,3,0.02
no_revision,exact,2019:Q1:pre_second:exact,2019-05-29,pre_second,DELTA_TS,DELTA_TS,2019:Q1,0.0,,,not_available,0.06099999999999994,-0.06099999999999994,True,True,0,,,,,,,14,3,0.02
bridge,exact,2019:Q1:pre_second:exact,2019-05-29,pre_second,DELTA_TS,DELTA_TS,2019:Q1,0.8923743808409088,,,not_available,0.06099999999999994,0.8313743808409089,True,True,0,,,,,,,14,3,0.02
midas_umidas,exact,2019:Q1:pre_second:exact,2019-05-29,pre_second,DELTA_TS,DELTA_TS,2019:Q1,0.1692563726873546,,,not_available,0.06099999999999994,0.10825637268735466,True,True,0,,,,,,,14,3,0.02
monthly_mixed_frequency_kalman_em,exact,2019:Q1:pre_second:exact,2019-05-29,pre_second,DELTA_TS,DELTA_TS,2019:Q1,0.22826322812823108,0.1448815061963019,0.38063303350642325,model_implied_state_space,0.06099999999999994,0.16726322812823113,True,True,50,-6312.701696013429,-7328.980019682591,-6312.701696013429,0.6195132228340299,9.811240231615679e-05,50.0,14,3,0.02
standard_dfm,exact,2019:Q1:pre_second:exact,2019-05-29,pre_second,DELTA_TS,DELTA_TS,2019:Q1,0.05165552868850387,,,not_available,0.06099999999999994,-0.009344471311496072,True,True,0,,,,,,,14,3,0.02
release_dfm,exact,2019:Q1:pre_second:exact,2019-05-29,pre_second,DELTA_TS,DELTA_TS,2019:Q1,0.04575425000561806,,,not_available,0.06099999999999994,-0.015245749994381885,True,True,0,,,,,,,14,3,0.02
revision_dfm_kalman_em,exact,2019:Q1:pre_second:exact,2019-05-29,pre_second,DELTA_TS,DELTA_TS,2019:Q1,0.00827533163731875,0.14953455495582824,0.3866969807948185,model_implied_state_space,0.06099999999999994,-0.05272466836268119,True,True,21,-1990.5399115378243,-2962.0155340976125,-1990.5399115378243,0.18105677604330594,9.090468942373152e-05,21.0,14,3,0.02
indicator_revision_only_dfm_kalman_em,exact,2019:Q1:pre_second:exact,2019-05-29,pre_second,DELTA_TS,DELTA_TS,2019:Q1,0.0,0.1539616622316894,0.39237948752666646,model_implied_state_space,0.06099999999999994,-0.06099999999999994,True,True,25,-3683.1529963238027,-4862.694542802622,-3683.1529963238027,0.3507922448316094,9.52074593924861e-05,25.0,14,3,0.02
joint_indicator_revision_dfm_full_kalman_em,exact,2019:Q1:pre_second:exact,2019-05-29,pre_second,DELTA_TS,DELTA_TS,2019:Q1,0.006167665307942105,0.14866271511634388,0.3855680421356831,model_implied_state_space,0.06099999999999994,-0.05483233469205784,True,True,26,-3647.810862388998,-4876.599290830378,-3647.810862388998,0.3466826048315852,9.500346328077523e-05,26.0,14,3,0.02
ar,exact,2019:Q1:pre_third:exact,2019-06-26,pre_third,DELTA_MT,DELTA_MT,2019:Q1,0.29507328704170277,,,not_available,-0.6073999999999997,0.9024732870417025,True,True,0,,,,,,,14,3,0.02
no_revision,exact,2019:Q1:pre_third:exact,2019-06-26,pre_third,DELTA_MT,DELTA_MT,2019:Q1,0.0,,,not_available,-0.6073999999999997,0.6073999999999997,True,True,0,,,,,,,14,3,0.02
bridge,exact,2019:Q1:pre_third:exact,2019-06-26,pre_third,DELTA_MT,DELTA_MT,2019:Q1,-0.2460835305255178,,,not_available,-0.6073999999999997,0.3613164694744819,True,True,0,,,,,,,14,3,0.02
midas_umidas,exact,2019:Q1:pre_third:exact,2019-06-26,pre_third,DELTA_MT,DELTA_MT,2019:Q1,-0.12965189226681062,,,not_available,-0.6073999999999997,0.4777481077331891,True,True,0,,,,,,,14,3,0.02
monthly_mixed_frequency_kalman_em,exact,2019:Q1:pre_third:exact,2019-06-26,pre_third,DELTA_MT,DELTA_MT,2019:Q1,0.14522074281064423,4.4784901265845125,2.1162443447259376,model_implied_state_space,-0.6073999999999997,0.752620742810644,True,True,52,-6328.886922084899,-7349.5487198973715,-6328.886922084899,0.6279233508239486,9.918993417678798e-05,52.0,14,3,0.02
standard_dfm,exact,2019:Q1:pre_third:exact,2019-06-26,pre_third,DELTA_MT,DELTA_MT,2019:Q1,0.2069325298377389,,,not_available,-0.6073999999999997,0.8143325298377386,True,True,0,,,,,,,14,3,0.02
release_dfm,exact,2019:Q1:pre_third:exact,2019-06-26,pre_third,DELTA_MT,DELTA_MT,2019:Q1,-0.05832211075326654,,,not_available,-0.6073999999999997,0.5490778892467332,True,True,0,,,,,,,14,3,0.02
revision_dfm_kalman_em,exact,2019:Q1:pre_third:exact,2019-06-26,pre_third,DELTA_MT,DELTA_MT,2019:Q1,0.0024785479252473763,4.361942354902402,2.088526359637915,model_implied_state_space,-0.6073999999999997,0.6098785479252471,True,True,22,-1989.3687586715732,-2974.414444133602,-1989.3687586715732,0.1779685815783978,8.940688462208819e-05,22.0,14,3,0.02
indicator_revision_only_dfm_kalman_em,exact,2019:Q1:pre_third:exact,2019-06-26,pre_third,DELTA_MT,DELTA_MT,2019:Q1,0.0,4.360945478006977,2.0882876904313203,model_implied_state_space,-0.6073999999999997,0.6073999999999997,True,True,25,-3681.856489949318,-4863.338979690496,-3681.856489949318,0.3523810437704924,9.567229448909351e-05,25.0,14,3,0.02
joint_indicator_revision_dfm_full_kalman_em,exact,2019:Q1:pre_third:exact,2019-06-26,pre_third,DELTA_MT,DELTA_MT,2019:Q1,0.001448600784537124,4.372286348260118,2.091001278875773,model_implied_state_space,-0.6073999999999997,0.6088486007845368,True,True,26,-3646.5659899680163,-4877.215777015035,-3646.5659899680163,0.3492922080781682,9.575118418589056e-05,26.0,14,3,0.02
ar,pseudo,2019:Q1:pre_advance:pseudo,2019-04-30,pre_advance,DELTA_SA,DELTA_SA,2019:Q1,0.4648889202031996,,,not_available,-0.10470000000000024,0.5695889202031998,True,True,0,,,,,,,14,3,0.02
no_revision,pseudo,2019:Q1:pre_advance:pseudo,2019-04-30,pre_advance,DELTA_SA,DELTA_SA,2019:Q1,0.0,,,not_available,-0.10470000000000024,0.10470000000000024,True,True,0,,,,,,,14,3,0.02
bridge,pseudo,2019:Q1:pre_advance:pseudo,2019-04-30,pre_advance,DELTA_SA,DELTA_SA,2019:Q1,-0.8963928945664441,,,not_available,-0.10470000000000024,-0.7916928945664439,True,True,0,,,,,,,14,3,0.02
midas_umidas,pseudo,2019:Q1:pre_advance:pseudo,2019-04-30,pre_advance,DELTA_SA,DELTA_SA,2019:Q1,-0.3550490427156605,,,not_available,-0.10470000000000024,-0.2503490427156603,True,True,0,,,,,,,14,3,0.02
monthly_mixed_frequency_kalman_em,pseudo,2019:Q1:pre_advance:pseudo,2019-04-30,pre_advance,DELTA_SA,DELTA_SA,2019:Q1,0.07017223175006237,0.3495530576467809,0.5912301224115538,model_implied_state_space,-0.10470000000000024,0.1748722317500626,True,True,54,-6287.947680874189,-7337.221342752908,-6287.947680874189,0.6241217620436146,9.923120072848489e-05,54.0,14,3,0.02
standard_dfm,pseudo,2019:Q1:pre_advance:pseudo,2019-04-30,pre_advance,DELTA_SA,DELTA_SA,2019:Q1,0.032216263021888736,,,not_available,-0.10470000000000024,0.13691626302188897,True,True,0,,,,,,,14,3,0.02
release_dfm,pseudo,2019:Q1:pre_advance:pseudo,2019-04-30,pre_advance,DELTA_SA,DELTA_SA,2019:Q1,0.032216263021888736,,,not_available,-0.10470000000000024,0.13691626302188897,True,True,0,,,,,,,14,3,0.02
revision_dfm_kalman_em,pseudo,2019:Q1:pre_advance:pseudo,2019-04-30,pre_advance,DELTA_SA,DELTA_SA,2019:Q1,0.076196136924217,0.4108272889068374,0.6409581023022,model_implied_state_space,-0.10470000000000024,0.18089613692421724,True,True,21,-1989.6773012507583,-2960.8843601728595,-1989.6773012507583,0.17825329407492063,8.953602568905329e-05,21.0,14,3,0.02
indicator_revision_only_dfm_kalman_em,pseudo,2019:Q1:pre_advance:pseudo,2019-04-30,pre_advance,DELTA_SA,DELTA_SA,2019:Q1,0.0,0.4383920619528201,0.6621118198256395,model_implied_state_space,-0.10470000000000024,0.10470000000000024,True,True,25,-3681.952057311822,-4861.4890631551225,-3681.952057311822,0.34961668951245883,9.491937409858005e-05,25.0,14,3,0.02
joint_indicator_revision_dfm_full_kalman_em,pseudo,2019:Q1:pre_advance:pseudo,2019-04-30,pre_advance,DELTA_SA,DELTA_SA,2019:Q1,0.036283557957524026,0.39557779184586384,0.6289497530374456,model_implied_state_space,-0.10470000000000024,0.14098355795752426,True,True,26,-3646.638779607895,-4875.292853382954,-3646.638779607895,0.3458549287852293,9.480712322933216e-05,26.0,14,3,0.02
ar,pseudo,2019:Q1:pre_second:pseudo,2019-05-31,pre_second,DELTA_TS,DELTA_TS,2019:Q1,-0.5635001866146694,,,not_available,0.06099999999999994,-0.6245001866146693,True,True,0,,,,,,,14,3,0.02
no_revision,pseudo,2019:Q1:pre_second:pseudo,2019-05-31,pre_second,DELTA_TS,DELTA_TS,2019:Q1,0.0,,,not_available,0.06099999999999994,-0.06099999999999994,True,True,0,,,,,,,14,3,0.02
bridge,pseudo,2019:Q1:pre_second:pseudo,2019-05-31,pre_second,DELTA_TS,DELTA_TS,2019:Q1,0.8891871677354084,,,not_available,0.06099999999999994,0.8281871677354085,True,True,0,,,,,,,14,3,0.02
midas_umidas,pseudo,2019:Q1:pre_second:pseudo,2019-05-31,pre_second,DELTA_TS,DELTA_TS,2019:Q1,0.15850275294399863,,,not_available,0.06099999999999994,0.09750275294399868,True,True,0,,,,,,,14,3,0.02
monthly_mixed_frequency_kalman_em,pseudo,2019:Q1:pre_second:pseudo,2019-05-31,pre_second,DELTA_TS,DELTA_TS,2019:Q1,0.22777825448362732,0.14489493338300918,0.38065067106601713,model_implied_state_space,0.06099999999999994,0.16677825448362738,True,True,50,-6314.183496918036,-7330.413930259353,-6314.183496918036,0.6163609765144429,9.759032749335954e-05,50.0,14,3,0.02
standard_dfm,pseudo,2019:Q1:pre_second:pseudo,2019-05-31,pre_second,DELTA_TS,DELTA_TS,2019:Q1,0.05169863222872828,,,not_available,0.06099999999999994,-0.009301367771271662,True,True,0,,,,,,,14,3,0.02
release_dfm,pseudo,2019:Q1:pre_second:pseudo,2019-05-31,pre_second,DELTA_TS,DELTA_TS,2019:Q1,0.045647170481801336,,,not_available,0.06099999999999994,-0.015352829518198607,True,True,0,,,,,,,14,3,0.02
revision_dfm_kalman_em,pseudo,2019:Q1:pre_second:pseudo,2019-05-31,pre_second,DELTA_TS,DELTA_TS,2019:Q1,0.008255744844020807,0.1495347780701295,0.38669726928196624,model_implied_state_space,0.06099999999999994,-0.052744255155979136,True,True,21,-1990.5486487642397,-2962.0088771951914,-1990.5486487642397,0.18101114322143985,9.088138157758313e-05,21.0,14,3,0.02
indicator_revision_only_dfm_kalman_em,pseudo,2019:Q1:pre_second:pseudo,2019-05-31,pre_second,DELTA_TS,DELTA_TS,2019:Q1,0.0,0.15396110933168794,0.3923787829784989,model_implied_state_space,0.06099999999999994,-0.06099999999999994,True,True,25,-3683.1557539518867,-4862.676901119962,-3683.1557539518867,0.35086099455793374,9.522604549945518e-05,25.0,14,3,0.02
joint_indicator_revision_dfm_full_kalman_em,pseudo,2019:Q1:pre_second:pseudo,2019-05-31,pre_second,DELTA_TS,DELTA_TS,2019:Q1,0.006148067084456699,0.14866298445930182,0.38556839141623345,model_implied_state_space,0.06099999999999994,-0.054851932915543244,True,True,26,-3647.814292419116,-4876.581676500991,-3647.814292419116,0.34674998964283077,9.502183806444072e-05,26.0,14,3,0.02
ar,pseudo,2019:Q1:pre_third:pseudo,2019-06-30,pre_third,DELTA_MT,DELTA_MT,2019:Q1,0.29507328704170277,,,not_available,-0.6073999999999997,0.9024732870417025,True,True,0,,,,,,,14,3,0.02
no_revision,pseudo,2019:Q1:pre_third:pseudo,2019-06-30,pre_third,DELTA_MT,DELTA_MT,2019:Q1,0.0,,,not_available,-0.6073999999999997,0.6073999999999997,True,True,0,,,,,,,14,3,0.02
bridge,pseudo,2019:Q1:pre_third:pseudo,2019-06-30,pre_third,DELTA_MT,DELTA_MT,2019:Q1,-0.24458762674535617,,,not_available,-0.6073999999999997,0.36281237325464355,True,True,0,,,,,,,14,3,0.02
midas_umidas,pseudo,2019:Q1:pre_third:pseudo,2019-06-30,pre_third,DELTA_MT,DELTA_MT,2019:Q1,-0.10219946807304581,,,not_available,-0.6073999999999997,0.5052005319269539,True,True,0,,,,,,,14,3,0.02
monthly_mixed_frequency_kalman_em,pseudo,2019:Q1:pre_third:pseudo,2019-06-30,pre_third,DELTA_MT,DELTA_MT,2019:Q1,0.14510499833795176,4.478492055124484,2.1162448003774244,model_implied_state_space,-0.6073999999999997,0.7525049983379515,True,True,52,-6330.262917367987,-7350.951155117272,-6330.262917367987,0.6282721687175581,9.922346261347043e-05,52.0,14,3,0.02
standard_dfm,pseudo,2019:Q1:pre_third:pseudo,2019-06-30,pre_third,DELTA_MT,DELTA_MT,2019:Q1,0.20610842776374927,,,not_available,-0.6073999999999997,0.813508427763749,True,True,0,,,,,,,14,3,0.02
release_dfm,pseudo,2019:Q1:pre_third:pseudo,2019-06-30,pre_third,DELTA_MT,DELTA_MT,2019:Q1,-0.06045295100080228,,,not_available,-0.6073999999999997,0.5469470489991974,True,True,0,,,,,,,14,3,0.02
revision_dfm_kalman_em,pseudo,2019:Q1:pre_third:pseudo,2019-06-30,pre_third,DELTA_MT,DELTA_MT,2019:Q1,0.002481740478870176,4.3619416014702175,2.088526179263793,model_implied_state_space,-0.6073999999999997,0.6098817404788699,True,True,22,-1989.354418839428,-2974.4142364836252,-1989.354418839428,0.17795235829385092,8.939937921570967e-05,22.0,14,3,0.02
indicator_revision_only_dfm_kalman_em,pseudo,2019:Q1:pre_third:pseudo,2019-06-30,pre_third,DELTA_MT,DELTA_MT,2019:Q1,0.0,4.360945734717734,2.088287751895733,model_implied_state_space,-0.6073999999999997,0.6073999999999997,True,True,25,-3681.862871954934,-4863.350345312304,-3681.862871954934,0.35241484179186955,9.56813040647328e-05,25.0,14,3,0.02
joint_indicator_revision_dfm_full_kalman_em,pseudo,2019:Q1:pre_third:pseudo,2019-06-30,pre_third,DELTA_MT,DELTA_MT,2019:Q1,0.0014513900140098457,4.3722856312088165,2.0910011074145363,model_implied_state_space,-0.6073999999999997,0.6088513900140096,True,True,26,-3646.572630266581,-4877.227122085651,-3646.572630266581,0.3493268575793991,9.576050740262846e-05,26.0,14,3,0.02
ar,exact,2019:Q2:pre_advance:exact,2019-07-25,pre_advance,DELTA_SA,DELTA_SA,2019:Q2,-0.026254198058714096,,,not_available,-0.017100000000000115,-0.00915419805871398,True,True,0,,,,,,,14,3,0.02
no_revision,exact,2019:Q2:pre_advance:exact,2019-07-25,pre_advance,DELTA_SA,DELTA_SA,2019:Q2,0.0,,,not_available,-0.017100000000000115,0.017100000000000115,True,True,0,,,,,,,14,3,0.02
bridge,exact,2019:Q2:pre_advance:exact,2019-07-25,pre_advance,DELTA_SA,DELTA_SA,2019:Q2,-0.08652409669299166,,,not_available,-0.017100000000000115,-0.06942409669299154,True,True,0,,,,,,,14,3,0.02
midas_umidas,exact,2019:Q2:pre_advance:exact,2019-07-25,pre_advance,DELTA_SA,DELTA_SA,2019:Q2,0.6439951021716461,,,not_available,-0.017100000000000115,0.6610951021716462,True,True,0,,,,,,,14,3,0.02
monthly_mixed_frequency_kalman_em,exact,2019:Q2:pre_advance:exact,2019-07-25,pre_advance,DELTA_SA,DELTA_SA,2019:Q2,-0.03954711119215437,0.350678416996292,0.5921810677455773,model_implied_state_space,-0.017100000000000115,-0.022447111192154257,True,True,50,-6350.581332858644,-7371.17664482267,-6350.581332858644,0.6185725957329851,9.737927095175985e-05,50.0,14,3,0.02
standard_dfm,exact,2019:Q2:pre_advance:exact,2019-07-25,pre_advance,DELTA_SA,DELTA_SA,2019:Q2,0.06429942451968351,,,not_available,-0.017100000000000115,0.08139942451968363,True,True,0,,,,,,,14,3,0.02
release_dfm,exact,2019:Q2:pre_advance:exact,2019-07-25,pre_advance,DELTA_SA,DELTA_SA,2019:Q2,0.06429942451968351,,,not_available,-0.017100000000000115,0.08139942451968363,True,True,0,,,,,,,14,3,0.02
revision_dfm_kalman_em,exact,2019:Q2:pre_advance:exact,2019-07-25,pre_advance,DELTA_SA,DELTA_SA,2019:Q2,0.04960222301394568,0.40933504091239215,0.6397929672264241,model_implied_state_space,-0.017100000000000115,0.0667022230139458,True,True,21,-2007.9463809931844,-2983.5572578616257,-2007.9463809931844,0.17967134446803357,8.942761170160672e-05,21.0,14,3,0.02
indicator_revision_only_dfm_kalman_em,exact,2019:Q2:pre_advance:exact,2019-07-25,pre_advance,DELTA_SA,DELTA_SA,2019:Q2,0.0,0.4364311675406096,0.6606293722963047,model_implied_state_space,-0.017100000000000115,0.017100000000000115,True,True,25,-3718.472582353576,-4902.518927114762,-3718.472582353576,0.3550114244130782,9.543760173371799e-05,25.0,14,3,0.02
joint_indicator_revision_dfm_full_kalman_em,exact,2019:Q2:pre_advance:exact,2019-07-25,pre_advance,DELTA_SA,DELTA_SA,2019:Q2,0.07190614494883363,0.39372425654750565,0.6274745066913122,model_implied_state_space,-0.017100000000000115,0.08900614494883374,True,True,26,-3683.3062783135215,-4916.394810414477,-3683.3062783135215,0.3497553267065996,9.492211037160542e-05,26.0,14,3,0.02
ar,exact,2019:Q2:pre_second:exact,2019-08-28,pre_second,DELTA_TS,DELTA_TS,2019:Q2,0.055386723140361305,,,not_available,-0.023600000000000065,0.07898672314036137,True,True,0,,,,,,,14,3,0.02
no_revision,exact,2019:Q2:pre_second:exact,2019-08-28,pre_second,DELTA_TS,DELTA_TS,2019:Q2,0.0,,,not_available,-0.023600000000000065,0.023600000000000065,True,True,0,,,,,,,14,3,0.02
bridge,exact,2019:Q2:pre_second:exact,2019-08-28,pre_second,DELTA_TS,DELTA_TS,2019:Q2,0.23410885204244902,,,not_available,-0.023600000000000065,0.2577088520424491,True,True,0,,,,,,,14,3,0.02
midas_umidas,exact,2019:Q2:pre_second:exact,2019-08-28,pre_second,DELTA_TS,DELTA_TS,2019:Q2,-0.29173799287155333,,,not_available,-0.023600000000000065,-0.26813799287155327,True,True,0,,,,,,,14,3,0.02
monthly_mixed_frequency_kalman_em,exact,2019:Q2:pre_second:exact,2019-08-28,pre_second,DELTA_TS,DELTA_TS,2019:Q2,0.01683106127437206,0.14467528830341836,0.3803620489788885,model_implied_state_space,-0.023600000000000065,0.040431061274372126,True,True,52,-6368.1541381053285,-7418.865479658013,-6368.1541381053285,0.635894770505729,9.982978516147965e-05,52.0,14,3,0.02
standard_dfm,exact,2019:Q2:pre_second:exact,2019-08-28,pre_second,DELTA_TS,DELTA_TS,2019:Q2,0.05877272252036114,,,not_available,-0.023600000000000065,0.08237272252036121,True,True,0,,,,,,,14,3,0.02
release_dfm,exact,2019:Q2:pre_second:exact,2019-08-28,pre_second,DELTA_TS,DELTA_TS,2019:Q2,0.040997546223894066,,,not_available,-0.023600000000000065,0.06459754622389413,True,True,0,,,,,,,14,3,0.02
revision_dfm_kalman_em,exact,2019:Q2:pre_second:exact,2019-08-28,pre_second,DELTA_TS,DELTA_TS,2019:Q2,0.0018834164536092324,0.1488536868675393,0.3858156125243499,model_implied_state_space,-0.023600000000000065,0.025483416453609298,True,True,21,-2009.1728162265742,-2984.7168393071556,-2009.1728162265742,0.1818890888207534,9.047611764224347e-05,21.0,14,3,0.02
indicator_revision_only_dfm_kalman_em,exact,2019:Q2:pre_second:exact,2019-08-28,pre_second,DELTA_TS,DELTA_TS,2019:Q2,0.0,0.1532699891009286,0.3914971125065019,model_implied_state_space,-0.023600000000000065,0.023600000000000065,True,True,25,-3719.8081999775704,-4903.8275679466105,-3719.8081999775704,0.3549170619398865,9.537799090684637e-05,25.0,14,3,0.02
joint_indicator_revision_dfm_full_kalman_em,exact,2019:Q2:pre_second:exact,2019-08-28,pre_second,DELTA_TS,DELTA_TS,2019:Q2,0.0008359529528112475,0.1479953201016848,0.3847015987771364,model_implied_state_space,-0.023600000000000065,0.024435952952811313,True,True,26,-3684.4833404266496,-4917.808170662997,-3684.4833404266496,0.34921688060103406,9.47457257407701e-05,26.0,14,3,0.02
ar,exact,2019:Q2:pre_third:exact,2019-09-25,pre_third,DELTA_MT,DELTA_MT,2019:Q2,-0.46237987223397825,,,not_available,1.3697,-1.8320798722339782,True,True,0,,,,,,,14,3,0.02
no_revision,exact,2019:Q2:pre_third:exact,2019-09-25,pre_third,DELTA_MT,DELTA_MT,2019:Q2,0.0,,,not_available,1.3697,-1.3697,True,True,0,,,,,,,14,3,0.02
bridge,exact,2019:Q2:pre_third:exact,2019-09-25,pre_third,DELTA_MT,DELTA_MT,2019:Q2,-1.1014609870404506,,,not_available,1.3697,-2.4711609870404505,True,True,0,,,,,,,14,3,0.02
midas_umidas,exact,2019:Q2:pre_third:exact,2019-09-25,pre_third,DELTA_MT,DELTA_MT,2019:Q2,-2.7795466199430354,,,not_available,1.3697,-4.149246619943035,True,True,0,,,,,,,14,3,0.02
monthly_mixed_frequency_kalman_em,exact,2019:Q2:pre_third:exact,2019-09-25,pre_third,DELTA_MT,DELTA_MT,2019:Q2,-0.00410915759849706,4.457429140538674,2.1112624518374483,model_implied_state_space,1.3697,-1.373809157598497,True,True,54,-6383.975003426527,-7438.317659323553,-6383.975003426527,0.6276238260634273,9.828732896482518e-05,54.0,14,3,0.02
standard_dfm,exact,2019:Q2:pre_third:exact,2019-09-25,pre_third,DELTA_MT,DELTA_MT,2019:Q2,0.2538501440217149,,,not_available,1.3697,-1.115849855978285,True,True,0,,,,,,,14,3,0.02
release_dfm,exact,2019:Q2:pre_third:exact,2019-09-25,pre_third,DELTA_MT,DELTA_MT,2019:Q2,0.29477225106409,,,not_available,1.3697,-1.07492774893591,True,True,0,,,,,,,14,3,0.02
revision_dfm_kalman_em,exact,2019:Q2:pre_third:exact,2019-09-25,pre_third,DELTA_MT,DELTA_MT,2019:Q2,0.0005568615662885357,4.340629731517077,2.083417800518436,model_implied_state_space,1.3697,-1.3691431384337114,True,True,22,-2008.932185413681,-2997.443662624083,-2008.932185413681,0.18054499746267538,8.981834437999262e-05,22.0,14,3,0.02
indicator_revision_only_dfm_kalman_em,exact,2019:Q2:pre_third:exact,2019-09-25,pre_third,DELTA_MT,DELTA_MT,2019:Q2,0.0,4.339613365974679,2.0831738683976138,model_implied_state_space,1.3697,-1.3697,True,True,25,-3719.343591810558,-4904.888351070319,-3719.343591810558,0.35569231184445016,9.55982423417879e-05,25.0,14,3,0.02
joint_indicator_revision_dfm_full_kalman_em,exact,2019:Q2:pre_third:exact,2019-09-25,pre_third,DELTA_MT,DELTA_MT,2019:Q2,-0.000227752209263965,4.350855640159654,2.0858704754034116,model_implied_state_space,1.3697,-1.3699277522092639,True,True,26,-3684.003065627458,-4918.842439599913,-3684.003065627458,0.35010628472264216,9.49993849683031e-05,26.0,14,3,0.02
ar,pseudo,2019:Q2:pre_advance:pseudo,2019-07-31,pre_advance,DELTA_SA,DELTA_SA,2019:Q2,-0.026254198058714096,,,not_available,-0.017100000000000115,-0.00915419805871398,True,True,0,,,,,,,14,3,0.02
no_revision,pseudo,2019:Q2:pre_advance:pseudo,2019-07-31,pre_advance,DELTA_SA,DELTA_SA,2019:Q2,0.0,,,not_available,-0.017100000000000115,0.017100000000000115,True,True,0,,,,,,,14,3,0.02
bridge,pseudo,2019:Q2:pre_advance:pseudo,2019-07-31,pre_advance,DELTA_SA,DELTA_SA,2019:Q2,-0.08882651376427209,,,not_available,-0.017100000000000115,-0.07172651376427197,True,True,0,,,,,,,14,3,0.02
midas_umidas,pseudo,2019:Q2:pre_advance:pseudo,2019-07-31,pre_advance,DELTA_SA,DELTA_SA,2019:Q2,0.0825776765362578,,,not_available,-0.017100000000000115,0.09967767653625792,True,True,0,,,,,,,14,3,0.02
monthly_mixed_frequency_kalman_em,pseudo,2019:Q2:pre_advance:pseudo,2019-07-31,pre_advance,DELTA_SA,DELTA_SA,2019:Q2,-0.032333698315883064,0.3504926899935672,0.5920242309175927,model_implied_state_space,-0.017100000000000115,-0.015233698315882949,True,True,49,-6352.49700138712,-7372.402001919866,-6352.49700138712,0.6272247180922932,9.871143461681316e-05,49.0,14,3,0.02
standard_dfm,pseudo,2019:Q2:pre_advance:pseudo,2019-07-31,pre_advance,DELTA_SA,DELTA_SA,2019:Q2,0.06890437481270517,,,not_available,-0.017100000000000115,0.08600437481270529,True,True,0,,,,,,,14,3,0.02
release_dfm,pseudo,2019:Q2:pre_advance:pseudo,2019-07-31,pre_advance,DELTA_SA,DELTA_SA,2019:Q2,0.06890437481270517,,,not_available,-0.017100000000000115,0.08600437481270529,True,True,0,,,,,,,14,3,0.02
revision_dfm_kalman_em,pseudo,2019:Q2:pre_advance:pseudo,2019-07-31,pre_advance,DELTA_SA,DELTA_SA,2019:Q2,0.05244560845345436,0.409280052383588,0.6397499920934646,model_implied_state_space,-0.017100000000000115,0.06954560845345448,True,True,21,-2007.6826924174175,-2983.2550426899516,-2007.6826924174175,0.17969702913296715,8.945213473904223e-05,21.0,14,3,0.02
indicator_revision_only_dfm_kalman_em,pseudo,2019:Q2:pre_advance:pseudo,2019-07-31,pre_advance,DELTA_SA,DELTA_SA,2019:Q2,0.0,0.4364306870263217,0.6606290086170313,model_implied_state_space,-0.017100000000000115,0.017100000000000115,True,True,25,-3717.932877251318,-4902.287609268536,-3717.932877251318,0.35457273956353674,9.533351329551203e-05,25.0,14,3,0.02
joint_indicator_revision_dfm_full_kalman_em,pseudo,2019:Q2:pre_advance:pseudo,2019-07-31,pre_advance,DELTA_SA,DELTA_SA,2019:Q2,0.06696130652433574,0.39371049385315526,0.6274635398596123,model_implied_state_space,-0.017100000000000115,0.08406130652433585,True,True,26,-3682.7645679889515,-4916.163329614901,-3682.7645679889515,0.3490906535648719,9.475566877420963e-05,26.0,14,3,0.02
ar,pseudo,2019:Q2:pre_second:pseudo,2019-08-31,pre_second,DELTA_TS,DELTA_TS,2019:Q2,0.055386723140361305,,,not_available,-0.023600000000000065,0.07898672314036137,True,True,0,,,,,,,14,3,0.02
no_revision,pseudo,2019:Q2:pre_second:pseudo,2019-08-31,pre_second,DELTA_TS,DELTA_TS,2019:Q2,0.0,,,not_available,-0.023600000000000065,0.023600000000000065,True,True,0,,,,,,,14,3,0.02
bridge,pseudo,2019:Q2:pre_second:pseudo,2019-08-31,pre_second,DELTA_TS,DELTA_TS,2019:Q2,0.23350068936004886,,,not_available,-0.023600000000000065,0.25710068936004893,True,True,0,,,,,,,14,3,0.02
midas_umidas,pseudo,2019:Q2:pre_second:pseudo,2019-08-31,pre_second,DELTA_TS,DELTA_TS,2019:Q2,-0.2911198224050162,,,not_available,-0.023600000000000065,-0.26751982240501615,True,True,0,,,,,,,14,3,0.02
monthly_mixed_frequency_kalman_em,pseudo,2019:Q2:pre_second:pseudo,2019-08-31,pre_second,DELTA_TS,DELTA_TS,2019:Q2,0.016644376134210326,0.14466854149366493,0.3803531799441999,model_implied_state_space,-0.023600000000000065,0.04024437613421039,True,True,52,-6369.468280958436,-7420.230284323025,-6369.468280958436,0.6364165223421878,9.989107895116457e-05,52.0,14,3,0.02
standard_dfm,pseudo,2019:Q2:pre_second:pseudo,2019-08-31,pre_second,DELTA_TS,DELTA_TS,2019:Q2,0.058756074050508644,,,not_available,-0.023600000000000065,0.08235607405050871,True,True,0,,,,,,,14,3,0.02
release_dfm,pseudo,2019:Q2:pre_second:pseudo,2019-08-31,pre_second,DELTA_TS,DELTA_TS,2019:Q2,0.04099531098372022,,,not_available,-0.023600000000000065,0.06459531098372029,True,True,0,,,,,,,14,3,0.02
revision_dfm_kalman_em,pseudo,2019:Q2:pre_second:pseudo,2019-08-31,pre_second,DELTA_TS,DELTA_TS,2019:Q2,0.0018847223329112595,0.14885369372660673,0.38581562141339837,model_implied_state_space,-0.023600000000000065,0.025484722332911325,True,True,21,-2009.1785183000352,-2984.7190213900863,-2009.1785183000352,0.18189390092129543,9.047825445495951e-05,21.0,14,3,0.02
indicator_revision_only_dfm_kalman_em,pseudo,2019:Q2:pre_second:pseudo,2019-08-31,pre_second,DELTA_TS,DELTA_TS,2019:Q2,0.0,0.15327002176814086,0.39149715422738496,model_implied_state_space,-0.023600000000000065,0.023600000000000065,True,True,25,-3719.8149703575486,-4903.832342491432,-3719.8149703575486,0.3549145871243127,9.537715237357126e-05,25.0,14,3,0.02
joint_indicator_revision_dfm_full_kalman_em,pseudo,2019:Q2:pre_second:pseudo,2019-08-31,pre_second,DELTA_TS,DELTA_TS,2019:Q2,0.0008376265233951408,0.14799534040242168,0.384701625162179,model_implied_state_space,-0.023600000000000065,0.024437626523395206,True,True,26,-3684.4899356083456,-4917.812961154299,-3684.4899356083456,0.3492130905351587,9.47445280292366e-05,26.0,14,3,0.02
ar,pseudo,2019:Q2:pre_third:pseudo,2019-09-30,pre_third,DELTA_MT,DELTA_MT,2019:Q2,-0.46237987223397825,,,not_available,1.3697,-1.8320798722339782,True,True,0,,,,,,,14,3,0.02
no_revision,pseudo,2019:Q2:pre_third:pseudo,2019-09-30,pre_third,DELTA_MT,DELTA_MT,2019:Q2,0.0,,,not_available,1.3697,-1.3697,True,True,0,,,,,,,14,3,0.02
bridge,pseudo,2019:Q2:pre_third:pseudo,2019-09-30,pre_third,DELTA_MT,DELTA_MT,2019:Q2,-1.101354405618797,,,not_available,1.3697,-2.471054405618797,True,True,0,,,,,,,14,3,0.02
midas_umidas,pseudo,2019:Q2:pre_third:pseudo,2019-09-30,pre_third,DELTA_MT,DELTA_MT,2019:Q2,-2.7666666149646053,,,not_available,1.3697,-4.136366614964605,True,True,0,,,,,,,14,3,0.02
monthly_mixed_frequency_kalman_em,pseudo,2019:Q2:pre_third:pseudo,2019-09-30,pre_third,DELTA_MT,DELTA_MT,2019:Q2,-0.003925680525870057,4.45743928540231,2.1112648543947086,model_implied_state_space,1.3697,-1.37362568052587,True,True,54,-6386.717266298226,-7441.16270349829,-6386.717266298226,0.6266257989755104,9.808892720235168e-05,54.0,14,3,0.02
standard_dfm,pseudo,2019:Q2:pre_third:pseudo,2019-09-30,pre_third,DELTA_MT,DELTA_MT,2019:Q2,0.25346771696324044,,,not_available,1.3697,-1.1162322830367595,True,True,0,,,,,,,14,3,0.02
release_dfm,pseudo,2019:Q2:pre_third:pseudo,2019-09-30,pre_third,DELTA_MT,DELTA_MT,2019:Q2,0.29384601405375,,,not_available,1.3697,-1.07585398594625,True,True,0,,,,,,,14,3,0.02
revision_dfm_kalman_em,pseudo,2019:Q2:pre_third:pseudo,2019-09-30,pre_third,DELTA_MT,DELTA_MT,2019:Q2,0.0005582834109532087,4.3406298810659605,2.0834178364087124,model_implied_state_space,1.3697,-1.3691417165890467,True,True,22,-2008.9216957316364,-2997.439634926565,-2008.9216957316364,0.18053586663472743,8.981427103395626e-05,22.0,14,3,0.02
indicator_revision_only_dfm_kalman_em,pseudo,2019:Q2:pre_third:pseudo,2019-09-30,pre_third,DELTA_MT,DELTA_MT,2019:Q2,0.0,4.33961325046485,2.0831738406731324,model_implied_state_space,1.3697,-1.3697,True,True,25,-3719.338889427932,-4904.88627784725,-3719.338889427932,0.35570342425853596,9.560134952808978e-05,25.0,14,3,0.02
joint_indicator_revision_dfm_full_kalman_em,pseudo,2019:Q2:pre_third:pseudo,2019-09-30,pre_third,DELTA_MT,DELTA_MT,2019:Q2,-0.00022644253151860028,4.350855429013785,2.085870424790041,model_implied_state_space,1.3697,-1.3699264425315185,True,True,26,-3683.998268527834,-4918.840374814791,-3683.998268527834,0.3501163107307548,9.500222887234349e-05,26.0,14,3,0.02
ar,exact,2019:Q3:pre_advance:exact,2019-10-29,pre_advance,DELTA_SA,DELTA_SA,2019:Q3,0.05929633129901246,,,not_available,0.20500000000000007,-0.1457036687009876,True,True,0,,,,,,,14,3,0.02
no_revision,exact,2019:Q3:pre_advance:exact,2019-10-29,pre_advance,DELTA_SA,DELTA_SA,2019:Q3,0.0,,,not_available,0.20500000000000007,-0.20500000000000007,True,True,0,,,,,,,14,3,0.02
bridge,exact,2019:Q3:pre_advance:exact,2019-10-29,pre_advance,DELTA_SA,DELTA_SA,2019:Q3,0.12826412666737008,,,not_available,0.20500000000000007,-0.07673587333262999,True,True,0,,,,,,,14,3,0.02
midas_umidas,exact,2019:Q3:pre_advance:exact,2019-10-29,pre_advance,DELTA_SA,DELTA_SA,2019:Q3,-0.8415004723431267,,,not_available,0.20500000000000007,-1.0465004723431268,True,True,0,,,,,,,14,3,0.02
monthly_mixed_frequency_kalman_em,exact,2019:Q3:pre_advance:exact,2019-10-29,pre_advance,DELTA_SA,DELTA_SA,2019:Q3,-0.15387602072336293,0.3444452894331924,0.586894615270231,model_implied_state_space,0.20500000000000007,-0.358876020723363,True,True,88,-6364.134759274062,-7462.623169084342,-6364.134759274062,0.6169100469369369,9.691079372606745e-05,88.0,14,3,0.02
standard_dfm,exact,2019:Q3:pre_advance:exact,2019-10-29,pre_advance,DELTA_SA,DELTA_SA,2019:Q3,0.07588607489593979,,,not_available,0.20500000000000007,-0.12911392510406028,True,True,0,,,,,,,14,3,0.02
release_dfm,exact,2019:Q3:pre_advance:exact,2019-10-29,pre_advance,DELTA_SA,DELTA_SA,2019:Q3,0.07588607489593979,,,not_available,0.20500000000000007,-0.12911392510406028,True,True,0,,,,,,,14,3,0.02
revision_dfm_kalman_em,exact,2019:Q3:pre_advance:exact,2019-10-29,pre_advance,DELTA_SA,DELTA_SA,2019:Q3,0.145680188785839,0.40720751343522643,0.6381281324586986,model_implied_state_space,0.20500000000000007,-0.05931981121416108,True,True,21,-2026.3555920224717,-3006.37591508484,-2026.3555920224717,0.18042473337686715,8.898719030676214e-05,21.0,14,3,0.02
indicator_revision_only_dfm_kalman_em,exact,2019:Q3:pre_advance:exact,2019-10-29,pre_advance,DELTA_SA,DELTA_SA,2019:Q3,0.0,0.4343812264952236,0.6590760399947972,model_implied_state_space,0.20500000000000007,-0.20500000000000007,True,True,25,-3753.065389754071,-4922.6415873879305,-3753.065389754071,0.34097009771903686,9.081864482365119e-05,25.0,14,3,0.02
joint_indicator_revision_dfm_full_kalman_em,exact,2019:Q3:pre_advance:exact,2019-10-29,pre_advance,DELTA_SA,DELTA_SA,2019:Q3,0.1460232373506991,0.39109252792035054,0.6253739104890373,model_implied_state_space,0.20500000000000007,-0.05897676264930096,True,True,26,-3717.866196487676,-4936.865796116913,-3717.866196487676,0.3464882955795474,9.316173205075518e-05,26.0,14,3,0.02
ar,exact,2019:Q3:pre_second:exact,2019-11-26,pre_second,DELTA_TS,DELTA_TS,2019:Q3,0.040081918729043764,,,not_available,-0.021400000000000308,0.06148191872904407,True,True,0,,,,,,,14,3,0.02
no_revision,exact,2019:Q3:pre_second:exact,2019-11-26,pre_second,DELTA_TS,DELTA_TS,2019:Q3,0.0,,,not_available,-0.021400000000000308,0.021400000000000308,True,True,0,,,,,,,14,3,0.02
bridge,exact,2019:Q3:pre_second:exact,2019-11-26,pre_second,DELTA_TS,DELTA_TS,2019:Q3,0.0008234501869393007,,,not_available,-0.021400000000000308,0.02222345018693961,True,True,0,,,,,,,14,3,0.02
midas_umidas,exact,2019:Q3:pre_second:exact,2019-11-26,pre_second,DELTA_TS,DELTA_TS,2019:Q3,0.36563147681554975,,,not_available,-0.021400000000000308,0.38703147681555006,True,True,0,,,,,,,14,3,0.02
monthly_mixed_frequency_kalman_em,exact,2019:Q3:pre_second:exact,2019-11-26,pre_second,DELTA_TS,DELTA_TS,2019:Q3,-0.1870544448725615,0.13618451899718864,0.36903186718383635,model_implied_state_space,-0.021400000000000308,-0.1656544448725612,True,True,86,-6380.071972056759,-7481.016055452483,-6380.071972056759,0.6095312175175422,9.551263522079682e-05,86.0,14,3,0.02
standard_dfm,exact,2019:Q3:pre_second:exact,2019-11-26,pre_second,DELTA_TS,DELTA_TS,2019:Q3,0.060954373232045,,,not_available,-0.021400000000000308,0.08235437323204531,True,True,0,,,,,,,14,3,0.02
release_dfm,exact,2019:Q3:pre_second:exact,2019-11-26,pre_second,DELTA_TS,DELTA_TS,2019:Q3,0.04036250402543873,,,not_available,-0.021400000000000308,0.061762504025439036,True,True,0,,,,,,,14,3,0.02
revision_dfm_kalman_em,exact,2019:Q3:pre_second:exact,2019-11-26,pre_second,DELTA_TS,DELTA_TS,2019:Q3,0.0027385797665937517,0.14817629436626645,0.3849367407331579,model_implied_state_space,-0.021400000000000308,0.02413857976659406,True,True,21,-2027.2606185061609,-3007.661140699008,-2027.2606185061609,0.18219750609932817,8.982136674550797e-05,21.0,14,3,0.02
indicator_revision_only_dfm_kalman_em,exact,2019:Q3:pre_second:exact,2019-11-26,pre_second,DELTA_TS,DELTA_TS,2019:Q3,0.0,0.1525674400918693,0.39059882244045396,model_implied_state_space,-0.021400000000000308,0.021400000000000308,True,True,25,-3754.220576809616,-4944.743808346703,-3754.220576809616,0.3576374113545171,9.522832196658239e-05,25.0,14,3,0.02
joint_indicator_revision_dfm_full_kalman_em,exact,2019:Q3:pre_second:exact,2019-11-26,pre_second,DELTA_TS,DELTA_TS,2019:Q3,0.0031787841659478566,0.14730880426346205,0.383808291030121,model_implied_state_space,-0.021400000000000308,0.024578784165948164,True,True,26,-3718.7002597857854,-4958.7810141792015,-3718.7002597857854,0.35071733638778824,9.427756193252565e-05,26.0,14,3,0.02
ar,exact,2019:Q3:pre_third:exact,2019-12-19,pre_third,DELTA_MT,DELTA_MT,2019:Q3,0.5233605281748179,,,not_available,2.6594,-2.1360394718251823,True,True,0,,,,,,,14,3,0.02
no_revision,exact,2019:Q3:pre_third:exact,2019-12-19,pre_third,DELTA_MT,DELTA_MT,2019:Q3,0.0,,,not_available,2.6594,-2.6594,True,True,0,,,,,,,14,3,0.02
bridge,exact,2019:Q3:pre_third:exact,2019-12-19,pre_third,DELTA_MT,DELTA_MT,2019:Q3,-0.5005867649503339,,,not_available,2.6594,-3.159986764950334,True,True,0,,,,,,,14,3,0.02
midas_umidas,exact,2019:Q3:pre_third:exact,2019-12-19,pre_third,DELTA_MT,DELTA_MT,2019:Q3,-3.418106266556611,,,not_available,2.6594,-6.077506266556611,True,True,0,,,,,,,14,3,0.02
monthly_mixed_frequency_kalman_em,exact,2019:Q3:pre_third:exact,2019-12-19,pre_third,DELTA_MT,DELTA_MT,2019:Q3,-0.09403960276818202,4.43398933542303,2.105703999954179,model_implied_state_space,2.6594,-2.7534396027681822,True,True,84,-6397.344570870017,-7475.925544386487,-6397.344570870017,0.5613095619301021,8.771961526213476e-05,84.0,14,3,0.02
standard_dfm,exact,2019:Q3:pre_third:exact,2019-12-19,pre_third,DELTA_MT,DELTA_MT,2019:Q3,0.27145584172888215,,,not_available,2.6594,-2.387944158271118,True,True,0,,,,,,,14,3,0.02
release_dfm,exact,2019:Q3:pre_third:exact,2019-12-19,pre_third,DELTA_MT,DELTA_MT,2019:Q3,0.3141445144366579,,,not_available,2.6594,-2.3452554855633423,True,True,0,,,,,,,14,3,0.02
revision_dfm_kalman_em,exact,2019:Q3:pre_third:exact,2019-12-19,pre_third,DELTA_MT,DELTA_MT,2019:Q3,0.0028810385976845154,4.320218081176248,2.0785134305979955,model_implied_state_space,2.6594,-2.6565189614023157,True,True,22,-2026.6003381448081,-3020.3560511686564,-2026.6003381448081,0.18056036812686216,8.904333217621065e-05,22.0,14,3,0.02
indicator_revision_only_dfm_kalman_em,exact,2019:Q3:pre_third:exact,2019-12-19,pre_third,DELTA_MT,DELTA_MT,2019:Q3,0.0,4.319117341118932,2.078248623509452,model_implied_state_space,2.6594,-2.6594,True,True,25,-3753.56850958189,-4924.914585966985,-3753.56850958189,0.34410508262863004,9.164130245927814e-05,25.0,14,3,0.02
joint_indicator_revision_dfm_full_kalman_em,exact,2019:Q3:pre_third:exact,2019-12-19,pre_third,DELTA_MT,DELTA_MT,2019:Q3,0.003002512304248306,4.329754638893324,2.080806247321774,model_implied_state_space,2.6594,-2.656397487695752,True,True,26,-3718.178759911653,-4939.215144838869,-3718.178759911653,0.3498223822757609,9.405019333391342e-05,26.0,14,3,0.02
ar,pseudo,2019:Q3:pre_advance:pseudo,2019-10-31,pre_advance,DELTA_SA,DELTA_SA,2019:Q3,0.05929633129901246,,,not_available,0.20500000000000007,-0.1457036687009876,True,True,0,,,,,,,14,3,0.02
no_revision,pseudo,2019:Q3:pre_advance:pseudo,2019-10-31,pre_advance,DELTA_SA,DELTA_SA,2019:Q3,0.0,,,not_available,0.20500000000000007,-0.20500000000000007,True,True,0,,,,,,,14,3,0.02
bridge,pseudo,2019:Q3:pre_advance:pseudo,2019-10-31,pre_advance,DELTA_SA,DELTA_SA,2019:Q3,0.1296675890855088,,,not_available,0.20500000000000007,-0.07533241091449128,True,True,0,,,,,,,14,3,0.02
midas_umidas,pseudo,2019:Q3:pre_advance:pseudo,2019-10-31,pre_advance,DELTA_SA,DELTA_SA,2019:Q3,-0.8759867655145306,,,not_available,0.20500000000000007,-1.0809867655145307,True,True,0,,,,,,,14,3,0.02
monthly_mixed_frequency_kalman_em,pseudo,2019:Q3:pre_advance:pseudo,2019-10-31,pre_advance,DELTA_SA,DELTA_SA,2019:Q3,-0.13300595179307928,0.34711205551882784,0.5891621640251755,model_implied_state_space,0.20500000000000007,-0.33800595179307935,True,True,56,-6405.025629257409,-7464.052371991779,-6405.025629257409,0.6391214492350628,9.975884084844128e-05,56.0,14,3,0.02
standard_dfm,pseudo,2019:Q3:pre_advance:pseudo,2019-10-31,pre_advance,DELTA_SA,DELTA_SA,2019:Q3,0.07779904361249201,,,not_available,0.20500000000000007,-0.12720095638750806,True,True,0,,,,,,,14,3,0.02
release_dfm,pseudo,2019:Q3:pre_advance:pseudo,2019-10-31,pre_advance,DELTA_SA,DELTA_SA,2019:Q3,0.07779904361249201,,,not_available,0.20500000000000007,-0.12720095638750806,True,True,0,,,,,,,14,3,0.02
revision_dfm_kalman_em,pseudo,2019:Q3:pre_advance:pseudo,2019-10-31,pre_advance,DELTA_SA,DELTA_SA,2019:Q3,0.14662714457891246,0.40720404452688896,0.6381254144185835,model_implied_state_space,0.20500000000000007,-0.05837285542108761,True,True,21,-2026.3591326607088,-3006.37984794334,-2026.3591326607088,0.18041677189262373,8.898310858750578e-05,21.0,14,3,0.02
indicator_revision_only_dfm_kalman_em,pseudo,2019:Q3:pre_advance:pseudo,2019-10-31,pre_advance,DELTA_SA,DELTA_SA,2019:Q3,0.0,0.4349092728438695,0.659476514247376,model_implied_state_space,0.20500000000000007,-0.20500000000000007,True,True,24,-3753.3740841204135,-4922.605331449985,-3753.3740841204135,0.375409965236031,9.998269280743327e-05,24.0,14,3,0.02
joint_indicator_revision_dfm_full_kalman_em,pseudo,2019:Q3:pre_advance:pseudo,2019-10-31,pre_advance,DELTA_SA,DELTA_SA,2019:Q3,0.14554625740049953,0.3910869778404056,0.6253694730640484,model_implied_state_space,0.20500000000000007,-0.059453742599500536,True,True,26,-3717.835103429131,-4936.829486518705,-3717.835103429131,0.34639399175512153,9.313715719314394e-05,26.0,14,3,0.02
ar,pseudo,2019:Q3:pre_second:pseudo,2019-11-30,pre_second,DELTA_TS,DELTA_TS,2019:Q3,0.040081918729043764,,,not_available,-0.021400000000000308,0.06148191872904407,True,True,0,,,,,,,14,3,0.02
no_revision,pseudo,2019:Q3:pre_second:pseudo,2019-11-30,pre_second,DELTA_TS,DELTA_TS,2019:Q3,0.0,,,not_available,-0.021400000000000308,0.021400000000000308,True,True,0,,,,,,,14,3,0.02
bridge,pseudo,2019:Q3:pre_second:pseudo,2019-11-30,pre_second,DELTA_TS,DELTA_TS,2019:Q3,-0.0012805936584112665,,,not_available,-0.021400000000000308,0.02011940634158904,True,True,0,,,,,,,14,3,0.02
midas_umidas,pseudo,2019:Q3:pre_second:pseudo,2019-11-30,pre_second,DELTA_TS,DELTA_TS,2019:Q3,0.3635531020191416,,,not_available,-0.021400000000000308,0.3849531020191419,True,True,0,,,,,,,14,3,0.02
monthly_mixed_frequency_kalman_em,pseudo,2019:Q3:pre_second:pseudo,2019-11-30,pre_second,DELTA_TS,DELTA_TS,2019:Q3,-0.1866202995772639,0.13619107243272266,0.3690407463041482,model_implied_state_space,-0.021400000000000308,-0.16522029957726359,True,True,86,-6382.861424006063,-7483.761482383472,-6382.861424006063,0.603163747941835,9.447366175368237e-05,86.0,14,3,0.02
standard_dfm,pseudo,2019:Q3:pre_second:pseudo,2019-11-30,pre_second,DELTA_TS,DELTA_TS,2019:Q3,0.060865098210171276,,,not_available,-0.021400000000000308,0.08226509821017158,True,True,0,,,,,,,14,3,0.02
release_dfm,pseudo,2019:Q3:pre_second:pseudo,2019-11-30,pre_second,DELTA_TS,DELTA_TS,2019:Q3,0.040349504607029685,,,not_available,-0.021400000000000308,0.06174950460702999,True,True,0,,,,,,,14,3,0.02
revision_dfm_kalman_em,pseudo,2019:Q3:pre_second:pseudo,2019-11-30,pre_second,DELTA_TS,DELTA_TS,2019:Q3,0.0027279339706414163,0.14817564862770805,0.3849359019729233,model_implied_state_space,-0.021400000000000308,0.024127933970641724,True,True,21,-2027.1442240951992,-3007.6252222421826,-2027.1442240951992,0.1821775091557356,8.981666314240046e-05,21.0,14,3,0.02
indicator_revision_only_dfm_kalman_em,pseudo,2019:Q3:pre_second:pseudo,2019-11-30,pre_second,DELTA_TS,DELTA_TS,2019:Q3,0.0,0.1525675746941898,0.390598994742933,model_implied_state_space,-0.021400000000000308,0.021400000000000308,True,True,25,-3754.194305122813,-4944.748915745379,-3754.194305122813,0.35783483525710835,9.528155166582336e-05,25.0,14,3,0.02
joint_indicator_revision_dfm_full_kalman_em,pseudo,2019:Q3:pre_second:pseudo,2019-11-30,pre_second,DELTA_TS,DELTA_TS,2019:Q3,0.003165354575362933,0.14730890065791558,0.3838084166064048,model_implied_state_space,-0.021400000000000308,0.02456535457536324,True,True,26,-3718.674182207995,-4958.78615332615,-3718.674182207995,0.3509194549460517,9.433255028015329e-05,26.0,14,3,0.02
ar,pseudo,2019:Q3:pre_third:pseudo,2019-12-31,pre_third,DELTA_MT,DELTA_MT,2019:Q3,0.5233605281748179,,,not_available,2.6594,-2.1360394718251823,True,True,0,,,,,,,14,3,0.02
no_revision,pseudo,2019:Q3:pre_third:pseudo,2019-12-31,pre_third,DELTA_MT,DELTA_MT,2019:Q3,0.0,,,not_available,2.6594,-2.6594,True,True,0,,,,,,,14,3,0.02
bridge,pseudo,2019:Q3:pre_third:pseudo,2019-12-31,pre_third,DELTA_MT,DELTA_MT,2019:Q3,-0.5005279317503972,,,not_available,2.6594,-3.1599279317503974,True,True,0,,,,,,,14,3,0.02
midas_umidas,pseudo,2019:Q3:pre_third:pseudo,2019-12-31,pre_third,DELTA_MT,DELTA_MT,2019:Q3,-3.4287036456544917,,,not_available,2.6594,-6.088103645654492,True,True,0,,,,,,,14,3,0.02
monthly_mixed_frequency_kalman_em,pseudo,2019:Q3:pre_third:pseudo,2019-12-31,pre_third,DELTA_MT,DELTA_MT,2019:Q3,-0.09442725915027861,4.4340044050499685,2.1057075782382437,model_implied_state_space,2.6594,-2.753827259150279,True,True,85,-6400.655898089368,-7478.681402652314,-6400.655898089368,0.5302225945315513,8.281899097224487e-05,85.0,14,3,0.02
standard_dfm,pseudo,2019:Q3:pre_third:pseudo,2019-12-31,pre_third,DELTA_MT,DELTA_MT,2019:Q3,0.27097951517942986,,,not_available,2.6594,-2.3884204848205703,True,True,0,,,,,,,14,3,0.02
release_dfm,pseudo,2019:Q3:pre_third:pseudo,2019-12-31,pre_third,DELTA_MT,DELTA_MT,2019:Q3,0.31298521039985117,,,not_available,2.6594,-2.346414789600149,True,True,0,,,,,,,14,3,0.02
revision_dfm_kalman_em,pseudo,2019:Q3:pre_third:pseudo,2019-12-31,pre_third,DELTA_MT,DELTA_MT,2019:Q3,0.002882712339699278,4.320218119153958,2.078513439733782,model_implied_state_space,2.6594,-2.656517287660301,True,True,22,-2026.5985037709024,-3020.3543349336373,-2026.5985037709024,0.18055552160308252,8.904102287459195e-05,22.0,14,3,0.02
indicator_revision_only_dfm_kalman_em,pseudo,2019:Q3:pre_third:pseudo,2019-12-31,pre_third,DELTA_MT,DELTA_MT,2019:Q3,0.0,4.31911722831025,2.0782485963691277,model_implied_state_space,2.6594,-2.6594,True,True,25,-3753.570451491836,-4924.916667481235,-3753.570451491836,0.3441245248436644,9.164643239599913e-05,25.0,14,3,0.02
joint_indicator_revision_dfm_full_kalman_em,pseudo,2019:Q3:pre_third:pseudo,2019-12-31,pre_third,DELTA_MT,DELTA_MT,2019:Q3,0.003004113548750631,4.329754346250031,2.0808061770020845,model_implied_state_space,2.6594,-2.6563958864512496,True,True,26,-3718.180604900099,-4939.217233624519,-3718.180604900099,0.3498372143653796,9.405413393162216e-05,26.0,14,3,0.02
ar,exact,2019:Q4:pre_advance:exact,2020-01-29,pre_advance,DELTA_SA,DELTA_SA,2019:Q4,0.1665444581766966,,,not_available,0.014800000000000146,0.15174445817669646,True,True,0,,,,,,,14,3,0.02
no_revision,exact,2019:Q4:pre_advance:exact,2020-01-29,pre_advance,DELTA_SA,DELTA_SA,2019:Q4,0.0,,,not_available,0.014800000000000146,-0.014800000000000146,True,True,0,,,,,,,14,3,0.02
bridge,exact,2019:Q4:pre_advance:exact,2020-01-29,pre_advance,DELTA_SA,DELTA_SA,2019:Q4,0.2746654258404977,,,not_available,0.014800000000000146,0.25986542584049754,True,True,0,,,,,,,14,3,0.02
midas_umidas,exact,2019:Q4:pre_advance:exact,2020-01-29,pre_advance,DELTA_SA,DELTA_SA,2019:Q4,0.9147253380832268,,,not_available,0.014800000000000146,0.8999253380832266,True,True,0,,,,,,,14,3,0.02
monthly_mixed_frequency_kalman_em,exact,2019:Q4:pre_advance:exact,2020-01-29,pre_advance,DELTA_SA,DELTA_SA,2019:Q4,-0.1365828619100684,0.3479927672484875,0.5899091177872127,model_implied_state_space,0.014800000000000146,-0.15138286191006856,True,True,50,-6469.2853342069075,-7498.543314628145,-6469.2853342069075,0.6272767151895096,9.693790550203759e-05,50.0,14,3,0.02
standard_dfm,exact,2019:Q4:pre_advance:exact,2020-01-29,pre_advance,DELTA_SA,DELTA_SA,2019:Q4,0.03862515144349943,,,not_available,0.014800000000000146,0.02382515144349928,True,True,0,,,,,,,14,3,0.02
release_dfm,exact,2019:Q4:pre_advance:exact,2020-01-29,pre_advance,DELTA_SA,DELTA_SA,2019:Q4,0.03862515144349943,,,not_available,0.014800000000000146,0.02382515144349928,True,True,0,,,,,,,14,3,0.02
revision_dfm_kalman_em,exact,2019:Q4:pre_advance:exact,2020-01-29,pre_advance,DELTA_SA,DELTA_SA,2019:Q4,0.07971019773893961,0.40411854941978564,0.6357031928658103,model_implied_state_space,0.014800000000000146,0.06491019773893947,True,True,22,-2045.3397213202682,-3041.647464073216,-2045.3397213202682,0.17993572227396726,8.792279207031669e-05,22.0,14,3,0.02
indicator_revision_only_dfm_kalman_em,exact,2019:Q4:pre_advance:exact,2020-01-29,pre_advance,DELTA_SA,DELTA_SA,2019:Q4,0.0,0.4325583833291109,0.6576917084235675,model_implied_state_space,0.014800000000000146,-0.014800000000000146,True,True,25,-3791.2543537704014,-4986.195792044803,-3791.2543537704014,0.3733883691520532,9.845109895795146e-05,25.0,14,3,0.02
joint_indicator_revision_dfm_full_kalman_em,exact,2019:Q4:pre_advance:exact,2020-01-29,pre_advance,DELTA_SA,DELTA_SA,2019:Q4,0.05947388289540667,0.39060084600668077,0.6249806765066267,model_implied_state_space,0.014800000000000146,0.044673882895406525,True,True,26,-3755.7592329123927,-5000.195891662245,-3755.7592329123927,0.3631677909534119,9.666115505990054e-05,26.0,14,3,0.02
ar,exact,2019:Q4:pre_second:exact,2020-02-26,pre_second,DELTA_TS,DELTA_TS,2019:Q4,0.03892602850336768,,,not_available,0.03189999999999982,0.007026028503367865,True,True,0,,,,,,,14,3,0.02
no_revision,exact,2019:Q4:pre_second:exact,2020-02-26,pre_second,DELTA_TS,DELTA_TS,2019:Q4,0.0,,,not_available,0.03189999999999982,-0.03189999999999982,True,True,0,,,,,,,14,3,0.02
bridge,exact,2019:Q4:pre_second:exact,2020-02-26,pre_second,DELTA_TS,DELTA_TS,2019:Q4,0.03400117091687571,,,not_available,0.03189999999999982,0.002101170916875894,True,True,0,,,,,,,14,3,0.02
midas_umidas,exact,2019:Q4:pre_second:exact,2020-02-26,pre_second,DELTA_TS,DELTA_TS,2019:Q4,0.6241503795066428,,,not_available,0.03189999999999982,0.5922503795066429,True,True,0,,,,,,,14,3,0.02
monthly_mixed_frequency_kalman_em,exact,2019:Q4:pre_second:exact,2020-02-26,pre_second,DELTA_TS,DELTA_TS,2019:Q4,-0.1668650907342064,0.13520033461446979,0.36769598123241676,model_implied_state_space,0.03189999999999982,-0.19876509073420623,True,True,87,-6438.970241778739,-7517.704691580865,-6438.970241778739,0.5797461170295719,9.00150015323434e-05,87.0,14,3,0.02
standard_dfm,exact,2019:Q4:pre_second:exact,2020-02-26,pre_second,DELTA_TS,DELTA_TS,2019:Q4,0.05548674693901656,,,not_available,0.03189999999999982,0.023586746939016745,True,True,0,,,,,,,14,3,0.02
release_dfm,exact,2019:Q4:pre_second:exact,2020-02-26,pre_second,DELTA_TS,DELTA_TS,2019:Q4,0.040042636480916105,,,not_available,0.03189999999999982,0.008142636480916288,True,True,0,,,,,,,14,3,0.02
revision_dfm_kalman_em,exact,2019:Q4:pre_second:exact,2020-02-26,pre_second,DELTA_TS,DELTA_TS,2019:Q4,0.00444329136113808,0.14748407406018826,0.3840365530261257,model_implied_state_space,0.03189999999999982,-0.027456708638861738,True,True,21,-2045.7366008386036,-3031.1501220351465,-2045.7366008386036,0.18330418772461599,8.955122634476422e-05,21.0,14,3,0.02
indicator_revision_only_dfm_kalman_em,exact,2019:Q4:pre_second:exact,2020-02-26,pre_second,DELTA_TS,DELTA_TS,2019:Q4,0.0,0.15186064804218558,0.389693017697502,model_implied_state_space,0.03189999999999982,-0.03189999999999982,True,True,25,-3791.6757807909134,-4987.212190467821,-3791.6757807909134,0.3722140493941879,9.813059310098675e-05,25.0,14,3,0.02
joint_indicator_revision_dfm_full_kalman_em,exact,2019:Q4:pre_second:exact,2020-02-26,pre_second,DELTA_TS,DELTA_TS,2019:Q4,0.0032863963749942826,0.14663424830367722,0.3829285159186728,model_implied_state_space,0.03189999999999982,-0.028613603625005535,True,True,26,-3756.046952234478,-5001.313530337535,-3756.046952234478,0.3617111537546407,9.626612012664832e-05,26.0,14,3,0.02
ar,exact,2019:Q4:pre_third:exact,2020-03-25,pre_third,DELTA_MT,DELTA_MT,2019:Q4,0.28493109658739835,,,not_available,0.6275,-0.3425689034126016,True,True,0,,,,,,,14,3,0.02
no_revision,exact,2019:Q4:pre_third:exact,2020-03-25,pre_third,DELTA_MT,DELTA_MT,2019:Q4,0.0,,,not_available,0.6275,-0.6275,True,True,0,,,,,,,14,3,0.02
bridge,exact,2019:Q4:pre_third:exact,2020-03-25,pre_third,DELTA_MT,DELTA_MT,2019:Q4,-0.3429265046088039,,,not_available,0.6275,-0.9704265046088039,True,True,0,,,,,,,14,3,0.02
midas_umidas,exact,2019:Q4:pre_third:exact,2020-03-25,pre_third,DELTA_MT,DELTA_MT,2019:Q4,4.4102217841675255,,,not_available,0.6275,3.7827217841675256,True,True,0,,,,,,,14,3,0.02
monthly_mixed_frequency_kalman_em,exact,2019:Q4:pre_third:exact,2020-03-25,pre_third,DELTA_MT,DELTA_MT,2019:Q4,-0.08747126955077422,4.41549729289404,2.1013084716181107,model_implied_state_space,0.6275,-0.7149712695507742,True,True,53,-6506.291415830412,-7539.787496723451,-6506.291415830412,0.6501470142229664,9.990056117510461e-05,53.0,14,3,0.02
standard_dfm,exact,2019:Q4:pre_third:exact,2020-03-25,pre_third,DELTA_MT,DELTA_MT,2019:Q4,0.2285591696432827,,,not_available,0.6275,-0.39894083035671724,True,True,0,,,,,,,14,3,0.02
release_dfm,exact,2019:Q4:pre_third:exact,2020-03-25,pre_third,DELTA_MT,DELTA_MT,2019:Q4,0.22708393626803725,,,not_available,0.6275,-0.4004160637319627,True,True,0,,,,,,,14,3,0.02
revision_dfm_kalman_em,exact,2019:Q4:pre_third:exact,2020-03-25,pre_third,DELTA_MT,DELTA_MT,2019:Q4,0.0017030592505120623,4.299802379609392,2.0735964842778336,model_implied_state_space,0.6275,-0.6257969407494879,True,True,22,-2045.569242045236,-3043.9550846613756,-2045.569242045236,0.18199551322300067,8.891921494089364e-05,22.0,14,3,0.02
indicator_revision_only_dfm_kalman_em,exact,2019:Q4:pre_third:exact,2020-03-25,pre_third,DELTA_MT,DELTA_MT,2019:Q4,0.0,4.29863970665082,2.0733161135366744,model_implied_state_space,0.6275,-0.6275,True,True,25,-3791.2759280113096,-4967.417669780173,-3791.2759280113096,0.3564352443354437,9.398096366753435e-05,25.0,14,3,0.02
joint_indicator_revision_dfm_full_kalman_em,exact,2019:Q4:pre_third:exact,2020-03-25,pre_third,DELTA_MT,DELTA_MT,2019:Q4,0.0013601972658356942,4.309183040205229,2.0758571820347442,model_implied_state_space,0.6275,-0.6261398027341643,True,True,26,-3755.7730703232337,-4981.7841137863925,-3755.7730703232337,0.35935761956443457,9.5646780212429e-05,26.0,14,3,0.02
ar,pseudo,2019:Q4:pre_advance:pseudo,2020-01-31,pre_advance,DELTA_SA,DELTA_SA,2019:Q4,0.1665444581766966,,,not_available,0.014800000000000146,0.15174445817669646,True,True,0,,,,,,,14,3,0.02
no_revision,pseudo,2019:Q4:pre_advance:pseudo,2020-01-31,pre_advance,DELTA_SA,DELTA_SA,2019:Q4,0.0,,,not_available,0.014800000000000146,-0.014800000000000146,True,True,0,,,,,,,14,3,0.02
bridge,pseudo,2019:Q4:pre_advance:pseudo,2020-01-31,pre_advance,DELTA_SA,DELTA_SA,2019:Q4,0.2745872631544426,,,not_available,0.014800000000000146,0.25978726315444245,True,True,0,,,,,,,14,3,0.02
midas_umidas,pseudo,2019:Q4:pre_advance:pseudo,2020-01-31,pre_advance,DELTA_SA,DELTA_SA,2019:Q4,0.9118186832048545,,,not_available,0.014800000000000146,0.8970186832048543,True,True,0,,,,,,,14,3,0.02
monthly_mixed_frequency_kalman_em,pseudo,2019:Q4:pre_advance:pseudo,2020-01-31,pre_advance,DELTA_SA,DELTA_SA,2019:Q4,-0.13749565285170195,0.3479340147202432,0.5898593177362236,model_implied_state_space,0.014800000000000146,-0.1522956528517021,True,True,50,-6470.62796759433,-7499.925111035035,-6470.62796759433,0.6268550275635789,9.685264946191373e-05,50.0,14,3,0.02
standard_dfm,pseudo,2019:Q4:pre_advance:pseudo,2020-01-31,pre_advance,DELTA_SA,DELTA_SA,2019:Q4,0.03852049043193739,,,not_available,0.014800000000000146,0.023720490431937247,True,True,0,,,,,,,14,3,0.02
release_dfm,pseudo,2019:Q4:pre_advance:pseudo,2020-01-31,pre_advance,DELTA_SA,DELTA_SA,2019:Q4,0.03852049043193739,,,not_available,0.014800000000000146,0.023720490431937247,True,True,0,,,,,,,14,3,0.02
revision_dfm_kalman_em,pseudo,2019:Q4:pre_advance:pseudo,2020-01-31,pre_advance,DELTA_SA,DELTA_SA,2019:Q4,0.07965677826759343,0.40411874697090777,0.6357033482457897,model_implied_state_space,0.014800000000000146,0.06485677826759328,True,True,22,-2045.3370288621456,-3041.6460322384946,-2045.3370288621456,0.1799313311280457,8.792076226480573e-05,22.0,14,3,0.02
indicator_revision_only_dfm_kalman_em,pseudo,2019:Q4:pre_advance:pseudo,2020-01-31,pre_advance,DELTA_SA,DELTA_SA,2019:Q4,0.0,0.43255831563103353,0.6576916569571439,model_implied_state_space,0.014800000000000146,-0.014800000000000146,True,True,25,-3791.261007917031,-4986.202229884963,-3791.261007917031,0.37346695778478534,9.847164556956479e-05,25.0,14,3,0.02
joint_indicator_revision_dfm_full_kalman_em,pseudo,2019:Q4:pre_advance:pseudo,2020-01-31,pre_advance,DELTA_SA,DELTA_SA,2019:Q4,0.05923034427926854,0.3905999760178176,0.6249799804936296,model_implied_state_space,0.014800000000000146,0.0444303442792684,True,True,26,-3755.7660194870814,-5000.202329819522,-3755.7660194870814,0.3632448249290974,9.66814818908322e-05,26.0,14,3,0.02
ar,pseudo,2019:Q4:pre_second:pseudo,2020-02-29,pre_second,DELTA_TS,DELTA_TS,2019:Q4,0.03892602850336768,,,not_available,0.03189999999999982,0.007026028503367865,True,True,0,,,,,,,14,3,0.02
no_revision,pseudo,2019:Q4:pre_second:pseudo,2020-02-29,pre_second,DELTA_TS,DELTA_TS,2019:Q4,0.0,,,not_available,0.03189999999999982,-0.03189999999999982,True,True,0,,,,,,,14,3,0.02
bridge,pseudo,2019:Q4:pre_second:pseudo,2020-02-29,pre_second,DELTA_TS,DELTA_TS,2019:Q4,0.03696695036035447,,,not_available,0.03189999999999982,0.0050669503603546495,True,True,0,,,,,,,14,3,0.02
midas_umidas,pseudo,2019:Q4:pre_second:pseudo,2020-02-29,pre_second,DELTA_TS,DELTA_TS,2019:Q4,0.6400989146419032,,,not_available,0.03189999999999982,0.6081989146419033,True,True,0,,,,,,,14,3,0.02
monthly_mixed_frequency_kalman_em,pseudo,2019:Q4:pre_second:pseudo,2020-02-29,pre_second,DELTA_TS,DELTA_TS,2019:Q4,-0.11786730351220331,0.14151371210691366,0.37618308322798577,model_implied_state_space,0.03189999999999982,-0.14976730351220313,True,True,53,-6488.448639322011,-7520.511986458246,-6488.448639322011,0.6459187049040338,9.952377413440994e-05,53.0,14,3,0.02
standard_dfm,pseudo,2019:Q4:pre_second:pseudo,2020-02-29,pre_second,DELTA_TS,DELTA_TS,2019:Q4,0.05561877310770136,,,not_available,0.03189999999999982,0.02371877310770154,True,True,0,,,,,,,14,3,0.02
release_dfm,pseudo,2019:Q4:pre_second:pseudo,2020-02-29,pre_second,DELTA_TS,DELTA_TS,2019:Q4,0.04006162345805109,,,not_available,0.03189999999999982,0.00816162345805127,True,True,0,,,,,,,14,3,0.02
revision_dfm_kalman_em,pseudo,2019:Q4:pre_second:pseudo,2020-02-29,pre_second,DELTA_TS,DELTA_TS,2019:Q4,0.004425001365174985,0.14748390046937898,0.3840363270178734,model_implied_state_space,0.03189999999999982,-0.027474998634824832,True,True,21,-2045.7266423788924,-3031.1380514611806,-2045.7266423788924,0.18329501507651003,8.954718120616131e-05,21.0,14,3,0.02
indicator_revision_only_dfm_kalman_em,pseudo,2019:Q4:pre_second:pseudo,2020-02-29,pre_second,DELTA_TS,DELTA_TS,2019:Q4,0.0,0.15186070461097134,0.3896930902787107,model_implied_state_space,0.03189999999999982,-0.03189999999999982,True,True,25,-3791.7138668365346,-4987.245839082501,-3791.7138668365346,0.3723051296428821,9.815361759891014e-05,25.0,14,3,0.02
joint_indicator_revision_dfm_full_kalman_em,pseudo,2019:Q4:pre_second:pseudo,2020-02-29,pre_second,DELTA_TS,DELTA_TS,2019:Q4,0.0032675822721053294,0.14663426562100368,0.3829285385303682,model_implied_state_space,0.03189999999999982,-0.028632417727894488,True,True,26,-3756.0837263460394,-5001.347276870336,-3756.0837263460394,0.3618000378355646,9.628883114740909e-05,26.0,14,3,0.02
ar,pseudo,2019:Q4:pre_third:pseudo,2020-03-31,pre_third,DELTA_MT,DELTA_MT,2019:Q4,0.28493109658739835,,,not_available,0.6275,-0.3425689034126016,True,True,0,,,,,,,14,3,0.02
no_revision,pseudo,2019:Q4:pre_third:pseudo,2020-03-31,pre_third,DELTA_MT,DELTA_MT,2019:Q4,0.0,,,not_available,0.6275,-0.6275,True,True,0,,,,,,,14,3,0.02
bridge,pseudo,2019:Q4:pre_third:pseudo,2020-03-31,pre_third,DELTA_MT,DELTA_MT,2019:Q4,-0.3429288327850699,,,not_available,0.6275,-0.9704288327850699,True,True,0,,,,,,,14,3,0.02
midas_umidas,pseudo,2019:Q4:pre_third:pseudo,2020-03-31,pre_third,DELTA_MT,DELTA_MT,2019:Q4,4.406138958198086,,,not_available,0.6275,3.7786389581980857,True,True,0,,,,,,,14,3,0.02
monthly_mixed_frequency_kalman_em,pseudo,2019:Q4:pre_third:pseudo,2020-03-31,pre_third,DELTA_MT,DELTA_MT,2019:Q4,-0.1179606553660899,4.4118857116143975,2.100448930970329,model_implied_state_space,0.6275,-0.7454606553660899,True,True,87,-6459.905496539938,-7541.2159128546655,-6459.905496539938,0.5675317894992986,8.783319020462265e-05,87.0,14,3,0.02
standard_dfm,pseudo,2019:Q4:pre_third:pseudo,2020-03-31,pre_third,DELTA_MT,DELTA_MT,2019:Q4,0.22861088466232404,,,not_available,0.6275,-0.3988891153376759,True,True,0,,,,,,,14,3,0.02
release_dfm,pseudo,2019:Q4:pre_third:pseudo,2020-03-31,pre_third,DELTA_MT,DELTA_MT,2019:Q4,0.22721360826241455,,,not_available,0.6275,-0.4002863917375854,True,True,0,,,,,,,14,3,0.02
revision_dfm_kalman_em,pseudo,2019:Q4:pre_third:pseudo,2020-03-31,pre_third,DELTA_MT,DELTA_MT,2019:Q4,0.0017028684676665407,4.299802377819504,2.0735964838462433,model_implied_state_space,0.6275,-0.6257971315323334,True,True,22,-2045.5698773448973,-3043.955493434445,-2045.5698773448973,0.18199667030989986,8.891975261899656e-05,22.0,14,3,0.02
indicator_revision_only_dfm_kalman_em,pseudo,2019:Q4:pre_third:pseudo,2020-03-31,pre_third,DELTA_MT,DELTA_MT,2019:Q4,0.0,4.298639703475095,2.0733161127708177,model_implied_state_space,0.6275,-0.6275,True,True,25,-3791.276121371706,-4967.417786949347,-3791.276121371706,0.35642984821470236,9.397953621951981e-05,25.0,14,3,0.02
joint_indicator_revision_dfm_full_kalman_em,pseudo,2019:Q4:pre_third:pseudo,2020-03-31,pre_third,DELTA_MT,DELTA_MT,2019:Q4,0.0013599928771519387,4.3091830949992005,2.0758571952326585,model_implied_state_space,0.6275,-0.626140007122848,True,True,26,-3755.7732321862322,-4981.784231038937,-3755.7732321862322,0.35935259261623287,9.564543824513049e-05,26.0,14,3,0.02
ar,exact,2020:Q1:pre_advance:exact,2020-04-28,pre_advance,DELTA_SA,DELTA_SA,2020:Q1,0.07270396930060219,,,not_available,-0.26449999999999996,0.33720396930060215,True,True,0,,,,,,,14,3,0.02
no_revision,exact,2020:Q1:pre_advance:exact,2020-04-28,pre_advance,DELTA_SA,DELTA_SA,2020:Q1,0.0,,,not_available,-0.26449999999999996,0.26449999999999996,True,True,0,,,,,,,14,3,0.02
bridge,exact,2020:Q1:pre_advance:exact,2020-04-28,pre_advance,DELTA_SA,DELTA_SA,2020:Q1,-0.0012122564109908751,,,not_available,-0.26449999999999996,0.2632877435890091,True,True,0,,,,,,,14,3,0.02
midas_umidas,exact,2020:Q1:pre_advance:exact,2020-04-28,pre_advance,DELTA_SA,DELTA_SA,2020:Q1,0.8166439581580391,,,not_available,-0.26449999999999996,1.081143958158039,True,True,0,,,,,,,14,3,0.02
monthly_mixed_frequency_kalman_em,exact,2020:Q1:pre_advance:exact,2020-04-28,pre_advance,DELTA_SA,DELTA_SA,2020:Q1,-0.7001358075843687,0.3502455710560186,0.5918154873404536,model_implied_state_space,-0.26449999999999996,-0.4356358075843687,True,True,40,-6365.157784502217,-7570.539615772524,-6365.157784502217,0.5121276228919669,8.04388526436147e-05,40.0,14,3,0.02
standard_dfm,exact,2020:Q1:pre_advance:exact,2020-04-28,pre_advance,DELTA_SA,DELTA_SA,2020:Q1,-0.07900204542880451,,,not_available,-0.26449999999999996,0.18549795457119544,True,True,0,,,,,,,14,3,0.02
release_dfm,exact,2020:Q1:pre_advance:exact,2020-04-28,pre_advance,DELTA_SA,DELTA_SA,2020:Q1,-0.07900204542880451,,,not_available,-0.26449999999999996,0.18549795457119544,True,True,0,,,,,,,14,3,0.02
revision_dfm_kalman_em,exact,2020:Q1:pre_advance:exact,2020-04-28,pre_advance,DELTA_SA,DELTA_SA,2020:Q1,-0.09798008771171762,0.4037142472972146,0.6353851173085616,model_implied_state_space,-0.26449999999999996,0.16651991228828233,True,True,21,-2060.000633133646,-3052.4985129182965,-2060.000633133646,0.18577237307454197,9.012885616663664e-05,21.0,14,3,0.02
indicator_revision_only_dfm_kalman_em,exact,2020:Q1:pre_advance:exact,2020-04-28,pre_advance,DELTA_SA,DELTA_SA,2020:Q1,0.0,0.43056367320025224,0.6561735084566065,model_implied_state_space,-0.26449999999999996,0.26449999999999996,True,True,25,-3819.284136159121,-5004.5284538953065,-3819.284136159121,0.36840701265646203,9.642515473302446e-05,25.0,14,3,0.02
joint_indicator_revision_dfm_full_kalman_em,exact,2020:Q1:pre_advance:exact,2020-04-28,pre_advance,DELTA_SA,DELTA_SA,2020:Q1,-0.013784912348318468,0.38834685025691673,0.6231748151657902,model_implied_state_space,-0.26449999999999996,0.2507150876516815,True,True,26,-3783.619903001256,-5018.881712944194,-3783.619903001256,0.3732366535782603,9.860959843438368e-05,26.0,14,3,0.02
ar,exact,2020:Q1:pre_second:exact,2020-05-27,pre_second,DELTA_TS,DELTA_TS,2020:Q1,0.06260501235437754,,,not_available,0.05400000000000027,0.008605012354377273,True,True,0,,,,,,,14,3,0.02
no_revision,exact,2020:Q1:pre_second:exact,2020-05-27,pre_second,DELTA_TS,DELTA_TS,2020:Q1,0.0,,,not_available,0.05400000000000027,-0.05400000000000027,True,True,0,,,,,,,14,3,0.02
bridge,exact,2020:Q1:pre_second:exact,2020-05-27,pre_second,DELTA_TS,DELTA_TS,2020:Q1,-0.19571952994773856,,,not_available,0.05400000000000027,-0.24971952994773883,True,True,0,,,,,,,14,3,0.02
midas_umidas,exact,2020:Q1:pre_second:exact,2020-05-27,pre_second,DELTA_TS,DELTA_TS,2020:Q1,1.0995167666791978,,,not_available,0.05400000000000027,1.0455167666791976,True,True,0,,,,,,,14,3,0.02
monthly_mixed_frequency_kalman_em,exact,2020:Q1:pre_second:exact,2020-05-27,pre_second,DELTA_TS,DELTA_TS,2020:Q1,0.1462839644181333,0.15021312183058277,0.3875733760600472,model_implied_state_space,0.05400000000000027,0.09228396441813302,True,True,38,-5904.76722749727,-7387.481874880861,-5904.76722749727,0.5293239996499324,8.962028828636753e-05,38.0,14,3,0.02
standard_dfm,exact,2020:Q1:pre_second:exact,2020-05-27,pre_second,DELTA_TS,DELTA_TS,2020:Q1,0.029589852763222346,,,not_available,0.05400000000000027,-0.024410147236777924,True,True,0,,,,,,,14,3,0.02
release_dfm,exact,2020:Q1:pre_second:exact,2020-05-27,pre_second,DELTA_TS,DELTA_TS,2020:Q1,0.0020918693136193767,,,not_available,0.05400000000000027,-0.05190813068638089,True,True,0,,,,,,,14,3,0.02
revision_dfm_kalman_em,exact,2020:Q1:pre_second:exact,2020-05-27,pre_second,DELTA_TS,DELTA_TS,2020:Q1,-0.015011466530856055,0.14694239271340903,0.3833306571530759,model_implied_state_space,0.05400000000000027,-0.06901146653085632,True,True,20,-2059.2392952380087,-3053.8180466867725,-2059.2392952380087,0.20163447764207376,9.785986811565626e-05,20.0,14,3,0.02
indicator_revision_only_dfm_kalman_em,exact,2020:Q1:pre_second:exact,2020-05-27,pre_second,DELTA_TS,DELTA_TS,2020:Q1,0.0,0.15106773649739746,0.3886743321823522,model_implied_state_space,0.05400000000000027,-0.05400000000000027,True,True,25,-3817.8510392674666,-5005.744614839201,-3817.8510392674666,0.36346646798983784,9.516785910925053e-05,25.0,14,3,0.02
joint_indicator_revision_dfm_full_kalman_em,exact,2020:Q1:pre_second:exact,2020-05-27,pre_second,DELTA_TS,DELTA_TS,2020:Q1,-0.012022421391852056,0.14589785992777426,0.38196578371337697,model_implied_state_space,0.05400000000000027,-0.06602242139185233,True,True,26,-3782.801894488609,-5019.764080695212,-3782.801894488609,0.36993854197407927,9.775944600216823e-05,26.0,14,3,0.02
ar,exact,2020:Q1:pre_third:exact,2020-06-24,pre_third,DELTA_MT,DELTA_MT,2020:Q1,0.1841743620429881,,,not_available,-0.16790000000000038,0.3520743620429885,True,True,0,,,,,,,14,3,0.02
no_revision,exact,2020:Q1:pre_third:exact,2020-06-24,pre_third,DELTA_MT,DELTA_MT,2020:Q1,0.0,,,not_available,-0.16790000000000038,0.16790000000000038,True,True,0,,,,,,,14,3,0.02
bridge,exact,2020:Q1:pre_third:exact,2020-06-24,pre_third,DELTA_MT,DELTA_MT,2020:Q1,-0.6232225679515535,,,not_available,-0.16790000000000038,-0.4553225679515531,True,True,0,,,,,,,14,3,0.02
midas_umidas,exact,2020:Q1:pre_third:exact,2020-06-24,pre_third,DELTA_MT,DELTA_MT,2020:Q1,2.5739716051732966,,,not_available,-0.16790000000000038,2.741871605173297,True,True,0,,,,,,,14,3,0.02
monthly_mixed_frequency_kalman_em,exact,2020:Q1:pre_third:exact,2020-06-24,pre_third,DELTA_MT,DELTA_MT,2020:Q1,-0.2265386385878454,4.360171106161589,2.088102273874915,model_implied_state_space,-0.16790000000000038,-0.058638638587845016,True,True,30,-5842.564757670993,-7569.414509506856,-5842.564757670993,0.568459167846413,9.727005644027727e-05,30.0,14,3,0.02
standard_dfm,exact,2020:Q1:pre_third:exact,2020-06-24,pre_third,DELTA_MT,DELTA_MT,2020:Q1,0.0422232444522006,,,not_available,-0.16790000000000038,0.21012324445220099,True,True,0,,,,,,,14,3,0.02
release_dfm,exact,2020:Q1:pre_third:exact,2020-06-24,pre_third,DELTA_MT,DELTA_MT,2020:Q1,1.1250785037045006,,,not_available,-0.16790000000000038,1.292978503704501,True,True,0,,,,,,,14,3,0.02
revision_dfm_kalman_em,exact,2020:Q1:pre_third:exact,2020-06-24,pre_third,DELTA_MT,DELTA_MT,2020:Q1,-0.009477935299704754,4.276650083107566,2.0680063063510143,model_implied_state_space,-0.16790000000000038,0.15842206470029563,True,True,20,-2056.917230821414,-3055.33871615891,-2056.917230821414,0.20518885136016252,9.969710712970417e-05,20.0,14,3,0.02
indicator_revision_only_dfm_kalman_em,exact,2020:Q1:pre_third:exact,2020-06-24,pre_third,DELTA_MT,DELTA_MT,2020:Q1,0.0,4.280773770664432,2.069003086190166,model_implied_state_space,-0.16790000000000038,0.16790000000000038,True,True,25,-3815.581002822361,-5028.211183595893,-3815.581002822361,0.37177746815132195,9.740164197761587e-05,25.0,14,3,0.02
joint_indicator_revision_dfm_full_kalman_em,exact,2020:Q1:pre_third:exact,2020-06-24,pre_third,DELTA_MT,DELTA_MT,2020:Q1,-0.008912422234880424,4.291181055260318,2.0715166075270357,model_implied_state_space,-0.16790000000000038,0.15898757776511996,True,True,26,-3779.776556779747,-5041.942490715121,-3779.776556779747,0.370160749369461,9.789642587880103e-05,26.0,14,3,0.02
ar,pseudo,2020:Q1:pre_advance:pseudo,2020-04-30,pre_advance,DELTA_SA,DELTA_SA,2020:Q1,0.07270396930060219,,,not_available,-0.26449999999999996,0.33720396930060215,True,True,0,,,,,,,14,3,0.02
no_revision,pseudo,2020:Q1:pre_advance:pseudo,2020-04-30,pre_advance,DELTA_SA,DELTA_SA,2020:Q1,0.0,,,not_available,-0.26449999999999996,0.26449999999999996,True,True,0,,,,,,,14,3,0.02
bridge,pseudo,2020:Q1:pre_advance:pseudo,2020-04-30,pre_advance,DELTA_SA,DELTA_SA,2020:Q1,-0.008254212386642479,,,not_available,-0.26449999999999996,0.2562457876133575,True,True,0,,,,,,,14,3,0.02
midas_umidas,pseudo,2020:Q1:pre_advance:pseudo,2020-04-30,pre_advance,DELTA_SA,DELTA_SA,2020:Q1,0.3587534204445504,,,not_available,-0.26449999999999996,0.6232534204445503,True,True,0,,,,,,,14,3,0.02
monthly_mixed_frequency_kalman_em,pseudo,2020:Q1:pre_advance:pseudo,2020-04-30,pre_advance,DELTA_SA,DELTA_SA,2020:Q1,-0.7033996338458226,0.3502055003116089,0.5917816322864448,model_implied_state_space,-0.26449999999999996,-0.43889963384582265,True,True,40,-6365.75857504451,-7568.960720705711,-6365.75857504451,0.5585125763955148,8.771552738929141e-05,40.0,14,3,0.02
standard_dfm,pseudo,2020:Q1:pre_advance:pseudo,2020-04-30,pre_advance,DELTA_SA,DELTA_SA,2020:Q1,-0.08726901154794109,,,not_available,-0.26449999999999996,0.17723098845205887,True,True,0,,,,,,,14,3,0.02
release_dfm,pseudo,2020:Q1:pre_advance:pseudo,2020-04-30,pre_advance,DELTA_SA,DELTA_SA,2020:Q1,-0.08726901154794109,,,not_available,-0.26449999999999996,0.17723098845205887,True,True,0,,,,,,,14,3,0.02
revision_dfm_kalman_em,pseudo,2020:Q1:pre_advance:pseudo,2020-04-30,pre_advance,DELTA_SA,DELTA_SA,2020:Q1,-0.10131443264602513,0.40373996768295584,0.6354053569832063,model_implied_state_space,-0.26449999999999996,0.16318556735397483,True,True,21,-2059.169322040734,-3052.1038254999485,-2059.169322040734,0.1855062084309793,9.003604907637078e-05,21.0,14,3,0.02
indicator_revision_only_dfm_kalman_em,pseudo,2020:Q1:pre_advance:pseudo,2020-04-30,pre_advance,DELTA_SA,DELTA_SA,2020:Q1,0.0,0.4305643497444187,0.6561740239787146,model_implied_state_space,-0.26449999999999996,0.26449999999999996,True,True,25,-3818.2685001203195,-5003.882512364432,-3818.2685001203195,0.36690610124742307,9.605788569500443e-05,25.0,14,3,0.02
joint_indicator_revision_dfm_full_kalman_em,pseudo,2020:Q1:pre_advance:pseudo,2020-04-30,pre_advance,DELTA_SA,DELTA_SA,2020:Q1,-0.011522050039637577,0.3883453903972516,0.6231736438563906,model_implied_state_space,-0.26449999999999996,0.2529779499603624,True,True,26,-3782.592880154957,-5018.235392395421,-3782.592880154957,0.37219744551612166,9.836175490079928e-05,26.0,14,3,0.02
ar,pseudo,2020:Q1:pre_second:pseudo,2020-05-31,pre_second,DELTA_TS,DELTA_TS,2020:Q1,0.06260501235437754,,,not_available,0.05400000000000027,0.008605012354377273,True,True,0,,,,,,,14,3,0.02
no_revision,pseudo,2020:Q1:pre_second:pseudo,2020-05-31,pre_second,DELTA_TS,DELTA_TS,2020:Q1,0.0,,,not_available,0.05400000000000027,-0.05400000000000027,True,True,0,,,,,,,14,3,0.02
bridge,pseudo,2020:Q1:pre_second:pseudo,2020-05-31,pre_second,DELTA_TS,DELTA_TS,2020:Q1,-0.1950308406984187,,,not_available,0.05400000000000027,-0.24903084069841896,True,True,0,,,,,,,14,3,0.02
midas_umidas,pseudo,2020:Q1:pre_second:pseudo,2020-05-31,pre_second,DELTA_TS,DELTA_TS,2020:Q1,0.7787367456186525,,,not_available,0.05400000000000027,0.7247367456186522,True,True,0,,,,,,,14,3,0.02
monthly_mixed_frequency_kalman_em,pseudo,2020:Q1:pre_second:pseudo,2020-05-31,pre_second,DELTA_TS,DELTA_TS,2020:Q1,0.09223285893868383,0.14843031507427562,0.3852665506818307,model_implied_state_space,0.05400000000000027,0.038232858938683556,True,True,44,-5864.340540144614,-7345.674777637329,-5864.340540144614,0.547686764674836,9.3368087404456e-05,44.0,14,3,0.02
standard_dfm,pseudo,2020:Q1:pre_second:pseudo,2020-05-31,pre_second,DELTA_TS,DELTA_TS,2020:Q1,0.029330985332028714,,,not_available,0.05400000000000027,-0.024669014667971556,True,True,0,,,,,,,14,3,0.02
release_dfm,pseudo,2020:Q1:pre_second:pseudo,2020-05-31,pre_second,DELTA_TS,DELTA_TS,2020:Q1,0.0020323707882221598,,,not_available,0.05400000000000027,-0.05196762921177811,True,True,0,,,,,,,14,3,0.02
revision_dfm_kalman_em,pseudo,2020:Q1:pre_second:pseudo,2020-05-31,pre_second,DELTA_TS,DELTA_TS,2020:Q1,-0.014960235568898916,0.14694515334390323,0.38333425798368614,model_implied_state_space,0.05400000000000027,-0.06896023556889919,True,True,20,-2060.1747905421435,-3054.2066337089636,-2060.1747905421435,0.2025658285215286,9.826722307563002e-05,20.0,14,3,0.02
indicator_revision_only_dfm_kalman_em,pseudo,2020:Q1:pre_second:pseudo,2020-05-31,pre_second,DELTA_TS,DELTA_TS,2020:Q1,0.0,0.1510702855366105,0.38867761131381173,model_implied_state_space,0.05400000000000027,-0.05400000000000027,True,True,25,-3818.6557619167866,-5006.119232087748,-3818.6557619167866,0.3611960625416941,9.455352332591627e-05,25.0,14,3,0.02
joint_indicator_revision_dfm_full_kalman_em,pseudo,2020:Q1:pre_second:pseudo,2020-05-31,pre_second,DELTA_TS,DELTA_TS,2020:Q1,-0.011973271855673318,0.14589663042549406,0.381964174269648,model_implied_state_space,0.05400000000000027,-0.06597327185567359,True,True,26,-3783.5955768226704,-5020.138789049727,-3783.5955768226704,0.367519143383106,9.709979570865602e-05,26.0,14,3,0.02
ar,pseudo,2020:Q1:pre_third:pseudo,2020-06-30,pre_third,DELTA_MT,DELTA_MT,2020:Q1,0.1841743620429881,,,not_available,-0.16790000000000038,0.3520743620429885,True,True,0,,,,,,,14,3,0.02
no_revision,pseudo,2020:Q1:pre_third:pseudo,2020-06-30,pre_third,DELTA_MT,DELTA_MT,2020:Q1,0.0,,,not_available,-0.16790000000000038,0.16790000000000038,True,True,0,,,,,,,14,3,0.02
bridge,pseudo,2020:Q1:pre_third:pseudo,2020-06-30,pre_third,DELTA_MT,DELTA_MT,2020:Q1,-0.6220211317495115,,,not_available,-0.16790000000000038,-0.4541211317495111,True,True,0,,,,,,,14,3,0.02
midas_umidas,pseudo,2020:Q1:pre_third:pseudo,2020-06-30,pre_third,DELTA_MT,DELTA_MT,2020:Q1,2.525235690040403,,,not_available,-0.16790000000000038,2.6931356900404033,True,True,0,,,,,,,14,3,0.02
monthly_mixed_frequency_kalman_em,pseudo,2020:Q1:pre_third:pseudo,2020-06-30,pre_third,DELTA_MT,DELTA_MT,2020:Q1,-0.22617328111443946,4.360133186602745,2.0880931939457934,model_implied_state_space,-0.16790000000000038,-0.05827328111443908,True,True,30,-5848.09797214537,-7570.982370400096,-5848.09797214537,0.5808403497094332,9.929440031284142e-05,30.0,14,3,0.02
standard_dfm,pseudo,2020:Q1:pre_third:pseudo,2020-06-30,pre_third,DELTA_MT,DELTA_MT,2020:Q1,0.04086455062086802,,,not_available,-0.16790000000000038,0.2087645506208684,True,True,0,,,,,,,14,3,0.02
release_dfm,pseudo,2020:Q1:pre_third:pseudo,2020-06-30,pre_third,DELTA_MT,DELTA_MT,2020:Q1,1.1213922379207828,,,not_available,-0.16790000000000038,1.2892922379207832,True,True,0,,,,,,,14,3,0.02
revision_dfm_kalman_em,pseudo,2020:Q1:pre_third:pseudo,2020-06-30,pre_third,DELTA_MT,DELTA_MT,2020:Q1,-0.009473317991643526,4.2766515673464855,2.0680066652084284,model_implied_state_space,-0.16790000000000038,0.15842668200835686,True,True,20,-2056.822344447731,-3055.298004876104,-2056.822344447731,0.20515102300896615,9.968332466911051e-05,20.0,14,3,0.02
indicator_revision_only_dfm_kalman_em,pseudo,2020:Q1:pre_third:pseudo,2020-06-30,pre_third,DELTA_MT,DELTA_MT,2020:Q1,0.0,4.280772232228753,2.0690027144082612,model_implied_state_space,-0.16790000000000038,0.16790000000000038,True,True,25,-3815.523189180779,-5028.196630619309,-3815.523189180779,0.37187445231984384,9.74285240018824e-05,25.0,14,3,0.02
joint_indicator_revision_dfm_full_kalman_em,pseudo,2020:Q1:pre_third:pseudo,2020-06-30,pre_third,DELTA_MT,DELTA_MT,2020:Q1,-0.008908094693181212,4.291182494883751,2.07151695500755,model_implied_state_space,-0.16790000000000038,0.15899190530681917,True,True,26,-3779.7172675435495,-5041.927944760108,-3779.7172675435495,0.3702604417494513,9.792432441963054e-05,26.0,14,3,0.02
ar,exact,2020:Q2:pre_advance:exact,2020-07-29,pre_advance,DELTA_SA,DELTA_SA,2020:Q2,0.22277037037452474,,,not_available,1.1996999999999964,-0.9769296296254717,True,True,0,,,,,,,14,3,0.02
no_revision,exact,2020:Q2:pre_advance:exact,2020-07-29,pre_advance,DELTA_SA,DELTA_SA,2020:Q2,0.0,,,not_available,1.1996999999999964,-1.1996999999999964,True,True,0,,,,,,,14,3,0.02
bridge,exact,2020:Q2:pre_advance:exact,2020-07-29,pre_advance,DELTA_SA,DELTA_SA,2020:Q2,-0.8123714058636846,,,not_available,1.1996999999999964,-2.012071405863681,True,True,0,,,,,,,14,3,0.02
midas_umidas,exact,2020:Q2:pre_advance:exact,2020-07-29,pre_advance,DELTA_SA,DELTA_SA,2020:Q2,46.64625568917797,,,not_available,1.1996999999999964,45.44655568917797,True,True,0,,,,,,,14,3,0.02
monthly_mixed_frequency_kalman_em,exact,2020:Q2:pre_advance:exact,2020-07-29,pre_advance,DELTA_SA,DELTA_SA,2020:Q2,-1.5587867500333488,0.3331608578720253,0.5772008817318502,model_implied_state_space,1.1996999999999964,-2.758486750033345,True,True,30,-5800.950420662696,-7576.408237289621,-5800.950420662696,0.543709375088838,9.370270144250838e-05,30.0,14,3,0.02
standard_dfm,exact,2020:Q2:pre_advance:exact,2020-07-29,pre_advance,DELTA_SA,DELTA_SA,2020:Q2,-1.5018387117883414,,,not_available,1.1996999999999964,-2.701538711788338,True,True,0,,,,,,,14,3,0.02
release_dfm,exact,2020:Q2:pre_advance:exact,2020-07-29,pre_advance,DELTA_SA,DELTA_SA,2020:Q2,-1.5018387117883414,,,not_available,1.1996999999999964,-2.701538711788338,True,True,0,,,,,,,14,3,0.02
revision_dfm_kalman_em,exact,2020:Q2:pre_advance:exact,2020-07-29,pre_advance,DELTA_SA,DELTA_SA,2020:Q2,-0.9789384335053057,0.3961165868626715,0.6293779364282414,model_implied_state_space,1.1996999999999964,-2.178638433505302,True,True,28,-1891.621668847944,-3076.725073020588,-1891.621668847944,0.17827217649187332,9.41843734395868e-05,28.0,14,3,0.02
indicator_revision_only_dfm_kalman_em,exact,2020:Q2:pre_advance:exact,2020-07-29,pre_advance,DELTA_SA,DELTA_SA,2020:Q2,0.0,0.4242471552026652,0.6513425789879433,model_implied_state_space,1.1996999999999964,-1.1996999999999964,True,True,36,-3399.147946942782,-5010.367797774386,-3399.147946942782,0.29091301887183363,8.555160991046733e-05,36.0,14,3,0.02
joint_indicator_revision_dfm_full_kalman_em,exact,2020:Q2:pre_advance:exact,2020-07-29,pre_advance,DELTA_SA,DELTA_SA,2020:Q2,-0.453871457903837,0.3610160879938791,0.6008461433627407,model_implied_state_space,1.1996999999999964,-1.6535714579038334,True,True,38,-3358.065254359338,-5024.330168844098,-3358.065254359338,0.28821410392947655,8.579451571117933e-05,38.0,14,3,0.02
ar,exact,2020:Q2:pre_second:exact,2020-08-26,pre_second,DELTA_TS,DELTA_TS,2020:Q2,0.22266421245840196,,,not_available,0.3214000000000006,-0.09873578754159862,True,True,0,,,,,,,14,3,0.02
no_revision,exact,2020:Q2:pre_second:exact,2020-08-26,pre_second,DELTA_TS,DELTA_TS,2020:Q2,0.0,,,not_available,0.3214000000000006,-0.3214000000000006,True,True,0,,,,,,,14,3,0.02
bridge,exact,2020:Q2:pre_second:exact,2020-08-26,pre_second,DELTA_TS,DELTA_TS,2020:Q2,0.2158070170818096,,,not_available,0.3214000000000006,-0.10559298291819097,True,True,0,,,,,,,14,3,0.02
midas_umidas,exact,2020:Q2:pre_second:exact,2020-08-26,pre_second,DELTA_TS,DELTA_TS,2020:Q2,-20.633376910143767,,,not_available,0.3214000000000006,-20.954776910143767,True,True,0,,,,,,,14,3,0.02
monthly_mixed_frequency_kalman_em,exact,2020:Q2:pre_second:exact,2020-08-26,pre_second,DELTA_TS,DELTA_TS,2020:Q2,-0.7709575212528677,0.14745425712027993,0.38399773061865866,model_implied_state_space,0.3214000000000006,-1.0923575212528682,True,True,30,-5790.936824378299,-7593.671304928383,-5790.936824378299,0.5359329527009322,9.252230871913056e-05,30.0,14,3,0.02
standard_dfm,exact,2020:Q2:pre_second:exact,2020-08-26,pre_second,DELTA_TS,DELTA_TS,2020:Q2,-0.20132203708942242,,,not_available,0.3214000000000006,-0.522722037089423,True,True,0,,,,,,,14,3,0.02
release_dfm,exact,2020:Q2:pre_second:exact,2020-08-26,pre_second,DELTA_TS,DELTA_TS,2020:Q2,-0.1432377354184453,,,not_available,0.3214000000000006,-0.4646377354184459,True,True,0,,,,,,,14,3,0.02
revision_dfm_kalman_em,exact,2020:Q2:pre_second:exact,2020-08-26,pre_second,DELTA_TS,DELTA_TS,2020:Q2,-0.06475880113384846,0.14577223213969936,0.381801299290219,model_implied_state_space,0.3214000000000006,-0.38615880113384904,True,True,24,-1847.5914417908696,-3086.1045212213035,-1847.5914417908696,0.16463219268121065,8.905025113803925e-05,24.0,14,3,0.02
indicator_revision_only_dfm_kalman_em,exact,2020:Q2:pre_second:exact,2020-08-26,pre_second,DELTA_TS,DELTA_TS,2020:Q2,0.0,0.14882070118197688,0.38577286216370493,model_implied_state_space,0.3214000000000006,-0.3214000000000006,True,True,42,-3345.7525397795166,-5007.222229746111,-3345.7525397795166,0.2950346747393269,8.814773861929136e-05,42.0,14,3,0.02
joint_indicator_revision_dfm_full_kalman_em,exact,2020:Q2:pre_second:exact,2020-08-26,pre_second,DELTA_TS,DELTA_TS,2020:Q2,-0.01025093529729304,0.14439708695905307,0.3799961670320545,model_implied_state_space,0.3214000000000006,-0.3316509352972936,True,True,44,-3306.768946557713,-5015.572564187978,-3306.768946557713,0.3043938063906353,9.201543468716813e-05,44.0,14,3,0.02
ar,exact,2020:Q2:pre_third:exact,2020-09-29,pre_third,DELTA_MT,DELTA_MT,2020:Q2,3.4133521633512327,,,not_available,3.4068000000000005,0.00655216335123221,True,True,0,,,,,,,14,3,0.02
no_revision,exact,2020:Q2:pre_third:exact,2020-09-29,pre_third,DELTA_MT,DELTA_MT,2020:Q2,0.0,,,not_available,3.4068000000000005,-3.4068000000000005,True,True,0,,,,,,,14,3,0.02
bridge,exact,2020:Q2:pre_third:exact,2020-09-29,pre_third,DELTA_MT,DELTA_MT,2020:Q2,-1.2255572624661575,,,not_available,3.4068000000000005,-4.632357262466158,True,True,0,,,,,,,14,3,0.02
midas_umidas,exact,2020:Q2:pre_third:exact,2020-09-29,pre_third,DELTA_MT,DELTA_MT,2020:Q2,5.755193188971731,,,not_available,3.4068000000000005,2.3483931889717304,True,True,0,,,,,,,14,3,0.02
monthly_mixed_frequency_kalman_em,exact,2020:Q2:pre_third:exact,2020-09-29,pre_third,DELTA_MT,DELTA_MT,2020:Q2,-0.07489958433117039,4.282575440904073,2.069438436123209,model_implied_state_space,3.4068000000000005,-3.481699584331171,True,True,30,-5763.283163787264,-7611.521640025797,-5763.283163787264,0.5381468727000538,9.335013935383299e-05,30.0,14,3,0.02
standard_dfm,exact,2020:Q2:pre_third:exact,2020-09-29,pre_third,DELTA_MT,DELTA_MT,2020:Q2,-0.6909622800456106,,,not_available,3.4068000000000005,-4.097762280045611,True,True,0,,,,,,,14,3,0.02
release_dfm,exact,2020:Q2:pre_third:exact,2020-09-29,pre_third,DELTA_MT,DELTA_MT,2020:Q2,1.4993223405828005,,,not_available,3.4068000000000005,-1.9074776594172,True,True,0,,,,,,,14,3,0.02
revision_dfm_kalman_em,exact,2020:Q2:pre_third:exact,2020-09-29,pre_third,DELTA_MT,DELTA_MT,2020:Q2,0.004275829334702053,4.261574419577551,2.0643581132103876,model_implied_state_space,3.4068000000000005,-3.4025241706652984,True,True,24,-1808.543292732151,-3089.9445148834416,-1808.543292732151,0.16115494356085946,8.905042133694168e-05,24.0,14,3,0.02
indicator_revision_only_dfm_kalman_em,exact,2020:Q2:pre_third:exact,2020-09-29,pre_third,DELTA_MT,DELTA_MT,2020:Q2,0.0,4.278215135848823,2.0683846682493137,model_implied_state_space,3.4068000000000005,-3.4068000000000005,True,True,37,-3301.8711394099987,-5028.6599449203995,-3301.8711394099987,0.31669698436917315,9.587616570871953e-05,37.0,14,3,0.02
joint_indicator_revision_dfm_full_kalman_em,exact,2020:Q2:pre_third:exact,2020-09-29,pre_third,DELTA_MT,DELTA_MT,2020:Q2,0.018828291016376397,4.2808053853076,2.0690107262427615,model_implied_state_space,3.4068000000000005,-3.387971708983624,True,True,39,-3261.960596199487,-5036.5280288005,-3261.960596199487,0.2882382581328784,8.83286175081975e-05,39.0,14,3,0.02
ar,pseudo,2020:Q2:pre_advance:pseudo,2020-07-31,pre_advance,DELTA_SA,DELTA_SA,2020:Q2,0.22277037037452474,,,not_available,1.1996999999999964,-0.9769296296254717,True,True,0,,,,,,,14,3,0.02
no_revision,pseudo,2020:Q2:pre_advance:pseudo,2020-07-31,pre_advance,DELTA_SA,DELTA_SA,2020:Q2,0.0,,,not_available,1.1996999999999964,-1.1996999999999964,True,True,0,,,,,,,14,3,0.02
bridge,pseudo,2020:Q2:pre_advance:pseudo,2020-07-31,pre_advance,DELTA_SA,DELTA_SA,2020:Q2,-0.7774403997501551,,,not_available,1.1996999999999964,-1.9771403997501515,True,True,0,,,,,,,14,3,0.02
midas_umidas,pseudo,2020:Q2:pre_advance:pseudo,2020-07-31,pre_advance,DELTA_SA,DELTA_SA,2020:Q2,47.64493335960522,,,not_available,1.1996999999999964,46.445233359605226,True,True,0,,,,,,,14,3,0.02
monthly_mixed_frequency_kalman_em,pseudo,2020:Q2:pre_advance:pseudo,2020-07-31,pre_advance,DELTA_SA,DELTA_SA,2020:Q2,-1.5572435297640652,0.3332142579721582,0.5772471376907452,model_implied_state_space,1.1996999999999964,-2.7569435297640617,True,True,30,-5805.174913630151,-7577.424273802538,-5805.174913630151,0.5482355668964374,9.441393240389759e-05,30.0,14,3,0.02
standard_dfm,pseudo,2020:Q2:pre_advance:pseudo,2020-07-31,pre_advance,DELTA_SA,DELTA_SA,2020:Q2,-1.4870034110111714,,,not_available,1.1996999999999964,-2.686703411011168,True,True,0,,,,,,,14,3,0.02
release_dfm,pseudo,2020:Q2:pre_advance:pseudo,2020-07-31,pre_advance,DELTA_SA,DELTA_SA,2020:Q2,-1.4870034110111714,,,not_available,1.1996999999999964,-2.686703411011168,True,True,0,,,,,,,14,3,0.02
revision_dfm_kalman_em,pseudo,2020:Q2:pre_advance:pseudo,2020-07-31,pre_advance,DELTA_SA,DELTA_SA,2020:Q2,-0.9728861321938851,0.3959788572691947,0.6292685096754761,model_implied_state_space,1.1996999999999964,-2.1725861321938815,True,True,28,-1897.0305440299715,-3079.2777124665035,-1897.0305440299715,0.16913545924398932,8.910309124564903e-05,28.0,14,3,0.02
indicator_revision_only_dfm_kalman_em,pseudo,2020:Q2:pre_advance:pseudo,2020-07-31,pre_advance,DELTA_SA,DELTA_SA,2020:Q2,0.0,0.4240820238040719,0.6512158043260866,model_implied_state_space,1.1996999999999964,-1.1996999999999964,True,True,37,-3409.1376164790017,-5013.941035026439,-3409.1376164790017,0.2793564814974161,8.191270560529541e-05,37.0,14,3,0.02
joint_indicator_revision_dfm_full_kalman_em,pseudo,2020:Q2:pre_advance:pseudo,2020-07-31,pre_advance,DELTA_SA,DELTA_SA,2020:Q2,-0.46773147327537146,0.3609684447810926,0.6008064952887016,model_implied_state_space,1.1996999999999964,-1.667431473275368,True,True,38,-3368.288440662144,-5027.893267191154,-3368.288440662144,0.327113691415434,9.70774517564182e-05,38.0,14,3,0.02
ar,pseudo,2020:Q2:pre_second:pseudo,2020-08-31,pre_second,DELTA_TS,DELTA_TS,2020:Q2,0.22266421245840196,,,not_available,0.3214000000000006,-0.09873578754159862,True,True,0,,,,,,,14,3,0.02
no_revision,pseudo,2020:Q2:pre_second:pseudo,2020-08-31,pre_second,DELTA_TS,DELTA_TS,2020:Q2,0.0,,,not_available,0.3214000000000006,-0.3214000000000006,True,True,0,,,,,,,14,3,0.02
bridge,pseudo,2020:Q2:pre_second:pseudo,2020-08-31,pre_second,DELTA_TS,DELTA_TS,2020:Q2,0.23140965317984374,,,not_available,0.3214000000000006,-0.08999034682015683,True,True,0,,,,,,,14,3,0.02
midas_umidas,pseudo,2020:Q2:pre_second:pseudo,2020-08-31,pre_second,DELTA_TS,DELTA_TS,2020:Q2,-20.626923509636782,,,not_available,0.3214000000000006,-20.948323509636783,True,True,0,,,,,,,14,3,0.02
monthly_mixed_frequency_kalman_em,pseudo,2020:Q2:pre_second:pseudo,2020-08-31,pre_second,DELTA_TS,DELTA_TS,2020:Q2,-0.770920708788907,0.14745774825586389,0.38400227636807555,model_implied_state_space,0.3214000000000006,-1.0923207087889075,True,True,30,-5794.179609483348,-7595.112622176762,-5794.179609483348,0.5378628933985965,9.280350465013715e-05,30.0,14,3,0.02
standard_dfm,pseudo,2020:Q2:pre_second:pseudo,2020-08-31,pre_second,DELTA_TS,DELTA_TS,2020:Q2,-0.2010002342961421,,,not_available,0.3214000000000006,-0.5224002342961427,True,True,0,,,,,,,14,3,0.02
release_dfm,pseudo,2020:Q2:pre_second:pseudo,2020-08-31,pre_second,DELTA_TS,DELTA_TS,2020:Q2,-0.14322689758746776,,,not_available,0.3214000000000006,-0.46462689758746833,True,True,0,,,,,,,14,3,0.02
revision_dfm_kalman_em,pseudo,2020:Q2:pre_second:pseudo,2020-08-31,pre_second,DELTA_TS,DELTA_TS,2020:Q2,-0.06478966426909949,0.14577168114750028,0.3818005777202285,model_implied_state_space,0.3214000000000006,-0.38618966426910006,True,True,24,-1848.4544567225378,-3086.335096392551,-1848.4544567225378,0.16436027888380522,8.88617034888648e-05,24.0,14,3,0.02
indicator_revision_only_dfm_kalman_em,pseudo,2020:Q2:pre_second:pseudo,2020-08-31,pre_second,DELTA_TS,DELTA_TS,2020:Q2,0.0,0.1488212701355046,0.38577359958336266,model_implied_state_space,0.3214000000000006,-0.3214000000000006,True,True,42,-3346.7494555106514,-5007.275201566255,-3346.7494555106514,0.3050646962419705,9.111700374076317e-05,42.0,14,3,0.02
joint_indicator_revision_dfm_full_kalman_em,pseudo,2020:Q2:pre_second:pseudo,2020-08-31,pre_second,DELTA_TS,DELTA_TS,2020:Q2,-0.010094014307085786,0.1443968103129848,0.3799958030202239,model_implied_state_space,0.3214000000000006,-0.33149401430708636,True,True,44,-3307.800761311409,-5015.625742779681,-3307.800761311409,0.315799049693851,9.54330389798629e-05,44.0,14,3,0.02
ar,pseudo,2020:Q2:pre_third:pseudo,2020-09-30,pre_third,DELTA_MT,DELTA_MT,2020:Q2,3.4133521633512327,,,not_available,3.4068000000000005,0.00655216335123221,True,True,0,,,,,,,14,3,0.02
no_revision,pseudo,2020:Q2:pre_third:pseudo,2020-09-30,pre_third,DELTA_MT,DELTA_MT,2020:Q2,0.0,,,not_available,3.4068000000000005,-3.4068000000000005,True,True,0,,,,,,,14,3,0.02
bridge,pseudo,2020:Q2:pre_third:pseudo,2020-09-30,pre_third,DELTA_MT,DELTA_MT,2020:Q2,-1.2255572624661575,,,not_available,3.4068000000000005,-4.632357262466158,True,True,0,,,,,,,14,3,0.02
midas_umidas,pseudo,2020:Q2:pre_third:pseudo,2020-09-30,pre_third,DELTA_MT,DELTA_MT,2020:Q2,5.755193188971731,,,not_available,3.4068000000000005,2.3483931889717304,True,True,0,,,,,,,14,3,0.02
monthly_mixed_frequency_kalman_em,pseudo,2020:Q2:pre_third:pseudo,2020-09-30,pre_third,DELTA_MT,DELTA_MT,2020:Q2,-0.07489958433117039,4.282575440904073,2.069438436123209,model_implied_state_space,3.4068000000000005,-3.481699584331171,True,True,30,-5763.283163787264,-7611.521640025797,-5763.283163787264,0.5381468727000538,9.335013935383299e-05,30.0,14,3,0.02
standard_dfm,pseudo,2020:Q2:pre_third:pseudo,2020-09-30,pre_third,DELTA_MT,DELTA_MT,2020:Q2,-0.6909622800456106,,,not_available,3.4068000000000005,-4.097762280045611,True,True,0,,,,,,,14,3,0.02
release_dfm,pseudo,2020:Q2:pre_third:pseudo,2020-09-30,pre_third,DELTA_MT,DELTA_MT,2020:Q2,1.4993223405828005,,,not_available,3.4068000000000005,-1.9074776594172,True,True,0,,,,,,,14,3,0.02
revision_dfm_kalman_em,pseudo,2020:Q2:pre_third:pseudo,2020-09-30,pre_third,DELTA_MT,DELTA_MT,2020:Q2,0.004275829334702053,4.261574419577551,2.0643581132103876,model_implied_state_space,3.4068000000000005,-3.4025241706652984,True,True,24,-1808.543292732151,-3089.9445148834416,-1808.543292732151,0.16115494356085946,8.905042133694168e-05,24.0,14,3,0.02
indicator_revision_only_dfm_kalman_em,pseudo,2020:Q2:pre_third:pseudo,2020-09-30,pre_third,DELTA_MT,DELTA_MT,2020:Q2,0.0,4.278215135848823,2.0683846682493137,model_implied_state_space,3.4068000000000005,-3.4068000000000005,True,True,37,-3301.8711394099987,-5028.6599449203995,-3301.8711394099987,0.31669698436917315,9.587616570871953e-05,37.0,14,3,0.02
joint_indicator_revision_dfm_full_kalman_em,pseudo,2020:Q2:pre_third:pseudo,2020-09-30,pre_third,DELTA_MT,DELTA_MT,2020:Q2,0.018828291016376397,4.2808053853076,2.0690107262427615,model_implied_state_space,3.4068000000000005,-3.387971708983624,True,True,39,-3261.960596199487,-5036.5280288005,-3261.960596199487,0.2882382581328784,8.83286175081975e-05,39.0,14,3,0.02
ar,exact,2020:Q3:pre_advance:exact,2020-10-28,pre_advance,DELTA_SA,DELTA_SA,2020:Q3,2.555388340709694,,,not_available,-0.014299999999998647,2.5696883407096927,True,True,0,,,,,,,14,3,0.02
no_revision,exact,2020:Q3:pre_advance:exact,2020-10-28,pre_advance,DELTA_SA,DELTA_SA,2020:Q3,0.0,,,not_available,-0.014299999999998647,0.014299999999998647,True,True,0,,,,,,,14,3,0.02
bridge,exact,2020:Q3:pre_advance:exact,2020-10-28,pre_advance,DELTA_SA,DELTA_SA,2020:Q3,2.262902420301885,,,not_available,-0.014299999999998647,2.2772024203018835,True,True,0,,,,,,,14,3,0.02
midas_umidas,exact,2020:Q3:pre_advance:exact,2020-10-28,pre_advance,DELTA_SA,DELTA_SA,2020:Q3,-63.93108790807699,,,not_available,-0.014299999999998647,-63.91678790807699,True,True,0,,,,,,,14,3,0.02
monthly_mixed_frequency_kalman_em,exact,2020:Q3:pre_advance:exact,2020-10-28,pre_advance,DELTA_SA,DELTA_SA,2020:Q3,1.1994237271587114,0.36806673004026,0.6066850336379331,model_implied_state_space,-0.014299999999998647,1.21372372715871,True,True,30,-5768.034541426863,-7659.023192441736,-5768.034541426863,0.5548614852687024,9.617001254693144e-05,30.0,14,3,0.02
standard_dfm,exact,2020:Q3:pre_advance:exact,2020-10-28,pre_advance,DELTA_SA,DELTA_SA,2020:Q3,0.1201214726990365,,,not_available,-0.014299999999998647,0.13442147269903515,True,True,0,,,,,,,14,3,0.02
release_dfm,exact,2020:Q3:pre_advance:exact,2020-10-28,pre_advance,DELTA_SA,DELTA_SA,2020:Q3,0.1201214726990365,,,not_available,-0.014299999999998647,0.13442147269903515,True,True,0,,,,,,,14,3,0.02
revision_dfm_kalman_em,exact,2020:Q3:pre_advance:exact,2020-10-28,pre_advance,DELTA_SA,DELTA_SA,2020:Q3,0.8550541247424448,0.39396088503469073,0.6276630346250214,model_implied_state_space,-0.014299999999998647,0.8693541247424434,True,True,26,-1758.1790948049875,-3168.397846192563,-1758.1790948049875,0.16508774581507168,9.38348206407899e-05,26.0,14,3,0.02
indicator_revision_only_dfm_kalman_em,exact,2020:Q3:pre_advance:exact,2020-10-28,pre_advance,DELTA_SA,DELTA_SA,2020:Q3,0.0,0.4295819572990158,0.6554250203486405,model_implied_state_space,-0.014299999999998647,0.014299999999998647,True,True,40,-3199.304675969213,-5122.88095794355,-3199.304675969213,0.25709398304024944,8.032776791059554e-05,40.0,14,3,0.02
joint_indicator_revision_dfm_full_kalman_em,exact,2020:Q3:pre_advance:exact,2020-10-28,pre_advance,DELTA_SA,DELTA_SA,2020:Q3,1.5332497645475751,0.35715253523624924,0.5976224018862155,model_implied_state_space,-0.014299999999998647,1.5475497645475738,True,True,40,-3168.7906826921444,-5132.942348397295,-3168.7906826921444,0.27860572154213514,8.788631925504392e-05,40.0,14,3,0.02
ar,exact,2020:Q3:pre_second:exact,2020-11-24,pre_second,DELTA_TS,DELTA_TS,2020:Q3,1.0697573673306877,,,not_available,0.3727000000000018,0.6970573673306859,True,True,0,,,,,,,14,3,0.02
no_revision,exact,2020:Q3:pre_second:exact,2020-11-24,pre_second,DELTA_TS,DELTA_TS,2020:Q3,0.0,,,not_available,0.3727000000000018,-0.3727000000000018,True,True,0,,,,,,,14,3,0.02
bridge,exact,2020:Q3:pre_second:exact,2020-11-24,pre_second,DELTA_TS,DELTA_TS,2020:Q3,1.0566794154162311,,,not_available,0.3727000000000018,0.6839794154162293,True,True,0,,,,,,,14,3,0.02
midas_umidas,exact,2020:Q3:pre_second:exact,2020-11-24,pre_second,DELTA_TS,DELTA_TS,2020:Q3,14.8390442611652,,,not_available,0.3727000000000018,14.466344261165197,True,True,0,,,,,,,14,3,0.02
monthly_mixed_frequency_kalman_em,exact,2020:Q3:pre_second:exact,2020-11-24,pre_second,DELTA_TS,DELTA_TS,2020:Q3,0.48896568790998174,0.14475198477720796,0.38046285597572854,model_implied_state_space,0.3727000000000018,0.11626568790997993,True,True,37,-5751.403105536458,-7656.96332378251,-5751.403105536458,0.5543315071199686,9.635592009608843e-05,37.0,14,3,0.02
standard_dfm,exact,2020:Q3:pre_second:exact,2020-11-24,pre_second,DELTA_TS,DELTA_TS,2020:Q3,0.07655031567811577,,,not_available,0.3727000000000018,-0.29614968432188604,True,True,0,,,,,,,14,3,0.02
release_dfm,exact,2020:Q3:pre_second:exact,2020-11-24,pre_second,DELTA_TS,DELTA_TS,2020:Q3,0.025104152176020023,,,not_available,0.3727000000000018,-0.3475958478239818,True,True,0,,,,,,,14,3,0.02
revision_dfm_kalman_em,exact,2020:Q3:pre_second:exact,2020-11-24,pre_second,DELTA_TS,DELTA_TS,2020:Q3,0.05199712936276768,0.1461233182756797,0.38226079876921687,model_implied_state_space,0.3727000000000018,-0.3207028706372341,True,True,26,-1735.0548281925103,-3183.4511880592663,-1735.0548281925103,0.15227265920725586,8.770420253007642e-05,26.0,14,3,0.02
indicator_revision_only_dfm_kalman_em,exact,2020:Q3:pre_second:exact,2020-11-24,pre_second,DELTA_TS,DELTA_TS,2020:Q3,0.0,0.14854227273158993,0.38541182225197756,model_implied_state_space,0.3727000000000018,-0.3727000000000018,True,True,39,-3169.6504193402698,-5133.51146658155,-3169.6504193402698,0.2738817335493877,8.637283881442358e-05,39.0,14,3,0.02
joint_indicator_revision_dfm_full_kalman_em,exact,2020:Q3:pre_second:exact,2020-11-24,pre_second,DELTA_TS,DELTA_TS,2020:Q3,0.03136898926100429,0.14442283112206256,0.38003003976273053,model_implied_state_space,0.3727000000000018,-0.3413310107389975,True,True,40,-3135.623848441734,-5144.648106082525,-3135.623848441734,0.28769886059808414,9.171404939533542e-05,40.0,14,3,0.02
ar,exact,2020:Q3:pre_third:exact,2020-12-21,pre_third,DELTA_MT,DELTA_MT,2020:Q3,18.90965041100232,,,not_available,1.4142999999999972,17.495350411002324,True,True,0,,,,,,,14,3,0.02
no_revision,exact,2020:Q3:pre_third:exact,2020-12-21,pre_third,DELTA_MT,DELTA_MT,2020:Q3,0.0,,,not_available,1.4142999999999972,-1.4142999999999972,True,True,0,,,,,,,14,3,0.02
bridge,exact,2020:Q3:pre_third:exact,2020-12-21,pre_third,DELTA_MT,DELTA_MT,2020:Q3,6.926143260561631,,,not_available,1.4142999999999972,5.511843260561633,True,True,0,,,,,,,14,3,0.02
midas_umidas,exact,2020:Q3:pre_third:exact,2020-12-21,pre_third,DELTA_MT,DELTA_MT,2020:Q3,38.85047266361775,,,not_available,1.4142999999999972,37.436172663617754,True,True,0,,,,,,,14,3,0.02
monthly_mixed_frequency_kalman_em,exact,2020:Q3:pre_third:exact,2020-12-21,pre_third,DELTA_MT,DELTA_MT,2020:Q3,0.3313663820439743,4.263836525566774,2.0649059362515216,model_implied_state_space,1.4142999999999972,-1.082933617956023,True,True,33,-5738.80839494275,-7680.297825146089,-5738.80839494275,0.5482886126919766,9.551472894753632e-05,33.0,14,3,0.02
standard_dfm,exact,2020:Q3:pre_third:exact,2020-12-21,pre_third,DELTA_MT,DELTA_MT,2020:Q3,-5.018362780451323,,,not_available,1.4142999999999972,-6.43266278045132,True,True,0,,,,,,,14,3,0.02
release_dfm,exact,2020:Q3:pre_third:exact,2020-12-21,pre_third,DELTA_MT,DELTA_MT,2020:Q3,-1.9791798300080856,,,not_available,1.4142999999999972,-3.393479830008083,True,True,0,,,,,,,14,3,0.02
