haminh109/Revision-Aware-DFM/outputs/full_state_space_release_revision_dfm/smoke_q2_check/revision_forecast_results.csv
model_id,timing_mode,forecast_origin,forecast_origin_date,checkpoint_id,target_id,revision_target_id,target_quarter,forecast_value,forecast_variance,forecast_sd,density_source,realized_value,forecast_error,revision_target_flag,converged,n_iter,loglikelihood,llf_initial,llf_final,llf_last_improvement,llf_relative_last_improvement,llf_history_length,n_indicators,initialization_seed,initialization_jitter
ar,exact,2024:Q4:pre_advance:exact,2025-01-29,pre_advance,DELTA_SA,DELTA_SA,2024:Q4,0.08856620479105981,,,not_available,0.0939000000000001,-0.005333795208940284,True,True,0,,,,,,,14,,0.0
no_revision,exact,2024:Q4:pre_advance:exact,2025-01-29,pre_advance,DELTA_SA,DELTA_SA,2024:Q4,0.0,,,not_available,0.0939000000000001,-0.0939000000000001,True,True,0,,,,,,,14,,0.0
bridge,exact,2024:Q4:pre_advance:exact,2025-01-29,pre_advance,DELTA_SA,DELTA_SA,2024:Q4,0.080781412992601,,,not_available,0.0939000000000001,-0.013118587007399096,True,True,0,,,,,,,14,,0.0
midas_umidas,exact,2024:Q4:pre_advance:exact,2025-01-29,pre_advance,DELTA_SA,DELTA_SA,2024:Q4,-0.24635437686387007,,,not_available,0.0939000000000001,-0.34025437686387017,True,True,0,,,,,,,14,,0.0
monthly_mixed_frequency_kalman_em,exact,2024:Q4:pre_advance:exact,2025-01-29,pre_advance,DELTA_SA,DELTA_SA,2024:Q4,0.08841587857913158,8.872558939807796,2.978684095336025,model_implied_state_space,0.0939000000000001,-0.005484121420868515,True,False,2,-7690.129849849821,-8750.666374123039,-7690.129849849821,537.8439314914731,0.06535978188568325,3.0,14,,0.0
standard_dfm,exact,2024:Q4:pre_advance:exact,2025-01-29,pre_advance,DELTA_SA,DELTA_SA,2024:Q4,0.09221523935173925,,,not_available,0.0939000000000001,-0.0016847606482608413,True,True,0,,,,,,,14,,0.0
release_dfm,exact,2024:Q4:pre_advance:exact,2025-01-29,pre_advance,DELTA_SA,DELTA_SA,2024:Q4,0.09221523935173925,,,not_available,0.0939000000000001,-0.0016847606482608413,True,True,0,,,,,,,14,,0.0
revision_dfm_kalman_em,exact,2024:Q4:pre_advance:exact,2025-01-29,pre_advance,DELTA_SA,DELTA_SA,2024:Q4,0.18004302539635164,7.810510131626181,2.7947289907299027,model_implied_state_space,0.0939000000000001,0.08614302539635155,True,False,2,-2573.370647752149,-3597.6264148857676,-2573.370647752149,359.9686020828726,0.12267450060626468,3.0,14,,0.0
indicator_revision_only_dfm_kalman_em,exact,2024:Q4:pre_advance:exact,2025-01-29,pre_advance,DELTA_SA,DELTA_SA,2024:Q4,0.0,6.52492024561592,2.5543923437122813,model_implied_state_space,0.0939000000000001,-0.0939000000000001,True,False,2,-4427.858080735306,-5860.043642298014,-4427.858080735306,419.51418432665287,0.08652680969853122,3.0,14,,0.0
joint_indicator_revision_dfm_full_kalman_em,exact,2024:Q4:pre_advance:exact,2025-01-29,pre_advance,DELTA_SA,DELTA_SA,2024:Q4,0.15300414685042707,8.480396616122418,2.9121120541837704,model_implied_state_space,0.0939000000000001,0.059104146850426975,True,False,2,-4474.262448825984,-5873.9907983258845,-4474.262448825984,391.03372462598145,0.08035551283525699,3.0,14,,0.0
ar,exact,2024:Q4:pre_second:exact,2025-02-26,pre_second,DELTA_TS,DELTA_TS,2024:Q4,0.07963622768986722,,,not_available,0.10440000000000005,-0.024763772310132826,True,True,0,,,,,,,14,,0.0
no_revision,exact,2024:Q4:pre_second:exact,2025-02-26,pre_second,DELTA_TS,DELTA_TS,2024:Q4,0.0,,,not_available,0.10440000000000005,-0.10440000000000005,True,True,0,,,,,,,14,,0.0
bridge,exact,2024:Q4:pre_second:exact,2025-02-26,pre_second,DELTA_TS,DELTA_TS,2024:Q4,0.13209416253015238,,,not_available,0.10440000000000005,0.027694162530152333,True,True,0,,,,,,,14,,0.0
midas_umidas,exact,2024:Q4:pre_second:exact,2025-02-26,pre_second,DELTA_TS,DELTA_TS,2024:Q4,0.22035530543385207,,,not_available,0.10440000000000005,0.11595530543385202,True,True,0,,,,,,,14,,0.0
monthly_mixed_frequency_kalman_em,exact,2024:Q4:pre_second:exact,2025-02-26,pre_second,DELTA_TS,DELTA_TS,2024:Q4,0.05354093343526589,7.636624770827783,2.7634443672395115,model_implied_state_space,0.10440000000000005,-0.05085906656473416,True,False,2,-7584.861030594111,-8733.635195700868,-7584.861030594111,560.3487035233502,0.06878643219515104,3.0,14,,0.0
standard_dfm,exact,2024:Q4:pre_second:exact,2025-02-26,pre_second,DELTA_TS,DELTA_TS,2024:Q4,0.06731776128520695,,,not_available,0.10440000000000005,-0.0370822387147931,True,True,0,,,,,,,14,,0.0
release_dfm,exact,2024:Q4:pre_second:exact,2025-02-26,pre_second,DELTA_TS,DELTA_TS,2024:Q4,0.050394463414680235,,,not_available,0.10440000000000005,-0.05400553658531981,True,True,0,,,,,,,14,,0.0
revision_dfm_kalman_em,exact,2024:Q4:pre_second:exact,2025-02-26,pre_second,DELTA_TS,DELTA_TS,2024:Q4,0.000959724575066101,6.6112539907392485,2.5712358878055603,model_implied_state_space,0.10440000000000005,-0.10344027542493395,True,False,2,-2612.0912129194758,-3622.810422391235,-2612.0912129194758,383.9707444712508,0.12811571796985463,3.0,14,,0.0
indicator_revision_only_dfm_kalman_em,exact,2024:Q4:pre_second:exact,2025-02-26,pre_second,DELTA_TS,DELTA_TS,2024:Q4,0.0,6.687836330075082,2.5860851358907504,model_implied_state_space,0.10440000000000005,-0.10440000000000005,True,False,2,-4427.2722049614695,-5861.361118025714,-4427.2722049614695,419.97556477911985,0.0866241959415352,3.0,14,,0.0
joint_indicator_revision_dfm_full_kalman_em,exact,2024:Q4:pre_second:exact,2025-02-26,pre_second,DELTA_TS,DELTA_TS,2024:Q4,0.0009396716850900155,6.6393086832804595,2.5766856003945184,model_implied_state_space,0.10440000000000005,-0.10346032831491003,True,False,2,-4473.655843167542,-5875.401390351611,-4473.655843167542,391.5543630127286,0.08046392293440997,3.0,14,,0.0
ar,exact,2024:Q4:pre_third:exact,2025-03-26,pre_third,DELTA_MT,DELTA_MT,2024:Q4,0.33614694528956646,,,not_available,-0.5985,0.9346469452895665,True,True,0,,,,,,,14,,0.0
no_revision,exact,2024:Q4:pre_third:exact,2025-03-26,pre_third,DELTA_MT,DELTA_MT,2024:Q4,0.0,,,not_available,-0.5985,0.5985,True,True,0,,,,,,,14,,0.0
bridge,exact,2024:Q4:pre_third:exact,2025-03-26,pre_third,DELTA_MT,DELTA_MT,2024:Q4,0.12899766390039558,,,not_available,-0.5985,0.7274976639003956,True,True,0,,,,,,,14,,0.0
midas_umidas,exact,2024:Q4:pre_third:exact,2025-03-26,pre_third,DELTA_MT,DELTA_MT,2024:Q4,1.0357840303764725,,,not_available,-0.5985,1.6342840303764725,True,True,0,,,,,,,14,,0.0
monthly_mixed_frequency_kalman_em,exact,2024:Q4:pre_third:exact,2025-03-26,pre_third,DELTA_MT,DELTA_MT,2024:Q4,0.07128875194825657,13.2511434721281,3.6402120092280477,model_implied_state_space,-0.5985,0.6697887519482566,True,False,2,-7722.442122853494,-8790.657522762107,-7722.442122853494,541.533961508414,0.06552154004813708,3.0,14,,0.0
standard_dfm,exact,2024:Q4:pre_third:exact,2025-03-26,pre_third,DELTA_MT,DELTA_MT,2024:Q4,0.3145865928938014,,,not_available,-0.5985,0.9130865928938015,True,True,0,,,,,,,14,,0.0
release_dfm,exact,2024:Q4:pre_third:exact,2025-03-26,pre_third,DELTA_MT,DELTA_MT,2024:Q4,0.3073783372384984,,,not_available,-0.5985,0.9058783372384984,True,True,0,,,,,,,14,,0.0
revision_dfm_kalman_em,exact,2024:Q4:pre_third:exact,2025-03-26,pre_third,DELTA_MT,DELTA_MT,2024:Q4,0.08693381679375145,8.441198975030883,2.905374154051571,model_implied_state_space,-0.5985,0.6854338167937515,True,False,2,-2573.5301323188637,-3600.085937096257,-2573.5301323188637,360.8026413972548,0.12291711680120009,3.0,14,,0.0
indicator_revision_only_dfm_kalman_em,exact,2024:Q4:pre_third:exact,2025-03-26,pre_third,DELTA_MT,DELTA_MT,2024:Q4,0.0,8.465645691715437,2.9095782669856876,model_implied_state_space,-0.5985,0.5985,True,False,2,-4427.49677926748,-5862.590358213855,-4427.49677926748,420.49664007215506,0.08671833589112621,3.0,14,,0.0
joint_indicator_revision_dfm_full_kalman_em,exact,2024:Q4:pre_third:exact,2025-03-26,pre_third,DELTA_MT,DELTA_MT,2024:Q4,0.07998665176911901,9.39443515763874,3.065034283272985,model_implied_state_space,-0.5985,0.678486651769119,True,False,2,-4473.9820097167185,-5876.601153143409,-4473.9820097167185,391.96107614154334,0.08053537286689329,3.0,14,,0.0
ar,pseudo,2024:Q4:pre_advance:pseudo,2025-01-31,pre_advance,DELTA_SA,DELTA_SA,2024:Q4,0.08856620479105981,,,not_available,0.0939000000000001,-0.005333795208940284,True,True,0,,,,,,,14,,0.0
no_revision,pseudo,2024:Q4:pre_advance:pseudo,2025-01-31,pre_advance,DELTA_SA,DELTA_SA,2024:Q4,0.0,,,not_available,0.0939000000000001,-0.0939000000000001,True,True,0,,,,,,,14,,0.0
bridge,pseudo,2024:Q4:pre_advance:pseudo,2025-01-31,pre_advance,DELTA_SA,DELTA_SA,2024:Q4,0.07752848161173365,,,not_available,0.0939000000000001,-0.01637151838826645,True,True,0,,,,,,,14,,0.0
midas_umidas,pseudo,2024:Q4:pre_advance:pseudo,2025-01-31,pre_advance,DELTA_SA,DELTA_SA,2024:Q4,-0.25188860998692064,,,not_available,0.0939000000000001,-0.34578860998692074,True,True,0,,,,,,,14,,0.0
monthly_mixed_frequency_kalman_em,pseudo,2024:Q4:pre_advance:pseudo,2025-01-31,pre_advance,DELTA_SA,DELTA_SA,2024:Q4,0.08798094280496604,8.87256821898081,2.9786856529316434,model_implied_state_space,0.0939000000000001,-0.00591905719503405,True,False,2,-7691.447501173387,-8752.020968437364,-7691.447501173387,537.8331214366171,0.06534809031408924,3.0,14,,0.0
standard_dfm,pseudo,2024:Q4:pre_advance:pseudo,2025-01-31,pre_advance,DELTA_SA,DELTA_SA,2024:Q4,0.09222249777661551,,,not_available,0.0939000000000001,-0.001677502223384586,True,True,0,,,,,,,14,,0.0
release_dfm,pseudo,2024:Q4:pre_advance:pseudo,2025-01-31,pre_advance,DELTA_SA,DELTA_SA,2024:Q4,0.09222249777661551,,,not_available,0.0939000000000001,-0.001677502223384586,True,True,0,,,,,,,14,,0.0
revision_dfm_kalman_em,pseudo,2024:Q4:pre_advance:pseudo,2025-01-31,pre_advance,DELTA_SA,DELTA_SA,2024:Q4,0.17854725376170366,7.810503000625804,2.7947277149349996,model_implied_state_space,0.0939000000000001,0.08464725376170357,True,False,2,-2573.3888379384125,-3597.6304148020954,-2573.3888379384125,359.9625460200323,0.12267192947234636,3.0,14,,0.0
indicator_revision_only_dfm_kalman_em,pseudo,2024:Q4:pre_advance:pseudo,2025-01-31,pre_advance,DELTA_SA,DELTA_SA,2024:Q4,0.0,6.524917861433972,2.5543918770294374,model_implied_state_space,0.0939000000000001,-0.0939000000000001,True,False,2,-4427.886639344746,-5860.050585570527,-4427.886639344746,419.5081138239566,0.08652515630039903,3.0,14,,0.0
joint_indicator_revision_dfm_full_kalman_em,pseudo,2024:Q4:pre_advance:pseudo,2025-01-31,pre_advance,DELTA_SA,DELTA_SA,2024:Q4,0.1519227548715527,8.480395017839195,2.9121117797638187,model_implied_state_space,0.0939000000000001,0.05802275487155262,True,False,2,-4474.291208505036,-5873.997755835429,-4474.291208505036,391.02744519329553,0.08035385124155821,3.0,14,,0.0
ar,pseudo,2024:Q4:pre_second:pseudo,2025-02-28,pre_second,DELTA_TS,DELTA_TS,2024:Q4,0.07963622768986722,,,not_available,0.10440000000000005,-0.024763772310132826,True,True,0,,,,,,,14,,0.0
no_revision,pseudo,2024:Q4:pre_second:pseudo,2025-02-28,pre_second,DELTA_TS,DELTA_TS,2024:Q4,0.0,,,not_available,0.10440000000000005,-0.10440000000000005,True,True,0,,,,,,,14,,0.0
bridge,pseudo,2024:Q4:pre_second:pseudo,2025-02-28,pre_second,DELTA_TS,DELTA_TS,2024:Q4,0.12681342774469284,,,not_available,0.10440000000000005,0.022413427744692793,True,True,0,,,,,,,14,,0.0
midas_umidas,pseudo,2024:Q4:pre_second:pseudo,2025-02-28,pre_second,DELTA_TS,DELTA_TS,2024:Q4,0.21882746436566824,,,not_available,0.10440000000000005,0.1144274643656682,True,True,0,,,,,,,14,,0.0
monthly_mixed_frequency_kalman_em,pseudo,2024:Q4:pre_second:pseudo,2025-02-28,pre_second,DELTA_TS,DELTA_TS,2024:Q4,0.05427996618578357,7.636470519457323,2.7634164578393396,model_implied_state_space,0.10440000000000005,-0.05012003381421648,True,False,2,-7587.297323197155,-8736.353042009172,-7587.297323197155,560.4535674455637,0.06877785012291117,3.0,14,,0.0
standard_dfm,pseudo,2024:Q4:pre_second:pseudo,2025-02-28,pre_second,DELTA_TS,DELTA_TS,2024:Q4,0.06728211452915733,,,not_available,0.10440000000000005,-0.037117885470842715,True,True,0,,,,,,,14,,0.0
release_dfm,pseudo,2024:Q4:pre_second:pseudo,2025-02-28,pre_second,DELTA_TS,DELTA_TS,2024:Q4,0.05041121976040719,,,not_available,0.10440000000000005,-0.05398878023959286,True,True,0,,,,,,,14,,0.0
revision_dfm_kalman_em,pseudo,2024:Q4:pre_second:pseudo,2025-02-28,pre_second,DELTA_TS,DELTA_TS,2024:Q4,0.0009577026269336208,6.611249146404951,2.5712349457809083,model_implied_state_space,0.10440000000000005,-0.10344229737306643,True,False,2,-2612.07766468155,-3622.8120917510505,-2612.07766468155,383.9865961555297,0.12812090857480724,3.0,14,,0.0
indicator_revision_only_dfm_kalman_em,pseudo,2024:Q4:pre_second:pseudo,2025-02-28,pre_second,DELTA_TS,DELTA_TS,2024:Q4,0.0,6.687842523836279,2.5860863334073514,model_implied_state_space,0.10440000000000005,-0.10440000000000005,True,False,2,-4427.306527285647,-5861.405935455937,-4427.306527285647,419.97396789386676,0.08662328186486593,3.0,14,,0.0
joint_indicator_revision_dfm_full_kalman_em,pseudo,2024:Q4:pre_second:pseudo,2025-02-28,pre_second,DELTA_TS,DELTA_TS,2024:Q4,0.0009389393012568803,6.639315295232185,2.5766868834284433,model_implied_state_space,0.10440000000000005,-0.10346106069874317,True,False,2,-4473.6902279402875,-5875.4461693007825,-4473.6902279402875,391.5528351910116,0.08046306567741761,3.0,14,,0.0
ar,pseudo,2024:Q4:pre_third:pseudo,2025-03-31,pre_third,DELTA_MT,DELTA_MT,2024:Q4,0.33614694528956646,,,not_available,-0.5985,0.9346469452895665,True,True,0,,,,,,,14,,0.0
no_revision,pseudo,2024:Q4:pre_third:pseudo,2025-03-31,pre_third,DELTA_MT,DELTA_MT,2024:Q4,0.0,,,not_available,-0.5985,0.5985,True,True,0,,,,,,,14,,0.0
bridge,pseudo,2024:Q4:pre_third:pseudo,2025-03-31,pre_third,DELTA_MT,DELTA_MT,2024:Q4,0.13459644879060262,,,not_available,-0.5985,0.7330964487906027,True,True,0,,,,,,,14,,0.0
midas_umidas,pseudo,2024:Q4:pre_third:pseudo,2025-03-31,pre_third,DELTA_MT,DELTA_MT,2024:Q4,1.0551452959038703,,,not_available,-0.5985,1.6536452959038703,True,True,0,,,,,,,14,,0.0
monthly_mixed_frequency_kalman_em,pseudo,2024:Q4:pre_third:pseudo,2025-03-31,pre_third,DELTA_MT,DELTA_MT,2024:Q4,0.06940554001954213,13.25107355808569,3.640202406197448,model_implied_state_space,-0.5985,0.6679055400195422,True,False,2,-7723.774722302989,-8791.999099907305,-7723.774722302989,541.5091838707867,0.06550817634830494,3.0,14,,0.0
standard_dfm,pseudo,2024:Q4:pre_third:pseudo,2025-03-31,pre_third,DELTA_MT,DELTA_MT,2024:Q4,0.3146620147523578,,,not_available,-0.5985,0.9131620147523578,True,True,0,,,,,,,14,,0.0
release_dfm,pseudo,2024:Q4:pre_third:pseudo,2025-03-31,pre_third,DELTA_MT,DELTA_MT,2024:Q4,0.30375904272645826,,,not_available,-0.5985,0.9022590427264583,True,True,0,,,,,,,14,,0.0
revision_dfm_kalman_em,pseudo,2024:Q4:pre_third:pseudo,2025-03-31,pre_third,DELTA_MT,DELTA_MT,2024:Q4,0.0869319821988741,8.441198791973894,2.9053741225484018,model_implied_state_space,-0.5985,0.6854319821988741,True,False,2,-2573.518258288395,-3600.0855032425316,-2573.518258288395,360.8066426852206,0.1229188096232703,3.0,14,,0.0
indicator_revision_only_dfm_kalman_em,pseudo,2024:Q4:pre_third:pseudo,2025-03-31,pre_third,DELTA_MT,DELTA_MT,2024:Q4,0.0,8.465643877341712,2.9095779551924212,model_implied_state_space,-0.5985,0.5985,True,False,2,-4427.498658552799,-5862.593422730148,-4427.498658552799,420.49383731418493,0.08671777439799937,3.0,14,,0.0
joint_indicator_revision_dfm_full_kalman_em,pseudo,2024:Q4:pre_third:pseudo,2025-03-31,pre_third,DELTA_MT,DELTA_MT,2024:Q4,0.07998579979320652,9.394433807426006,3.065034063012352,model_implied_state_space,-0.5985,0.6784857997932066,True,False,2,-4473.983898931714,-5876.604212818818,-4473.983898931714,391.958263167171,0.08053481017702041,3.0,14,,0.0
