haminh109/Revision-Aware-DFM/outputs/full_state_space_release_revision_dfm/frozen/q1_manuscript_v1_sensitivity_rolling/sensitivity_runs/sensitivity_window_rolling_max_iter100/evidence_dir/common_sample_spf_revision.csv
timing_mode,checkpoint_id,outcome_id,anchor_model,model_id,n_common_forecasts,RMSE,MAE,bias,first_target_quarter,last_target_quarter
exact,pre_advance,DELTA_SA,spf,ar,79,2.7906865217034893,0.9073116629109444,-0.18918958760208116,2005:Q1,2024:Q4
exact,pre_advance,DELTA_SA,spf,bridge,79,0.714865408837898,0.5321299706399097,-0.06789103545325174,2005:Q1,2024:Q4
exact,pre_advance,DELTA_SA,spf,indicator_revision_only_dfm_kalman_em,79,0.5696627235545563,0.3997025316455695,-0.0657987341772152,2005:Q1,2024:Q4
exact,pre_advance,DELTA_SA,spf,joint_indicator_revision_dfm_full_kalman_em,79,0.8248336237177745,0.5194579275852346,0.09314390833052642,2005:Q1,2024:Q4
exact,pre_advance,DELTA_SA,spf,midas_umidas,79,1.4144085467542904,1.0757070483366695,-0.10500675759186337,2005:Q1,2024:Q4
exact,pre_advance,DELTA_SA,spf,monthly_mixed_frequency_kalman_em,79,0.5838079775036301,0.42149894077691585,0.008138595255566585,2005:Q1,2024:Q4
exact,pre_advance,DELTA_SA,spf,no_revision,79,0.5696627235545563,0.3997025316455695,-0.0657987341772152,2005:Q1,2024:Q4
exact,pre_advance,DELTA_SA,spf,release_dfm,79,0.6760634439292688,0.44756910186458826,-0.07006125607548341,2005:Q1,2024:Q4
exact,pre_advance,DELTA_SA,spf,revision_dfm_kalman_em,79,0.6770537174494425,0.47866905112555974,0.04859602128260431,2005:Q1,2024:Q4
exact,pre_advance,DELTA_SA,spf,spf,79,0.5696627235545563,0.3997025316455695,-0.0657987341772152,2005:Q1,2024:Q4
exact,pre_advance,DELTA_SA,spf,standard_dfm,79,0.6760634439292688,0.44756910186458826,-0.07006125607548341,2005:Q1,2024:Q4
exact,pre_second,DELTA_TS,spf,ar,79,3.674273661442146,0.980932335935324,0.695730181812017,2005:Q1,2024:Q4
exact,pre_second,DELTA_TS,spf,bridge,79,0.544408906920047,0.392748617514329,-0.04441484165315265,2005:Q1,2024:Q4
exact,pre_second,DELTA_TS,spf,indicator_revision_only_dfm_kalman_em,79,0.3613823734957444,0.23798607594936708,-0.05443417721518987,2005:Q1,2024:Q4
exact,pre_second,DELTA_TS,spf,joint_indicator_revision_dfm_full_kalman_em,79,0.36373865333925126,0.2384034439110225,-0.05164806511123771,2005:Q1,2024:Q4
exact,pre_second,DELTA_TS,spf,midas_umidas,79,1.0901930952664585,0.6184773629506327,-0.11427580134952565,2005:Q1,2024:Q4
exact,pre_second,DELTA_TS,spf,monthly_mixed_frequency_kalman_em,79,0.46632385017179917,0.2921976846805288,-0.01671931778016787,2005:Q1,2024:Q4
exact,pre_second,DELTA_TS,spf,no_revision,79,0.3613823734957444,0.23798607594936708,-0.05443417721518987,2005:Q1,2024:Q4
exact,pre_second,DELTA_TS,spf,release_dfm,79,0.3724901869052686,0.2536591160667067,-0.051142733177839544,2005:Q1,2024:Q4
exact,pre_second,DELTA_TS,spf,revision_dfm_kalman_em,79,0.36797020611457704,0.2433514385332624,-0.04952260338914685,2005:Q1,2024:Q4
exact,pre_second,DELTA_TS,spf,spf,79,0.3613823734957444,0.23798607594936708,-0.05443417721518987,2005:Q1,2024:Q4
exact,pre_second,DELTA_TS,spf,standard_dfm,79,0.3763207344002105,0.2525695740076855,0.03208469874198119,2005:Q1,2024:Q4
exact,pre_third,DELTA_MT,spf,ar,80,10.451895015643494,4.2718097124454335,0.157628826122915,2005:Q1,2024:Q4
exact,pre_third,DELTA_MT,spf,bridge,80,2.8102884939189474,1.8943064315800668,0.3308481952733453,2005:Q1,2024:Q4
exact,pre_third,DELTA_MT,spf,indicator_revision_only_dfm_kalman_em,80,1.338732745080212,1.05551,-0.03200500000000002,2005:Q1,2024:Q4
exact,pre_third,DELTA_MT,spf,joint_indicator_revision_dfm_full_kalman_em,80,1.3543455096009658,1.0728493725572776,-0.04652880419655274,2005:Q1,2024:Q4
exact,pre_third,DELTA_MT,spf,midas_umidas,80,2.881050485156374,2.053141010136382,-0.35784900594920177,2005:Q1,2024:Q4
exact,pre_third,DELTA_MT,spf,monthly_mixed_frequency_kalman_em,80,1.3595772387038816,1.0784657346518642,0.0007005283805926688,2005:Q1,2024:Q4
exact,pre_third,DELTA_MT,spf,no_revision,80,1.338732745080212,1.05551,-0.03200500000000002,2005:Q1,2024:Q4
exact,pre_third,DELTA_MT,spf,release_dfm,80,1.61914010006876,1.1697658558307762,0.12969538173976392,2005:Q1,2024:Q4
exact,pre_third,DELTA_MT,spf,revision_dfm_kalman_em,80,1.3392333692398561,1.0528940812518168,-0.0345365401827337,2005:Q1,2024:Q4
exact,pre_third,DELTA_MT,spf,spf,80,1.338732745080212,1.05551,-0.03200500000000002,2005:Q1,2024:Q4
exact,pre_third,DELTA_MT,spf,standard_dfm,80,1.8434723018129102,1.3593362434122223,-0.332708362175936,2005:Q1,2024:Q4
pseudo,pre_advance,DELTA_SA,spf,ar,79,2.7906865217034893,0.9073116629109444,-0.18918958760208116,2005:Q1,2024:Q4
pseudo,pre_advance,DELTA_SA,spf,bridge,79,0.7194136694381665,0.5328274734161503,-0.06852269532744207,2005:Q1,2024:Q4
pseudo,pre_advance,DELTA_SA,spf,indicator_revision_only_dfm_kalman_em,79,0.5696627235545563,0.3997025316455695,-0.0657987341772152,2005:Q1,2024:Q4
pseudo,pre_advance,DELTA_SA,spf,joint_indicator_revision_dfm_full_kalman_em,79,0.8226296621516558,0.5173278376386233,0.09141657584447586,2005:Q1,2024:Q4
pseudo,pre_advance,DELTA_SA,spf,midas_umidas,79,1.393255020319289,1.0681846194234752,-0.08376757697327025,2005:Q1,2024:Q4
pseudo,pre_advance,DELTA_SA,spf,monthly_mixed_frequency_kalman_em,79,0.5834322857019153,0.4204802192059904,0.008641208204017575,2005:Q1,2024:Q4
pseudo,pre_advance,DELTA_SA,spf,no_revision,79,0.5696627235545563,0.3997025316455695,-0.0657987341772152,2005:Q1,2024:Q4
pseudo,pre_advance,DELTA_SA,spf,release_dfm,79,0.6749400052938735,0.44692047319473965,-0.06975196494897841,2005:Q1,2024:Q4
pseudo,pre_advance,DELTA_SA,spf,revision_dfm_kalman_em,79,0.6767020876904573,0.47824542911855245,0.04868118417039201,2005:Q1,2024:Q4
pseudo,pre_advance,DELTA_SA,spf,spf,79,0.5696627235545563,0.3997025316455695,-0.0657987341772152,2005:Q1,2024:Q4
pseudo,pre_advance,DELTA_SA,spf,standard_dfm,79,0.6749400052938735,0.44692047319473965,-0.06975196494897841,2005:Q1,2024:Q4
pseudo,pre_second,DELTA_TS,spf,ar,79,3.674273661442146,0.980932335935324,0.695730181812017,2005:Q1,2024:Q4
pseudo,pre_second,DELTA_TS,spf,bridge,79,0.5436474361619392,0.3919468481965371,-0.043953311916672594,2005:Q1,2024:Q4
pseudo,pre_second,DELTA_TS,spf,indicator_revision_only_dfm_kalman_em,79,0.3613823734957444,0.23798607594936708,-0.05443417721518987,2005:Q1,2024:Q4
pseudo,pre_second,DELTA_TS,spf,joint_indicator_revision_dfm_full_kalman_em,79,0.3637767328157722,0.23844027900497514,-0.05161275917610979,2005:Q1,2024:Q4
pseudo,pre_second,DELTA_TS,spf,midas_umidas,79,1.0940704843343443,0.61449746343546,-0.11438122915184942,2005:Q1,2024:Q4
pseudo,pre_second,DELTA_TS,spf,monthly_mixed_frequency_kalman_em,79,0.4688893594029844,0.29319491048786456,-0.01854669344988657,2005:Q1,2024:Q4
pseudo,pre_second,DELTA_TS,spf,no_revision,79,0.3613823734957444,0.23798607594936708,-0.05443417721518987,2005:Q1,2024:Q4
pseudo,pre_second,DELTA_TS,spf,release_dfm,79,0.37258428680426003,0.25380609915558766,-0.050975065031573064,2005:Q1,2024:Q4
pseudo,pre_second,DELTA_TS,spf,revision_dfm_kalman_em,79,0.36794195663699875,0.24305964940387967,-0.0498420707766645,2005:Q1,2024:Q4
pseudo,pre_second,DELTA_TS,spf,spf,79,0.3613823734957444,0.23798607594936708,-0.05443417721518987,2005:Q1,2024:Q4
pseudo,pre_second,DELTA_TS,spf,standard_dfm,79,0.3763272402442495,0.2526622015146509,0.03214569353038355,2005:Q1,2024:Q4
pseudo,pre_third,DELTA_MT,spf,ar,80,10.451895015643494,4.2718097124454335,0.157628826122915,2005:Q1,2024:Q4
pseudo,pre_third,DELTA_MT,spf,bridge,80,2.8014639673158137,1.8857932756405607,0.3370647777782646,2005:Q1,2024:Q4
pseudo,pre_third,DELTA_MT,spf,indicator_revision_only_dfm_kalman_em,80,1.338732745080212,1.05551,-0.03200500000000002,2005:Q1,2024:Q4
pseudo,pre_third,DELTA_MT,spf,joint_indicator_revision_dfm_full_kalman_em,80,1.3543473058065576,1.072847929958852,-0.046521534703290825,2005:Q1,2024:Q4
pseudo,pre_third,DELTA_MT,spf,midas_umidas,80,2.879425685873056,2.064584951406655,-0.3637218962146817,2005:Q1,2024:Q4
pseudo,pre_third,DELTA_MT,spf,monthly_mixed_frequency_kalman_em,80,1.3593206516536922,1.078298368103035,0.0006562299749542199,2005:Q1,2024:Q4
pseudo,pre_third,DELTA_MT,spf,no_revision,80,1.338732745080212,1.05551,-0.03200500000000002,2005:Q1,2024:Q4
pseudo,pre_third,DELTA_MT,spf,release_dfm,80,1.6182643009751925,1.1689849098035416,0.13061378702881504,2005:Q1,2024:Q4
pseudo,pre_third,DELTA_MT,spf,revision_dfm_kalman_em,80,1.339209166526412,1.0528775588286776,-0.03451033716642839,2005:Q1,2024:Q4
pseudo,pre_third,DELTA_MT,spf,spf,80,1.338732745080212,1.05551,-0.03200500000000002,2005:Q1,2024:Q4
pseudo,pre_third,DELTA_MT,spf,standard_dfm,80,1.8390179457039795,1.356325933636963,-0.33192871488129805,2005:Q1,2024:Q4
