haminh109/Revision-Aware-DFM/outputs/full_state_space_release_revision_dfm/frozen/q1_manuscript_v1_sensitivity_rolling/sensitivity_runs/sensitivity_window_rolling_max_iter100/evidence_dir/cumulative_loss_point.csv
timing_mode,checkpoint_id,outcome_id,baseline_model,model_id,target_quarter,loss_diff_baseline_minus_model,cumulative_loss_diff
exact,pre_advance,A,ar,bridge,2005:Q1,-0.18165531500419416,-0.18165531500419416
exact,pre_advance,A,ar,bridge,2005:Q2,0.012988599580119393,-0.16866671542407477
exact,pre_advance,A,ar,bridge,2005:Q3,-0.022669430545366742,-0.1913361459694415
exact,pre_advance,A,ar,bridge,2005:Q4,-1.6742545865210774,-1.865590732490519
exact,pre_advance,A,ar,bridge,2006:Q1,2.991006569704023,1.1254158372135041
exact,pre_advance,A,ar,bridge,2006:Q2,1.170464149657155,2.295879986870659
exact,pre_advance,A,ar,bridge,2006:Q3,2.3057732319010356,4.601653218771695
exact,pre_advance,A,ar,bridge,2006:Q4,-5.727122937370752,-1.1254697185990574
exact,pre_advance,A,ar,bridge,2007:Q1,2.8014328670495168,1.6759631484504594
exact,pre_advance,A,ar,bridge,2007:Q2,0.19712721088938465,1.873090359339844
exact,pre_advance,A,ar,bridge,2007:Q3,-2.623404556376332,-0.7503141970364879
exact,pre_advance,A,ar,bridge,2007:Q4,7.045421465518135,6.295107268481647
exact,pre_advance,A,ar,bridge,2008:Q1,4.532014215781389,10.827121484263037
exact,pre_advance,A,ar,bridge,2008:Q2,0.20130049912040276,11.02842198338344
exact,pre_advance,A,ar,bridge,2008:Q3,9.243090387643477,20.271512371026915
exact,pre_advance,A,ar,bridge,2008:Q4,28.937638682577614,49.20915105360453
exact,pre_advance,A,ar,bridge,2009:Q1,27.939199779737486,77.14835083334202
exact,pre_advance,A,ar,bridge,2009:Q2,0.05637752871120982,77.20472836205323
exact,pre_advance,A,ar,bridge,2009:Q3,8.997805453522737,86.20253381557598
exact,pre_advance,A,ar,bridge,2009:Q4,4.441467357722365,90.64400117329834
exact,pre_advance,A,ar,bridge,2010:Q1,-6.844253072057621,83.79974810124071
exact,pre_advance,A,ar,bridge,2010:Q2,-2.7120249606003677,81.08772314064034
exact,pre_advance,A,ar,bridge,2010:Q3,-0.15064223533703758,80.9370809053033
exact,pre_advance,A,ar,bridge,2010:Q4,0.3088400864339452,81.24592099173725
exact,pre_advance,A,ar,bridge,2011:Q1,-3.7252523344483004,77.52066865728895
exact,pre_advance,A,ar,bridge,2011:Q2,-3.849930044040077,73.67073861324887
exact,pre_advance,A,ar,bridge,2011:Q3,0.0983694369383663,73.76910805018724
exact,pre_advance,A,ar,bridge,2011:Q4,-0.4728088394438591,73.29629921074338
exact,pre_advance,A,ar,bridge,2012:Q1,-1.4947701163250882,71.8015290944183
exact,pre_advance,A,ar,bridge,2012:Q2,-0.42867394403359155,71.37285515038471
exact,pre_advance,A,ar,bridge,2012:Q3,-0.4659967133581524,70.90685843702656
exact,pre_advance,A,ar,bridge,2012:Q4,-6.477179673856958,64.4296787631696
exact,pre_advance,A,ar,bridge,2013:Q1,2.1720105890122148,66.60168935218182
exact,pre_advance,A,ar,bridge,2013:Q2,-0.16008384152898752,66.44160551065283
exact,pre_advance,A,ar,bridge,2013:Q3,0.49922932481129284,66.94083483546413
exact,pre_advance,A,ar,bridge,2013:Q4,0.47893226704522857,67.41976710250935
exact,pre_advance,A,ar,bridge,2014:Q1,4.461952634710348,71.8817197372197
exact,pre_advance,A,ar,bridge,2014:Q2,7.366723261900251,79.24844299911994
exact,pre_advance,A,ar,bridge,2014:Q3,-0.6933889272191562,78.55505407190078
exact,pre_advance,A,ar,bridge,2014:Q4,0.08363238042396577,78.63868645232475
exact,pre_advance,A,ar,bridge,2015:Q1,3.686212657758281,82.32489911008302
exact,pre_advance,A,ar,bridge,2015:Q2,0.9174324187546339,83.24233152883765
exact,pre_advance,A,ar,bridge,2015:Q3,0.28844317160792093,83.53077470044558
exact,pre_advance,A,ar,bridge,2015:Q4,0.8797070303295977,84.41048173077517
exact,pre_advance,A,ar,bridge,2016:Q1,-0.25424000139340075,84.15624172938178
exact,pre_advance,A,ar,bridge,2016:Q2,-0.1670712474947788,83.989170481887
exact,pre_advance,A,ar,bridge,2016:Q3,1.615611578426314,85.60478206031331
exact,pre_advance,A,ar,bridge,2016:Q4,0.2431289413175455,85.84791100163086
exact,pre_advance,A,ar,bridge,2017:Q1,-1.1889539786215855,84.65895702300928
exact,pre_advance,A,ar,bridge,2017:Q2,1.4791191614674992,86.13807618447677
exact,pre_advance,A,ar,bridge,2017:Q3,-0.9426666275018094,85.19540955697497
exact,pre_advance,A,ar,bridge,2017:Q4,-0.07829265703308104,85.11711689994189
exact,pre_advance,A,ar,bridge,2018:Q1,-0.9523268943134301,84.16479000562846
exact,pre_advance,A,ar,bridge,2018:Q2,2.4915025626248566,86.65629256825332
exact,pre_advance,A,ar,bridge,2018:Q3,-1.568361775375707,85.08793079287761
exact,pre_advance,A,ar,bridge,2018:Q4,-0.0040309430664875485,85.08389984981113
exact,pre_advance,A,ar,bridge,2019:Q1,-0.0071491790359909935,85.07675067077514
exact,pre_advance,A,ar,bridge,2019:Q2,-1.6906554898775719,83.38609518089757
exact,pre_advance,A,ar,bridge,2019:Q3,-0.1131156732288768,83.2729795076687
exact,pre_advance,A,ar,bridge,2019:Q4,0.03438884752152483,83.30736835519022
exact,pre_advance,A,ar,bridge,2020:Q1,9.042716128654085,92.35008448384431
exact,pre_advance,A,ar,bridge,2020:Q2,639.4777414459322,731.8278259297765
exact,pre_advance,A,ar,bridge,2020:Q3,6791.553044233002,7523.380870162779
exact,pre_advance,A,ar,bridge,2020:Q4,272.50337221584243,7795.884242378621
exact,pre_advance,A,ar,bridge,2021:Q1,21.494071314340353,7817.3783136929615
exact,pre_advance,A,ar,bridge,2021:Q2,27.5792993992373,7844.957613092199
exact,pre_advance,A,ar,bridge,2021:Q3,510.0089634363766,8354.966576528575
exact,pre_advance,A,ar,bridge,2021:Q4,34.8225018300268,8389.789078358603
exact,pre_advance,A,ar,bridge,2022:Q1,-44.45352691260094,8345.335551446002
exact,pre_advance,A,ar,bridge,2022:Q2,-24.501236105584766,8320.834315340417
exact,pre_advance,A,ar,bridge,2022:Q3,-1.867510771725395,8318.96680456869
exact,pre_advance,A,ar,bridge,2022:Q4,-25.879863085782244,8293.086941482909
exact,pre_advance,A,ar,bridge,2023:Q1,2.583870154658698,8295.670811637567
exact,pre_advance,A,ar,bridge,2023:Q2,-0.08374479226699573,8295.587066845299
exact,pre_advance,A,ar,bridge,2023:Q3,2.460609032026637,8298.047675877326
exact,pre_advance,A,ar,bridge,2023:Q4,-5.954947682716941,8292.092728194608
exact,pre_advance,A,ar,bridge,2024:Q1,-1.6417210783616851,8290.451007116246
exact,pre_advance,A,ar,bridge,2024:Q2,-0.2242714593466668,8290.2267356569
exact,pre_advance,A,ar,bridge,2024:Q3,0.02773765090626812,8290.254473307805
exact,pre_advance,A,ar,bridge,2024:Q4,0.2298013620855716,8290.48427466989
exact,pre_advance,A,ar,indicator_revision_only_dfm_kalman_em,2005:Q1,-3.540336952728887,-3.540336952728887
exact,pre_advance,A,ar,indicator_revision_only_dfm_kalman_em,2005:Q2,-0.46658760749875755,-4.006924560227644
exact,pre_advance,A,ar,indicator_revision_only_dfm_kalman_em,2005:Q3,-0.17199054704733555,-4.17891510727498
exact,pre_advance,A,ar,indicator_revision_only_dfm_kalman_em,2005:Q4,-5.79318307565076,-9.972098182925741
exact,pre_advance,A,ar,indicator_revision_only_dfm_kalman_em,2006:Q1,4.004580108604049,-5.967518074321692
exact,pre_advance,A,ar,indicator_revision_only_dfm_kalman_em,2006:Q2,-0.0731671768922657,-6.040685251213958
exact,pre_advance,A,ar,indicator_revision_only_dfm_kalman_em,2006:Q3,1.3786898231599882,-4.66199542805397
exact,pre_advance,A,ar,indicator_revision_only_dfm_kalman_em,2006:Q4,-7.601175745963773,-12.263171174017742
exact,pre_advance,A,ar,indicator_revision_only_dfm_kalman_em,2007:Q1,0.5970459995920359,-11.666125174425707
exact,pre_advance,A,ar,indicator_revision_only_dfm_kalman_em,2007:Q2,-0.15977117912960273,-11.82589635355531
exact,pre_advance,A,ar,indicator_revision_only_dfm_kalman_em,2007:Q3,-9.265496239576262,-21.091392593131573
exact,pre_advance,A,ar,indicator_revision_only_dfm_kalman_em,2007:Q4,7.336749162863477,-13.754643430268096
exact,pre_advance,A,ar,indicator_revision_only_dfm_kalman_em,2008:Q1,4.5201170366734456,-9.23452639359465
exact,pre_advance,A,ar,indicator_revision_only_dfm_kalman_em,2008:Q2,-0.8032005836574607,-10.037726977252111
exact,pre_advance,A,ar,indicator_revision_only_dfm_kalman_em,2008:Q3,9.269763047348357,-0.767963929903754
exact,pre_advance,A,ar,indicator_revision_only_dfm_kalman_em,2008:Q4,26.42624461959671,25.658280689692955
exact,pre_advance,A,ar,indicator_revision_only_dfm_kalman_em,2009:Q1,40.69163136271323,66.34991205240618
exact,pre_advance,A,ar,indicator_revision_only_dfm_kalman_em,2009:Q2,2.1078038766401717,68.45771592904636
exact,pre_advance,A,ar,indicator_revision_only_dfm_kalman_em,2009:Q3,7.525895586661635,75.98361151570799
exact,pre_advance,A,ar,indicator_revision_only_dfm_kalman_em,2009:Q4,0.42521165322476495,76.40882316893276
exact,pre_advance,A,ar,indicator_revision_only_dfm_kalman_em,2010:Q1,-5.670652955527025,70.73817021340574
exact,pre_advance,A,ar,indicator_revision_only_dfm_kalman_em,2010:Q2,-7.851365561489286,62.88680465191645
exact,pre_advance,A,ar,indicator_revision_only_dfm_kalman_em,2010:Q3,-1.7823716474827747,61.10443300443367
exact,pre_advance,A,ar,indicator_revision_only_dfm_kalman_em,2010:Q4,0.9679492129875484,62.07238221742122
exact,pre_advance,A,ar,indicator_revision_only_dfm_kalman_em,2011:Q1,-11.72376991192389,50.34861230549733
exact,pre_advance,A,ar,indicator_revision_only_dfm_kalman_em,2011:Q2,-4.025476778819159,46.32313552667817
exact,pre_advance,A,ar,indicator_revision_only_dfm_kalman_em,2011:Q3,0.09686760570263198,46.420003132380806
exact,pre_advance,A,ar,indicator_revision_only_dfm_kalman_em,2011:Q4,-0.8906329312750343,45.52937020110577
exact,pre_advance,A,ar,indicator_revision_only_dfm_kalman_em,2012:Q1,-3.1576868322492135,42.37168336885656
exact,pre_advance,A,ar,indicator_revision_only_dfm_kalman_em,2012:Q2,-1.8458876892882146,40.52579567956835
exact,pre_advance,A,ar,indicator_revision_only_dfm_kalman_em,2012:Q3,0.015492876223312205,40.54128855579166
exact,pre_advance,A,ar,indicator_revision_only_dfm_kalman_em,2012:Q4,-6.766707183894934,33.77458137189672
exact,pre_advance,A,ar,indicator_revision_only_dfm_kalman_em,2013:Q1,1.8038462557382529,35.57842762763497
exact,pre_advance,A,ar,indicator_revision_only_dfm_kalman_em,2013:Q2,0.04945911003975528,35.62788673767473
exact,pre_advance,A,ar,indicator_revision_only_dfm_kalman_em,2013:Q3,0.6173355255945928,36.24522226326932
exact,pre_advance,A,ar,indicator_revision_only_dfm_kalman_em,2013:Q4,0.2911606034476123,36.536382866716934
exact,pre_advance,A,ar,indicator_revision_only_dfm_kalman_em,2014:Q1,2.692387678760986,39.22877054547792
exact,pre_advance,A,ar,indicator_revision_only_dfm_kalman_em,2014:Q2,7.087737279688783,46.3165078251667
exact,pre_advance,A,ar,indicator_revision_only_dfm_kalman_em,2014:Q3,0.061462582925701476,46.3779704080924
exact,pre_advance,A,ar,indicator_revision_only_dfm_kalman_em,2014:Q4,0.027737163459272546,46.40570757155167
exact,pre_advance,A,ar,indicator_revision_only_dfm_kalman_em,2015:Q1,4.521440908507525,50.9271484800592
exact,pre_advance,A,ar,indicator_revision_only_dfm_kalman_em,2015:Q2,0.7223606022465593,51.64950908230576
exact,pre_advance,A,ar,indicator_revision_only_dfm_kalman_em,2015:Q3,0.09536436471631626,51.74487344702208
exact,pre_advance,A,ar,indicator_revision_only_dfm_kalman_em,2015:Q4,0.4610842107877964,52.205957657809876
exact,pre_advance,A,ar,indicator_revision_only_dfm_kalman_em,2016:Q1,-0.16030398772440546,52.04565367008547
exact,pre_advance,A,ar,indicator_revision_only_dfm_kalman_em,2016:Q2,-0.1202470050627129,51.925406665022756
exact,pre_advance,A,ar,indicator_revision_only_dfm_kalman_em,2016:Q3,1.1592302320476575,53.08463689707041
exact,pre_advance,A,ar,indicator_revision_only_dfm_kalman_em,2016:Q4,-0.22585554325987475,52.858781353810535
exact,pre_advance,A,ar,indicator_revision_only_dfm_kalman_em,2017:Q1,-2.208697629941275,50.65008372386926
exact,pre_advance,A,ar,indicator_revision_only_dfm_kalman_em,2017:Q2,1.7292127472384626,52.37929647110772
exact,pre_advance,A,ar,indicator_revision_only_dfm_kalman_em,2017:Q3,-1.0994281271464847,51.27986834396124
exact,pre_advance,A,ar,indicator_revision_only_dfm_kalman_em,2017:Q4,-0.37474687298008263,50.90512147098116
exact,pre_advance,A,ar,indicator_revision_only_dfm_kalman_em,2018:Q1,-0.29586414166001285,50.609257329321146
exact,pre_advance,A,ar,indicator_revision_only_dfm_kalman_em,2018:Q2,1.1250790364678203,51.73433636578896
exact,pre_advance,A,ar,indicator_revision_only_dfm_kalman_em,2018:Q3,-1.1765208951096964,50.557815470679266
exact,pre_advance,A,ar,indicator_revision_only_dfm_kalman_em,2018:Q4,-0.2410495023153485,50.31676596836392
exact,pre_advance,A,ar,indicator_revision_only_dfm_kalman_em,2019:Q1,-1.5500238919394662,48.76674207642445
exact,pre_advance,A,ar,indicator_revision_only_dfm_kalman_em,2019:Q2,0.167567169695742,48.93430924612019
exact,pre_advance,A,ar,indicator_revision_only_dfm_kalman_em,2019:Q3,-0.021045674531585956,48.91326357158861
exact,pre_advance,A,ar,indicator_revision_only_dfm_kalman_em,2019:Q4,-0.3528247367535868,48.56043883483502
exact,pre_advance,A,ar,indicator_revision_only_dfm_kalman_em,2020:Q1,24.15473602524018,72.7151748600752
exact,pre_advance,A,ar,indicator_revision_only_dfm_kalman_em,2020:Q2,161.65636930920925,234.37154416928445
exact,pre_advance,A,ar,indicator_revision_only_dfm_kalman_em,2020:Q3,6333.590210018042,6567.961754187327
exact,pre_advance,A,ar,indicator_revision_only_dfm_kalman_em,2020:Q4,353.14849734716864,6921.110251534496
exact,pre_advance,A,ar,indicator_revision_only_dfm_kalman_em,2021:Q1,5.668080126092363,6926.778331660588
exact,pre_advance,A,ar,indicator_revision_only_dfm_kalman_em,2021:Q2,9.889025296558586,6936.667356957147
exact,pre_advance,A,ar,indicator_revision_only_dfm_kalman_em,2021:Q3,508.99379420774716,7445.661151164893
exact,pre_advance,A,ar,indicator_revision_only_dfm_kalman_em,2021:Q4,43.41506469048178,7489.076215855375
exact,pre_advance,A,ar,indicator_revision_only_dfm_kalman_em,2022:Q1,-9.280402094227886,7479.795813761148
exact,pre_advance,A,ar,indicator_revision_only_dfm_kalman_em,2022:Q2,-7.526346401744274,7472.269467359403
exact,pre_advance,A,ar,indicator_revision_only_dfm_kalman_em,2022:Q3,-4.169741275436365,7468.099726083967
exact,pre_advance,A,ar,indicator_revision_only_dfm_kalman_em,2022:Q4,-10.465065248227702,7457.634660835739
exact,pre_advance,A,ar,indicator_revision_only_dfm_kalman_em,2023:Q1,2.4459357837894147,7460.0805966195285
exact,pre_advance,A,ar,indicator_revision_only_dfm_kalman_em,2023:Q2,-1.9322686370116156,7458.148327982517
exact,pre_advance,A,ar,indicator_revision_only_dfm_kalman_em,2023:Q3,-6.046184961470615,7452.102143021047
exact,pre_advance,A,ar,indicator_revision_only_dfm_kalman_em,2023:Q4,1.6765943432104145,7453.778737364257
exact,pre_advance,A,ar,indicator_revision_only_dfm_kalman_em,2024:Q1,0.15392417469498942,7453.932661538952
exact,pre_advance,A,ar,indicator_revision_only_dfm_kalman_em,2024:Q2,-0.3875244524446384,7453.545137086508
exact,pre_advance,A,ar,indicator_revision_only_dfm_kalman_em,2024:Q3,-0.051351667739305995,7453.493785418768
exact,pre_advance,A,ar,indicator_revision_only_dfm_kalman_em,2024:Q4,0.05754473914248415,7453.55133015791
exact,pre_advance,A,ar,joint_indicator_revision_dfm_full_kalman_em,2005:Q1,-2.643020907906076,-2.643020907906076
exact,pre_advance,A,ar,joint_indicator_revision_dfm_full_kalman_em,2005:Q2,-0.15395355483170514,-2.796974462737781
exact,pre_advance,A,ar,joint_indicator_revision_dfm_full_kalman_em,2005:Q3,0.13410690815709678,-2.6628675545806844
exact,pre_advance,A,ar,joint_indicator_revision_dfm_full_kalman_em,2005:Q4,-3.6648094974001415,-6.327677051980826
exact,pre_advance,A,ar,joint_indicator_revision_dfm_full_kalman_em,2006:Q1,3.728815308087003,-2.5988617438938233
exact,pre_advance,A,ar,joint_indicator_revision_dfm_full_kalman_em,2006:Q2,0.4118028981837467,-2.1870588457100766
exact,pre_advance,A,ar,joint_indicator_revision_dfm_full_kalman_em,2006:Q3,1.9382033304983546,-0.248855515211722
exact,pre_advance,A,ar,joint_indicator_revision_dfm_full_kalman_em,2006:Q4,-5.402326206437488,-5.65118172164921
exact,pre_advance,A,ar,joint_indicator_revision_dfm_full_kalman_em,2007:Q1,2.35202691204588,-3.29915480960333
exact,pre_advance,A,ar,joint_indicator_revision_dfm_full_kalman_em,2007:Q2,-0.3821486072643072,-3.681303416867637
exact,pre_advance,A,ar,joint_indicator_revision_dfm_full_kalman_em,2007:Q3,-6.001571140834229,-9.682874557701865
exact,pre_advance,A,ar,joint_indicator_revision_dfm_full_kalman_em,2007:Q4,6.952886861572404,-2.729987696129461
exact,pre_advance,A,ar,joint_indicator_revision_dfm_full_kalman_em,2008:Q1,4.556340297542951,1.8263526014134897
exact,pre_advance,A,ar,joint_indicator_revision_dfm_full_kalman_em,2008:Q2,-0.6985784422400954,1.1277741591733943
exact,pre_advance,A,ar,joint_indicator_revision_dfm_full_kalman_em,2008:Q3,9.305617475242396,10.433391634415791
exact,pre_advance,A,ar,joint_indicator_revision_dfm_full_kalman_em,2008:Q4,29.6693464610763,40.10273809549209
exact,pre_advance,A,ar,joint_indicator_revision_dfm_full_kalman_em,2009:Q1,40.82840147815635,80.93113957364844
exact,pre_advance,A,ar,joint_indicator_revision_dfm_full_kalman_em,2009:Q2,2.1344846521317367,83.06562422578017
exact,pre_advance,A,ar,joint_indicator_revision_dfm_full_kalman_em,2009:Q3,9.289280185230409,92.35490441101058
exact,pre_advance,A,ar,joint_indicator_revision_dfm_full_kalman_em,2009:Q4,-1.4185061484044965,90.93639826260608
exact,pre_advance,A,ar,joint_indicator_revision_dfm_full_kalman_em,2010:Q1,-1.1842727164012028,89.75212554620488
exact,pre_advance,A,ar,joint_indicator_revision_dfm_full_kalman_em,2010:Q2,-5.589241368936627,84.16288417726825
exact,pre_advance,A,ar,joint_indicator_revision_dfm_full_kalman_em,2010:Q3,-0.5142722232367916,83.64861195403147
exact,pre_advance,A,ar,joint_indicator_revision_dfm_full_kalman_em,2010:Q4,0.9690874896223728,84.61769944365383
exact,pre_advance,A,ar,joint_indicator_revision_dfm_full_kalman_em,2011:Q1,-4.65742429353694,79.9602751501169
exact,pre_advance,A,ar,joint_indicator_revision_dfm_full_kalman_em,2011:Q2,-7.334461488047904,72.62581366206899
exact,pre_advance,A,ar,joint_indicator_revision_dfm_full_kalman_em,2011:Q3,0.37690425628216084,73.00271791835115
exact,pre_advance,A,ar,joint_indicator_revision_dfm_full_kalman_em,2011:Q4,0.06263490814739471,73.06535282649855
exact,pre_advance,A,ar,joint_indicator_revision_dfm_full_kalman_em,2012:Q1,-3.1009905363417185,69.96436229015684
exact,pre_advance,A,ar,joint_indicator_revision_dfm_full_kalman_em,2012:Q2,-0.8737095374002035,69.09065275275664
exact,pre_advance,A,ar,joint_indicator_revision_dfm_full_kalman_em,2012:Q3,0.01630321374267092,69.10695596649931
exact,pre_advance,A,ar,joint_indicator_revision_dfm_full_kalman_em,2012:Q4,-8.256630455441165,60.850325511058145
exact,pre_advance,A,ar,joint_indicator_revision_dfm_full_kalman_em,2013:Q1,1.4385869454882785,62.28891245654642
exact,pre_advance,A,ar,joint_indicator_revision_dfm_full_kalman_em,2013:Q2,0.35458111257446967,62.64349356912089
exact,pre_advance,A,ar,joint_indicator_revision_dfm_full_kalman_em,2013:Q3,0.672006197706663,63.31549976682756
exact,pre_advance,A,ar,joint_indicator_revision_dfm_full_kalman_em,2013:Q4,0.3903162992501115,63.70581606607767
exact,pre_advance,A,ar,joint_indicator_revision_dfm_full_kalman_em,2014:Q1,3.927728618221709,67.63354468429938
exact,pre_advance,A,ar,joint_indicator_revision_dfm_full_kalman_em,2014:Q2,3.681990379164448,71.31553506346383
exact,pre_advance,A,ar,joint_indicator_revision_dfm_full_kalman_em,2014:Q3,0.06299840032222251,71.37853346378606
exact,pre_advance,A,ar,joint_indicator_revision_dfm_full_kalman_em,2014:Q4,0.08394421004277013,71.46247767382883
exact,pre_advance,A,ar,joint_indicator_revision_dfm_full_kalman_em,2015:Q1,4.490559807017754,75.95303748084659
exact,pre_advance,A,ar,joint_indicator_revision_dfm_full_kalman_em,2015:Q2,-0.6475818487154577,75.30545563213113
exact,pre_advance,A,ar,joint_indicator_revision_dfm_full_kalman_em,2015:Q3,-0.5908460725243001,74.71460955960683
exact,pre_advance,A,ar,joint_indicator_revision_dfm_full_kalman_em,2015:Q4,0.01681153025996429,74.73142108986679
exact,pre_advance,A,ar,joint_indicator_revision_dfm_full_kalman_em,2016:Q1,-0.12131735178319314,74.6101037380836
exact,pre_advance,A,ar,joint_indicator_revision_dfm_full_kalman_em,2016:Q2,-0.14197159919717547,74.46813213888642
exact,pre_advance,A,ar,joint_indicator_revision_dfm_full_kalman_em,2016:Q3,0.983475256503951,75.45160739539037
exact,pre_advance,A,ar,joint_indicator_revision_dfm_full_kalman_em,2016:Q4,0.013308771778321932,75.4649161671687
exact,pre_advance,A,ar,joint_indicator_revision_dfm_full_kalman_em,2017:Q1,-1.9743522705559033,73.4905638966128
exact,pre_advance,A,ar,joint_indicator_revision_dfm_full_kalman_em,2017:Q2,1.6974426439846515,75.18800654059746
exact,pre_advance,A,ar,joint_indicator_revision_dfm_full_kalman_em,2017:Q3,-0.1451906097551977,75.04281593084225
exact,pre_advance,A,ar,joint_indicator_revision_dfm_full_kalman_em,2017:Q4,0.02947223357786148,75.07228816442012
exact,pre_advance,A,ar,joint_indicator_revision_dfm_full_kalman_em,2018:Q1,-0.46357580575949764,74.60871235866061
exact,pre_advance,A,ar,joint_indicator_revision_dfm_full_kalman_em,2018:Q2,0.6974235438003404,75.30613590246095
exact,pre_advance,A,ar,joint_indicator_revision_dfm_full_kalman_em,2018:Q3,-1.1020249681304743,74.20411093433047
exact,pre_advance,A,ar,joint_indicator_revision_dfm_full_kalman_em,2018:Q4,-0.6712791850192523,73.53283174931121
exact,pre_advance,A,ar,joint_indicator_revision_dfm_full_kalman_em,2019:Q1,-2.7803967083698127,70.7524350409414
exact,pre_advance,A,ar,joint_indicator_revision_dfm_full_kalman_em,2019:Q2,-0.4139308546639425,70.33850418627746
exact,pre_advance,A,ar,joint_indicator_revision_dfm_full_kalman_em,2019:Q3,-0.15340139077231868,70.18510279550514
exact,pre_advance,A,ar,joint_indicator_revision_dfm_full_kalman_em,2019:Q4,-0.28270481637805533,69.90239797912709
exact,pre_advance,A,ar,joint_indicator_revision_dfm_full_kalman_em,2020:Q1,19.416958761598234,89.31935674072533
exact,pre_advance,A,ar,joint_indicator_revision_dfm_full_kalman_em,2020:Q2,194.6650386877253,283.9843954284506
exact,pre_advance,A,ar,joint_indicator_revision_dfm_full_kalman_em,2020:Q3,5700.50814522683,5984.49254065528
exact,pre_advance,A,ar,joint_indicator_revision_dfm_full_kalman_em,2020:Q4,354.49482419552464,6338.987364850805
exact,pre_advance,A,ar,joint_indicator_revision_dfm_full_kalman_em,2021:Q1,4.54751840532343,6343.534883256128
exact,pre_advance,A,ar,joint_indicator_revision_dfm_full_kalman_em,2021:Q2,10.07079349249421,6353.605676748622
exact,pre_advance,A,ar,joint_indicator_revision_dfm_full_kalman_em,2021:Q3,506.9192557672581,6860.524932515879
exact,pre_advance,A,ar,joint_indicator_revision_dfm_full_kalman_em,2021:Q4,33.379238840922,6893.904171356801
exact,pre_advance,A,ar,joint_indicator_revision_dfm_full_kalman_em,2022:Q1,-18.629874083500304,6875.274297273301
exact,pre_advance,A,ar,joint_indicator_revision_dfm_full_kalman_em,2022:Q2,-8.036887458629803,6867.237409814671
exact,pre_advance,A,ar,joint_indicator_revision_dfm_full_kalman_em,2022:Q3,-2.8534173392826774,6864.383992475388
exact,pre_advance,A,ar,joint_indicator_revision_dfm_full_kalman_em,2022:Q4,-13.617502309056459,6850.766490166332
exact,pre_advance,A,ar,joint_indicator_revision_dfm_full_kalman_em,2023:Q1,2.7164009887005043,6853.482891155032
exact,pre_advance,A,ar,joint_indicator_revision_dfm_full_kalman_em,2023:Q2,-2.2367505476944753,6851.246140607338
exact,pre_advance,A,ar,joint_indicator_revision_dfm_full_kalman_em,2023:Q3,-8.82736522505737,6842.418775382281
exact,pre_advance,A,ar,joint_indicator_revision_dfm_full_kalman_em,2023:Q4,1.3761505712664208,6843.794925953547
exact,pre_advance,A,ar,joint_indicator_revision_dfm_full_kalman_em,2024:Q1,0.17033369827913825,6843.965259651826
exact,pre_advance,A,ar,joint_indicator_revision_dfm_full_kalman_em,2024:Q2,-0.9404669239835901,6843.024792727842
exact,pre_advance,A,ar,joint_indicator_revision_dfm_full_kalman_em,2024:Q3,-0.2152826319814951,6842.809510095861
exact,pre_advance,A,ar,joint_indicator_revision_dfm_full_kalman_em,2024:Q4,0.15532725802616837,6842.964837353887
exact,pre_advance,A,ar,midas_umidas,2005:Q1,-0.5893963389208092,-0.5893963389208092
exact,pre_advance,A,ar,midas_umidas,2005:Q2,-6.412330323821182,-7.001726662741992
exact,pre_advance,A,ar,midas_umidas,2005:Q3,-13.87622675422546,-20.87795341696745
exact,pre_advance,A,ar,midas_umidas,2005:Q4,-15.347375864833648,-36.225329281801095
exact,pre_advance,A,ar,midas_umidas,2006:Q1,-3.7085576350396936,-39.93388691684079
exact,pre_advance,A,ar,midas_umidas,2006:Q2,-0.3248816218956263,-40.25876853873642
exact,pre_advance,A,ar,midas_umidas,2006:Q3,-4.990734946508166,-45.24950348524459
exact,pre_advance,A,ar,midas_umidas,2006:Q4,-10.495913388665404,-55.74541687390999
exact,pre_advance,A,ar,midas_umidas,2007:Q1,0.5716517703957007,-55.173765103514285
exact,pre_advance,A,ar,midas_umidas,2007:Q2,-3.9347920723354046,-59.10855717584969
exact,pre_advance,A,ar,midas_umidas,2007:Q3,-31.782697905010128,-90.89125508085982
exact,pre_advance,A,ar,midas_umidas,2007:Q4,6.564841396930988,-84.32641368392883
exact,pre_advance,A,ar,midas_umidas,2008:Q1,1.877274023790659,-82.44913966013817
exact,pre_advance,A,ar,midas_umidas,2008:Q2,-10.746503567307867,-93.19564322744604
exact,pre_advance,A,ar,midas_umidas,2008:Q3,-0.714148606334799,-93.90979183378084
exact,pre_advance,A,ar,midas_umidas,2008:Q4,9.048206573130333,-84.86158526065051
exact,pre_advance,A,ar,midas_umidas,2009:Q1,-2.0672011988699666,-86.92878645952048
exact,pre_advance,A,ar,midas_umidas,2009:Q2,-25.9010973083061,-112.82988376782657
exact,pre_advance,A,ar,midas_umidas,2009:Q3,0.4254606206392797,-112.40442314718729
exact,pre_advance,A,ar,midas_umidas,2009:Q4,-7.6506998310682945,-120.05512297825558
exact,pre_advance,A,ar,midas_umidas,2010:Q1,0.675789826773873,-119.3793331514817
exact,pre_advance,A,ar,midas_umidas,2010:Q2,-1.1520049256354388,-120.53133807711714
exact,pre_advance,A,ar,midas_umidas,2010:Q3,-0.03795456973836589,-120.5692926468555
exact,pre_advance,A,ar,midas_umidas,2010:Q4,-1.2825117723115702,-121.85180441916707
exact,pre_advance,A,ar,midas_umidas,2011:Q1,-11.630731639126815,-133.48253605829387
exact,pre_advance,A,ar,midas_umidas,2011:Q2,-4.214336813719575,-137.69687287201344
exact,pre_advance,A,ar,midas_umidas,2011:Q3,-5.941295270237276,-143.63816814225072
exact,pre_advance,A,ar,midas_umidas,2011:Q4,-1.9668329369033393,-145.60500107915405
exact,pre_advance,A,ar,midas_umidas,2012:Q1,-4.326671350552629,-149.93167242970668
exact,pre_advance,A,ar,midas_umidas,2012:Q2,-1.2514216491925871,-151.18309407889927
exact,pre_advance,A,ar,midas_umidas,2012:Q3,-24.4974556516939,-175.68054973059319
exact,pre_advance,A,ar,midas_umidas,2012:Q4,-13.1231661113525,-188.8037158419457
exact,pre_advance,A,ar,midas_umidas,2013:Q1,-18.247258347950236,-207.05097418989592
exact,pre_advance,A,ar,midas_umidas,2013:Q2,-31.82219264277223,-238.87316683266815
exact,pre_advance,A,ar,midas_umidas,2013:Q3,-9.732559841575195,-248.60572667424333
exact,pre_advance,A,ar,midas_umidas,2013:Q4,-3.7212832289276454,-252.32700990317096
exact,pre_advance,A,ar,midas_umidas,2014:Q1,5.847075676919869,-246.4799342262511
exact,pre_advance,A,ar,midas_umidas,2014:Q2,6.883867196339535,-239.59606702991155
exact,pre_advance,A,ar,midas_umidas,2014:Q3,-11.927750860099609,-251.52381789001117
exact,pre_advance,A,ar,midas_umidas,2014:Q4,-5.12338355254632,-256.6472014425575
exact,pre_advance,A,ar,midas_umidas,2015:Q1,2.8969350056084764,-253.75026643694903
exact,pre_advance,A,ar,midas_umidas,2015:Q2,-0.7062035225975618,-254.45646995954658
exact,pre_advance,A,ar,midas_umidas,2015:Q3,-1.2162864636013078,-255.6727564231479
exact,pre_advance,A,ar,midas_umidas,2015:Q4,-1.8871765584081164,-257.559932981556
exact,pre_advance,A,ar,midas_umidas,2016:Q1,0.571683099834092,-256.9882498817219
exact,pre_advance,A,ar,midas_umidas,2016:Q2,-3.4503514902681442,-260.43860137199005
exact,pre_advance,A,ar,midas_umidas,2016:Q3,0.23521922847518928,-260.20338214351483
exact,pre_advance,A,ar,midas_umidas,2016:Q4,0.24080462474872444,-259.9625775187661
exact,pre_advance,A,ar,midas_umidas,2017:Q1,-30.73713338724605,-290.69971090601217
exact,pre_advance,A,ar,midas_umidas,2017:Q2,0.9567318740176657,-289.7429790319945
exact,pre_advance,A,ar,midas_umidas,2017:Q3,-3.101595159434928,-292.8445741914294
exact,pre_advance,A,ar,midas_umidas,2017:Q4,-0.5438739157544136,-293.3884481071838
exact,pre_advance,A,ar,midas_umidas,2018:Q1,0.0387837659205653,-293.34966434126324
exact,pre_advance,A,ar,midas_umidas,2018:Q2,3.4328579384452085,-289.91680640281805
exact,pre_advance,A,ar,midas_umidas,2018:Q3,-1.0478940438741873,-290.96470044669223
exact,pre_advance,A,ar,midas_umidas,2018:Q4,-1.1481087904687617,-292.112809237161
exact,pre_advance,A,ar,midas_umidas,2019:Q1,-10.802799930850298,-302.9156091680113
exact,pre_advance,A,ar,midas_umidas,2019:Q2,0.2347447518882415,-302.6808644161231
exact,pre_advance,A,ar,midas_umidas,2019:Q3,-1.2171906204116365,-303.89805503653474
exact,pre_advance,A,ar,midas_umidas,2019:Q4,-1.0268228107798092,-304.9248778473146
exact,pre_advance,A,ar,midas_umidas,2020:Q1,-4.422223994079765,-309.34710184139436
exact,pre_advance,A,ar,midas_umidas,2020:Q2,-248.1650341671998,-557.5121360085941
exact,pre_advance,A,ar,midas_umidas,2020:Q3,6663.738961185376,6106.226825176782
exact,pre_advance,A,ar,midas_umidas,2020:Q4,397.75359898889894,6503.980424165681
exact,pre_advance,A,ar,midas_umidas,2021:Q1,-58.9368315912342,6445.043592574447
exact,pre_advance,A,ar,midas_umidas,2021:Q2,25.186634884727745,6470.230227459175
exact,pre_advance,A,ar,midas_umidas,2021:Q3,509.6407749087764,6979.871002367951
exact,pre_advance,A,ar,midas_umidas,2021:Q4,47.49623464432535,7027.367237012277
exact,pre_advance,A,ar,midas_umidas,2022:Q1,-1.7368135890236531,7025.630423423253
exact,pre_advance,A,ar,midas_umidas,2022:Q2,-174.0383605057612,6851.592062917492
exact,pre_advance,A,ar,midas_umidas,2022:Q3,-35.896546301105744,6815.695516616386
exact,pre_advance,A,ar,midas_umidas,2022:Q4,-6.841366885395033,6808.854149730991
exact,pre_advance,A,ar,midas_umidas,2023:Q1,-41.485106902395934,6767.3690428285945
exact,pre_advance,A,ar,midas_umidas,2023:Q2,-0.40137614066855215,6766.967666687926
exact,pre_advance,A,ar,midas_umidas,2023:Q3,7.1417805202058116,6774.109447208131
exact,pre_advance,A,ar,midas_umidas,2023:Q4,5.3703401312463095,6779.479787339377
exact,pre_advance,A,ar,midas_umidas,2024:Q1,-5.474509064891416,6774.005278274486
exact,pre_advance,A,ar,midas_umidas,2024:Q2,0.347468893358192,6774.352747167844
exact,pre_advance,A,ar,midas_umidas,2024:Q3,1.4236640789366064,6775.776411246781
exact,pre_advance,A,ar,midas_umidas,2024:Q4,-1.986401810094372,6773.790009436687
exact,pre_advance,A,ar,monthly_mixed_frequency_kalman_em,2005:Q1,-0.22629883215910598,-0.22629883215910598
exact,pre_advance,A,ar,monthly_mixed_frequency_kalman_em,2005:Q2,-0.016669283977551186,-0.24296811613665717
exact,pre_advance,A,ar,monthly_mixed_frequency_kalman_em,2005:Q3,-3.87330625785884,-4.1162743739954974
exact,pre_advance,A,ar,monthly_mixed_frequency_kalman_em,2005:Q4,-2.37998325886217,-6.4962576328576676
exact,pre_advance,A,ar,monthly_mixed_frequency_kalman_em,2006:Q1,3.9311460313961986,-2.565111601461469
exact,pre_advance,A,ar,monthly_mixed_frequency_kalman_em,2006:Q2,-1.8480360627861583,-4.413147664247627
exact,pre_advance,A,ar,monthly_mixed_frequency_kalman_em,2006:Q3,0.2827333530655096,-4.130414311182117
exact,pre_advance,A,ar,monthly_mixed_frequency_kalman_em,2006:Q4,-0.3282459481249126,-4.45866025930703
exact,pre_advance,A,ar,monthly_mixed_frequency_kalman_em,2007:Q1,0.6153223194310047,-3.8433379398760255
exact,pre_advance,A,ar,monthly_mixed_frequency_kalman_em,2007:Q2,0.21418310820958203,-3.6291548316664435
exact,pre_advance,A,ar,monthly_mixed_frequency_kalman_em,2007:Q3,0.42341534214325666,-3.2057394895231868
exact,pre_advance,A,ar,monthly_mixed_frequency_kalman_em,2007:Q4,5.747581775516393,2.541842285993206
exact,pre_advance,A,ar,monthly_mixed_frequency_kalman_em,2008:Q1,1.6678966874621373,4.209738973455343
exact,pre_advance,A,ar,monthly_mixed_frequency_kalman_em,2008:Q2,-0.12764227108441373,4.082096702370929
exact,pre_advance,A,ar,monthly_mixed_frequency_kalman_em,2008:Q3,9.34345537289987,13.425552075270799
exact,pre_advance,A,ar,monthly_mixed_frequency_kalman_em,2008:Q4,34.097886918415995,47.523438993686796
exact,pre_advance,A,ar,monthly_mixed_frequency_kalman_em,2009:Q1,34.39209353881028,81.91553253249708
exact,pre_advance,A,ar,monthly_mixed_frequency_kalman_em,2009:Q2,0.12110410734430888,82.03663663984139
exact,pre_advance,A,ar,monthly_mixed_frequency_kalman_em,2009:Q3,6.976718724638075,89.01335536447947
exact,pre_advance,A,ar,monthly_mixed_frequency_kalman_em,2009:Q4,-0.9532128021210244,88.06014256235844
exact,pre_advance,A,ar,monthly_mixed_frequency_kalman_em,2010:Q1,-0.08366392214343477,87.976478640215
exact,pre_advance,A,ar,monthly_mixed_frequency_kalman_em,2010:Q2,-0.16579496706217411,87.81068367315284
exact,pre_advance,A,ar,monthly_mixed_frequency_kalman_em,2010:Q3,-1.6289956023749141,86.18168807077792
exact,pre_advance,A,ar,monthly_mixed_frequency_kalman_em,2010:Q4,0.17314992774463633,86.35483799852256
exact,pre_advance,A,ar,monthly_mixed_frequency_kalman_em,2011:Q1,-8.862071229147602,77.49276676937495
exact,pre_advance,A,ar,monthly_mixed_frequency_kalman_em,2011:Q2,-2.696764385430388,74.79600238394457
exact,pre_advance,A,ar,monthly_mixed_frequency_kalman_em,2011:Q3,-0.008509853499268916,74.7874925304453
exact,pre_advance,A,ar,monthly_mixed_frequency_kalman_em,2011:Q4,-0.3927483299483723,74.39474420049693
exact,pre_advance,A,ar,monthly_mixed_frequency_kalman_em,2012:Q1,-2.840781175032467,71.55396302546447
exact,pre_advance,A,ar,monthly_mixed_frequency_kalman_em,2012:Q2,-0.49101065578685216,71.06295236967762
exact,pre_advance,A,ar,monthly_mixed_frequency_kalman_em,2012:Q3,-0.7133972221305784,70.34955514754704
exact,pre_advance,A,ar,monthly_mixed_frequency_kalman_em,2012:Q4,-12.147607543774093,58.20194760377294
exact,pre_advance,A,ar,monthly_mixed_frequency_kalman_em,2013:Q1,2.0651444807599697,60.26709208453291
exact,pre_advance,A,ar,monthly_mixed_frequency_kalman_em,2013:Q2,-0.42038123145946943,59.84671085307344
exact,pre_advance,A,ar,monthly_mixed_frequency_kalman_em,2013:Q3,0.659236884283971,60.50594773735741
exact,pre_advance,A,ar,monthly_mixed_frequency_kalman_em,2013:Q4,-0.23311652355307888,60.27283121380433
exact,pre_advance,A,ar,monthly_mixed_frequency_kalman_em,2014:Q1,-0.10356954192850676,60.16926167187582
exact,pre_advance,A,ar,monthly_mixed_frequency_kalman_em,2014:Q2,0.4708077964447961,60.64006946832062
exact,pre_advance,A,ar,monthly_mixed_frequency_kalman_em,2014:Q3,-1.4538291259246217,59.186240342396
exact,pre_advance,A,ar,monthly_mixed_frequency_kalman_em,2014:Q4,0.0726767162210566,59.25891705861705
exact,pre_advance,A,ar,monthly_mixed_frequency_kalman_em,2015:Q1,2.183512844881543,61.44242990349859
exact,pre_advance,A,ar,monthly_mixed_frequency_kalman_em,2015:Q2,1.2513871437521897,62.69381704725078
exact,pre_advance,A,ar,monthly_mixed_frequency_kalman_em,2015:Q3,-4.87419531233315,57.81962173491763
exact,pre_advance,A,ar,monthly_mixed_frequency_kalman_em,2015:Q4,0.9885527544639616,58.80817448938159
exact,pre_advance,A,ar,monthly_mixed_frequency_kalman_em,2016:Q1,-1.6066259570257078,57.201548532355886
exact,pre_advance,A,ar,monthly_mixed_frequency_kalman_em,2016:Q2,-0.5164868447963616,56.685061687559525
exact,pre_advance,A,ar,monthly_mixed_frequency_kalman_em,2016:Q3,1.5209342858287602,58.20599597338828
exact,pre_advance,A,ar,monthly_mixed_frequency_kalman_em,2016:Q4,-0.004304704822094468,58.20169126856619
exact,pre_advance,A,ar,monthly_mixed_frequency_kalman_em,2017:Q1,-0.42274956767343164,57.77894170089275
exact,pre_advance,A,ar,monthly_mixed_frequency_kalman_em,2017:Q2,1.7410645063894428,59.520006207282194
exact,pre_advance,A,ar,monthly_mixed_frequency_kalman_em,2017:Q3,0.015630131130274005,59.535636338412466
exact,pre_advance,A,ar,monthly_mixed_frequency_kalman_em,2017:Q4,0.005493525325038044,59.5411298637375
exact,pre_advance,A,ar,monthly_mixed_frequency_kalman_em,2018:Q1,-0.5652399692300388,58.97588989450746
exact,pre_advance,A,ar,monthly_mixed_frequency_kalman_em,2018:Q2,0.7242318949366484,59.70012178944411
exact,pre_advance,A,ar,monthly_mixed_frequency_kalman_em,2018:Q3,-0.24114486349263126,59.45897692595148
exact,pre_advance,A,ar,monthly_mixed_frequency_kalman_em,2018:Q4,-0.5612420190513283,58.897734906900155
exact,pre_advance,A,ar,monthly_mixed_frequency_kalman_em,2019:Q1,-0.6236198817638936,58.27411502513626
exact,pre_advance,A,ar,monthly_mixed_frequency_kalman_em,2019:Q2,0.3210001893812744,58.595115214517534
exact,pre_advance,A,ar,monthly_mixed_frequency_kalman_em,2019:Q3,-0.02632340751361663,58.56879180700392
exact,pre_advance,A,ar,monthly_mixed_frequency_kalman_em,2019:Q4,0.07300802263989865,58.641799829643816
exact,pre_advance,A,ar,monthly_mixed_frequency_kalman_em,2020:Q1,12.131371448857934,70.77317127850175
exact,pre_advance,A,ar,monthly_mixed_frequency_kalman_em,2020:Q2,183.74143006293832,254.51460134144008
exact,pre_advance,A,ar,monthly_mixed_frequency_kalman_em,2020:Q3,6851.313407280886,7105.828008622326
exact,pre_advance,A,ar,monthly_mixed_frequency_kalman_em,2020:Q4,405.82558134030825,7511.653589962634
exact,pre_advance,A,ar,monthly_mixed_frequency_kalman_em,2021:Q1,-147.71901866104199,7363.934571301592
exact,pre_advance,A,ar,monthly_mixed_frequency_kalman_em,2021:Q2,31.16933414090117,7395.103905442493
exact,pre_advance,A,ar,monthly_mixed_frequency_kalman_em,2021:Q3,508.3220724915644,7903.425977934057
exact,pre_advance,A,ar,monthly_mixed_frequency_kalman_em,2021:Q4,38.24464144332424,7941.670619377382
exact,pre_advance,A,ar,monthly_mixed_frequency_kalman_em,2022:Q1,-69.60207457297905,7872.068544804402
exact,pre_advance,A,ar,monthly_mixed_frequency_kalman_em,2022:Q2,-25.90197546950779,7846.166569334894
exact,pre_advance,A,ar,monthly_mixed_frequency_kalman_em,2022:Q3,0.5599137209768792,7846.726483055871
exact,pre_advance,A,ar,monthly_mixed_frequency_kalman_em,2022:Q4,-6.515600979706602,7840.210882076164
exact,pre_advance,A,ar,monthly_mixed_frequency_kalman_em,2023:Q1,2.5706917982301847,7842.781573874394
exact,pre_advance,A,ar,monthly_mixed_frequency_kalman_em,2023:Q2,0.04059545440697745,7842.822169328801
exact,pre_advance,A,ar,monthly_mixed_frequency_kalman_em,2023:Q3,3.3203025885069533,7846.142471917307
exact,pre_advance,A,ar,monthly_mixed_frequency_kalman_em,2023:Q4,-7.691585470751974,7838.450886446555
exact,pre_advance,A,ar,monthly_mixed_frequency_kalman_em,2024:Q1,-1.2716797165238938,7837.179206730031
exact,pre_advance,A,ar,monthly_mixed_frequency_kalman_em,2024:Q2,-2.1821905277310476,7834.9970162023
exact,pre_advance,A,ar,monthly_mixed_frequency_kalman_em,2024:Q3,-1.284410834176705,7833.712605368123
exact,pre_advance,A,ar,monthly_mixed_frequency_kalman_em,2024:Q4,-1.2507905659631995,7832.46181480216
exact,pre_advance,A,ar,no_revision,2005:Q1,-0.08874692963975593,-0.08874692963975593
exact,pre_advance,A,ar,no_revision,2005:Q2,-0.040966472364376456,-0.1297134020041324
exact,pre_advance,A,ar,no_revision,2005:Q3,0.031226228518457605,-0.09848717348567479
exact,pre_advance,A,ar,no_revision,2005:Q4,-0.046713440745937085,-0.14520061423161187
exact,pre_advance,A,ar,no_revision,2006:Q1,-0.2896009063455285,-0.4348015205771404
exact,pre_advance,A,ar,no_revision,2006:Q2,0.23821638189440708,-0.1965851386827333
exact,pre_advance,A,ar,no_revision,2006:Q3,-1.5131571518221478,-1.7097422905048811
exact,pre_advance,A,ar,no_revision,2006:Q4,-0.6979405977637259,-2.407682888268607
exact,pre_advance,A,ar,no_revision,2007:Q1,-0.8962491415683229,-3.30393202983693
exact,pre_advance,A,ar,no_revision,2007:Q2,-0.20518839191798185,-3.5091204217549117
exact,pre_advance,A,ar,no_revision,2007:Q3,-0.3938986582853892,-3.903019080040301
exact,pre_advance,A,ar,no_revision,2007:Q4,0.37773340553059676,-3.5252856745097043
exact,pre_advance,A,ar,no_revision,2008:Q1,0.5402723477166482,-2.985013326793056
exact,pre_advance,A,ar,no_revision,2008:Q2,0.05298816563421621,-2.93202516115884
exact,pre_advance,A,ar,no_revision,2008:Q3,1.0682985596124297,-1.8637266015464102
exact,pre_advance,A,ar,no_revision,2008:Q4,4.572887157210417,2.7091605556640066
exact,pre_advance,A,ar,no_revision,2009:Q1,7.618613272670146,10.327773828334152
exact,pre_advance,A,ar,no_revision,2009:Q2,-3.209490660784729,7.118283167549423
exact,pre_advance,A,ar,no_revision,2009:Q3,-14.290257623346172,-7.171974455796748
exact,pre_advance,A,ar,no_revision,2009:Q4,-4.272604095383013,-11.444578551179761
exact,pre_advance,A,ar,no_revision,2010:Q1,-0.1052614888874095,-11.54984004006717
exact,pre_advance,A,ar,no_revision,2010:Q2,0.2966683973652735,-11.253171642701897
exact,pre_advance,A,ar,no_revision,2010:Q3,0.19166514397311674,-11.06150649872878
exact,pre_advance,A,ar,no_revision,2010:Q4,0.24778376624528853,-10.813722732483493
exact,pre_advance,A,ar,no_revision,2011:Q1,-0.024182923181835347,-10.837905655665327
exact,pre_advance,A,ar,no_revision,2011:Q2,0.07185965115155624,-10.766046004513772
exact,pre_advance,A,ar,no_revision,2011:Q3,-0.46264992842471653,-11.22869593293849
exact,pre_advance,A,ar,no_revision,2011:Q4,0.08967468490447972,-11.139021248034009
exact,pre_advance,A,ar,no_revision,2012:Q1,-0.08909915381658545,-11.228120401850594
exact,pre_advance,A,ar,no_revision,2012:Q2,0.11003003360635416,-11.118090368244241
exact,pre_advance,A,ar,no_revision,2012:Q3,-0.022578895811172207,-11.140669264055413
exact,pre_advance,A,ar,no_revision,2012:Q4,-0.5959567229762888,-11.736625987031701
exact,pre_advance,A,ar,no_revision,2013:Q1,0.4923435742322788,-11.244282412799421
exact,pre_advance,A,ar,no_revision,2013:Q2,0.21194886599328144,-11.03233354680614
exact,pre_advance,A,ar,no_revision,2013:Q3,0.5594557200406323,-10.472877826765508
exact,pre_advance,A,ar,no_revision,2013:Q4,-0.49084930381427094,-10.963727130579779
exact,pre_advance,A,ar,no_revision,2014:Q1,-0.8368730641426074,-11.800600194722385
exact,pre_advance,A,ar,no_revision,2014:Q2,-2.6537765116127137,-14.454376706335099
exact,pre_advance,A,ar,no_revision,2014:Q3,0.10898027949958863,-14.34539642683551
exact,pre_advance,A,ar,no_revision,2014:Q4,0.02880849056013346,-14.316587936275377
exact,pre_advance,A,ar,no_revision,2015:Q1,1.0425010995946304,-13.274086836680747
exact,pre_advance,A,ar,no_revision,2015:Q2,-0.9061685695574193,-14.180255406238166
exact,pre_advance,A,ar,no_revision,2015:Q3,-0.4373149300290265,-14.617570336267192
exact,pre_advance,A,ar,no_revision,2015:Q4,0.016291702316212797,-14.60127863395098
exact,pre_advance,A,ar,no_revision,2016:Q1,0.05673810973640281,-14.544540524214577
exact,pre_advance,A,ar,no_revision,2016:Q2,-0.0032580960917223878,-14.547798620306299
exact,pre_advance,A,ar,no_revision,2016:Q3,0.4477541706482031,-14.100044449658096
exact,pre_advance,A,ar,no_revision,2016:Q4,-0.22454304192648553,-14.324587491584582
exact,pre_advance,A,ar,no_revision,2017:Q1,0.237678278924097,-14.086909212660485
exact,pre_advance,A,ar,no_revision,2017:Q2,-0.759611147556073,-14.846520360216559
exact,pre_advance,A,ar,no_revision,2017:Q3,0.48223151365441974,-14.36428884656214
exact,pre_advance,A,ar,no_revision,2017:Q4,-0.035508765348774285,-14.399797611910914
exact,pre_advance,A,ar,no_revision,2018:Q1,-0.1784641956072798,-14.578261807518194
exact,pre_advance,A,ar,no_revision,2018:Q2,-0.70503248721886,-15.283294294737054
exact,pre_advance,A,ar,no_revision,2018:Q3,0.1707624270893237,-15.11253186764773
exact,pre_advance,A,ar,no_revision,2018:Q4,-0.09642021086537815,-15.208952078513109
exact,pre_advance,A,ar,no_revision,2019:Q1,-1.790779657895314e-08,-15.208952096420905
exact,pre_advance,A,ar,no_revision,2019:Q2,1.4614737564588864e-07,-15.20895195027353
exact,pre_advance,A,ar,no_revision,2019:Q3,-0.0373619669925358,-15.246313917266066
exact,pre_advance,A,ar,no_revision,2019:Q4,-3.3637089502658313e-09,-15.246313920629776
exact,pre_advance,A,ar,no_revision,2020:Q1,-3.7182004936979,-18.964514414327674
exact,pre_advance,A,ar,no_revision,2020:Q2,-110.33729981554461,-129.3018142298723
exact,pre_advance,A,ar,no_revision,2020:Q3,-5948.854524175391,-6078.156338405263
exact,pre_advance,A,ar,no_revision,2020:Q4,16.578990308128255,-6061.577348097135
exact,pre_advance,A,ar,no_revision,2021:Q1,-1588.8716385061232,-7650.448986603258
exact,pre_advance,A,ar,no_revision,2021:Q2,-466.53640208831473,-8116.985388691573
exact,pre_advance,A,ar,no_revision,2021:Q3,-1.9848595343319175e-05,-8116.985408540168
exact,pre_advance,A,ar,no_revision,2021:Q4,2.2298679169807656e-07,-8116.98540831718
exact,pre_advance,A,ar,no_revision,2022:Q1,-5.104517031284672e-09,-8116.9854083222845
exact,pre_advance,A,ar,no_revision,2022:Q2,-2.849998788079233e-07,-8116.985408607285
exact,pre_advance,A,ar,no_revision,2022:Q3,-1.9799002093368046e-07,-8116.985408805274
exact,pre_advance,A,ar,no_revision,2022:Q4,9.093856909170306e-08,-8116.985408714336
exact,pre_advance,A,ar,no_revision,2023:Q1,-4.4491828266046696e-07,-8116.985409159254
exact,pre_advance,A,ar,no_revision,2023:Q2,-6.048042650030894e-08,-8116.985409219735
exact,pre_advance,A,ar,no_revision,2023:Q3,5.187887630597743e-07,-8116.985408700946
exact,pre_advance,A,ar,no_revision,2023:Q4,3.814581814864937e-07,-8116.985408319488
exact,pre_advance,A,ar,no_revision,2024:Q1,6.142999547931183e-08,-8116.985408258058
exact,pre_advance,A,ar,no_revision,2024:Q2,1.5426049060351943e-07,-8116.985408103797
exact,pre_advance,A,ar,no_revision,2024:Q3,1.8705413040720487e-07,-8116.9854079167435
exact,pre_advance,A,ar,no_revision,2024:Q4,8.528527142837028e-08,-8116.985407831458
exact,pre_advance,A,ar,release_dfm,2005:Q1,-0.47775233108405585,-0.47775233108405585
exact,pre_advance,A,ar,release_dfm,2005:Q2,-0.052349840756368095,-0.530102171840424
exact,pre_advance,A,ar,release_dfm,2005:Q3,0.00529856967865433,-0.5248036021617697
exact,pre_advance,A,ar,release_dfm,2005:Q4,-4.619255847838915,-5.144059450000685
exact,pre_advance,A,ar,release_dfm,2006:Q1,2.92460812085291,-2.219451329147775
exact,pre_advance,A,ar,release_dfm,2006:Q2,-1.884090103931382,-4.103541433079157
exact,pre_advance,A,ar,release_dfm,2006:Q3,-2.4734221988773823,-6.57696363195654
exact,pre_advance,A,ar,release_dfm,2006:Q4,-0.14821913657227653,-6.725182768528816
exact,pre_advance,A,ar,release_dfm,2007:Q1,1.4842169443529012,-5.240965824175914
exact,pre_advance,A,ar,release_dfm,2007:Q2,0.2171751655802364,-5.0237906585956775
exact,pre_advance,A,ar,release_dfm,2007:Q3,-0.0002556416392534566,-5.024046300234931
exact,pre_advance,A,ar,release_dfm,2007:Q4,4.102751016710953,-0.9212952835239783
exact,pre_advance,A,ar,release_dfm,2008:Q1,2.4643203747487243,1.543025091224746
exact,pre_advance,A,ar,release_dfm,2008:Q2,0.4318864047577676,1.9749114959825136
exact,pre_advance,A,ar,release_dfm,2008:Q3,7.185387592480861,9.160299088463375
exact,pre_advance,A,ar,release_dfm,2008:Q4,34.46554667705597,43.625845765519344
exact,pre_advance,A,ar,release_dfm,2009:Q1,36.349465108828085,79.97531087434743
exact,pre_advance,A,ar,release_dfm,2009:Q2,3.3313673808443465,83.30667825519177
exact,pre_advance,A,ar,release_dfm,2009:Q3,9.334632966537177,92.64131122172894
exact,pre_advance,A,ar,release_dfm,2009:Q4,2.219577399138392,94.86088862086733
exact,pre_advance,A,ar,release_dfm,2010:Q1,-3.238503730849997,91.62238489001733
exact,pre_advance,A,ar,release_dfm,2010:Q2,-1.9987518116386107,89.62363307837872
exact,pre_advance,A,ar,release_dfm,2010:Q3,-0.572921271833366,89.05071180654535
exact,pre_advance,A,ar,release_dfm,2010:Q4,0.8891043745149102,89.93981618106027
exact,pre_advance,A,ar,release_dfm,2011:Q1,-9.73984587925718,80.19997030180309
exact,pre_advance,A,ar,release_dfm,2011:Q2,-1.9612932841934698,78.23867701760962
exact,pre_advance,A,ar,release_dfm,2011:Q3,0.2779680137600673,78.51664503136969
exact,pre_advance,A,ar,release_dfm,2011:Q4,-0.6681042932069498,77.84854073816274
exact,pre_advance,A,ar,release_dfm,2012:Q1,-2.512748384757239,75.3357923534055
exact,pre_advance,A,ar,release_dfm,2012:Q2,-0.6558384092159524,74.67995394418955
exact,pre_advance,A,ar,release_dfm,2012:Q3,-0.18984075413124596,74.49011319005831
exact,pre_advance,A,ar,release_dfm,2012:Q4,-6.781759635545144,67.70835355451317
exact,pre_advance,A,ar,release_dfm,2013:Q1,2.141539127033566,69.84989268154673
exact,pre_advance,A,ar,release_dfm,2013:Q2,-0.4619765165849912,69.38791616496174
exact,pre_advance,A,ar,release_dfm,2013:Q3,0.5965013394751292,69.98441750443686
exact,pre_advance,A,ar,release_dfm,2013:Q4,0.48459943515734377,70.46901693959421
exact,pre_advance,A,ar,release_dfm,2014:Q1,2.391211530827688,72.8602284704219
exact,pre_advance,A,ar,release_dfm,2014:Q2,7.980923616534439,80.84115208695634
exact,pre_advance,A,ar,release_dfm,2014:Q3,-0.4570437308052704,80.38410835615107
exact,pre_advance,A,ar,release_dfm,2014:Q4,0.056437402268351214,80.44054575841943
exact,pre_advance,A,ar,release_dfm,2015:Q1,3.351736808669914,83.79228256708934
exact,pre_advance,A,ar,release_dfm,2015:Q2,1.1406409868789185,84.93292355396827
exact,pre_advance,A,ar,release_dfm,2015:Q3,-0.4151213844978548,84.51780216947041
exact,pre_advance,A,ar,release_dfm,2015:Q4,-0.15981416389945036,84.35798800557096
exact,pre_advance,A,ar,release_dfm,2016:Q1,-1.0266730159003044,83.33131498967066
exact,pre_advance,A,ar,release_dfm,2016:Q2,-0.4675309552062583,82.8637840344644
exact,pre_advance,A,ar,release_dfm,2016:Q3,1.0495213593120174,83.91330539377643
exact,pre_advance,A,ar,release_dfm,2016:Q4,-0.4406381008279845,83.47266729294844
exact,pre_advance,A,ar,release_dfm,2017:Q1,-1.3939216735918747,82.07874561935657
exact,pre_advance,A,ar,release_dfm,2017:Q2,1.6701400750972735,83.74888569445385
exact,pre_advance,A,ar,release_dfm,2017:Q3,-0.738920693271617,83.00996500118222
exact,pre_advance,A,ar,release_dfm,2017:Q4,-0.36450047169763716,82.64546452948458
exact,pre_advance,A,ar,release_dfm,2018:Q1,-0.35443421101198236,82.29103031847261
exact,pre_advance,A,ar,release_dfm,2018:Q2,0.47955181894688437,82.7705821374195
exact,pre_advance,A,ar,release_dfm,2018:Q3,-0.7847408806275291,81.98584125679197
exact,pre_advance,A,ar,release_dfm,2018:Q4,-0.27911408654675396,81.70672717024522
exact,pre_advance,A,ar,release_dfm,2019:Q1,-1.247717291520705,80.45900987872452
exact,pre_advance,A,ar,release_dfm,2019:Q2,0.30254938205917875,80.7615592607837
exact,pre_advance,A,ar,release_dfm,2019:Q3,-0.006231682759790531,80.75532757802391
exact,pre_advance,A,ar,release_dfm,2019:Q4,-0.31098571343096865,80.44434186459294
exact,pre_advance,A,ar,release_dfm,2020:Q1,20.535223519296267,100.97956538388921
exact,pre_advance,A,ar,release_dfm,2020:Q2,686.3511581187503,787.3307235026394
exact,pre_advance,A,ar,release_dfm,2020:Q3,6711.115853307756,7498.4465768103955
exact,pre_advance,A,ar,release_dfm,2020:Q4,398.2245658916331,7896.671142702029
exact,pre_advance,A,ar,release_dfm,2021:Q1,25.045369524623386,7921.716512226652
exact,pre_advance,A,ar,release_dfm,2021:Q2,26.365919185781358,7948.082431412434
exact,pre_advance,A,ar,release_dfm,2021:Q3,510.1574990227915,8458.239930435226
exact,pre_advance,A,ar,release_dfm,2021:Q4,44.415992452595034,8502.655922887821
exact,pre_advance,A,ar,release_dfm,2022:Q1,-69.68248484063096,8432.973438047191
exact,pre_advance,A,ar,release_dfm,2022:Q2,-28.39921658144096,8404.57422146575
exact,pre_advance,A,ar,release_dfm,2022:Q3,-0.4360572957515646,8404.138164169997
exact,pre_advance,A,ar,release_dfm,2022:Q4,-4.383839921785983,8399.754324248212
exact,pre_advance,A,ar,release_dfm,2023:Q1,2.6808051360260325,8402.435129384237
exact,pre_advance,A,ar,release_dfm,2023:Q2,-0.2556851775977561,8402.17944420664
exact,pre_advance,A,ar,release_dfm,2023:Q3,-2.5074272286206707,8399.67201697802
exact,pre_advance,A,ar,release_dfm,2023:Q4,0.1328712946224755,8399.804888272643
exact,pre_advance,A,ar,release_dfm,2024:Q1,-3.7043166732036195,8396.10057159944
exact,pre_advance,A,ar,release_dfm,2024:Q2,0.628587486938977,8396.729159086379
exact,pre_advance,A,ar,release_dfm,2024:Q3,-1.4579144464381402,8395.27124463994
exact,pre_advance,A,ar,release_dfm,2024:Q4,0.0311501311606098,8395.3023947711
exact,pre_advance,A,ar,revision_dfm_kalman_em,2005:Q1,-0.46171888951155926,-0.46171888951155926
exact,pre_advance,A,ar,revision_dfm_kalman_em,2005:Q2,0.005239788316225782,-0.45647910119533347
exact,pre_advance,A,ar,revision_dfm_kalman_em,2005:Q3,-0.3316097723954572,-0.7880888735907907
exact,pre_advance,A,ar,revision_dfm_kalman_em,2005:Q4,-2.9450419042994556,-3.7331307778902465
exact,pre_advance,A,ar,revision_dfm_kalman_em,2006:Q1,3.6080038605726545,-0.12512691731759196
exact,pre_advance,A,ar,revision_dfm_kalman_em,2006:Q2,-0.990289662057888,-1.11541657937548
exact,pre_advance,A,ar,revision_dfm_kalman_em,2006:Q3,-1.077786811149101,-2.193203390524581
exact,pre_advance,A,ar,revision_dfm_kalman_em,2006:Q4,0.05008395282735878,-2.1431194376972225
exact,pre_advance,A,ar,revision_dfm_kalman_em,2007:Q1,2.9102055461514444,0.767086108454222
exact,pre_advance,A,ar,revision_dfm_kalman_em,2007:Q2,0.17922255751072086,0.9463086659649429
exact,pre_advance,A,ar,revision_dfm_kalman_em,2007:Q3,-0.14522217236348528,0.8010864936014577
exact,pre_advance,A,ar,revision_dfm_kalman_em,2007:Q4,4.67164342468387,5.472729918285328
exact,pre_advance,A,ar,revision_dfm_kalman_em,2008:Q1,1.9945512150702878,7.467281133355616
exact,pre_advance,A,ar,revision_dfm_kalman_em,2008:Q2,0.43170236822461006,7.8989835015802266
exact,pre_advance,A,ar,revision_dfm_kalman_em,2008:Q3,7.5527422180847665,15.451725719664992
exact,pre_advance,A,ar,revision_dfm_kalman_em,2008:Q4,34.2219260702065,49.67365178987149
exact,pre_advance,A,ar,revision_dfm_kalman_em,2009:Q1,40.46086223513139,90.13451402500289
exact,pre_advance,A,ar,revision_dfm_kalman_em,2009:Q2,3.134879226091542,93.26939325109443
exact,pre_advance,A,ar,revision_dfm_kalman_em,2009:Q3,8.226395290871816,101.49578854196625
exact,pre_advance,A,ar,revision_dfm_kalman_em,2009:Q4,6.473660510062634,107.96944905202888
exact,pre_advance,A,ar,revision_dfm_kalman_em,2010:Q1,-1.9382252848420878,106.03122376718679
exact,pre_advance,A,ar,revision_dfm_kalman_em,2010:Q2,-3.929870370682991,102.1013533965038
exact,pre_advance,A,ar,revision_dfm_kalman_em,2010:Q3,-3.124166206116839,98.97718719038696
exact,pre_advance,A,ar,revision_dfm_kalman_em,2010:Q4,0.3252646587979763,99.30245184918493
exact,pre_advance,A,ar,revision_dfm_kalman_em,2011:Q1,-2.724857271496699,96.57759457768823
exact,pre_advance,A,ar,revision_dfm_kalman_em,2011:Q2,-3.765878983602925,92.8117155940853
exact,pre_advance,A,ar,revision_dfm_kalman_em,2011:Q3,0.05910013389329055,92.8708157279786
exact,pre_advance,A,ar,revision_dfm_kalman_em,2011:Q4,-0.14952102320721045,92.72129470477138
exact,pre_advance,A,ar,revision_dfm_kalman_em,2012:Q1,-2.5555753878626337,90.16571931690875
exact,pre_advance,A,ar,revision_dfm_kalman_em,2012:Q2,-0.37569653919293383,89.79002277771582
exact,pre_advance,A,ar,revision_dfm_kalman_em,2012:Q3,0.026817141048241174,89.81683991876406
exact,pre_advance,A,ar,revision_dfm_kalman_em,2012:Q4,-5.738928300332868,84.07791161843119
exact,pre_advance,A,ar,revision_dfm_kalman_em,2013:Q1,1.5166656501173703,85.59457726854856
exact,pre_advance,A,ar,revision_dfm_kalman_em,2013:Q2,0.3546495081745942,85.94922677672315
exact,pre_advance,A,ar,revision_dfm_kalman_em,2013:Q3,0.6993207283440147,86.64854750506717
exact,pre_advance,A,ar,revision_dfm_kalman_em,2013:Q4,0.22945239951095436,86.87799990457813
exact,pre_advance,A,ar,revision_dfm_kalman_em,2014:Q1,2.8613263665632855,89.73932627114142
exact,pre_advance,A,ar,revision_dfm_kalman_em,2014:Q2,3.6497329453514755,93.3890592164929
exact,pre_advance,A,ar,revision_dfm_kalman_em,2014:Q3,-0.03447572982029806,93.3545834866726
exact,pre_advance,A,ar,revision_dfm_kalman_em,2014:Q4,-0.4214073824395196,92.93317610423307
exact,pre_advance,A,ar,revision_dfm_kalman_em,2015:Q1,2.6494166000859556,95.58259270431903
exact,pre_advance,A,ar,revision_dfm_kalman_em,2015:Q2,-2.127891470972571,93.45470123334646
exact,pre_advance,A,ar,revision_dfm_kalman_em,2015:Q3,-0.9614860055716556,92.4932152277748
exact,pre_advance,A,ar,revision_dfm_kalman_em,2015:Q4,-0.2684233416003132,92.22479188617449
exact,pre_advance,A,ar,revision_dfm_kalman_em,2016:Q1,0.40460202830495506,92.62939391447944
exact,pre_advance,A,ar,revision_dfm_kalman_em,2016:Q2,-0.3230015613037574,92.30639235317568
exact,pre_advance,A,ar,revision_dfm_kalman_em,2016:Q3,1.2512645339201312,93.55765688709582
exact,pre_advance,A,ar,revision_dfm_kalman_em,2016:Q4,0.13011529139792977,93.68777217849374
exact,pre_advance,A,ar,revision_dfm_kalman_em,2017:Q1,0.06821148310910985,93.75598366160285
exact,pre_advance,A,ar,revision_dfm_kalman_em,2017:Q2,1.634950867355678,95.39093452895854
exact,pre_advance,A,ar,revision_dfm_kalman_em,2017:Q3,0.6417356839114239,96.03267021286996
exact,pre_advance,A,ar,revision_dfm_kalman_em,2017:Q4,-0.054236828979238885,95.97843338389072
exact,pre_advance,A,ar,revision_dfm_kalman_em,2018:Q1,-0.47323410017106726,95.50519928371965
exact,pre_advance,A,ar,revision_dfm_kalman_em,2018:Q2,2.082516904424484,97.58771618814413
exact,pre_advance,A,ar,revision_dfm_kalman_em,2018:Q3,-0.4176999401327481,97.17001624801138
exact,pre_advance,A,ar,revision_dfm_kalman_em,2018:Q4,-0.14358590915768718,97.02643033885369
exact,pre_advance,A,ar,revision_dfm_kalman_em,2019:Q1,-1.407043590350403,95.61938674850329
exact,pre_advance,A,ar,revision_dfm_kalman_em,2019:Q2,-1.2764908032310593,94.34289594527223
exact,pre_advance,A,ar,revision_dfm_kalman_em,2019:Q3,-1.1793977887136033,93.16349815655863
exact,pre_advance,A,ar,revision_dfm_kalman_em,2019:Q4,-0.24813118940097412,92.91536696715765
exact,pre_advance,A,ar,revision_dfm_kalman_em,2020:Q1,19.1586224740983,112.07398944125595
exact,pre_advance,A,ar,revision_dfm_kalman_em,2020:Q2,532.809103988739,644.8830934299949
exact,pre_advance,A,ar,revision_dfm_kalman_em,2020:Q3,6939.819237088517,7584.702330518512
exact,pre_advance,A,ar,revision_dfm_kalman_em,2020:Q4,332.82946114916047,7917.531791667672
exact,pre_advance,A,ar,revision_dfm_kalman_em,2021:Q1,1.3343164695958478,7918.866108137268
exact,pre_advance,A,ar,revision_dfm_kalman_em,2021:Q2,30.015474675858425,7948.881582813126
exact,pre_advance,A,ar,revision_dfm_kalman_em,2021:Q3,508.28964129095135,8457.171224104079
exact,pre_advance,A,ar,revision_dfm_kalman_em,2021:Q4,36.45842028138769,8493.629644385466
exact,pre_advance,A,ar,revision_dfm_kalman_em,2022:Q1,-60.241387989240536,8433.388256396225
exact,pre_advance,A,ar,revision_dfm_kalman_em,2022:Q2,-21.215933833127487,8412.172322563098
exact,pre_advance,A,ar,revision_dfm_kalman_em,2022:Q3,0.28106458339157225,8412.45338714649
exact,pre_advance,A,ar,revision_dfm_kalman_em,2022:Q4,-7.672317333877735,8404.781069812612
exact,pre_advance,A,ar,revision_dfm_kalman_em,2023:Q1,1.243336896458705,8406.024406709072
exact,pre_advance,A,ar,revision_dfm_kalman_em,2023:Q2,-0.10430246391035171,8405.92010424516
exact,pre_advance,A,ar,revision_dfm_kalman_em,2023:Q3,3.1646525274364006,8409.084756772598
exact,pre_advance,A,ar,revision_dfm_kalman_em,2023:Q4,-6.4835729632599595,8402.601183809338
exact,pre_advance,A,ar,revision_dfm_kalman_em,2024:Q1,0.0014320194731640423,8402.602615828811
exact,pre_advance,A,ar,revision_dfm_kalman_em,2024:Q2,-2.918498222279032,8399.684117606532
exact,pre_advance,A,ar,revision_dfm_kalman_em,2024:Q3,-1.0486696398482624,8398.635447966684
exact,pre_advance,A,ar,revision_dfm_kalman_em,2024:Q4,0.0026005911911867463,8398.638048557876
exact,pre_advance,A,ar,spf,2005:Q1,-0.4260175010354504,-0.4260175010354504
exact,pre_advance,A,ar,spf,2005:Q2,-0.17152273914470886,-0.5975402401801593
exact,pre_advance,A,ar,spf,2005:Q3,0.09478562491604915,-0.5027546152641101
exact,pre_advance,A,ar,spf,2005:Q4,0.7418248402356928,0.2390702249715827
exact,pre_advance,A,ar,spf,2006:Q1,3.5488730740223877,3.7879432989939703
exact,pre_advance,A,ar,spf,2006:Q2,0.5093137235826057,4.297257022576576
exact,pre_advance,A,ar,spf,2006:Q3,0.8574772523779903,5.154734274954567
exact,pre_advance,A,ar,spf,2006:Q4,-0.6207567009250582,4.5339775740295085
exact,pre_advance,A,ar,spf,2007:Q1,2.2986791864986973,6.832656760528206
exact,pre_advance,A,ar,spf,2007:Q2,-0.7178730897689605,6.114783670759246
exact,pre_advance,A,ar,spf,2007:Q3,-1.2233632244953647,4.891420446263881
exact,pre_advance,A,ar,spf,2007:Q4,6.052791348256975,10.944211794520857
exact,pre_advance,A,ar,spf,2008:Q1,4.552361447314393,15.49657324183525
exact,pre_advance,A,ar,spf,2008:Q2,-2.83972110246601,12.65685213936924
exact,pre_advance,A,ar,spf,2008:Q3,6.799658349511656,19.456510488880895
exact,pre_advance,A,ar,spf,2008:Q4,33.214874359608736,52.67138484848963
exact,pre_advance,A,ar,spf,2009:Q1,39.4338380447649,92.10522289325453
exact,pre_advance,A,ar,spf,2009:Q2,3.6372502592102043,95.74247315246474
exact,pre_advance,A,ar,spf,2009:Q3,7.853699626707438,103.59617277917218
exact,pre_advance,A,ar,spf,2009:Q4,-2.5247468330763407,101.07142594609584
exact,pre_advance,A,ar,spf,2010:Q1,0.5749896907348182,101.64641563683067
exact,pre_advance,A,ar,spf,2010:Q2,-0.585472224006137,101.06094341282453
exact,pre_advance,A,ar,spf,2010:Q3,0.0304237658262074,101.09136717865074
exact,pre_advance,A,ar,spf,2010:Q4,0.07199443332535127,101.1633616119761
exact,pre_advance,A,ar,spf,2011:Q1,-2.099584086648812,99.06377752532728
exact,pre_advance,A,ar,spf,2011:Q2,-3.208056493765647,95.85572103156163
exact,pre_advance,A,ar,spf,2011:Q3,0.500380679886445,96.35610171144808
exact,pre_advance,A,ar,spf,2011:Q4,0.11133119809105796,96.46743290953913
exact,pre_advance,A,ar,spf,2012:Q1,0.05844323567998624,96.52587614521912
exact,pre_advance,A,ar,spf,2012:Q2,-0.35440375446757083,96.17147239075155
exact,pre_advance,A,ar,spf,2012:Q3,-0.04283642043466952,96.12863597031688
exact,pre_advance,A,ar,spf,2012:Q4,1.0558282689625749,97.18446423927945
exact,pre_advance,A,ar,spf,2013:Q1,2.160451392239017,99.34491563151846
exact,pre_advance,A,ar,spf,2013:Q2,0.40261885215134036,99.7475344836698
exact,pre_advance,A,ar,spf,2013:Q3,0.5104642202211924,100.25799870389099
exact,pre_advance,A,ar,spf,2013:Q4,-1.4287955473894312,98.82920315650156
exact,pre_advance,A,ar,spf,2014:Q1,3.3046829361472634,102.13388609264882
exact,pre_advance,A,ar,spf,2014:Q2,7.61520607361918,109.749092166268
exact,pre_advance,A,ar,spf,2014:Q3,-0.11045196205791274,109.63864020421009
exact,pre_advance,A,ar,spf,2014:Q4,0.07540922631687273,109.71404943052697
exact,pre_advance,A,ar,spf,2015:Q1,-1.0942745086476817,108.61977492187928
exact,pre_advance,A,ar,spf,2015:Q2,1.2159074169951387,109.83568233887442
exact,pre_advance,A,ar,spf,2015:Q3,-1.3457107514007416,108.48997158747368
exact,pre_advance,A,ar,spf,2015:Q4,-2.949391488319312,105.54058009915437
exact,pre_advance,A,ar,spf,2016:Q1,-1.6152416415056612,103.9253384576487
exact,pre_advance,A,ar,spf,2016:Q2,-0.8933393737035766,103.03199908394512
exact,pre_advance,A,ar,spf,2016:Q3,1.8761137216306951,104.90811280557583
exact,pre_advance,A,ar,spf,2016:Q4,0.14196365018364343,105.05007645575947
exact,pre_advance,A,ar,spf,2017:Q1,-1.3008751664109488,103.74920128934852
exact,pre_advance,A,ar,spf,2017:Q2,1.4283924639880632,105.17759375333658
exact,pre_advance,A,ar,spf,2017:Q3,0.6897504291898997,105.86734418252648
exact,pre_advance,A,ar,spf,2017:Q4,0.0181568668687679,105.88550104939524
exact,pre_advance,A,ar,spf,2018:Q1,-0.5136444694918628,105.37185657990338
exact,pre_advance,A,ar,spf,2018:Q2,3.319699814640276,108.69155639454365
exact,pre_advance,A,ar,spf,2018:Q3,0.05540381533885183,108.7469602098825
exact,pre_advance,A,ar,spf,2018:Q4,0.007977293388745994,108.75493750327125
exact,pre_advance,A,ar,spf,2019:Q1,-0.6217072430076453,108.1332302602636
exact,pre_advance,A,ar,spf,2019:Q2,0.34185286933582476,108.47508312959943
exact,pre_advance,A,ar,spf,2019:Q3,-0.007754897282493635,108.46732823231693
exact,pre_advance,A,ar,spf,2019:Q4,-0.0634733959299309,108.403854836387
exact,pre_advance,A,ar,spf,2020:Q1,4.197861953608452,112.60171678999545
exact,pre_advance,A,ar,spf,2020:Q2,960.1987276931617,1072.8004444831572
exact,pre_advance,A,ar,spf,2020:Q3,6757.120945340917,7829.921389824074
exact,pre_advance,A,ar,spf,2020:Q4,406.0724326351314,8235.993822459206
exact,pre_advance,A,ar,spf,2021:Q1,14.072882471596872,8250.066704930803
exact,pre_advance,A,ar,spf,2021:Q2,31.18788882563086,8281.254593756434
exact,pre_advance,A,ar,spf,2021:Q3,487.6488931497746,8768.903486906209
exact,pre_advance,A,ar,spf,2021:Q4,45.31268605947159,8814.21617296568
exact,pre_advance,A,ar,spf,2022:Q1,-9.666707568292551,8804.549465397387
exact,pre_advance,A,ar,spf,2022:Q2,-2.02275544248476,8802.526709954902
exact,pre_advance,A,ar,spf,2022:Q3,-0.7382119487950428,8801.788498006106
exact,pre_advance,A,ar,spf,2022:Q4,-3.354206864846693,8798.434291141259
exact,pre_advance,A,ar,spf,2023:Q1,2.4529257202196533,8800.887216861478
exact,pre_advance,A,ar,spf,2023:Q2,-2.388390705599923,8798.498826155877
exact,pre_advance,A,ar,spf,2023:Q3,-1.2957363304140266,8797.203089825463
exact,pre_advance,A,ar,spf,2023:Q4,0.6822166242098087,8797.885306449672
exact,pre_advance,A,ar,spf,2024:Q1,-0.08136774660866822,8797.803938703064
exact,pre_advance,A,ar,spf,2024:Q2,0.5871872774716679,8798.391125980535
exact,pre_advance,A,ar,spf,2024:Q3,0.72430498743891,8799.115430967975
exact,pre_advance,A,ar,spf,2024:Q4,0.1098942321030077,8799.225325200077
exact,pre_advance,A,ar,standard_dfm,2005:Q1,-0.47775233108405585,-0.47775233108405585
exact,pre_advance,A,ar,standard_dfm,2005:Q2,-0.052349840756368095,-0.530102171840424
exact,pre_advance,A,ar,standard_dfm,2005:Q3,0.00529856967865433,-0.5248036021617697
exact,pre_advance,A,ar,standard_dfm,2005:Q4,-4.619255847838915,-5.144059450000685
exact,pre_advance,A,ar,standard_dfm,2006:Q1,2.92460812085291,-2.219451329147775
exact,pre_advance,A,ar,standard_dfm,2006:Q2,-1.884090103931382,-4.103541433079157
exact,pre_advance,A,ar,standard_dfm,2006:Q3,-2.4734221988773823,-6.57696363195654
exact,pre_advance,A,ar,standard_dfm,2006:Q4,-0.14821913657227653,-6.725182768528816
exact,pre_advance,A,ar,standard_dfm,2007:Q1,1.4842169443529012,-5.240965824175914
exact,pre_advance,A,ar,standard_dfm,2007:Q2,0.2171751655802364,-5.0237906585956775
exact,pre_advance,A,ar,standard_dfm,2007:Q3,-0.0002556416392534566,-5.024046300234931
exact,pre_advance,A,ar,standard_dfm,2007:Q4,4.102751016710953,-0.9212952835239783
exact,pre_advance,A,ar,standard_dfm,2008:Q1,2.4643203747487243,1.543025091224746
exact,pre_advance,A,ar,standard_dfm,2008:Q2,0.4318864047577676,1.9749114959825136
exact,pre_advance,A,ar,standard_dfm,2008:Q3,7.185387592480861,9.160299088463375
exact,pre_advance,A,ar,standard_dfm,2008:Q4,34.46554667705597,43.625845765519344
exact,pre_advance,A,ar,standard_dfm,2009:Q1,36.349465108828085,79.97531087434743
exact,pre_advance,A,ar,standard_dfm,2009:Q2,3.3313673808443465,83.30667825519177
exact,pre_advance,A,ar,standard_dfm,2009:Q3,9.334632966537177,92.64131122172894
exact,pre_advance,A,ar,standard_dfm,2009:Q4,2.219577399138392,94.86088862086733
exact,pre_advance,A,ar,standard_dfm,2010:Q1,-3.238503730849997,91.62238489001733
exact,pre_advance,A,ar,standard_dfm,2010:Q2,-1.9987518116386107,89.62363307837872
exact,pre_advance,A,ar,standard_dfm,2010:Q3,-0.572921271833366,89.05071180654535
exact,pre_advance,A,ar,standard_dfm,2010:Q4,0.8891043745149102,89.93981618106027
exact,pre_advance,A,ar,standard_dfm,2011:Q1,-9.73984587925718,80.19997030180309
exact,pre_advance,A,ar,standard_dfm,2011:Q2,-1.9612932841934698,78.23867701760962
exact,pre_advance,A,ar,standard_dfm,2011:Q3,0.2779680137600673,78.51664503136969
exact,pre_advance,A,ar,standard_dfm,2011:Q4,-0.6681042932069498,77.84854073816274
exact,pre_advance,A,ar,standard_dfm,2012:Q1,-2.512748384757239,75.3357923534055
exact,pre_advance,A,ar,standard_dfm,2012:Q2,-0.6558384092159524,74.67995394418955
exact,pre_advance,A,ar,standard_dfm,2012:Q3,-0.18984075413124596,74.49011319005831
exact,pre_advance,A,ar,standard_dfm,2012:Q4,-6.781759635545144,67.70835355451317
exact,pre_advance,A,ar,standard_dfm,2013:Q1,2.141539127033566,69.84989268154673
exact,pre_advance,A,ar,standard_dfm,2013:Q2,-0.4619765165849912,69.38791616496174
exact,pre_advance,A,ar,standard_dfm,2013:Q3,0.5965013394751292,69.98441750443686
exact,pre_advance,A,ar,standard_dfm,2013:Q4,0.48459943515734377,70.46901693959421
exact,pre_advance,A,ar,standard_dfm,2014:Q1,2.391211530827688,72.8602284704219
exact,pre_advance,A,ar,standard_dfm,2014:Q2,7.980923616534439,80.84115208695634
exact,pre_advance,A,ar,standard_dfm,2014:Q3,-0.4570437308052704,80.38410835615107
exact,pre_advance,A,ar,standard_dfm,2014:Q4,0.056437402268351214,80.44054575841943
exact,pre_advance,A,ar,standard_dfm,2015:Q1,3.351736808669914,83.79228256708934
exact,pre_advance,A,ar,standard_dfm,2015:Q2,1.1406409868789185,84.93292355396827
exact,pre_advance,A,ar,standard_dfm,2015:Q3,-0.4151213844978548,84.51780216947041
exact,pre_advance,A,ar,standard_dfm,2015:Q4,-0.15981416389945036,84.35798800557096
exact,pre_advance,A,ar,standard_dfm,2016:Q1,-1.0266730159003044,83.33131498967066
exact,pre_advance,A,ar,standard_dfm,2016:Q2,-0.4675309552062583,82.8637840344644
exact,pre_advance,A,ar,standard_dfm,2016:Q3,1.0495213593120174,83.91330539377643
exact,pre_advance,A,ar,standard_dfm,2016:Q4,-0.4406381008279845,83.47266729294844
exact,pre_advance,A,ar,standard_dfm,2017:Q1,-1.3939216735918747,82.07874561935657
exact,pre_advance,A,ar,standard_dfm,2017:Q2,1.6701400750972735,83.74888569445385
exact,pre_advance,A,ar,standard_dfm,2017:Q3,-0.738920693271617,83.00996500118222
exact,pre_advance,A,ar,standard_dfm,2017:Q4,-0.36450047169763716,82.64546452948458
exact,pre_advance,A,ar,standard_dfm,2018:Q1,-0.35443421101198236,82.29103031847261
exact,pre_advance,A,ar,standard_dfm,2018:Q2,0.47955181894688437,82.7705821374195
exact,pre_advance,A,ar,standard_dfm,2018:Q3,-0.7847408806275291,81.98584125679197
exact,pre_advance,A,ar,standard_dfm,2018:Q4,-0.27911408654675396,81.70672717024522
exact,pre_advance,A,ar,standard_dfm,2019:Q1,-1.247717291520705,80.45900987872452
exact,pre_advance,A,ar,standard_dfm,2019:Q2,0.30254938205917875,80.7615592607837
exact,pre_advance,A,ar,standard_dfm,2019:Q3,-0.006231682759790531,80.75532757802391
exact,pre_advance,A,ar,standard_dfm,2019:Q4,-0.31098571343096865,80.44434186459294
exact,pre_advance,A,ar,standard_dfm,2020:Q1,20.535223519296267,100.97956538388921
exact,pre_advance,A,ar,standard_dfm,2020:Q2,686.3511581187503,787.3307235026394
exact,pre_advance,A,ar,standard_dfm,2020:Q3,6711.115853307756,7498.4465768103955
exact,pre_advance,A,ar,standard_dfm,2020:Q4,398.2245658916331,7896.671142702029
exact,pre_advance,A,ar,standard_dfm,2021:Q1,25.045369524623386,7921.716512226652
exact,pre_advance,A,ar,standard_dfm,2021:Q2,26.365919185781358,7948.082431412434
exact,pre_advance,A,ar,standard_dfm,2021:Q3,510.1574990227915,8458.239930435226
exact,pre_advance,A,ar,standard_dfm,2021:Q4,44.415992452595034,8502.655922887821
exact,pre_advance,A,ar,standard_dfm,2022:Q1,-69.68248484063096,8432.973438047191
exact,pre_advance,A,ar,standard_dfm,2022:Q2,-28.39921658144096,8404.57422146575
exact,pre_advance,A,ar,standard_dfm,2022:Q3,-0.4360572957515646,8404.138164169997
exact,pre_advance,A,ar,standard_dfm,2022:Q4,-4.383839921785983,8399.754324248212
exact,pre_advance,A,ar,standard_dfm,2023:Q1,2.6808051360260325,8402.435129384237
exact,pre_advance,A,ar,standard_dfm,2023:Q2,-0.2556851775977561,8402.17944420664
exact,pre_advance,A,ar,standard_dfm,2023:Q3,-2.5074272286206707,8399.67201697802
exact,pre_advance,A,ar,standard_dfm,2023:Q4,0.1328712946224755,8399.804888272643
exact,pre_advance,A,ar,standard_dfm,2024:Q1,-3.7043166732036195,8396.10057159944
exact,pre_advance,A,ar,standard_dfm,2024:Q2,0.628587486938977,8396.729159086379
exact,pre_advance,A,ar,standard_dfm,2024:Q3,-1.4579144464381402,8395.27124463994
exact,pre_advance,A,ar,standard_dfm,2024:Q4,0.0311501311606098,8395.3023947711
exact,pre_advance,A,no_revision,ar,2005:Q1,0.08874692963975593,0.08874692963975593
exact,pre_advance,A,no_revision,ar,2005:Q2,0.040966472364376456,0.1297134020041324
exact,pre_advance,A,no_revision,ar,2005:Q3,-0.031226228518457605,0.09848717348567479
exact,pre_advance,A,no_revision,ar,2005:Q4,0.046713440745937085,0.14520061423161187
exact,pre_advance,A,no_revision,ar,2006:Q1,0.2896009063455285,0.4348015205771404
exact,pre_advance,A,no_revision,ar,2006:Q2,-0.23821638189440708,0.1965851386827333
exact,pre_advance,A,no_revision,ar,2006:Q3,1.5131571518221478,1.7097422905048811
exact,pre_advance,A,no_revision,ar,2006:Q4,0.6979405977637259,2.407682888268607
exact,pre_advance,A,no_revision,ar,2007:Q1,0.8962491415683229,3.30393202983693
exact,pre_advance,A,no_revision,ar,2007:Q2,0.20518839191798185,3.5091204217549117
exact,pre_advance,A,no_revision,ar,2007:Q3,0.3938986582853892,3.903019080040301
exact,pre_advance,A,no_revision,ar,2007:Q4,-0.37773340553059676,3.5252856745097043
exact,pre_advance,A,no_revision,ar,2008:Q1,-0.5402723477166482,2.985013326793056
exact,pre_advance,A,no_revision,ar,2008:Q2,-0.05298816563421621,2.93202516115884
exact,pre_advance,A,no_revision,ar,2008:Q3,-1.0682985596124297,1.8637266015464102
exact,pre_advance,A,no_revision,ar,2008:Q4,-4.572887157210417,-2.7091605556640066
exact,pre_advance,A,no_revision,ar,2009:Q1,-7.618613272670146,-10.327773828334152
exact,pre_advance,A,no_revision,ar,2009:Q2,3.209490660784729,-7.118283167549423
exact,pre_advance,A,no_revision,ar,2009:Q3,14.290257623346172,7.171974455796748
exact,pre_advance,A,no_revision,ar,2009:Q4,4.272604095383013,11.444578551179761
exact,pre_advance,A,no_revision,ar,2010:Q1,0.1052614888874095,11.54984004006717
exact,pre_advance,A,no_revision,ar,2010:Q2,-0.2966683973652735,11.253171642701897
exact,pre_advance,A,no_revision,ar,2010:Q3,-0.19166514397311674,11.06150649872878
exact,pre_advance,A,no_revision,ar,2010:Q4,-0.24778376624528853,10.813722732483493
exact,pre_advance,A,no_revision,ar,2011:Q1,0.024182923181835347,10.837905655665327
exact,pre_advance,A,no_revision,ar,2011:Q2,-0.07185965115155624,10.766046004513772
exact,pre_advance,A,no_revision,ar,2011:Q3,0.46264992842471653,11.22869593293849
exact,pre_advance,A,no_revision,ar,2011:Q4,-0.08967468490447972,11.139021248034009
exact,pre_advance,A,no_revision,ar,2012:Q1,0.08909915381658545,11.228120401850594
exact,pre_advance,A,no_revision,ar,2012:Q2,-0.11003003360635416,11.118090368244241
exact,pre_advance,A,no_revision,ar,2012:Q3,0.022578895811172207,11.140669264055413
exact,pre_advance,A,no_revision,ar,2012:Q4,0.5959567229762888,11.736625987031701
exact,pre_advance,A,no_revision,ar,2013:Q1,-0.4923435742322788,11.244282412799421
exact,pre_advance,A,no_revision,ar,2013:Q2,-0.21194886599328144,11.03233354680614
exact,pre_advance,A,no_revision,ar,2013:Q3,-0.5594557200406323,10.472877826765508
exact,pre_advance,A,no_revision,ar,2013:Q4,0.49084930381427094,10.963727130579779
exact,pre_advance,A,no_revision,ar,2014:Q1,0.8368730641426074,11.800600194722385
exact,pre_advance,A,no_revision,ar,2014:Q2,2.6537765116127137,14.454376706335099
exact,pre_advance,A,no_revision,ar,2014:Q3,-0.10898027949958863,14.34539642683551
exact,pre_advance,A,no_revision,ar,2014:Q4,-0.02880849056013346,14.316587936275377
exact,pre_advance,A,no_revision,ar,2015:Q1,-1.0425010995946304,13.274086836680747
exact,pre_advance,A,no_revision,ar,2015:Q2,0.9061685695574193,14.180255406238166
exact,pre_advance,A,no_revision,ar,2015:Q3,0.4373149300290265,14.617570336267192
exact,pre_advance,A,no_revision,ar,2015:Q4,-0.016291702316212797,14.60127863395098
exact,pre_advance,A,no_revision,ar,2016:Q1,-0.05673810973640281,14.544540524214577
exact,pre_advance,A,no_revision,ar,2016:Q2,0.0032580960917223878,14.547798620306299
exact,pre_advance,A,no_revision,ar,2016:Q3,-0.4477541706482031,14.100044449658096
exact,pre_advance,A,no_revision,ar,2016:Q4,0.22454304192648553,14.324587491584582
exact,pre_advance,A,no_revision,ar,2017:Q1,-0.237678278924097,14.086909212660485
exact,pre_advance,A,no_revision,ar,2017:Q2,0.759611147556073,14.846520360216559
exact,pre_advance,A,no_revision,ar,2017:Q3,-0.48223151365441974,14.36428884656214
exact,pre_advance,A,no_revision,ar,2017:Q4,0.035508765348774285,14.399797611910914
exact,pre_advance,A,no_revision,ar,2018:Q1,0.1784641956072798,14.578261807518194
exact,pre_advance,A,no_revision,ar,2018:Q2,0.70503248721886,15.283294294737054
exact,pre_advance,A,no_revision,ar,2018:Q3,-0.1707624270893237,15.11253186764773
exact,pre_advance,A,no_revision,ar,2018:Q4,0.09642021086537815,15.208952078513109
exact,pre_advance,A,no_revision,ar,2019:Q1,1.790779657895314e-08,15.208952096420905
exact,pre_advance,A,no_revision,ar,2019:Q2,-1.4614737564588864e-07,15.20895195027353
exact,pre_advance,A,no_revision,ar,2019:Q3,0.0373619669925358,15.246313917266066
exact,pre_advance,A,no_revision,ar,2019:Q4,3.3637089502658313e-09,15.246313920629776
exact,pre_advance,A,no_revision,ar,2020:Q1,3.7182004936979,18.964514414327674
exact,pre_advance,A,no_revision,ar,2020:Q2,110.33729981554461,129.3018142298723
exact,pre_advance,A,no_revision,ar,2020:Q3,5948.854524175391,6078.156338405263
exact,pre_advance,A,no_revision,ar,2020:Q4,-16.578990308128255,6061.577348097135
exact,pre_advance,A,no_revision,ar,2021:Q1,1588.8716385061232,7650.448986603258
exact,pre_advance,A,no_revision,ar,2021:Q2,466.53640208831473,8116.985388691573
exact,pre_advance,A,no_revision,ar,2021:Q3,1.9848595343319175e-05,8116.985408540168
exact,pre_advance,A,no_revision,ar,2021:Q4,-2.2298679169807656e-07,8116.98540831718
exact,pre_advance,A,no_revision,ar,2022:Q1,5.104517031284672e-09,8116.9854083222845
exact,pre_advance,A,no_revision,ar,2022:Q2,2.849998788079233e-07,8116.985408607285
exact,pre_advance,A,no_revision,ar,2022:Q3,1.9799002093368046e-07,8116.985408805274
exact,pre_advance,A,no_revision,ar,2022:Q4,-9.093856909170306e-08,8116.985408714336
exact,pre_advance,A,no_revision,ar,2023:Q1,4.4491828266046696e-07,8116.985409159254
exact,pre_advance,A,no_revision,ar,2023:Q2,6.048042650030894e-08,8116.985409219735
exact,pre_advance,A,no_revision,ar,2023:Q3,-5.187887630597743e-07,8116.985408700946
exact,pre_advance,A,no_revision,ar,2023:Q4,-3.814581814864937e-07,8116.985408319488
exact,pre_advance,A,no_revision,ar,2024:Q1,-6.142999547931183e-08,8116.985408258058
exact,pre_advance,A,no_revision,ar,2024:Q2,-1.5426049060351943e-07,8116.985408103797
exact,pre_advance,A,no_revision,ar,2024:Q3,-1.8705413040720487e-07,8116.9854079167435
exact,pre_advance,A,no_revision,ar,2024:Q4,-8.528527142837028e-08,8116.985407831458
exact,pre_advance,A,no_revision,bridge,2005:Q1,-0.09290838536443823,-0.09290838536443823
exact,pre_advance,A,no_revision,bridge,2005:Q2,0.05395507194449585,-0.038953313419942376
exact,pre_advance,A,no_revision,bridge,2005:Q3,-0.05389565906382435,-0.09284897248376672
exact,pre_advance,A,no_revision,bridge,2005:Q4,-1.6275411457751403,-1.720390118258907
exact,pre_advance,A,no_revision,bridge,2006:Q1,3.2806074760495516,1.5602173577906446
exact,pre_advance,A,no_revision,bridge,2006:Q2,0.9322477677627481,2.4924651255533927
exact,pre_advance,A,no_revision,bridge,2006:Q3,3.8189303837231834,6.311395509276576
exact,pre_advance,A,no_revision,bridge,2006:Q4,-5.0291823396070265,1.2822131696695491
exact,pre_advance,A,no_revision,bridge,2007:Q1,3.69768200861784,4.979895178287389
exact,pre_advance,A,no_revision,bridge,2007:Q2,0.4023156028073665,5.382210781094756
exact,pre_advance,A,no_revision,bridge,2007:Q3,-2.2295058980909426,3.152704883003813
exact,pre_advance,A,no_revision,bridge,2007:Q4,6.6676880599875386,9.82039294299135
exact,pre_advance,A,no_revision,bridge,2008:Q1,3.9917418680647407,13.812134811056092
exact,pre_advance,A,no_revision,bridge,2008:Q2,0.14831233348618655,13.960447144542279
exact,pre_advance,A,no_revision,bridge,2008:Q3,8.174791828031047,22.135238972573326
exact,pre_advance,A,no_revision,bridge,2008:Q4,24.364751525367197,46.49999049794052
exact,pre_advance,A,no_revision,bridge,2009:Q1,20.32058650706734,66.82057700500786
exact,pre_advance,A,no_revision,bridge,2009:Q2,3.2658681894959387,70.0864451945038
exact,pre_advance,A,no_revision,bridge,2009:Q3,23.28806307686891,93.3745082713727
exact,pre_advance,A,no_revision,bridge,2009:Q4,8.714071453105378,102.08857972447808
exact,pre_advance,A,no_revision,bridge,2010:Q1,-6.738991583170212,95.34958814130786
exact,pre_advance,A,no_revision,bridge,2010:Q2,-3.008693357965641,92.34089478334222
exact,pre_advance,A,no_revision,bridge,2010:Q3,-0.3423073793101543,91.99858740403207
exact,pre_advance,A,no_revision,bridge,2010:Q4,0.0610563201886567,92.05964372422072
exact,pre_advance,A,no_revision,bridge,2011:Q1,-3.7010694112664653,88.35857431295426
exact,pre_advance,A,no_revision,bridge,2011:Q2,-3.921789695191633,84.43678461776263
exact,pre_advance,A,no_revision,bridge,2011:Q3,0.5610193653630828,84.9978039831257
exact,pre_advance,A,no_revision,bridge,2011:Q4,-0.5624835243483388,84.43532045877737
exact,pre_advance,A,no_revision,bridge,2012:Q1,-1.4056709625085027,83.02964949626886
exact,pre_advance,A,no_revision,bridge,2012:Q2,-0.5387039776399457,82.49094551862892
exact,pre_advance,A,no_revision,bridge,2012:Q3,-0.44341781754698023,82.04752770108193
exact,pre_advance,A,no_revision,bridge,2012:Q4,-5.8812229508806695,76.16630475020126
exact,pre_advance,A,no_revision,bridge,2013:Q1,1.679667014779936,77.8459717649812
exact,pre_advance,A,no_revision,bridge,2013:Q2,-0.37203270752226897,77.47393905745894
exact,pre_advance,A,no_revision,bridge,2013:Q3,-0.060226395229339424,77.4137126622296
exact,pre_advance,A,no_revision,bridge,2013:Q4,0.9697815708594996,78.3834942330891
exact,pre_advance,A,no_revision,bridge,2014:Q1,5.298825698852957,83.68231993194205
exact,pre_advance,A,no_revision,bridge,2014:Q2,10.020499773512965,93.70281970545501
exact,pre_advance,A,no_revision,bridge,2014:Q3,-0.8023692067187449,92.90045049873626
exact,pre_advance,A,no_revision,bridge,2014:Q4,0.054823889863832305,92.95527438860009
exact,pre_advance,A,no_revision,bridge,2015:Q1,2.643711558163651,95.59898594676373
exact,pre_advance,A,no_revision,bridge,2015:Q2,1.8236009883120532,97.42258693507578
exact,pre_advance,A,no_revision,bridge,2015:Q3,0.7257581016369474,98.14834503671273
exact,pre_advance,A,no_revision,bridge,2015:Q4,0.8634153280133849,99.01176036472611
exact,pre_advance,A,no_revision,bridge,2016:Q1,-0.31097811112980356,98.70078225359632
exact,pre_advance,A,no_revision,bridge,2016:Q2,-0.16381315140305644,98.53696910219325
exact,pre_advance,A,no_revision,bridge,2016:Q3,1.167857407778111,99.70482650997137
exact,pre_advance,A,no_revision,bridge,2016:Q4,0.46767198324403103,100.1724984932154
exact,pre_advance,A,no_revision,bridge,2017:Q1,-1.4266322575456825,98.74586623566972
exact,pre_advance,A,no_revision,bridge,2017:Q2,2.2387303090235724,100.98459654469329
exact,pre_advance,A,no_revision,bridge,2017:Q3,-1.4248981411562291,99.55969840353706
exact,pre_advance,A,no_revision,bridge,2017:Q4,-0.042783891684306755,99.51691451185275
exact,pre_advance,A,no_revision,bridge,2018:Q1,-0.7738626987061503,98.7430518131466
exact,pre_advance,A,no_revision,bridge,2018:Q2,3.1965350498437166,101.93958686299031
exact,pre_advance,A,no_revision,bridge,2018:Q3,-1.7391242024650309,100.20046266052528
exact,pre_advance,A,no_revision,bridge,2018:Q4,0.09238926779889059,100.29285192832417
exact,pre_advance,A,no_revision,bridge,2019:Q1,-0.0071491611281944145,100.28570276719597
exact,pre_advance,A,no_revision,bridge,2019:Q2,-1.6906556360249476,98.59504713117103
exact,pre_advance,A,no_revision,bridge,2019:Q3,-0.075753706236341,98.51929342493469
exact,pre_advance,A,no_revision,bridge,2019:Q4,0.03438885088523378,98.55368227581992
exact,pre_advance,A,no_revision,bridge,2020:Q1,12.760916622351985,111.31459889817191
exact,pre_advance,A,no_revision,bridge,2020:Q2,749.8150412614768,861.1296401596487
exact,pre_advance,A,no_revision,bridge,2020:Q3,12740.407568408393,13601.537208568041
exact,pre_advance,A,no_revision,bridge,2020:Q4,255.92438190771415,13857.461590475756
exact,pre_advance,A,no_revision,bridge,2021:Q1,1610.3657098204635,15467.82730029622
exact,pre_advance,A,no_revision,bridge,2021:Q2,494.11570148755203,15961.943001783771
exact,pre_advance,A,no_revision,bridge,2021:Q3,510.0089832849719,16471.951985068743
exact,pre_advance,A,no_revision,bridge,2021:Q4,34.82250160704001,16506.774486675782
exact,pre_advance,A,no_revision,bridge,2022:Q1,-44.453526907496425,16462.320959768287
exact,pre_advance,A,no_revision,bridge,2022:Q2,-24.50123582058489,16437.8197239477
exact,pre_advance,A,no_revision,bridge,2022:Q3,-1.8675105737353739,16435.952213373967
exact,pre_advance,A,no_revision,bridge,2022:Q4,-25.879863176720814,16410.072350197246
exact,pre_advance,A,no_revision,bridge,2023:Q1,2.5838705995769806,16412.656220796824
exact,pre_advance,A,no_revision,bridge,2023:Q2,-0.08374473178656923,16412.572476065037
exact,pre_advance,A,no_revision,bridge,2023:Q3,2.460608513237874,16415.033084578274
exact,pre_advance,A,no_revision,bridge,2023:Q4,-5.954948064175123,16409.078136514097
exact,pre_advance,A,no_revision,bridge,2024:Q1,-1.6417211397916807,16407.436415374304
exact,pre_advance,A,no_revision,bridge,2024:Q2,-0.22427161360715742,16407.2121437607
exact,pre_advance,A,no_revision,bridge,2024:Q3,0.02773746385213771,16407.239881224552
exact,pre_advance,A,no_revision,bridge,2024:Q4,0.22980127680030016,16407.469682501353
exact,pre_advance,A,no_revision,indicator_revision_only_dfm_kalman_em,2005:Q1,-3.451590023089131,-3.451590023089131
exact,pre_advance,A,no_revision,indicator_revision_only_dfm_kalman_em,2005:Q2,-0.4256211351343811,-3.877211158223512
exact,pre_advance,A,no_revision,indicator_revision_only_dfm_kalman_em,2005:Q3,-0.20321677556579315,-4.080427933789305
exact,pre_advance,A,no_revision,indicator_revision_only_dfm_kalman_em,2005:Q4,-5.746469634904823,-9.826897568694129
exact,pre_advance,A,no_revision,indicator_revision_only_dfm_kalman_em,2006:Q1,4.294181014949578,-5.532716553744551
exact,pre_advance,A,no_revision,indicator_revision_only_dfm_kalman_em,2006:Q2,-0.3113835587866728,-5.844100112531224
exact,pre_advance,A,no_revision,indicator_revision_only_dfm_kalman_em,2006:Q3,2.891846974982136,-2.9522531375490884
exact,pre_advance,A,no_revision,indicator_revision_only_dfm_kalman_em,2006:Q4,-6.903235148200047,-9.855488285749136
exact,pre_advance,A,no_revision,indicator_revision_only_dfm_kalman_em,2007:Q1,1.4932951411603588,-8.362193144588776
exact,pre_advance,A,no_revision,indicator_revision_only_dfm_kalman_em,2007:Q2,0.045417212788379124,-8.316775931800397
exact,pre_advance,A,no_revision,indicator_revision_only_dfm_kalman_em,2007:Q3,-8.871597581290871,-17.188373513091268
exact,pre_advance,A,no_revision,indicator_revision_only_dfm_kalman_em,2007:Q4,6.95901575733288,-10.229357755758388
exact,pre_advance,A,no_revision,indicator_revision_only_dfm_kalman_em,2008:Q1,3.9798446889567978,-6.24951306680159
exact,pre_advance,A,no_revision,indicator_revision_only_dfm_kalman_em,2008:Q2,-0.8561887492916769,-7.1057018160932675
exact,pre_advance,A,no_revision,indicator_revision_only_dfm_kalman_em,2008:Q3,8.201464487735928,1.0957626716426603
exact,pre_advance,A,no_revision,indicator_revision_only_dfm_kalman_em,2008:Q4,21.853357462386292,22.949120134028952
exact,pre_advance,A,no_revision,indicator_revision_only_dfm_kalman_em,2009:Q1,33.073018090043085,56.02213822407204
exact,pre_advance,A,no_revision,indicator_revision_only_dfm_kalman_em,2009:Q2,5.3172945374249005,61.33943276149694
exact,pre_advance,A,no_revision,indicator_revision_only_dfm_kalman_em,2009:Q3,21.81615321000781,83.15558597150475
exact,pre_advance,A,no_revision,indicator_revision_only_dfm_kalman_em,2009:Q4,4.697815748607778,87.85340172011253
exact,pre_advance,A,no_revision,indicator_revision_only_dfm_kalman_em,2010:Q1,-5.565391466639616,82.28801025347292
exact,pre_advance,A,no_revision,indicator_revision_only_dfm_kalman_em,2010:Q2,-8.148033958854558,74.13997629461836
exact,pre_advance,A,no_revision,indicator_revision_only_dfm_kalman_em,2010:Q3,-1.9740367914558914,72.16593950316248
exact,pre_advance,A,no_revision,indicator_revision_only_dfm_kalman_em,2010:Q4,0.7201654467422599,72.88610494990473
exact,pre_advance,A,no_revision,indicator_revision_only_dfm_kalman_em,2011:Q1,-11.699586988742055,61.18651796116268
exact,pre_advance,A,no_revision,indicator_revision_only_dfm_kalman_em,2011:Q2,-4.0973364299707145,57.08918153119196
exact,pre_advance,A,no_revision,indicator_revision_only_dfm_kalman_em,2011:Q3,0.5595175341273485,57.64869906531931
exact,pre_advance,A,no_revision,indicator_revision_only_dfm_kalman_em,2011:Q4,-0.980307616179514,56.6683914491398
exact,pre_advance,A,no_revision,indicator_revision_only_dfm_kalman_em,2012:Q1,-3.0685876784326283,53.59980377070717
exact,pre_advance,A,no_revision,indicator_revision_only_dfm_kalman_em,2012:Q2,-1.9559177228945686,51.6438860478126
exact,pre_advance,A,no_revision,indicator_revision_only_dfm_kalman_em,2012:Q3,0.03807177203448441,51.681957819847085
exact,pre_advance,A,no_revision,indicator_revision_only_dfm_kalman_em,2012:Q4,-6.170750460918645,45.51120735892844
exact,pre_advance,A,no_revision,indicator_revision_only_dfm_kalman_em,2013:Q1,1.3115026815059743,46.822710040434416
exact,pre_advance,A,no_revision,indicator_revision_only_dfm_kalman_em,2013:Q2,-0.16248975595352616,46.66022028448089
exact,pre_advance,A,no_revision,indicator_revision_only_dfm_kalman_em,2013:Q3,0.05787980555396052,46.71810009003485
exact,pre_advance,A,no_revision,indicator_revision_only_dfm_kalman_em,2013:Q4,0.7820099072618832,47.50010999729673
exact,pre_advance,A,no_revision,indicator_revision_only_dfm_kalman_em,2014:Q1,3.5292607429035936,51.02937074020033
exact,pre_advance,A,no_revision,indicator_revision_only_dfm_kalman_em,2014:Q2,9.741513791301497,60.77088453150182
exact,pre_advance,A,no_revision,indicator_revision_only_dfm_kalman_em,2014:Q3,-0.04751769657388716,60.72336683492794
exact,pre_advance,A,no_revision,indicator_revision_only_dfm_kalman_em,2014:Q4,-0.0010713271008609138,60.72229550782708
exact,pre_advance,A,no_revision,indicator_revision_only_dfm_kalman_em,2015:Q1,3.4789398089128944,64.20123531673997
exact,pre_advance,A,no_revision,indicator_revision_only_dfm_kalman_em,2015:Q2,1.6285291718039785,65.82976448854394
exact,pre_advance,A,no_revision,indicator_revision_only_dfm_kalman_em,2015:Q3,0.5326792947453427,66.36244378328928
exact,pre_advance,A,no_revision,indicator_revision_only_dfm_kalman_em,2015:Q4,0.4447925084715836,66.80723629176086
exact,pre_advance,A,no_revision,indicator_revision_only_dfm_kalman_em,2016:Q1,-0.21704209746080827,66.59019419430005
exact,pre_advance,A,no_revision,indicator_revision_only_dfm_kalman_em,2016:Q2,-0.1169889089709905,66.47320528532906
exact,pre_advance,A,no_revision,indicator_revision_only_dfm_kalman_em,2016:Q3,0.7114760613994544,67.18468134672851
exact,pre_advance,A,no_revision,indicator_revision_only_dfm_kalman_em,2016:Q4,-0.0013125013333892266,67.18336884539512
exact,pre_advance,A,no_revision,indicator_revision_only_dfm_kalman_em,2017:Q1,-2.446375908865372,64.73699293652975
exact,pre_advance,A,no_revision,indicator_revision_only_dfm_kalman_em,2017:Q2,2.4888238947945354,67.22581683132428
exact,pre_advance,A,no_revision,indicator_revision_only_dfm_kalman_em,2017:Q3,-1.5816596408009045,65.64415719052337
exact,pre_advance,A,no_revision,indicator_revision_only_dfm_kalman_em,2017:Q4,-0.33923810763130835,65.30491908289207
exact,pre_advance,A,no_revision,indicator_revision_only_dfm_kalman_em,2018:Q1,-0.11739994605273305,65.18751913683934
exact,pre_advance,A,no_revision,indicator_revision_only_dfm_kalman_em,2018:Q2,1.8301115236866803,67.01763066052602
exact,pre_advance,A,no_revision,indicator_revision_only_dfm_kalman_em,2018:Q3,-1.3472833221990201,65.670347338327
exact,pre_advance,A,no_revision,indicator_revision_only_dfm_kalman_em,2018:Q4,-0.14462929144997036,65.52571804687703
exact,pre_advance,A,no_revision,indicator_revision_only_dfm_kalman_em,2019:Q1,-1.5500238740316696,63.975694172845365
exact,pre_advance,A,no_revision,indicator_revision_only_dfm_kalman_em,2019:Q2,0.16756702354836636,64.14326119639374
exact,pre_advance,A,no_revision,indicator_revision_only_dfm_kalman_em,2019:Q3,0.016316292460949847,64.1595774888547
exact,pre_advance,A,no_revision,indicator_revision_only_dfm_kalman_em,2019:Q4,-0.35282473338987785,63.806752755464814
exact,pre_advance,A,no_revision,indicator_revision_only_dfm_kalman_em,2020:Q1,27.87293651893808,91.67968927440289
exact,pre_advance,A,no_revision,indicator_revision_only_dfm_kalman_em,2020:Q2,271.99366912475386,363.67335839915677
exact,pre_advance,A,no_revision,indicator_revision_only_dfm_kalman_em,2020:Q3,12282.444734193434,12646.118092592591
exact,pre_advance,A,no_revision,indicator_revision_only_dfm_kalman_em,2020:Q4,336.5695070390404,12982.687599631632
exact,pre_advance,A,no_revision,indicator_revision_only_dfm_kalman_em,2021:Q1,1594.5397186322157,14577.227318263847
exact,pre_advance,A,no_revision,indicator_revision_only_dfm_kalman_em,2021:Q2,476.4254273848733,15053.65274564872
exact,pre_advance,A,no_revision,indicator_revision_only_dfm_kalman_em,2021:Q3,508.9938140563425,15562.646559705063
exact,pre_advance,A,no_revision,indicator_revision_only_dfm_kalman_em,2021:Q4,43.415064467494986,15606.061624172558
exact,pre_advance,A,no_revision,indicator_revision_only_dfm_kalman_em,2022:Q1,-9.280402089123369,15596.781222083435
exact,pre_advance,A,no_revision,indicator_revision_only_dfm_kalman_em,2022:Q2,-7.526346116744395,15589.25487596669
exact,pre_advance,A,no_revision,indicator_revision_only_dfm_kalman_em,2022:Q3,-4.169741077446345,15585.085134889243
exact,pre_advance,A,no_revision,indicator_revision_only_dfm_kalman_em,2022:Q4,-10.465065339166271,15574.620069550077
exact,pre_advance,A,no_revision,indicator_revision_only_dfm_kalman_em,2023:Q1,2.4459362287076973,15577.066005778785
exact,pre_advance,A,no_revision,indicator_revision_only_dfm_kalman_em,2023:Q2,-1.932268576531189,15575.133737202254
exact,pre_advance,A,no_revision,indicator_revision_only_dfm_kalman_em,2023:Q3,-6.046185480259378,15569.087551721994
exact,pre_advance,A,no_revision,indicator_revision_only_dfm_kalman_em,2023:Q4,1.676593961752233,15570.764145683746
exact,pre_advance,A,no_revision,indicator_revision_only_dfm_kalman_em,2024:Q1,0.15392411326499394,15570.918069797011
exact,pre_advance,A,no_revision,indicator_revision_only_dfm_kalman_em,2024:Q2,-0.387524606705129,15570.530545190306
exact,pre_advance,A,no_revision,indicator_revision_only_dfm_kalman_em,2024:Q3,-0.0513518547934364,15570.479193335512
exact,pre_advance,A,no_revision,indicator_revision_only_dfm_kalman_em,2024:Q4,0.05754465385721272,15570.536737989369
exact,pre_advance,A,no_revision,joint_indicator_revision_dfm_full_kalman_em,2005:Q1,-2.55427397826632,-2.55427397826632
exact,pre_advance,A,no_revision,joint_indicator_revision_dfm_full_kalman_em,2005:Q2,-0.11298708246732868,-2.6672610607336487
exact,pre_advance,A,no_revision,joint_indicator_revision_dfm_full_kalman_em,2005:Q3,0.10288067963863917,-2.5643803810950097
exact,pre_advance,A,no_revision,joint_indicator_revision_dfm_full_kalman_em,2005:Q4,-3.6180960566542044,-6.182476437749214
exact,pre_advance,A,no_revision,joint_indicator_revision_dfm_full_kalman_em,2006:Q1,4.0184162144325315,-2.1640602233166826
exact,pre_advance,A,no_revision,joint_indicator_revision_dfm_full_kalman_em,2006:Q2,0.17358651628933963,-1.990473707027343
exact,pre_advance,A,no_revision,joint_indicator_revision_dfm_full_kalman_em,2006:Q3,3.4513604823205024,1.4608867752931594
exact,pre_advance,A,no_revision,joint_indicator_revision_dfm_full_kalman_em,2006:Q4,-4.704385608673762,-3.243498833380603
exact,pre_advance,A,no_revision,joint_indicator_revision_dfm_full_kalman_em,2007:Q1,3.248276053614203,0.004777220233600055
exact,pre_advance,A,no_revision,joint_indicator_revision_dfm_full_kalman_em,2007:Q2,-0.17696021534632533,-0.17218299511272528
exact,pre_advance,A,no_revision,joint_indicator_revision_dfm_full_kalman_em,2007:Q3,-5.60767248254884,-5.779855477661565
exact,pre_advance,A,no_revision,joint_indicator_revision_dfm_full_kalman_em,2007:Q4,6.575153456041807,0.7952979783802423
exact,pre_advance,A,no_revision,joint_indicator_revision_dfm_full_kalman_em,2008:Q1,4.0160679498263026,4.811365928206545
exact,pre_advance,A,no_revision,joint_indicator_revision_dfm_full_kalman_em,2008:Q2,-0.7515666078743115,4.059799320332234
exact,pre_advance,A,no_revision,joint_indicator_revision_dfm_full_kalman_em,2008:Q3,8.237318915629967,12.2971182359622
exact,pre_advance,A,no_revision,joint_indicator_revision_dfm_full_kalman_em,2008:Q4,25.096459303865885,37.39357753982809
exact,pre_advance,A,no_revision,joint_indicator_revision_dfm_full_kalman_em,2009:Q1,33.209788205486205,70.60336574531429
exact,pre_advance,A,no_revision,joint_indicator_revision_dfm_full_kalman_em,2009:Q2,5.3439753129164655,75.94734105823076
exact,pre_advance,A,no_revision,joint_indicator_revision_dfm_full_kalman_em,2009:Q3,23.579537808576582,99.52687886680735
exact,pre_advance,A,no_revision,joint_indicator_revision_dfm_full_kalman_em,2009:Q4,2.8540979469785164,102.38097681378586
exact,pre_advance,A,no_revision,joint_indicator_revision_dfm_full_kalman_em,2010:Q1,-1.0790112275137933,101.30196558627208
exact,pre_advance,A,no_revision,joint_indicator_revision_dfm_full_kalman_em,2010:Q2,-5.885909766301901,95.41605581997017
exact,pre_advance,A,no_revision,joint_indicator_revision_dfm_full_kalman_em,2010:Q3,-0.7059373672099083,94.71011845276026
exact,pre_advance,A,no_revision,joint_indicator_revision_dfm_full_kalman_em,2010:Q4,0.7213037233770843,95.43142217613735
exact,pre_advance,A,no_revision,joint_indicator_revision_dfm_full_kalman_em,2011:Q1,-4.633241370355105,90.79818080578224
exact,pre_advance,A,no_revision,joint_indicator_revision_dfm_full_kalman_em,2011:Q2,-7.40632113919946,83.39185966658277
exact,pre_advance,A,no_revision,joint_indicator_revision_dfm_full_kalman_em,2011:Q3,0.8395541847068774,84.23141385128966
exact,pre_advance,A,no_revision,joint_indicator_revision_dfm_full_kalman_em,2011:Q4,-0.027039776757085007,84.20437407453258
exact,pre_advance,A,no_revision,joint_indicator_revision_dfm_full_kalman_em,2012:Q1,-3.011891382525133,81.19248269200745
exact,pre_advance,A,no_revision,joint_indicator_revision_dfm_full_kalman_em,2012:Q2,-0.9837395710065576,80.2087431210009
exact,pre_advance,A,no_revision,joint_indicator_revision_dfm_full_kalman_em,2012:Q3,0.03888210955384313,80.24762523055473
exact,pre_advance,A,no_revision,joint_indicator_revision_dfm_full_kalman_em,2012:Q4,-7.660673732464877,72.58695149808986
exact,pre_advance,A,no_revision,joint_indicator_revision_dfm_full_kalman_em,2013:Q1,0.9462433712559997,73.53319486934586
exact,pre_advance,A,no_revision,joint_indicator_revision_dfm_full_kalman_em,2013:Q2,0.14263224658118825,73.67582711592705
exact,pre_advance,A,no_revision,joint_indicator_revision_dfm_full_kalman_em,2013:Q3,0.1125504776660308,73.78837759359308
exact,pre_advance,A,no_revision,joint_indicator_revision_dfm_full_kalman_em,2013:Q4,0.8811656030643824,74.66954319665747
exact,pre_advance,A,no_revision,joint_indicator_revision_dfm_full_kalman_em,2014:Q1,4.764601682364317,79.43414487902179
exact,pre_advance,A,no_revision,joint_indicator_revision_dfm_full_kalman_em,2014:Q2,6.335766890777162,85.76991176979895
exact,pre_advance,A,no_revision,joint_indicator_revision_dfm_full_kalman_em,2014:Q3,-0.045981879177366125,85.72392989062159
exact,pre_advance,A,no_revision,joint_indicator_revision_dfm_full_kalman_em,2014:Q4,0.055135719482636666,85.77906561010423
exact,pre_advance,A,no_revision,joint_indicator_revision_dfm_full_kalman_em,2015:Q1,3.4480587074231237,89.22712431752736
exact,pre_advance,A,no_revision,joint_indicator_revision_dfm_full_kalman_em,2015:Q2,0.25858672084196166,89.48571103836932
exact,pre_advance,A,no_revision,joint_indicator_revision_dfm_full_kalman_em,2015:Q3,-0.15353114249527355,89.33217989587405
exact,pre_advance,A,no_revision,joint_indicator_revision_dfm_full_kalman_em,2015:Q4,0.0005198279437514941,89.3326997238178
exact,pre_advance,A,no_revision,joint_indicator_revision_dfm_full_kalman_em,2016:Q1,-0.17805546151959595,89.1546442622982
exact,pre_advance,A,no_revision,joint_indicator_revision_dfm_full_kalman_em,2016:Q2,-0.1387135031054531,89.01593075919276
exact,pre_advance,A,no_revision,joint_indicator_revision_dfm_full_kalman_em,2016:Q3,0.5357210858557478,89.5516518450485
exact,pre_advance,A,no_revision,joint_indicator_revision_dfm_full_kalman_em,2016:Q4,0.23785181370480746,89.7895036587533
exact,pre_advance,A,no_revision,joint_indicator_revision_dfm_full_kalman_em,2017:Q1,-2.2120305494800006,87.5774731092733
exact,pre_advance,A,no_revision,joint_indicator_revision_dfm_full_kalman_em,2017:Q2,2.4570537915407242,90.03452690081403
