haminh109/Revision-Aware-DFM/outputs/full_state_space_release_revision_dfm/frozen/q1_manuscript_v1_sensitivity_rolling/sensitivity_runs/sensitivity_window_rolling_max_iter100/evidence_dir/density_revision_records.csv
model_id,timing_mode,checkpoint_id,outcome_id,forecast_origin,forecast_origin_date,target_quarter,forecast_value,realized_value,forecast_error,calibration_n,predictive_variance,predictive_sd,log_score,crps,pit,prob_below_zero,prob_large_positive_revision_gt_0p2,prob_large_negative_revision_lt_minus_0p2,realized_below_zero,realized_large_positive_revision_gt_0p2,realized_large_negative_revision_lt_minus_0p2,lower_68,upper_68,covered_68,lower_90,upper_90,covered_90,density_method
ar,exact,pre_advance,DELTA_SA,2008:Q1:pre_advance:exact,2008-04-29,2008:Q1,-0.1142763871234224,0.3031999999999999,-0.4174763871234224,12,0.40583080932270943,0.6370485141044671,-0.6827571383433656,0.2542748855822847,0.7438720341861671,0.571181950240202,0.3108890275163093,0.44647841705045566,False,True,False,-0.7513249012278894,0.5227721269810447,True,-1.1621279460922012,0.9335751718453563,True,expanding_residual_calibrated_gaussian
ar,exact,pre_advance,DELTA_SA,2008:Q2:pre_advance:exact,2008-07-30,2008:Q2,-0.0409454714210477,1.3898,-1.4307454714210477,13,0.3777109973167639,0.6145819695669276,-3.1419124387810564,1.088149713157056,0.9900438896851094,0.5265591970166134,0.347511470540359,0.39789433018787584,False,True,False,-0.6555274409879752,0.5736364981458799,False,-1.051842853122188,0.9699519102800925,False,expanding_residual_calibrated_gaussian
ar,exact,pre_advance,DELTA_SA,2008:Q3:pre_advance:exact,2008-10-29,2008:Q3,0.4220106688449552,-0.2618,0.6838106688449552,14,0.46287317547765,0.6803478341831111,-1.0388901958773622,0.4122379712525538,0.15742680548844398,0.26753454613677596,0.6279086284247631,0.1802917208646585,True,False,True,-0.25833716533815587,1.1023585030280663,False,-0.6970619337997139,1.5410832714896243,True,expanding_residual_calibrated_gaussian
ar,exact,pre_advance,DELTA_SA,2008:Q4:pre_advance:exact,2009-01-29,2008:Q4,-0.0676161523905722,-2.4444,2.3767838476094276,15,0.48876130826333386,0.6991146603121221,-6.339996235063952,1.9824719475285173,0.00033729252682806733,0.5385243621853821,0.35093665032813226,0.4249056190699748,True,False,True,-0.7667308127026943,0.6314985079215499,False,-1.2175574370599127,1.0823251322787681,False,expanding_residual_calibrated_gaussian
ar,exact,pre_advance,DELTA_SA,2009:Q1:pre_advance:exact,2009-04-28,2009:Q1,-1.8397929990735715,0.4245000000000001,-2.2642929990735716,16,0.8691868114042902,0.9323018885555742,-3.7981614800405405,1.7429484864635783,0.9924237230733902,0.9757742911375223,0.014338064752579371,0.9606997646200877,False,True,False,-2.772094887629146,-0.9074911105179974,False,-3.373293141877915,-0.3062928562692282,False,expanding_residual_calibrated_gaussian
ar,exact,pre_advance,DELTA_SA,2009:Q2:pre_advance:exact,2009-07-30,2009:Q2,0.102919209485575,0.0030000000000001,0.0999192094855749,17,1.1076770593005107,1.0524623790428382,-0.9745777350481971,0.24973677036739902,0.46218183427725545,0.4610499339865873,0.4632530522287467,0.3867424499160447,False,False,False,-0.9495431695572633,1.1553815885284133,True,-1.6282273519130124,1.8340657708841626,True,expanding_residual_calibrated_gaussian
ar,exact,pre_advance,DELTA_SA,2009:Q3:pre_advance:exact,2009-10-28,2009:Q3,-0.0872562001946869,-0.7522000000000002,0.6649437998053133,18,1.0464017227577895,1.022937790267712,-1.1528889622931755,0.4056678727529223,0.25783530154263995,0.5339884013982756,0.38942617728124773,0.45611915752795956,True,False,True,-1.1101939904623987,0.935681590073025,True,-1.769839134662257,1.5953267342728834,True,expanding_residual_calibrated_gaussian
ar,exact,pre_advance,DELTA_SA,2009:Q4:pre_advance:exact,2010-01-28,2009:Q4,-0.3680579063730702,0.1962000000000001,-0.5642579063730704,19,1.0232004092992362,1.0115336916283293,-1.0859901015486895,0.3588025565768688,0.7115177597966492,0.6420191863596216,0.2872008302263316,0.5659772727722574,False,False,False,-1.3795915980013995,0.6434757852552591,True,-2.0318827678315396,1.2957669550853992,True,expanding_residual_calibrated_gaussian
ar,exact,pre_advance,DELTA_SA,2010:Q1:pre_advance:exact,2010-04-29,2010:Q1,0.2289135101117398,-0.2023000000000001,0.43121351011174,20,0.9798082979076518,0.9898526647474621,-1.0036278688870195,0.30510234483258647,0.3315511365661409,0.40855633814368547,0.511651412367566,0.33239462128925434,True,False,True,-0.7609391546357224,1.218766174859202,True,-1.399249235645703,1.8570762558691827,True,expanding_residual_calibrated_gaussian
ar,exact,pre_advance,DELTA_SA,2010:Q2:pre_advance:exact,2010-07-29,2010:Q2,-0.086390593897168,-0.7725,0.6861094061028319,21,0.9458016852061135,0.9725233597225896,-1.1399382496746842,0.4127524244586527,0.24025142876811514,0.5353920414077538,0.3841948197699431,0.45350166212849524,True,False,True,-1.0589139536197576,0.8861327658254217,True,-1.6860491694319009,1.5132679816375647,True,expanding_residual_calibrated_gaussian
ar,exact,pre_advance,DELTA_SA,2010:Q3:pre_advance:exact,2010-10-28,2010:Q3,-0.4622933891534564,0.5148000000000001,-0.9770933891534566,22,0.9290692225174857,0.9638823696476068,-1.395952495634071,0.5897452412469287,0.8446384817135604,0.684249759976557,0.2460066496040233,0.6072358095904465,False,True,False,-1.426175758801063,0.5015889804941503,False,-2.047738800822902,1.1231520225159892,True,expanding_residual_calibrated_gaussian
ar,exact,pre_advance,DELTA_SA,2010:Q4:pre_advance:exact,2011-01-27,2010:Q4,0.2593162446709711,-0.3850000000000002,0.6443162446709714,23,0.9228386114267644,0.9606448935099611,-1.1037155011570723,0.39071752346481115,0.2512019464252072,0.3936033020035771,0.5246175563086153,0.3162776914549732,True,False,True,-0.70132864883899,1.219961138180932,True,-1.320803992631299,1.8394364819732414,True,expanding_residual_calibrated_gaussian
ar,exact,pre_advance,DELTA_SA,2011:Q1:pre_advance:exact,2011-04-27,2011:Q1,-0.1924365441525157,0.0939000000000001,-0.2863365441525158,24,0.9062170957556894,0.9519543559203295,-0.9149370836323114,0.2565697765964072,0.6182119592264911,0.5800998473836769,0.3400806518913373,0.49683036212906156,False,False,False,-1.1443909000728452,0.7595178117678139,True,-1.7582621191803225,1.373389030875291,True,expanding_residual_calibrated_gaussian
ar,exact,pre_advance,DELTA_SA,2011:Q2:pre_advance:exact,2011-07-28,2011:Q2,0.0308362889019209,-0.2928,0.323636288901921,25,0.8702374718810382,0.9328651949135192,-0.9096231921931055,0.26235452764252776,0.36432301431902947,0.48681518021918563,0.4280512235050744,0.40228049049575965,True,False,True,-0.9020289060115982,0.9637014838154401,True,-1.503590410408373,1.5652629882122149,True,expanding_residual_calibrated_gaussian
ar,exact,pre_advance,DELTA_SA,2011:Q3:pre_advance:exact,2011-10-26,2011:Q3,-0.2424732045611219,-0.4595999999999995,0.2171267954388775,26,0.8418145482940426,0.9175045222199412,-0.8608422066522204,0.23481987773456528,0.4064644383916029,0.6042158613607205,0.3148116072342614,0.5184612792391208,True,False,True,-1.1599777267810631,0.6750313176588193,True,-1.7516338456789697,1.2666874365567258,True,expanding_residual_calibrated_gaussian
ar,exact,pre_advance,DELTA_SA,2011:Q4:pre_advance:exact,2012-01-26,2011:Q4,-0.290303956352739,0.2299000000000002,-0.5202039563527392,27,0.8124519720579637,0.9013611773634161,-0.9816296963718638,0.3271994861351484,0.7180746972326681,0.6263012441633908,0.29323467871775,0.5399017514274802,False,True,False,-1.191665133716155,0.6110572210106772,True,-1.7729111581322032,1.1923032454267253,True,expanding_residual_calibrated_gaussian
ar,exact,pre_advance,DELTA_SA,2012:Q1:pre_advance:exact,2012-04-26,2012:Q1,0.1126826838062546,-0.3447,0.4573826838062547,28,0.790003529929462,0.8888214274698051,-0.9334833883525715,0.2995923404820582,0.3034181787786202,0.4495581964282955,0.46087108404674915,0.36249610989183334,True,False,True,-0.7761387436635505,1.0015041112760596,True,-1.3492984648796391,1.5746638324921485,True,expanding_residual_calibrated_gaussian
ar,exact,pre_advance,DELTA_SA,2012:Q2:pre_advance:exact,2012-07-26,2012:Q2,-0.2146916994700365,0.1949,-0.4095916994700366,29,0.7715309979571675,0.8783683725847417,-0.8979716905784965,0.28011562729961864,0.6795030846221166,0.5965476207176768,0.3184220219520193,0.5066724474552207,False,False,False,-1.093060072054778,0.6636766731147051,True,-1.659479102915511,1.2300957039754379,True,expanding_residual_calibrated_gaussian
ar,exact,pre_advance,DELTA_SA,2012:Q3:pre_advance:exact,2012-10-25,2012:Q3,0.0487375871132593,0.6579000000000002,-0.6091624128867408,30,0.7490985316065489,0.8655047842770998,-1.0221797586856265,0.3665817980683979,0.7592285818246084,0.47754696025889853,0.43063102456999613,0.3869067846893517,False,True,False,-0.8167671971638405,0.914242371390359,True,-1.3748910964487797,1.4723662706752985,True,expanding_residual_calibrated_gaussian
ar,exact,pre_advance,DELTA_SA,2012:Q4:pre_advance:exact,2013-01-29,2012:Q4,0.3278118154427831,0.2694999999999999,0.0583118154427831,31,0.7335894498200837,0.8564983653341574,-0.7663532184606981,0.20174254109541004,0.47286032183591076,0.3509581677046289,0.5593123432412874,0.26886680913490674,False,True,False,-0.5286865498913742,1.1843101807769405,True,-1.0810026272551128,1.736626258140679,True,expanding_residual_calibrated_gaussian
ar,exact,pre_advance,DELTA_SA,2013:Q1:pre_advance:exact,2013-04-25,2013:Q1,0.0527691961635057,-0.1162,0.1689691961635058,32,0.71056774332534,0.8429518036787987,-0.7681830222489018,0.21046062669459562,0.420564557899634,0.47504231951281595,0.43067300759777993,0.3821412183782616,True,False,False,-0.790182607515293,0.8957209998423045,True,-1.3337631354628516,1.439301527789863,True,expanding_residual_calibrated_gaussian
ar,exact,pre_advance,DELTA_SA,2013:Q2:pre_advance:exact,2013-07-30,2013:Q2,-0.0413799297238832,0.8419999999999999,-0.8833799297238831,33,0.6902497918472825,0.830812729709459,-1.2988613630613184,0.5371908593976946,0.8561706950710153,0.5198617331864112,0.3857036029566938,0.4242935205125607,False,True,False,-0.8721926594333421,0.7894327999855758,False,-1.40794526150394,1.3251854020561735,True,expanding_residual_calibrated_gaussian
ar,exact,pre_advance,DELTA_SA,2013:Q3:pre_advance:exact,2013-11-06,2013:Q3,0.4190872950330058,0.7550000000000003,-0.3359127049669945,34,0.6886469078876142,0.8298475208661011,-0.8143520794309802,0.24744807687015663,0.6571834961530209,0.3067733676919865,0.604113545693154,0.2278260480321109,False,True,False,-0.41076022583309535,1.248934815899107,True,-0.9458904094802882,1.7840649995462998,True,expanding_residual_calibrated_gaussian
ar,exact,pre_advance,DELTA_SA,2013:Q4:pre_advance:exact,2014-01-29,2013:Q4,0.4129908649123548,-0.8431000000000002,1.256090864912355,35,0.6700252946786466,0.8185507282255917,-1.8961101914246774,0.8385989257256297,0.06244962692085054,0.30694128917028995,0.6026471161949841,0.22696675784473935,True,False,True,-0.4055598633132369,1.2315415931379465,False,-0.9334052692532786,1.7593869990779882,True,expanding_residual_calibrated_gaussian
ar,exact,pre_advance,DELTA_SA,2014:Q1:pre_advance:exact,2014-04-29,2014:Q1,-0.5119576031808601,-1.0928,0.5808423968191399,36,0.7022431623030024,0.83799950018064,-0.9824151939819419,0.3503159631466912,0.2441140598456423,0.7293764730114747,0.19777600324570122,0.6451520978295757,True,False,True,-1.3499571033615,0.3260418969997798,True,-1.8903441204365066,0.8664289140747863,True,expanding_residual_calibrated_gaussian
ar,exact,pre_advance,DELTA_SA,2014:Q2:pre_advance:exact,2014-07-29,2014:Q2,-0.6612782981422266,0.2237999999999997,-0.8850782981422264,37,0.6940418986195067,0.833091770826904,-1.30067598082268,0.5381482391972957,0.8559733690789085,0.78633359756314,0.15060697101795517,0.7101060163105458,False,True,False,-1.4943700689691306,0.1718134726846774,False,-2.0315923189702842,0.7090357226858311,True,expanding_residual_calibrated_gaussian
ar,exact,pre_advance,DELTA_SA,2014:Q3:pre_advance:exact,2014-10-29,2014:Q3,0.0975109891599808,0.3467000000000002,-0.2491890108400194,38,0.6937040564050058,0.8328889820408274,-0.780839847347854,0.22416480248274662,0.6176010664780619,0.4534000669233684,0.45103279123603257,0.3604696746784677,False,True,False,-0.7353779928808466,0.9303999712008082,True,-1.2724694737977937,1.4674914521177553,True,expanding_residual_calibrated_gaussian
ar,exact,pre_advance,DELTA_SA,2014:Q4:pre_advance:exact,2015-01-29,2014:Q4,0.1718486665454435,-0.4497999999999997,0.6216486665454433,39,0.6762677843869741,0.8223550233244605,-1.0090759029121996,0.3712118218610972,0.2248434562674577,0.4172352892313453,0.48634584366262257,0.32557133404828476,True,False,True,-0.650506356779017,0.994203689869904,True,-1.180804976211558,1.524502309302445,True,expanding_residual_calibrated_gaussian
ar,exact,pre_advance,DELTA_SA,2015:Q1:pre_advance:exact,2015-04-28,2015:Q1,-0.2628561781685739,-0.9973,0.7344438218314261,40,0.6710619876064868,0.8191837325084568,-1.1213976870752294,0.4378532540483632,0.1849780303662251,0.6258477165772254,0.2860296711867768,0.5305809329817512,True,False,True,-1.0820399106770306,0.5563275543398829,True,-1.6102935117247537,1.084581155387606,True,expanding_residual_calibrated_gaussian
ar,exact,pre_advance,DELTA_SA,2015:Q2:pre_advance:exact,2015-07-29,2015:Q2,-0.5975131519624441,1.3627000000000002,-1.9602131519624444,41,0.6695871606423576,0.8182830565533895,-3.5876487940458928,1.5030590381628195,0.9917015879931071,0.7673670982856948,0.1648749647746517,0.6864417187227065,False,True,False,-1.4157962085158338,0.22076990459094537,False,-1.9434690054072234,0.7484427014823352,False,expanding_residual_calibrated_gaussian
ar,exact,pre_advance,DELTA_SA,2015:Q3:pre_advance:exact,2015-10-28,2015:Q3,0.6851448251781607,0.5856999999999999,0.0994448251781607,42,0.7412017616376239,0.8609307531024919,-0.7758684367813878,0.2057726439995932,0.45402103934217336,0.21306869954070815,0.713456860238003,0.1519454082724588,False,True,False,-0.17578592792433123,1.5460755782806526,True,-0.7309602466165355,2.101249896972857,True,expanding_residual_calibrated_gaussian
ar,exact,pre_advance,DELTA_SA,2015:Q4:pre_advance:exact,2016-01-28,2015:Q4,0.3280949186328743,0.314,0.0140949186328742,43,0.7243372558319552,0.8510800525402737,-0.7578265840614433,0.19898625607374884,0.4933933336443442,0.3499319547010961,0.5598183407358772,0.2674644252049697,False,True,False,-0.5229851339073994,1.179174971173148,True,-1.0718071926140444,1.727997029879793,True,expanding_residual_calibrated_gaussian
ar,exact,pre_advance,DELTA_SA,2016:Q1:pre_advance:exact,2016-04-27,2016:Q1,0.2232099843145665,0.3027000000000001,-0.0794900156854335,44,0.7076925593447786,0.8412446489249003,-0.7505300451964936,0.1995889121391537,0.5376404189772837,0.3953764642776506,0.5110054423343828,0.3074554234810591,False,True,False,-0.6180346646103337,1.0644546332394667,True,-1.1605143276230736,1.6069342962522066,True,expanding_residual_calibrated_gaussian
ar,exact,pre_advance,DELTA_SA,2016:Q2:pre_advance:exact,2016-07-28,2016:Q2,0.232673710799323,-0.1195999999999999,0.352273710799323,45,0.6916087117239077,0.8316301532074867,-0.8242870926445638,0.25300397425400045,0.3359308923790665,0.38982304392689815,0.5156699128293918,0.30143707646709567,True,False,False,-0.5989564424081637,1.0643038640068097,True,-1.1352361629862198,1.600583584584866,True,expanding_residual_calibrated_gaussian
ar,exact,pre_advance,DELTA_SA,2016:Q3:pre_advance:exact,2016-10-27,2016:Q3,-0.0042693367036426,0.2565999999999997,-0.2608693367036423,46,0.6802587691734918,0.8247780120574819,-0.7763173248713502,0.2253916934314723,0.6241089373406518,0.5020650542198221,0.40219648329235347,0.40620693287042486,False,True,False,-0.8290473487611245,0.8205086753538393,True,-1.3609084412662167,1.3523697678589315,True,expanding_residual_calibrated_gaussian
ar,exact,pre_advance,DELTA_SA,2016:Q4:pre_advance:exact,2017-01-26,2016:Q4,0.0988041623273292,-0.0169999999999999,0.1158041623273291,47,0.6662590734492554,0.8162469439141904,-0.7259642968513755,0.19729629773160684,0.44358979315583474,0.4518269436624959,0.4506667476462677,0.3571561271621406,True,False,False,-0.7174427815868611,0.9150511062415196,True,-1.2438025838579818,1.4414109085126403,True,expanding_residual_calibrated_gaussian
ar,exact,pre_advance,DELTA_SA,2017:Q1:pre_advance:exact,2017-04-27,2017:Q1,0.0111157101621119,0.4599999999999998,-0.4488842898378878,48,0.6528216916169736,0.8079738186457366,-0.8600407361632842,0.2858277526615805,0.7107468479207442,0.4945117195935466,0.4075797283962539,0.39693432854464017,False,True,False,-0.7968581084836247,0.8190895288078485,True,-1.317882955919159,1.340114376243383,True,expanding_residual_calibrated_gaussian
ar,exact,pre_advance,DELTA_SA,2017:Q2:pre_advance:exact,2017-07-27,2017:Q2,0.276750042522361,0.4662000000000001,-0.1894499574776391,49,0.6421736726603248,0.8013573938389318,-0.7254354419316442,0.20505831302912883,0.5934432426155252,0.3649150367647468,0.5381503823069183,0.27594576204115473,False,True,False,-0.5246073513165708,1.0781074363612928,True,-1.0413655732179852,1.5948656582627072,True,expanding_residual_calibrated_gaussian
ar,exact,pre_advance,DELTA_SA,2017:Q3:pre_advance:exact,2017-10-26,2017:Q3,0.1976244473962594,0.3077000000000001,-0.1100755526037406,50,0.6293241794684806,0.7932995521670743,-0.697010847726371,0.19147369183850857,0.5551787568158709,0.40163511901286214,0.4988053605299694,0.3081051137887586,False,True,False,-0.5956751047708149,0.9909239995633337,True,-1.1072371982447313,1.5024860930372501,True,expanding_residual_calibrated_gaussian
ar,exact,pre_advance,DELTA_SA,2017:Q4:pre_advance:exact,2018-01-25,2017:Q4,-0.1505087498535737,-0.0190000000000001,-0.1315087498535736,51,0.6167571762918442,0.7853388926392505,-0.6913191405363005,0.19229469722717968,0.5664938864804092,0.5759910903289958,0.3276847591948625,0.4748756982045979,True,False,False,-0.9358476424928241,0.6348301427856768,True,-1.4422762757972978,1.1412587760901503,True,expanding_residual_calibrated_gaussian
ar,exact,pre_advance,DELTA_SA,2018:Q1:pre_advance:exact,2018-04-26,2018:Q1,-0.0279961348538284,-0.1434999999999999,0.1155038651461715,52,0.6047165705089012,0.7776352425841444,-0.6784717342410084,0.1885611654592706,0.44096139210650404,0.5143594696465065,0.384687845360709,0.41247288551418443,True,False,False,-0.8056313774379728,0.7496391077303161,True,-1.3070922840636463,1.2511000143559894,True,expanding_residual_calibrated_gaussian
ar,exact,pre_advance,DELTA_SA,2018:Q2:pre_advance:exact,2018-07-26,2018:Q2,-0.0867329287554055,0.1665000000000001,-0.2532329287554056,53,0.5938099008884505,0.77059061821985,-0.7123366779029476,0.2129867117840293,0.6287792416551983,0.5448078563629667,0.35491105334067274,0.44157100340340705,False,False,False,-0.8573235469752555,0.6838576894644445,True,-1.3542417020291029,1.1807758445182919,True,expanding_residual_calibrated_gaussian
ar,exact,pre_advance,DELTA_SA,2018:Q3:pre_advance:exact,2018-10-25,2018:Q3,-0.0587059338968432,0.0043999999999999,-0.0631059338968431,54,0.5831844360488392,0.7636651334510691,-0.6527269622971374,0.18054392607481848,0.5329293571690584,0.5306380783112676,0.3673919470155921,0.42660629271475015,False,False,False,-0.8223710673479123,0.7049591995542259,True,-1.3148232984302142,1.1974114306365278,True,expanding_residual_calibrated_gaussian
ar,exact,pre_advance,DELTA_SA,2019:Q1:pre_advance:exact,2019-04-25,2019:Q1,0.2440839770838001,-0.1047000000000002,0.3487839770838004,55,0.5723897677965003,0.7565644505238799,-0.7462362112570491,0.23984002890879888,0.32239562059891036,0.37349094492531465,0.5232326742640045,0.2786104444177837,True,False,False,-0.5124804734400797,1.00064842760768,True,-1.0003538033829513,1.4885217575505516,True,expanding_residual_calibrated_gaussian
ar,exact,pre_advance,DELTA_SA,2019:Q2:pre_advance:exact,2019-07-25,2019:Q2,-0.6575174399050763,-0.0171000000000001,-0.6404174399050762,56,0.5652575277940737,0.7518361043432762,-0.9964871325116423,0.38106508960816754,0.802838719071824,0.8090902995957803,0.1270256347910046,0.7285831456431665,True,False,False,-1.4093535442483525,0.09431866443819992,True,-1.8941777830071795,0.579142903197027,True,expanding_residual_calibrated_gaussian
ar,exact,pre_advance,DELTA_SA,2019:Q3:pre_advance:exact,2019-10-29,2019:Q3,-0.3086249983590452,0.205,-0.5136249983590453,57,0.5608358046809103,0.7488897146315406,-0.8649691674688339,0.3102865632465424,0.7535957223454954,0.6598706287159102,0.24851441224482484,0.5576635356999061,False,True,False,-1.057514712990586,0.4402647162724954,True,-1.540438961657388,0.9231889649392975,True,expanding_residual_calibrated_gaussian
ar,exact,pre_advance,DELTA_SA,2019:Q4:pre_advance:exact,2020-01-29,2019:Q4,0.1756339161676567,0.0148000000000001,0.1608339161676566,58,0.5542118279324093,0.7444540468910148,-0.6471716207304877,0.18778355463575347,0.4144772036206342,0.4067461664536721,0.4869448949796328,0.3069282071729351,False,False,False,-0.5688201307233581,0.9200879630586715,True,-1.0488840229597303,1.4001518552950438,True,expanding_residual_calibrated_gaussian
ar,exact,pre_advance,DELTA_SA,2020:Q1:pre_advance:exact,2020-04-28,2020:Q1,0.2345342869959852,-0.2644999999999999,0.4990342869959852,59,0.5457163333028453,0.7387261558269379,-0.8442833204339926,0.30223552888161703,0.24966842834537464,0.3754379055518183,0.5186431339889157,0.2781919595866778,True,False,True,-0.5041918688309527,0.9732604428229231,True,-0.980562109739872,1.4496306837318425,True,expanding_residual_calibrated_gaussian
ar,exact,pre_advance,DELTA_SA,2020:Q2:pre_advance:exact,2020-07-29,2020:Q2,2.036117103055149,1.1996999999999964,0.8364171030551524,60,0.5421517156132738,0.7363095243260634,-1.2580347528838138,0.5150700564659979,0.1279869551260315,0.0028435188996011086,0.993678598627542,0.0011950229565632115,False,True,False,1.2998075787290855,2.772426627381212,False,0.82499571140851,3.2472384947017874,True,expanding_residual_calibrated_gaussian
ar,exact,pre_advance,DELTA_SA,2020:Q3:pre_advance:exact,2020-10-28,2020:Q3,8.449509122518712,-0.0142999999999986,8.463809122518711,61,0.5467413451006922,0.7394196001599445,-66.12889047223396,8.046636286237424,1.2233484869429285e-30,1.5287362726836266e-30,1.0,6.547694917250403e-32,True,False,False,7.710089522358768,9.188928722678657,False,7.23327211135662,9.665746133680804,False,expanding_residual_calibrated_gaussian
ar,exact,pre_advance,DELTA_SA,2020:Q4:pre_advance:exact,2021-01-27,2020:Q4,0.6766296507818765,0.0797999999999996,0.5968296507818769,62,1.7097248492633264,1.3075644723161173,-1.291275213880551,0.41240250128398753,0.32403545025238906,0.3024129151448866,0.6422640583212745,0.25129205243458014,False,False,False,-0.6309348215342407,1.9841941230979938,True,-1.474122513980177,2.82738181554393,True,expanding_residual_calibrated_gaussian
ar,exact,pre_advance,DELTA_SA,2021:Q1:pre_advance:exact,2021-04-28,2021:Q1,0.0442296247225224,0.0112000000000005,0.0330296247225219,63,1.6864350645058854,1.2986281471252212,-1.180570419414464,0.3038180020758394,0.48985429872127206,0.4864151592512193,0.4522613996953734,0.4254119063832652,False,False,False,-1.2543985224026988,1.3428577718477437,True,-2.091823593137668,2.1802828425827125,True,expanding_residual_calibrated_gaussian
ar,exact,pre_advance,DELTA_SA,2021:Q2:pre_advance:exact,2021-07-28,2021:Q2,-22.327379557976094,0.0527999999999995,-22.3801795579761,64,1.6597091407321873,1.2882969924408685,-152.06389029248353,21.653335814325054,1.0,1.0,0.0,1.0,False,False,False,-23.615676550416964,-21.039082565535224,False,-24.44643953858313,-20.208319577369057,False,expanding_residual_calibrated_gaussian
ar,exact,pre_advance,DELTA_SA,2021:Q3:pre_advance:exact,2021-10-27,2021:Q3,-1.6733612230475714,0.0880999999999998,-1.7614612230475712,65,9.397874406946881,3.065595277747355,-2.204257291666621,1.1094382588578577,0.717215783471522,0.7074161521240951,0.27056928672811975,0.6846037815289898,False,False,False,-4.738956500794926,1.3922340546997836,True,-6.715816734415614,3.369094288320471,True,expanding_residual_calibrated_gaussian
ar,exact,pre_advance,DELTA_SA,2021:Q4:pre_advance:exact,2022-01-26,2021:Q4,2.4313094187034787,0.0993000000000003,2.3320094187034783,66,9.287403119033266,3.0475240965467796,-2.326044585543038,1.3912926128730585,0.22207193379081885,0.21249378587651999,0.7679679642071677,0.19395183602933636,False,False,False,-0.6162146778433009,5.478833515250258,True,-2.5814216447235,7.4440404821304575,True,expanding_residual_calibrated_gaussian
ar,exact,pre_advance,DELTA_SA,2022:Q1:pre_advance:exact,2022-04-27,2022:Q1,0.07263722594957,-0.0959000000000001,0.1685372259495701,67,9.248806824054155,3.0411851019058598,-2.0327214012958814,0.7144348675209656,0.4779026192648412,0.49047236368665453,0.48329744978168243,0.4642833307210546,True,False,False,-2.9685478759562898,3.11382232785543,True,-4.929667119151066,5.074941571050205,True,expanding_residual_calibrated_gaussian
ar,exact,pre_advance,DELTA_SA,2022:Q2:pre_advance:exact,2022-07-27,2022:Q2,0.1081250483505711,0.3589,-0.2507749516494288,68,9.113276224851573,3.018820336630117,-2.027255026270704,0.7137891410743302,0.5331022636861327,0.48571414409813296,0.48786044174322807,0.4593513379266535,False,True,False,-2.910695288279546,3.126945384980688,True,-4.8573925314703414,5.073642628171483,True,expanding_residual_calibrated_gaussian
ar,exact,pre_advance,DELTA_SA,2022:Q3:pre_advance:exact,2022-10-26,2022:Q3,0.040949636307233,0.3631999999999999,-0.3222503636927669,69,8.979259595743898,2.9965412721576015,-2.0221797563721626,0.7140887015283336,0.5428200095222295,0.4945483704888644,0.47883488727036405,0.4679558851436691,False,True,False,-2.9555916358503684,3.0374909084648345,True,-4.887922143510976,4.969821416125442,True,expanding_residual_calibrated_gaussian
ar,exact,pre_advance,DELTA_SA,2022:Q4:pre_advance:exact,2023-01-25,2022:Q4,0.0524951722003756,-0.2158000000000002,0.2682951722003759,70,8.849224877735395,2.9747646760265583,-2.0131706213754104,0.7048344885917994,0.46406796231850994,0.49296029801216285,0.4802263999000822,0.46617877734637986,True,False,True,-2.9222695038261826,3.027259848226934,True,-4.84055729448903,4.9455476388897806,True,expanding_residual_calibrated_gaussian
ar,exact,pre_advance,DELTA_SA,2023:Q1:pre_advance:exact,2023-04-26,2023:Q1,0.1629960945272457,0.2098999999999999,-0.0469039054727542,71,8.726446232830229,2.9540558953462996,-2.002243691302122,0.6906451236269682,0.5063340591626599,0.4779987056294331,0.495002790435634,0.4511008329630477,False,True,False,-2.791059800819054,3.1170519898735454,True,-4.695993459150494,5.021985648204985,True,expanding_residual_calibrated_gaussian
ar,exact,pre_advance,DELTA_SA,2023:Q2:pre_advance:exact,2023-07-26,2023:Q2,0.0576101552484384,-0.3529,0.4105101552484385,72,8.604018686983956,2.93326076014117,-2.004846240983303,0.708370580046009,0.4443497058477437,0.49216515302198394,0.4806416707693508,0.46500835396805706,True,False,True,-2.8756506048927317,2.9908709153896087,True,-4.767174444864198,4.882394755361075,True,expanding_residual_calibrated_gaussian
ar,exact,pre_advance,DELTA_SA,2023:Q3:pre_advance:exact,2023-10-25,2023:Q3,0.3016688355952808,0.2763,0.0253688355952808,73,8.49014278086768,2.913784957897147,-1.9884293435349303,0.6810250246746591,0.4965266574548072,0.4587705332395607,0.5139172138864335,0.4316516066286217,False,True,False,-2.6121161223018663,3.215453793492428,True,-4.491080920558485,5.094418591749045,True,expanding_residual_calibrated_gaussian
ar,exact,pre_advance,DELTA_SA,2023:Q4:pre_advance:exact,2024-01-24,2023:Q4,0.1926214008491755,-0.0709999999999997,0.2636214008491753,74,8.37466286363941,2.8939009768199413,-1.9856931405694418,0.6858639933267204,0.46370834803107674,0.473465534186157,0.4989828152360608,0.4460402826659046,True,False,False,-2.7012795759707657,3.086522377669117,True,-4.567422116911514,4.952664918609864,True,expanding_residual_calibrated_gaussian
ar,exact,pre_advance,DELTA_SA,2024:Q1:pre_advance:exact,2024-04-24,2024:Q1,0.1358110530546972,-0.3404999999999998,0.476311053054697,75,8.264586330862937,2.874819356214045,-1.9886539369813347,0.7032423620182628,0.4342028898715052,0.48116033806364666,0.49109315956314803,0.4535048404022785,True,False,True,-2.7390083031593475,3.0106304092687424,True,-4.592845991844271,4.864468097953665,True,expanding_residual_calibrated_gaussian
ar,exact,pre_advance,DELTA_SA,2024:Q2:pre_advance:exact,2024-07-24,2024:Q2,0.3137139612616624,0.1112999999999999,0.2024139612616624,76,8.160620555697424,2.856679988325158,-1.971108952756341,0.6733111290938085,0.47175603567983765,0.45627698566881225,0.5158762372736723,0.42864340036962933,False,False,False,-2.5429660270634953,3.1703939495868205,True,-4.385106478574663,5.012534401097987,True,expanding_residual_calibrated_gaussian
ar,exact,pre_advance,DELTA_SA,2024:Q3:pre_advance:exact,2024-10-29,2024:Q3,0.1872000574838721,0.0087999999999999,0.1784000574838722,77,8.055374979151967,2.838199249374851,-1.964083804362181,0.667745036843035,0.4749402768254151,0.47370589676211283,0.4982008236569131,0.4457428332194565,False,False,False,-2.6509991918909788,3.025399306858723,True,-4.481222271861298,4.855622386829041,True,expanding_residual_calibrated_gaussian
ar,exact,pre_advance,DELTA_SA,2024:Q4:pre_advance:exact,2025-01-29,2024:Q4,0.169534404440395,0.0939000000000001,0.0756344044403949,78,7.9525703318799765,2.820030200526224,-1.956045795063879,0.6598361181342035,0.4893014817142162,0.47603085115149674,0.49569019588856533,0.4478721624240705,False,False,False,-2.650495796085829,2.989564604966619,True,-4.4690024990078525,4.808071307888642,True,expanding_residual_calibrated_gaussian
ar,exact,pre_second,DELTA_TS,2008:Q1:pre_second:exact,2008-05-28,2008:Q1,0.1774221107779729,0.0587,0.1187221107779729,12,0.047730585535766167,0.2184733062315993,0.45450188375002765,0.07617896845906053,0.29342135841295935,0.20836720697436512,0.45884500710588716,0.04203506197918798,False,False,False,-0.0410511954536264,0.3958954170095722,True,-0.18193449936915287,0.5367787209250987,True,expanding_residual_calibrated_gaussian
ar,exact,pre_second,DELTA_TS,2008:Q2:pre_second:exact,2008-08-27,2008:Q2,0.2009522102624501,-0.4531,0.6540522102624502,13,0.04381307837578242,0.2093157384808472,-4.236951716592542,0.5360607254113469,0.0008898843889696557,0.16851666587161507,0.5018148450089622,0.027711976324923216,True,False,True,-0.008363528218397087,0.4102679487432973,False,-0.14334154135579721,0.5452459618806974,False,expanding_residual_calibrated_gaussian
ar,exact,pre_second,DELTA_TS,2008:Q3:pre_second:exact,2008-11-24,2008:Q3,-0.0306853385352727,0.0033999999999999,-0.0340853385352727,14,0.06293246528290945,0.2508634395102432,0.45467740868058915,0.060470288460469715,0.554038798067631,0.5486767655557683,0.17889995792879176,0.24986087921474773,False,False,False,-0.2815487780455159,0.2201781009749705,True,-0.44331897688321753,0.3819482998126721,True,expanding_residual_calibrated_gaussian
ar,exact,pre_second,DELTA_TS,2008:Q4:pre_second:exact,2009-02-26,2008:Q4,0.1764450953087308,-0.0942999999999996,0.2707450953087305,15,0.060298745585524414,0.24555802895756518,-0.12254765163730663,0.16573302760370362,0.13510681347287484,0.2362099011680347,0.46179047256256656,0.06263560116636493,True,False,False,-0.06911293364883439,0.42200312426629594,False,-0.22746191924917494,0.5803521098666365,True,expanding_residual_calibrated_gaussian
ar,exact,pre_second,DELTA_TS,2009:Q1:pre_second:exact,2009-05-28,2009:Q1,0.4612816233416896,0.2259999999999999,0.2352816233416896,16,0.05766400890831247,0.2401333148655398,0.02762255241407613,0.14137792015272427,0.16359345259209482,0.027369653548142952,0.8617176830571418,0.002945293987216935,False,True,False,0.2211483084761498,0.7014149382072294,True,0.06629746943322662,0.8562657772501525,True,expanding_residual_calibrated_gaussian
ar,exact,pre_second,DELTA_TS,2009:Q2:pre_second:exact,2009-08-26,2009:Q2,0.69134024106121,0.2766999999999999,0.41464024106121,17,0.054697517201424975,0.23387500337022973,-1.0375818767965614,0.28983679363713327,0.03812148867216825,0.0015581616521290029,0.982173671824888,6.915189983818449e-05,False,True,False,0.45746523769098024,0.9252152444314397,False,0.3066500935143998,1.07603038860802,False,expanding_residual_calibrated_gaussian
ar,exact,pre_second,DELTA_TS,2009:Q3:pre_second:exact,2009-11-23,2009:Q3,0.3766585121151877,-0.5463999999999998,0.9230585121151876,18,0.05575317499663052,0.23612110239584796,-7.116680499584309,0.7898464716791053,4.6289858395563747e-05,0.055334644812236496,0.772820915972671,0.0072987239412856154,True,False,True,0.14053740971933973,0.6127796145110357,False,-0.011726139560402804,0.7650431637907782,False,expanding_residual_calibrated_gaussian
ar,exact,pre_second,DELTA_TS,2009:Q4:pre_second:exact,2010-02-25,2009:Q4,-0.232566327249839,-0.3730000000000002,0.1404336727501611,19,0.08388936921228568,0.2896366158003606,0.20264427225005094,0.09433103862247168,0.31388726179204485,0.7890007835576158,0.06765586767419451,0.5447621630921998,True,False,True,-0.5222029430501995,0.0570702885505216,True,-0.7089761652470121,0.24384351074733418,True,expanding_residual_calibrated_gaussian
ar,exact,pre_second,DELTA_TS,2010:Q1:pre_second:exact,2010-05-26,2010:Q1,-0.2561311338994372,-0.2984,0.0422688661005627,20,0.07961363742453019,0.2821588868430874,0.33512560727130897,0.06846054165703003,0.44045915664580904,0.8179961548289096,0.052984975684274294,0.5788430047281747,True,False,True,-0.5382900207425245,0.026027752943650173,True,-0.7202412022998794,0.20797893450100507,True,expanding_residual_calibrated_gaussian
ar,exact,pre_second,DELTA_TS,2010:Q2:pre_second:exact,2010-08-26,2010:Q2,-0.1225744661399694,0.1048,-0.2273744661399694,21,0.07668085623719909,0.2769130842650796,0.02800710051325378,0.13527626164904238,0.7942065098038151,0.6709890926816217,0.1220308958720997,0.3898913230975652,False,False,False,-0.399487550405049,0.15433861812511018,True,-0.5780559571437042,0.3329070248637654,True,expanding_residual_calibrated_gaussian
ar,exact,pre_second,DELTA_TS,2010:Q3:pre_second:exact,2010-11-22,2010:Q3,0.1444387564170868,0.0339999999999998,0.110438756417087,22,0.08070474649162399,0.2840858083249214,0.26397658478935343,0.08330481226115444,0.3487300268225323,0.3055746641496653,0.42246981437983444,0.11267081408805542,False,False,False,-0.1396470519078346,0.42852456474200823,True,-0.3228408157716009,0.6117183286057746,True,expanding_residual_calibrated_gaussian
ar,exact,pre_second,DELTA_TS,2010:Q4:pre_second:exact,2011-02-24,2010:Q4,0.0802410937667463,0.3264,-0.2461589062332536,23,0.07716516670428505,0.2777861888292596,-0.030661651530417056,0.14666261593454344,0.8122303636363377,0.38634456697641567,0.3331909200641445,0.15652631299589712,False,True,False,-0.19754509506251328,0.3580272825960059,True,-0.37667652644608784,0.5371587139795805,True,expanding_residual_calibrated_gaussian
ar,exact,pre_second,DELTA_TS,2011:Q1:pre_second:exact,2011-05-25,2011:Q1,0.2240882986302295,0.0726999999999999,0.1513882986302295,24,0.080768711533223,0.28419836652103225,0.1972674511677094,0.09784767994437107,0.2971257138856702,0.21520432328265948,0.5337734063585191,0.06781990495619614,False,False,False,-0.060110067890802754,0.5082866651512618,True,-0.24337641531557425,0.6915530125760332,True,expanding_residual_calibrated_gaussian
ar,exact,pre_second,DELTA_TS,2011:Q2:pre_second:exact,2011-08-25,2011:Q2,0.1202436395863579,0.3447000000000001,-0.2244563604136421,25,0.07740474665161255,0.2782170854775324,0.03497856631830987,0.13358255846645697,0.790099629467978,0.3328003606875756,0.38718268614808715,0.12485445551373384,False,True,False,-0.15797344589117446,0.3984607250638903,True,-0.33738274254122896,0.5778700217139447,True,expanding_residual_calibrated_gaussian
ar,exact,pre_second,DELTA_TS,2011:Q3:pre_second:exact,2011-11-21,2011:Q3,0.2898914859167745,-0.1896000000000002,0.4794914859167747,26,0.07957875477211233,0.28209706622386616,-1.0979914130402264,0.33065967910736876,0.04458998143629459,0.15206188854618247,0.6250057211206764,0.041228361064813,True,False,False,0.007794419692908339,0.5719885521406407,False,-0.17411689661392138,0.7538998684474704,False,expanding_residual_calibrated_gaussian
ar,exact,pre_second,DELTA_TS,2011:Q4:pre_second:exact,2012-02-28,2011:Q4,-0.0309193626082189,-0.0276,-0.0033193626082188,27,0.0810037802226326,0.284611630511883,0.33762318457756946,0.06652775259375514,0.5046526702586036,0.5432548060767546,0.20858263825543466,0.2762309954989114,True,False,False,-0.3155309931201019,0.25369226790366406,True,-0.49906383532826193,0.4372251101118241,True,expanding_residual_calibrated_gaussian
ar,exact,pre_second,DELTA_TS,2012:Q1:pre_second:exact,2012-05-30,2012:Q1,0.0359075077707382,0.0121,0.0238075077707382,28,0.07878259201041954,0.280682368542129,0.3479958517981866,0.06639918329357364,0.4662022051142488,0.4491024492898548,0.27940166914295184,0.2003200640442704,False,False,False,-0.24477486077139082,0.3165898763128672,True,-0.4257739041471125,0.4975889196885889,True,expanding_residual_calibrated_gaussian
ar,exact,pre_second,DELTA_TS,2012:Q2:pre_second:exact,2012-08-28,2012:Q2,0.0747528252393354,-0.4791000000000001,0.5538528252393355,29,0.07642720960389357,0.2764547152860547,-1.6400610549188546,0.4025317928137484,0.022566516803250402,0.3934270071048888,0.32525719468285175,0.16014944124831926,True,False,True,-0.2017018900467193,0.3512075405253901,False,-0.3799747158867683,0.529480366365439,False,expanding_residual_calibrated_gaussian
ar,exact,pre_second,DELTA_TS,2012:Q3:pre_second:exact,2012-11-28,2012:Q3,-0.1774780808462304,0.4342999999999999,-0.6117780808462303,30,0.07963649477078893,0.2821993883246187,-2.003677173454204,0.4555848596438904,0.9849165860172857,0.7352960842539689,0.0905087058009395,0.46819476887032246,False,True,False,-0.4596774691708491,0.10472130747838831,False,-0.6416547682554664,0.2866986065630056,False,expanding_residual_calibrated_gaussian
ar,exact,pre_second,DELTA_TS,2012:Q4:pre_second:exact,2013-02-27,2012:Q4,0.2722263859673117,0.2525,0.0197263859673117,31,0.09565596346842854,0.3092829828303338,0.25252607629223717,0.07277964641402267,0.4745722932782172,0.1893794231700959,0.5923244728858233,0.0634000970017329,False,True,False,-0.037056596863022095,0.5815093687976455,True,-0.2364988500955328,0.7809516220301562,True,expanding_residual_calibrated_gaussian
ar,exact,pre_second,DELTA_TS,2013:Q1:pre_second:exact,2013-05-29,2013:Q1,0.2433630573271408,-0.6094000000000002,0.852763057327141,32,0.09291352794169025,0.3048172041432213,-3.6442375711585355,0.6812560696846258,0.0025740228307383813,0.21232205496915407,0.556562371221238,0.07290094293533403,True,False,True,-0.06145414681608047,0.5481802614703621,False,-0.258016626465044,0.7447427411193256,False,expanding_residual_calibrated_gaussian
ar,exact,pre_second,DELTA_TS,2013:Q2:pre_second:exact,2013-08-28,2013:Q2,-0.2437984961262485,-0.0339999999999998,-0.2097984961262486,33,0.10622527847325959,0.325922196963109,-0.005021488970128857,0.12825703096360197,0.7401173710712761,0.7727779649427782,0.08665101769905614,0.5534502515910725,True,False,False,-0.5697206930893575,0.08212370083686049,True,-0.7798928039050104,0.2922958116525134,True,expanding_residual_calibrated_gaussian
ar,exact,pre_second,DELTA_TS,2013:Q3:pre_second:exact,2013-12-04,2013:Q3,0.0449003957951212,0.5327999999999999,-0.4878996042048786,34,0.10667586825315208,0.32661271906212114,-0.9157028647800977,0.32304350655362374,0.932388260339321,0.44532850827294485,0.317438702229063,0.2266818864794877,False,True,False,-0.2817123232669999,0.37151311485724237,False,-0.492329719762691,0.5821305113529334,True,expanding_residual_calibrated_gaussian
ar,exact,pre_second,DELTA_TS,2013:Q4:pre_second:exact,2014-02-27,2013:Q4,0.300739111011099,0.2418,0.058939111011099,35,0.1145542498350464,0.3384586382928443,0.1492525214866462,0.08318036913512708,0.4308778075219902,0.18712114576089892,0.6170113469689049,0.06950748643600183,False,True,False,-0.03771952728174527,0.6391977493039434,True,-0.2559758077579423,0.8574540297801403,True,expanding_residual_calibrated_gaussian
ar,exact,pre_second,DELTA_TS,2014:Q1:pre_second:exact,2014-05-28,2014:Q1,0.1082999421667723,-1.9455,2.0537999421667723,36,0.11136948258333172,0.3337206655023505,-18.758875550127073,1.865518218914706,3.7717136725524904e-10,0.372771157441254,0.39174229456233944,0.1777883685550632,True,False,True,-0.22542072333557822,0.4420206076691228,False,-0.440621704873428,0.6572215892069726,False,expanding_residual_calibrated_gaussian
ar,exact,pre_second,DELTA_TS,2014:Q2:pre_second:exact,2014-08-27,2014:Q2,-0.9238290137923574,0.4200999999999997,-1.3439290137923572,37,0.21000252839401495,0.4582603281913185,-4.438914603874357,1.0858267101527903,0.9983197274341927,0.9780972956744551,0.007095711582036257,0.9428909985270955,False,True,False,-1.382089341983676,-0.46556868560103887,False,-1.6776001767058197,-0.17005785087889513,False,expanding_residual_calibrated_gaussian
ar,exact,pre_second,DELTA_TS,2014:Q3:pre_second:exact,2014-11-24,2014:Q3,0.103464812140801,1.0710000000000002,-0.9675351878591992,38,0.26433654712563354,0.5141367008156814,-2.0243779090480882,0.6893782743354363,0.9700727370775655,0.4202555016127361,0.42553172509750326,0.2775143800237389,False,True,False,-0.4106718886748804,0.6176015129564825,False,-0.7422148049447366,0.9491444292263385,False,expanding_residual_calibrated_gaussian
ar,exact,pre_second,DELTA_TS,2014:Q4:pre_second:exact,2015-02-26,2014:Q4,0.4573518717097449,0.0249999999999999,0.432351871709745,39,0.28806599545591,0.5367177987135419,-0.6211093697716723,0.25731912762863696,0.21025180121562617,0.1970717294187456,0.68420565833565,0.11033234532786733,False,False,False,-0.07936592700379697,0.9940696704232868,True,-0.42547034615363466,1.3401740895731244,True,expanding_residual_calibrated_gaussian
ar,exact,pre_second,DELTA_TS,2015:Q1:pre_second:exact,2015-05-28,2015:Q1,0.0826348931938669,0.5774,-0.494765106806133,40,0.2834682627971621,0.5324173764981399,-0.7203921386943315,0.29570492602798626,0.8236281410863636,0.4383290727988315,0.41276496444500266,0.2977606295263656,False,True,False,-0.449782483304273,0.6150522696920068,True,-0.7931137595910861,0.9583835459788198,True,expanding_residual_calibrated_gaussian
ar,exact,pre_second,DELTA_TS,2015:Q2:pre_second:exact,2015-08-26,2015:Q2,0.5224693187640796,0.2363999999999997,0.2860693187640799,41,0.2852055893547515,0.53404642996162,-0.4351338688618483,0.18451580271841214,0.2960954770234676,0.16395757055457547,0.7270192131639436,0.08805638318022738,False,True,False,-0.011577111197540346,1.0565157487256998,True,-0.35595888851877633,1.4008975260469356,True,expanding_residual_calibrated_gaussian
ar,exact,pre_second,DELTA_TS,2015:Q3:pre_second:exact,2015-11-23,2015:Q3,-0.0068930136439977,-0.0944999999999998,0.087606986356002,42,0.2791456249112569,0.5283423368529697,-0.29467496936692694,0.12925295812267987,0.4341513437811631,0.5052046492988328,0.3476809819920176,0.3573706132976032,True,False,False,-0.5352353504969675,0.521449323208972,True,-0.8759388226886214,0.862152795400626,True,expanding_residual_calibrated_gaussian
ar,exact,pre_second,DELTA_TS,2015:Q4:pre_second:exact,2016-02-25,2015:Q4,-0.0341771433756075,0.3811,-0.4152771433756075,43,0.2725012106824044,0.5220164850676695,-0.5853124031459866,0.24725403486481823,0.7868459011387653,0.5261006563921112,0.32685973806542656,0.3753720820323384,False,True,False,-0.556193628443277,0.487839341692062,True,-0.8928178521676228,0.8244635654164078,True,expanding_residual_calibrated_gaussian
ar,exact,pre_second,DELTA_TS,2016:Q1:pre_second:exact,2016-05-26,2016:Q1,0.2315730330636387,0.2323999999999999,-0.0008269669363611,44,0.27211565679622324,0.5216470615236161,-0.2681757426661894,0.12190682118736455,0.5006324428172895,0.32854780767262215,0.524131510496086,0.20402569040005747,False,True,False,-0.2900740284599774,0.7532200945872547,True,-0.6264600280720589,1.0896060941993364,True,expanding_residual_calibrated_gaussian
ar,exact,pre_second,DELTA_TS,2016:Q2:pre_second:exact,2016-08-25,2016:Q2,0.1707759690239196,0.3151999999999999,-0.1444240309760802,45,0.26609425258410263,0.515843244197404,-0.2961796278904446,0.13657679113170915,0.6102522661810077,0.37029892015941185,0.47741083526247463,0.23613933911898805,False,True,False,-0.34506727517348446,0.6866192132213236,True,-0.6777106621325943,1.0192626001804335,True,expanding_residual_calibrated_gaussian
ar,exact,pre_second,DELTA_TS,2016:Q3:pre_second:exact,2016-11-28,2016:Q3,0.1957679940370984,0.3584,-0.1626320059629016,46,0.2613046936040621,0.5111797077389342,-0.29851428564177435,0.139929607694909,0.6248145560411626,0.35086991511717697,0.4966972342646153,0.21939893997365129,False,True,False,-0.31541171370183574,0.7069477017760326,True,-0.645047802261281,1.0365837903354778,True,expanding_residual_calibrated_gaussian
ar,exact,pre_second,DELTA_TS,2016:Q4:pre_second:exact,2017-02-27,2016:Q4,0.0863025660953793,0.2233,-0.1369974339046207,47,0.25685597746579436,0.5068096067220849,-0.27585332842527094,0.13312328147048216,0.6065404258961344,0.432392621745395,0.41124655595191784,0.2860669867003628,False,True,False,-0.4205070406267056,0.5931121728174642,True,-0.7473250536952911,0.9199301858860498,True,expanding_residual_calibrated_gaussian
ar,exact,pre_second,DELTA_TS,2017:Q1:pre_second:exact,2017-05-25,2017:Q1,0.1049849469289503,0.2690000000000001,-0.1640150530710498,48,0.2523084903580733,0.5023031856937334,-0.2836967634983765,0.1385633316870176,0.6279867917222293,0.41722133653811033,0.4249841902727822,0.2718680444973343,False,True,False,-0.3973182387647831,0.6072881326226838,True,-0.721230269888666,0.9312001637465667,True,expanding_residual_calibrated_gaussian
ar,exact,pre_second,DELTA_TS,2017:Q2:pre_second:exact,2017-08-29,2017:Q2,0.1680818124655445,0.0266999999999999,0.1413818124655446,49,0.24815531358588086,0.49815189810526755,-0.26236311239645144,0.13231694005293282,0.3882769781845834,0.3679036357626972,0.4744559695753773,0.22998546120780208,False,False,False,-0.33007008563972307,0.666233710570812,True,-0.651305143905665,0.987468768836754,True,expanding_residual_calibrated_gaussian
ar,exact,pre_second,DELTA_TS,2017:Q3:pre_second:exact,2017-11-28,2017:Q3,-0.0358168366064584,-0.1394999999999999,0.1036831633935415,50,0.24321146463789228,0.4931647439121052,-0.23412705591032992,0.12391453270143483,0.4167400165356592,0.5289483366910125,0.31626442540104793,0.3695982874146217,True,False,False,-0.5289815805185636,0.4573479073056468,True,-0.8470006543148786,0.7753669811019618,True,expanding_residual_calibrated_gaussian
ar,exact,pre_second,DELTA_TS,2017:Q4:pre_second:exact,2018-02-27,2017:Q4,0.1376031611156358,0.3519000000000001,-0.2142968388843642,51,0.23837612430941,0.48823777435734117,-0.29831073110546524,0.1510318009901265,0.6696398878696784,0.38903449154032393,0.44915358343807343,0.24463422111790303,False,True,False,-0.35063461324170536,0.625840935472977,True,-0.6654765128507514,0.9406828350820229,True,expanding_residual_calibrated_gaussian
ar,exact,pre_second,DELTA_TS,2018:Q1:pre_second:exact,2018-05-29,2018:Q1,0.112234450235527,-0.1833000000000002,0.2955344502355272,52,0.23521353098739373,0.48498817613153594,-0.3809701528384438,0.18304081395956653,0.2711415184171665,0.4084954766069543,0.42819779569054606,0.25985319375314153,True,False,False,-0.37275372589600897,0.5972226263670629,True,-0.6855001103030093,0.9099690107740633,True,expanding_residual_calibrated_gaussian
ar,exact,pre_second,DELTA_TS,2018:Q2:pre_second:exact,2018-08-28,2018:Q2,-0.068502851625023,-0.0674999999999999,-0.0010028516250231,53,0.2317310583769656,0.48138452236955603,-0.1878517977627653,0.11249797847837749,0.5008311019698579,0.5565799814089138,0.2885000113794475,0.3923633948834088,True,False,False,-0.549887373994579,0.412881670744533,True,-0.8603099292028894,0.7233042259528434,True,expanding_residual_calibrated_gaussian
ar,exact,pre_second,DELTA_TS,2018:Q3:pre_second:exact,2018-11-27,2018:Q3,-0.1457973978982716,-0.1484999999999998,0.0027026021017282,54,0.2274396729133094,0.47690635654529645,-0.1785194654558932,0.11145673012882407,0.4977392281317433,0.620089151217,0.234200102285953,0.4547558008343997,True,False,False,-0.6227037544435681,0.33110895864702483,True,-0.9302385481780144,0.6386437523814712,True,expanding_residual_calibrated_gaussian
ar,exact,pre_second,DELTA_TS,2019:Q1:pre_second:exact,2019-05-29,2019:Q1,-0.4409678712297662,0.0609999999999999,-0.5019678712297662,55,0.22329584905914715,0.47254190190833567,-0.7335202198376901,0.3052017731222698,0.8559438122416609,0.824637146344848,0.08748191702517394,0.6949531428661113,False,False,False,-0.9135097731381019,0.031574030678569454,False,-1.218230132470239,0.3362943900107065,True,expanding_residual_calibrated_gaussian
ar,exact,pre_second,DELTA_TS,2019:Q2:pre_second:exact,2019-08-28,2019:Q2,0.3776475346616093,-0.0236,0.4012475346616093,56,0.2249307985915779,0.47426869872634214,-0.5308442161007212,0.23872799506784073,0.19876683550528243,0.21293658039846367,0.6460104114395087,0.11161668998379477,True,False,False,-0.09662116406473287,0.8519162333879514,True,-0.4024550545879697,1.1577501239111883,True,expanding_residual_calibrated_gaussian
ar,exact,pre_second,DELTA_TS,2019:Q3:pre_second:exact,2019-11-26,2019:Q3,0.2810694482886302,-0.0214000000000003,0.3024694482886305,57,0.22304584759846602,0.4722772994740124,-0.3738369240814665,0.185113344741348,0.26094041992341704,0.27587612370344683,0.5681461903482761,0.15419253468505592,True,False,False,-0.19120785118538225,0.7533467477626425,True,-0.4957575806780458,1.0578964772553061,True,expanding_residual_calibrated_gaussian
ar,exact,pre_second,DELTA_TS,2019:Q4:pre_second:exact,2020-02-26,2019:Q4,-0.0060850856082401,0.0318999999999998,-0.0379850856082399,58,0.22015657587970472,0.46920845674359357,-0.16550730494967655,0.11087778069185922,0.532261397052842,0.5051736703504757,0.3302515712916898,0.33970039450806955,False,False,False,-0.4752935423518337,0.46312337113535346,True,-0.7778643174792429,0.7656941462627628,True,expanding_residual_calibrated_gaussian
ar,exact,pre_second,DELTA_TS,2020:Q1:pre_second:exact,2020-05-27,2020:Q1,-0.2262422322479724,0.0540000000000002,-0.2802422322479727,59,0.21653358020207128,0.4653316883708558,-0.33528135670152026,0.17411304206454198,0.7264934299995114,0.6865857644209167,0.1798343459556514,0.5224863030248749,False,False,False,-0.6915739206188283,0.2390894561228834,True,-0.9916447476002268,0.5391602831042819,True,expanding_residual_calibrated_gaussian
ar,exact,pre_second,DELTA_TS,2020:Q2:pre_second:exact,2020-08-26,2020:Q2,0.6390911591899368,0.3214000000000006,0.3176911591899362,60,0.2148074418476802,0.4634732374665016,-0.38485781939865243,0.19193835316615385,0.24652766759343586,0.08396016204985643,0.82828064377084,0.03511367830199355,False,True,False,0.17561792172343516,1.1025643966564385,True,-0.12325447645177934,1.4014367948316528,True,expanding_residual_calibrated_gaussian
ar,exact,pre_second,DELTA_TS,2020:Q3:pre_second:exact,2020-11-24,2020:Q3,4.20829134381826,0.3727000000000018,3.8355913438182583,61,0.21235354186567273,0.46081833933305294,-34.783969544243995,3.5756024368587735,4.2725189554865035e-17,3.355647917014333e-20,1.0,5.544090843191773e-22,False,True,False,3.747473004485207,4.669109683151313,False,3.4503126270005335,4.966270060635987,False,expanding_residual_calibrated_gaussian
ar,exact,pre_second,DELTA_TS,2020:Q4:pre_second:exact,2021-02-24,2020:Q4,-0.4621874909960226,0.2328999999999998,-0.6950874909960225,62,0.43880754258189086,0.6624254996464817,-1.057613589657644,0.4217537951924163,0.8529814999775484,0.7573238274856164,0.15874220932769934,0.6538734210334771,False,True,False,-1.1246129906425042,0.2002380086504591,False,-1.5517804766746792,0.627405494682634,True,expanding_residual_calibrated_gaussian
ar,exact,pre_second,DELTA_TS,2021:Q1:pre_second:exact,2021-05-26,2021:Q1,0.0111954175582136,-0.0379000000000004,0.0490954175582141,63,0.44229572014209967,0.6650531709134989,-0.5137750765083824,0.15686482056999457,0.4705760929906521,0.49328457532252096,0.38824582030012667,0.375408713990653,True,False,False,-0.6538577533552853,0.6762485884717125,True,-1.0827197027344324,1.1051105378508597,True,expanding_residual_calibrated_gaussian
ar,exact,pre_second,DELTA_TS,2021:Q2:pre_second:exact,2021-08-25,2021:Q2,22.49911787886846,0.1697000000000006,22.329417878868465,64,0.43532905556950247,0.6597947071396545,-573.1766981325363,21.957168577820326,2.301890928705878e-251,3.665562984523699e-255,1.0,1.1251790930017801e-259,False,False,False,21.839323171728807,23.158912586008114,False,21.413852161786416,23.584383595950506,False,expanding_residual_calibrated_gaussian
ar,exact,pre_second,DELTA_TS,2021:Q3:pre_second:exact,2021-11-23,2021:Q3,23.201072945807336,0.1993999999999998,23.001672945807336,65,8.026061719210873,2.833030483283029,-34.92022133411583,21.40330665726578,2.348163670642488e-16,1.3116842942342966e-16,0.9999999999999998,7.278431015355181e-17,False,False,False,20.368042462524308,26.034103429090365,False,18.541152480115166,27.860993411499507,False,expanding_residual_calibrated_gaussian
ar,exact,pre_second,DELTA_TS,2021:Q4:pre_second:exact,2022-02-23,2021:Q4,0.0427246507299647,-0.0928000000000004,0.1355246507299652,66,15.6091325341554,3.950839472081269,-2.293454953374665,0.9251457887064413,0.4863178667938202,0.4956858947305723,0.4841230656515769,0.47550590293912487,True,False,False,-3.908114821351304,3.9935641228112337,True,-6.45582798442595,6.541277285885879,True,expanding_residual_calibrated_gaussian
ar,exact,pre_second,DELTA_TS,2022:Q1:pre_second:exact,2022-05-25,2022:Q1,1.9403867455032868,-0.0639,2.004286745503287,67,15.379033543909053,3.9216110903439994,-2.4160463553032803,1.3164552151064124,0.3046448640571062,0.3103730303843979,0.6714041696332556,0.2926042173829456,True,False,False,-1.9812243448407125,5.861997835847286,True,-4.510089479942158,8.390862970948731,True,expanding_residual_calibrated_gaussian
ar,exact,pre_second,DELTA_TS,2022:Q2:pre_second:exact,2022-08-24,2022:Q2,1.66412017377979,-0.0022999999999999,1.66642017377979,68,15.1715117257752,3.895062480342928,-2.370167023934623,1.1904192956493274,0.3343878587495088,0.3346028556554621,0.6465011527977066,0.3161167907911036,True,False,False,-2.230942306563138,5.559182654122718,True,-4.742687474214872,8.070927821774452,True,expanding_residual_calibrated_gaussian
ar,exact,pre_second,DELTA_TS,2022:Q3:pre_second:exact,2022-11-29,2022:Q3,-0.4122753989801486,0.3147000000000002,-0.7269753989801488,69,14.959312783637092,3.8677270823620806,-2.2892699057426307,0.9582206660522228,0.5745457343819163,0.542444347628031,0.4371087574417243,0.5218844643772846,False,True,False,-4.280002481342229,3.455451683381932,True,-6.774120318461852,5.949569520501555,True,expanding_residual_calibrated_gaussian
ar,exact,pre_second,DELTA_TS,2022:Q4:pre_second:exact,2023-02-22,2022:Q4,-0.6053546577414282,-0.1016999999999996,-0.5036546577414285,70,14.776315315242096,3.8439973094738367,-2.2740349262104456,0.9246117399230066,0.5521217109124639,0.5625669166029166,0.41702518858979776,0.5419911591767412,True,False,False,-4.449351967215264,3.2386426517324085,True,-6.928167574221169,5.717458258738313,True,expanding_residual_calibrated_gaussian
ar,exact,pre_second,DELTA_TS,2023:Q1:pre_second:exact,2023-05-24,2023:Q1,-0.7040091196160629,0.7302,-1.434209119616063,71,14.588771516328592,3.81952503805494,-2.3295625223698417,1.104959814032368,0.6463534835407777,0.5731181985437088,0.40645212642078987,0.5524904397982442,False,True,False,-4.523534157671003,3.115515918438877,True,-6.986568731692691,5.578550492460566,True,expanding_residual_calibrated_gaussian
ar,exact,pre_second,DELTA_TS,2023:Q2:pre_second:exact,2023-08-29,2023:Q2,-0.3831436768099943,0.0009000000000001,-0.3840436768099944,72,14.45084376621038,3.801426543576816,-2.2594180821984002,0.90383948970258,0.5402351688560663,0.5401411976298858,0.4390409199274996,0.5192126562390655,False,False,False,-4.18457022038681,3.418282866766822,True,-6.635933914601919,5.869646560981931,True,expanding_residual_calibrated_gaussian
ar,exact,pre_second,DELTA_TS,2023:Q3:pre_second:exact,2023-11-28,2023:Q3,0.0514902241711969,-0.2930999999999999,0.3445902241711969,73,14.26746038629662,3.777229194303229,-2.2520905586574322,0.8952521020714799,0.46365559153866126,0.4945618890936076,0.484318778445857,0.4734577912007589,True,False,True,-3.725738970132032,3.8287194184744258,True,-6.161498915905456,6.264479364247849,True,expanding_residual_calibrated_gaussian
ar,exact,pre_second,DELTA_TS,2023:Q4:pre_second:exact,2024-02-27,2023:Q4,0.3678887033597431,0.1876999999999999,0.1801887033597431,74,14.073972106324833,3.751529302341224,-2.2422555796814487,0.880165575457111,0.4808458746198005,0.4609408707679508,0.5178475354580665,0.4398398542308601,False,False,False,-3.383640598981481,4.119418005700967,True,-5.802827876210946,6.5386052829304315,True,expanding_residual_calibrated_gaussian
ar,exact,pre_second,DELTA_TS,2024:Q1:pre_second:exact,2024-05-29,2024:Q1,0.7144528981117377,0.1602999999999999,0.5541528981117378,75,13.887667685751046,3.726616117304148,-2.245495195704324,0.9037051831316228,0.4408946426179326,0.42398223497292575,0.5548988645692216,0.4030794617814062,False,False,False,-3.01216321919241,4.441069015415886,True,-5.415285138691804,6.844190934915279,True,expanding_residual_calibrated_gaussian
ar,exact,pre_second,DELTA_TS,2024:Q2:pre_second:exact,2024-08-28,2024:Q2,0.643932382247062,0.0381,0.6058323822470619,76,13.702829708481264,3.7017333383809894,-2.241132307190707,0.9045442071738061,0.43499869122852236,0.43095069418232407,0.5477289351157876,0.4098297166756102,False,False,False,-3.0578009561339274,4.345665720628052,True,-5.44487712539609,6.732741889890214,True,expanding_residual_calibrated_gaussian
ar,exact,pre_second,DELTA_TS,2024:Q3:pre_second:exact,2024-11-26,2024:Q3,0.4339292008086608,0.2393999999999998,0.1945292008086609,77,13.522672015269118,3.677318590395605,-2.222521567177365,0.8634752604736622,0.4789058954019684,0.45303322485844877,0.525361235749498,0.4315658676002888,False,True,False,-3.243389389586944,4.111247791204265,True,-5.614721620059624,6.482580021676947,True,expanding_residual_calibrated_gaussian
ar,exact,pre_second,DELTA_TS,2024:Q4:pre_second:exact,2025-02-26,2024:Q4,0.2569642214226246,0.1044,0.1525642214226246,78,13.350450105486196,3.6538267755171696,-2.215585308205347,0.8564219637342056,0.48334714776710647,0.4719665280480082,0.5062193741599309,0.45023622178744444,False,False,False,-3.396862554094545,3.9107909969397943,True,-5.753046002539195,6.266974445384443,True,expanding_residual_calibrated_gaussian
ar,exact,pre_third,DELTA_MT,2008:Q1:pre_third:exact,2008-06-25,2008:Q1,0.9336213065217098,-2.6557,3.5893213065217098,12,2.1917905902256973,1.4804697194558547,-4.250271110331015,2.7615368123655664,0.007665847174707905,0.26414285445518354,0.6898879628025372,0.22192225943898966,True,False,True,-0.5468484129341449,2.4140910259775645,False,-1.5015346811170813,3.368777294160501,False,expanding_residual_calibrated_gaussian
ar,exact,pre_third,DELTA_MT,2008:Q2:pre_third:exact,2008-09-25,2008:Q2,0.3971216491178673,-0.4218999999999999,0.8190216491178672,13,2.804075792139553,1.674537486035936,-1.554086504541208,0.5480304985473144,0.3123843167287086,0.40626903435641676,0.5468540801687616,0.36069975644020075,True,False,True,-1.2774158369180688,2.071659135153803,True,-2.3572474082545423,3.151490706490277,True,expanding_residual_calibrated_gaussian
ar,exact,pre_third,DELTA_MT,2008:Q3:pre_third:exact,2008-12-22,2008:Q3,0.1453211946616432,-1.5739999999999998,1.7193211946616431,14,2.591152382582185,1.6097056819748712,-1.965405081801337,1.0463518330457175,0.14273846567360104,0.46403310541602244,0.4864512541957807,0.4150690588128224,True,False,True,-1.464384487313228,1.7550268766365145,False,-2.5024090346591166,2.793051423982403,True,expanding_residual_calibrated_gaussian
ar,exact,pre_third,DELTA_MT,2008:Q4:pre_third:exact,2009-03-25,2008:Q4,0.9171665863378188,-2.1294000000000004,3.046566586337819,15,2.484308271820631,1.5761688589172895,-3.241974358055188,2.189287514423512,0.02662465766676197,0.2803183179102757,0.6754476069794901,0.23922861086758976,True,False,True,-0.6590022725794707,2.4933354452551084,False,-1.6754004779402485,3.509733650615886,False,expanding_residual_calibrated_gaussian
ar,exact,pre_third,DELTA_MT,2009:Q1:pre_third:exact,2009-06-24,2009:Q1,4.939783267369229,1.0301,3.909683267369229,16,2.6604273719057345,1.6310816570318405,-4.280957816651455,2.9983993958094723,0.008265231035793803,0.0012287245635756463,0.9981690904926261,0.0008131442110119297,False,True,False,3.3087016103373887,6.57086492440107,False,2.2568926879463893,7.622673846792069,False,expanding_residual_calibrated_gaussian
ar,exact,pre_third,DELTA_MT,2009:Q2:pre_third:exact,2009-09-29,2009:Q2,4.999390884793501,0.0229,4.976490884793501,17,3.043263743780274,1.7444952690621645,-5.544302132403491,3.99448709493066,0.0021675965151524684,0.0020797231764213813,0.9970307959252882,0.001439099278979896,False,False,False,3.2548956157313365,6.743886153855665,False,2.129951514276915,7.868830255310087,False,expanding_residual_calibrated_gaussian
ar,exact,pre_third,DELTA_MT,2009:Q3:pre_third:exact,2009-12-21,2009:Q3,1.8991781686410392,-0.8215000000000001,2.7206781686410393,18,3.7277188074131837,1.9307301228843932,-2.56968119501684,1.7701453132980878,0.07939618908356154,0.16264184376927177,0.8105893765763116,0.13846410292682002,True,False,True,-0.031551954243354,3.8299082915254323,False,-1.2765902766498167,5.074946613931895,True,expanding_residual_calibrated_gaussian
ar,exact,pre_third,DELTA_MT,2009:Q4:pre_third:exact,2010-03-25,2009:Q4,0.76517190205093,-1.1592000000000002,1.9243719020509304,19,3.633977558162625,1.9062994408441254,-2.073627758817084,1.1608128293441893,0.15637215094872853,0.34406604784288175,0.6165666773858938,0.306320731145277,True,False,True,-1.1411275387931954,2.6714713428950554,False,-2.370411647277093,3.900755451378953,True,expanding_residual_calibrated_gaussian
ar,exact,pre_third,DELTA_MT,2010:Q1:pre_third:exact,2010-06-24,2010:Q1,-1.4319023293479771,-0.7871999999999999,-0.6447023293479774,20,3.460358162820838,1.860203796045164,-1.5996821076536598,0.5229776954649219,0.6355451289367129,0.7792775654897903,0.19016980510555448,0.7460914552495086,True,False,True,-3.292106125393141,0.42830146669718694,True,-4.4916652901417615,1.6278606314458075,True,expanding_residual_calibrated_gaussian
ar,exact,pre_third,DELTA_MT,2010:Q2:pre_third:exact,2010-09-29,2010:Q2,0.1972573072147847,2.2092,-2.0119426927852153,21,3.478724521893112,1.8651339152707271,-2.1240813839728436,1.2265814263085335,0.8596419753820108,0.4578862287357747,0.4994133527298622,0.41566687221946486,False,True,False,-1.6678766080559424,2.0623912224855117,False,-2.8706149780684704,3.26512959249804,True,expanding_residual_calibrated_gaussian
ar,exact,pre_third,DELTA_MT,2010:Q3:pre_third:exact,2010-12-21,2010:Q3,0.701705232707758,0.5615999999999999,0.1401052327077581,22,3.8010571719666424,1.949630008993153,-1.589160256269324,0.45963368683935313,0.4713556777448332,0.3594545541157297,0.6015393566519022,0.32186115228798484,False,True,False,-1.247924776285395,2.6513352417009113,True,-2.5051507587980613,3.908561224213577,True,expanding_residual_calibrated_gaussian
ar,exact,pre_third,DELTA_MT,2010:Q4:pre_third:exact,2011-03-24,2010:Q4,0.2527888587683233,-0.9972999999999996,1.250088858768323,23,3.669660504693297,1.9156357964637476,-1.7819127317619465,0.7620449107897458,0.2570163605099474,0.4475076433177387,0.5109921952051186,0.4065748066226079,True,False,True,-1.6628469376954242,2.1684246552320707,True,-2.898151628963144,3.403729346499791,True,expanding_residual_calibrated_gaussian
ar,exact,pre_third,DELTA_MT,2011:Q1:pre_third:exact,2011-06-23,2011:Q1,-0.6619337696723342,-2.8618,2.199866230327666,24,3.51141311237167,1.8738764933612007,-2.2360452293151836,1.3643794484188552,0.12020443562088415,0.6380468662328752,0.32276757484815743,0.5973571920802458,True,False,True,-2.535810263033535,1.2119427236888665,False,-3.7441863162366116,2.420318776891943,True,expanding_residual_calibrated_gaussian
ar,exact,pre_third,DELTA_MT,2011:Q2:pre_third:exact,2011-09-28,2011:Q2,-1.0752098361289164,1.4003,-2.475509836128916,25,3.4152132505311124,1.8480295588899849,-2.430242439707477,1.5874848421655434,0.9098025573988455,0.7196540803075614,0.24508527892454202,0.6821041388677402,False,True,False,-2.9232393950189013,0.7728197227610685,False,-4.114947958782637,1.9645282865248044,True,expanding_residual_calibrated_gaussian
ar,exact,pre_third,DELTA_MT,2011:Q3:pre_third:exact,2011-12-21,2011:Q3,0.6470052066339786,-1.9037,2.5507052066339786,26,3.7773138512168556,1.9435312838276764,-2.4446519410505134,1.6265375391651997,0.09469132380701055,0.3696041773882517,0.5909527180510306,0.33148825754626143,True,False,True,-1.2965260771936977,2.590536490461655,False,-2.5498192746636263,3.843829687931583,True,expanding_residual_calibrated_gaussian
ar,exact,pre_third,DELTA_MT,2011:Q4:pre_third:exact,2012-03-28,2011:Q4,-3.0578472884876753,1.6146000000000005,-4.6724472884876755,27,3.7226074968959284,1.9294059958691765,-4.508472169630174,3.5937276976106673,0.9922760038677545,0.9435014510231042,0.04565539469604851,0.9307241250766443,False,True,False,-4.987253284356852,-1.1284412926184988,False,-6.231437738655007,0.11574316167965693,False,expanding_residual_calibrated_gaussian
ar,exact,pre_third,DELTA_MT,2012:Q1:pre_third:exact,2012-06-27,2012:Q1,-3.616593874168663,1.5244000000000002,-5.140993874168664,28,4.752126028617892,2.179937161621383,-4.479076028567643,3.9245340955687413,0.9908211204904751,0.9514457144712242,0.03999176851895103,0.9414765477137608,False,True,False,-5.796531035790046,-1.43665671254728,False,-7.202271420987893,-0.03091632734943328,False,expanding_residual_calibrated_gaussian
ar,exact,pre_third,DELTA_MT,2012:Q2:pre_third:exact,2012-09-26,2012:Q2,-1.528200585356866,0.5443,-2.072500585356866,29,5.816190031539228,2.4116778457205323,-2.1685114410069395,1.2334241601664857,0.8049291616675501,0.736850906392563,0.2368114650910501,0.709093063279703,False,True,False,-3.9398784310773984,0.8834772603636663,True,-5.495057636928797,2.4386564662150647,True,expanding_residual_calibrated_gaussian
ar,exact,pre_third,DELTA_MT,2012:Q3:pre_third:exact,2012-12-19,2012:Q3,-0.1704287729324498,-2.5269,2.35647122706755,30,5.859867716173284,2.4207163642552763,-2.276814505146523,1.4148963941277477,0.16516229628232393,0.5280640543703641,0.43918949984640476,0.4951266825273007,True,False,True,-2.591145137187726,2.2502875913228264,True,-4.152152864498522,3.8112953186336225,True,expanding_residual_calibrated_gaussian
ar,exact,pre_third,DELTA_MT,2012:Q4:pre_third:exact,2013-03-27,2012:Q4,0.430413600737157,0.0847999999999999,0.3456136007371571,31,5.770493176689456,2.4021850837704943,-1.8056672691240718,0.5811818625747166,0.4427997165962306,0.42889980528222926,0.5382072849316163,0.3964936623600946,False,False,False,-1.9717714830333373,2.8325986845076514,True,-3.520829246911467,4.3816564483857805,True,expanding_residual_calibrated_gaussian
ar,exact,pre_third,DELTA_MT,2013:Q1:pre_third:exact,2013-06-25,2013:Q1,0.6080190341061522,2.2271,-1.619080965893848,32,5.586411907503303,2.363559160990751,-2.0137320803286998,0.9782955415684456,0.7533337716727302,0.39849396521753744,0.568528502179758,0.36622610481539053,False,True,False,-1.7555401268845987,2.971578195096903,True,-3.279689824363863,4.495727892576167,True,expanding_residual_calibrated_gaussian
ar,exact,pre_third,DELTA_MT,2013:Q2:pre_third:exact,2013-09-25,2013:Q2,0.946856483153327,-1.4062,2.353056483153327,33,5.560327727783664,2.358034717255805,-2.274658107621443,1.4171815931740885,0.15916663675899373,0.34400954558477775,0.6242751384661842,0.31335556425101807,True,False,True,-1.411178234102478,3.304891200409132,True,-2.931765474002373,4.825478440309027,True,expanding_residual_calibrated_gaussian
ar,exact,pre_third,DELTA_MT,2013:Q3:pre_third:exact,2013-12-19,2013:Q3,0.2334101888515651,-0.6842999999999999,0.9177101888515652,34,5.48985433595452,2.343043818615973,-1.8470937967478256,0.6891493443206856,0.3476494184690875,0.46032365752433513,0.5056884489965077,0.4266233750340108,True,False,True,-2.109633629764408,2.576454007467538,True,-3.6205539343051454,4.087374312008276,True,expanding_residual_calibrated_gaussian
ar,exact,pre_third,DELTA_MT,2013:Q4:pre_third:exact,2014-03-26,2013:Q4,-1.1635329255639668,0.9040000000000004,-2.067532925563967,35,5.331623934222812,2.309030951334956,-2.1566473677486386,1.2325120846986024,0.8147164289942743,0.6928360356881367,0.27742046473108506,0.6617664372009611,False,True,False,-3.472563876898923,1.1454980257709892,True,-4.961550860610478,2.634485009482544,True,expanding_residual_calibrated_gaussian
ar,exact,pre_third,DELTA_MT,2014:Q1:pre_third:exact,2014-06-24,2014:Q1,-2.151733316777689,1.5587000000000002,-3.7104333167776895,36,5.375588415350729,2.3185315213192013,-3.0404128715825625,2.5100306804739647,0.9452381520630383,0.8233114356550835,0.1552149982354708,0.8000492571141814,False,True,False,-4.47026483809689,0.16679820454151217,False,-5.965378298820892,1.6619116652655137,True,expanding_residual_calibrated_gaussian
ar,exact,pre_third,DELTA_MT,2014:Q2:pre_third:exact,2014-09-25,2014:Q2,2.8337600315741476,0.6755000000000004,2.158260031574147,37,5.709259621963149,2.389405704764921,-2.19792457739487,1.287260985998878,0.18319335682065885,0.11781735885175972,0.8648269190034616,0.10210085629251263,False,True,False,0.4443543268092265,5.223165736339069,True,-1.0964626081669713,6.763982671315267,True,expanding_residual_calibrated_gaussian
ar,exact,pre_third,DELTA_MT,2014:Q3:pre_third:exact,2014-12-22,2014:Q3,-2.48635426711182,-0.0165000000000006,-2.4698542671118195,38,5.63606093087394,2.3740389488957296,-2.3247053088333036,1.496554489767441,0.8509135735151108,0.8525216421777743,0.1289109058790876,0.8322425948441199,True,False,False,-4.86039321600755,-0.11231531821609053,False,-6.391300842727022,1.4185923085033814,True,expanding_residual_calibrated_gaussian
ar,exact,pre_third,DELTA_MT,2014:Q4:pre_third:exact,2015-03-26,2014:Q4,-0.2257735771470956,-0.1787999999999998,-0.0469735771470958,39,5.706181580655208,2.3887615160696156,-1.7899069151647193,0.5586100622715939,0.507844457551655,0.5376499300766759,0.4292671295014743,0.5043043100276192,True,False,False,-2.6145350932167113,2.16298793892252,True,-4.1549366207763,3.703389466482109,True,expanding_residual_calibrated_gaussian
ar,exact,pre_third,DELTA_MT,2015:Q1:pre_third:exact,2015-06-23,2015:Q1,0.4396599018482852,3.8228,-3.383140098151715,40,5.564300816942024,2.3588770245483386,-2.8056125332028357,2.2126483614359826,0.924244739828146,0.42607132630095446,0.5404625731213994,0.39312961789622547,False,True,False,-1.9192171227000534,2.7985369263966238,False,-3.4403475275125466,4.319667331209117,True,expanding_residual_calibrated_gaussian
ar,exact,pre_third,DELTA_MT,2015:Q2:pre_third:exact,2015-09-24,2015:Q2,0.7076461812943957,-1.4206999999999996,2.128346181294395,41,5.7675717568488505,2.401576931278457,-2.187764682488888,1.2680842506242045,0.18774717530896717,0.3841272052862321,0.5837047570849876,0.35273848106262107,True,False,True,-1.6939307499840612,3.1092231125728524,True,-3.242596344521961,4.657888707110752,True,expanding_residual_calibrated_gaussian
ar,exact,pre_third,DELTA_MT,2015:Q3:pre_third:exact,2015-12-21,2015:Q3,-1.7434487598592483,-0.3723000000000001,-1.3711487598592482,42,5.708934562226828,2.3893376827537014,-1.9546132158964054,0.8639446815369851,0.7169692153388882,0.7672066911427684,0.207998998740609,0.7408517323294497,True,False,True,-4.13278644261295,0.6458889228944531,True,-5.673559513348501,2.1866619936300036,True,expanding_residual_calibrated_gaussian
ar,exact,pre_third,DELTA_MT,2015:Q4:pre_third:exact,2016-03-24,2015:Q4,-1.0211428601118386,-0.6463000000000001,-0.3748428601118385,43,5.639231267174437,2.3747065644357908,-1.7962704186472245,0.5785128133240315,0.562711742479046,0.6664050951967849,0.30354596525050737,0.6352486340114415,True,False,True,-3.395849424547629,1.3535637043239521,True,-4.927187565569519,2.8849018453458415,True,expanding_residual_calibrated_gaussian
ar,exact,pre_third,DELTA_MT,2016:Q1:pre_third:exact,2016-06-27,2016:Q1,1.0373312581476182,1.2657999999999998,-0.2284687418523816,44,5.517746012380165,2.3489882954966306,-1.7776532641490825,0.557804866980035,0.5387410775468924,0.32938656483230816,0.6392536843736383,0.2991833570035865,False,True,False,-1.3116570373490124,3.386319553644249,True,-2.826410659366571,4.901073175661807,True,expanding_residual_calibrated_gaussian
ar,exact,pre_third,DELTA_MT,2016:Q2:pre_third:exact,2016-09-28,2016:Q2,-0.2640019141664689,-0.1234999999999999,-0.1405019141664689,45,5.397694561898039,2.323293903469391,-1.7637531293510595,0.546330854473089,0.5241114593578446,0.5452354760127134,0.4208508534626001,0.5109886400773007,True,False,False,-2.5872958176358596,2.0592919893029222,True,-4.08548031776234,3.557476489429402,True,expanding_residual_calibrated_gaussian
ar,exact,pre_third,DELTA_MT,2016:Q3:pre_third:exact,2016-12-21,2016:Q3,0.6999048857993193,-0.6490999999999998,1.349004885799319,46,5.281084204567271,2.298060966242469,-1.9232997513839472,0.8441955164357008,0.27859555558146065,0.38034941171347636,0.586103637682849,0.3476794325413619,True,False,True,-1.5981560804431498,2.9979658520417884,True,-3.0800690294802107,4.479878801078849,True,expanding_residual_calibrated_gaussian
ar,exact,pre_third,DELTA_MT,2016:Q4:pre_third:exact,2017-03-29,2016:Q4,-0.1193469066246262,0.1576999999999997,-0.2770469066246259,47,5.1923113712790965,2.2786643832032607,-1.749919223559302,0.5459339435704842,0.5483853707305333,0.5208853781796241,0.444272108807211,0.4858824264931272,False,False,False,-2.398011289827887,2.1593174765786345,True,-3.8674162819416487,3.6287224686923962,True,expanding_residual_calibrated_gaussian
ar,exact,pre_third,DELTA_MT,2017:Q1:pre_third:exact,2017-06-28,2017:Q1,-1.6845257710802648,0.5367999999999999,-2.2213257710802647,48,5.087989243615732,2.255657164467981,-2.217275586191998,1.3355905609707936,0.8376338949320802,0.7724079861054287,0.20172757870200475,0.7447741414750931,False,True,False,-3.9401829355482456,0.571131393387716,True,-5.394751639214496,2.0257000970539667,True,expanding_residual_calibrated_gaussian
ar,exact,pre_third,DELTA_MT,2017:Q2:pre_third:exact,2017-09-27,2017:Q2,1.1406718184389066,-0.8029999999999999,1.9436718184389064,49,5.107143127661357,2.259898919788528,-2.1041190332110453,1.1567771720784685,0.1948751609326991,0.30686910907487386,0.6613846641033876,0.2765088841466916,True,False,True,-1.1192271013496216,3.400570738227435,True,-2.576531116318968,4.857874753196781,True,expanding_residual_calibrated_gaussian
ar,exact,pre_third,DELTA_MT,2017:Q3:pre_third:exact,2017-12-20,2017:Q3,0.5605914941660091,0.0375999999999998,0.5229914941660092,50,5.063408002872517,2.250201769369253,-1.7569679074496471,0.5741365966100632,0.4081059774306104,0.4016303308562691,0.5636573435208634,0.36767769299909364,False,False,False,-1.6896102752032438,2.810793263535262,True,-3.1406610475536265,4.261844035885645,True,expanding_residual_calibrated_gaussian
ar,exact,pre_third,DELTA_MT,2017:Q4:pre_third:exact,2018-03-27,2017:Q4,-0.6314484586040883,1.6974,-2.3288484586040883,51,4.963717756273493,2.2279402497090204,-2.266333878737146,1.4121815208602684,0.8520560181835864,0.6115735195258796,0.3545029451390138,0.5767764034749442,False,True,False,-2.8593887083131087,1.5964917911049321,False,-4.296084058969139,3.0331871417609624,True,expanding_residual_calibrated_gaussian
ar,exact,pre_third,DELTA_MT,2018:Q1:pre_third:exact,2018-06-27,2018:Q1,0.048717540019449,1.3022000000000002,-1.2534824599805512,52,4.993775596198754,2.2346757250658884,-1.8803523307756154,0.7956024521116049,0.7125752059408363,0.49130345987972096,0.4730131306570946,0.455689559158157,False,True,False,-2.1859581850464394,2.2833932650853375,True,-3.6269969314155883,3.7244320114544864,True,expanding_residual_calibrated_gaussian
ar,exact,pre_third,DELTA_MT,2018:Q2:pre_third:exact,2018-09-26,2018:Q2,0.0567145098070394,-2.0182,2.07491450980704,53,4.937349068721412,2.222014641878269,-2.1533428728495725,1.2406181401926093,0.17520385550816958,0.4898185371896618,0.4742922266415709,0.4540116016022453,True,False,True,-2.1653001320712297,2.278729151685308,True,-3.598174333025708,3.7116033526397865,True,expanding_residual_calibrated_gaussian
ar,exact,pre_third,DELTA_MT,2018:Q3:pre_third:exact,2018-12-20,2018:Q3,-1.1648333672091633,-0.8374000000000001,-0.3274333672091631,54,4.911527785536897,2.2161966937834956,-1.725645443840866,0.5371785752221987,0.5587282386815664,0.7004169819908843,0.26899845468091865,0.6683477885801138,True,False,True,-3.381030060992659,1.0513633265743323,True,-4.810152537016807,2.4804858025984804,True,expanding_residual_calibrated_gaussian
ar,exact,pre_third,DELTA_MT,2018:Q4:pre_third:exact,2019-04-25,2018:Q4,-1.2865273475667671,-1.5995,0.3129726524332328,55,4.8256960618921765,2.1967466995291414,-1.7160650160623645,0.5311272863251172,0.44335400054132734,0.720945033968223,0.24929976790849984,0.6895613891543845,True,False,True,-3.4832740470959083,0.9102193519623742,True,-4.899854123780951,2.3267994286474165,True,expanding_residual_calibrated_gaussian
ar,exact,pre_third,DELTA_MT,2019:Q1:pre_third:exact,2019-06-26,2019:Q1,-0.0575364607847146,-0.6073999999999997,0.5498635392152851,56,4.738210146672564,2.1767430134658903,-1.728673760629964,0.5638142537209412,0.4002854245590351,0.5105437592604387,0.45290992605327285,0.47390864232498575,True,False,True,-2.234279474250605,2.1192065526811756,True,-3.6379601014253615,3.5228871798559322,True,expanding_residual_calibrated_gaussian
ar,exact,pre_third,DELTA_MT,2019:Q2:pre_third:exact,2019-09-25,2019:Q2,-0.9598754775213232,1.3697,-2.329575477521323,57,4.6557981329661215,2.1577298563458127,-2.270808483740592,1.4204466806822449,0.8598491535757639,0.6717874869607742,0.2954458318493538,0.6376424849276696,False,True,False,-3.117605333867136,1.1978543788244895,False,-4.509025257713212,2.589274302670566,True,expanding_residual_calibrated_gaussian
ar,exact,pre_third,DELTA_MT,2019:Q3:pre_third:exact,2019-12-19,2019:Q3,0.1719903818034911,2.6594,-2.487409618196509,58,4.684619309840399,2.1643981403245567,-2.351455397052466,1.5355248740826337,0.8747711700817684,0.46833203085485137,0.4948374058992101,0.43177072449311454,False,True,False,-1.9924077585210656,2.336388522128048,False,-3.3881277494763773,3.7321085130833596,True,expanding_residual_calibrated_gaussian
ar,exact,pre_third,DELTA_MT,2019:Q4:pre_third:exact,2020-03-25,2019:Q4,-0.1872636201683559,0.6275,-0.8147636201683559,59,4.722499067019481,2.173131166547358,-1.765392389528268,0.6283094409251375,0.646142290838958,0.5343352583300868,0.4292808505214778,0.4976618754524719,False,True,False,-2.360394786715714,1.9858675463790019,True,-3.7617463013050614,3.3872190609683495,True,expanding_residual_calibrated_gaussian
ar,exact,pre_third,DELTA_MT,2020:Q1:pre_third:exact,2020-06-24,2020:Q1,0.1465529443322113,-0.1679000000000003,0.3144529443322117,60,4.656819576155342,2.1579665373113044,-1.6987216517081265,0.5225536846706098,0.4420723025258753,0.47292763636116353,0.49012027750209874,0.4362072353475209,True,False,False,-2.011413592979093,2.3045194816435157,True,-3.402986141404197,3.6960920300686197,True,expanding_residual_calibrated_gaussian
ar,exact,pre_third,DELTA_MT,2020:Q2:pre_third:exact,2020-09-29,2020:Q2,1.2051715745026343,3.4068000000000005,-2.201628425497366,61,4.579973404132392,2.140087242177849,-2.2089549837388978,1.331714694632521,0.8482029178724991,0.286669325226437,0.6807107412486132,0.2557205333393844,False,True,False,-0.9349156676752148,3.3452588166804835,False,-2.3149586877861745,4.725301836791443,True,expanding_residual_calibrated_gaussian
ar,exact,pre_third,DELTA_MT,2020:Q3:pre_third:exact,2020-12-21,2020:Q3,39.673554362624415,1.4142999999999972,38.25925436262442,62,4.590456249208306,2.1425350053635777,-161.11720918321706,37.050458430211854,1.2748321589573543e-71,7.514684422097992e-77,1.0,1.3217797086033425e-77,False,True,False,37.53101935726084,41.81608936798799,False,36.14939788818164,43.19771083706719,False,expanding_residual_calibrated_gaussian
ar,exact,pre_third,DELTA_MT,2020:Q4:pre_third:exact,2021-03-24,2020:Q4,18.9637597449113,0.2858999999999998,18.677859744911306,63,27.67262089640035,5.260477249870049,-8.882546691892808,15.710455792547096,0.00019217576432454416,0.00015610625497709333,0.9998194067807377,0.00013475523556294807,False,True,False,13.70328249504125,24.22423699478135,False,10.311044660966845,27.616474828855758,False,expanding_residual_calibrated_gaussian
ar,exact,pre_third,DELTA_MT,2021:Q1:pre_third:exact,2021-06-23,2021:Q1,1.0660152297418222,-0.6600999999999999,1.726115229741822,64,32.29987565189598,5.683297955579663,-2.702592286219681,1.5357110189194487,0.380671683983772,0.4256069394110169,0.5605559883454301,0.41186089192850706,True,False,True,-4.617282725837841,6.749313185321485,True,-8.282178025539274,10.414208485022918,True,expanding_residual_calibrated_gaussian
ar,exact,pre_third,DELTA_MT,2021:Q2:pre_third:exact,2021-09-29,2021:Q2,1.5528427574026638,0.2582999999999993,1.2945427574026644,65,31.804406859131777,5.639539596379458,-2.6750870129702897,1.4359636166426157,0.409221665848286,0.3915239814835723,0.5947904189840247,0.3779713569516294,False,True,False,-4.086696838976794,7.192382353782122,True,-7.72337440203853,10.829059916843857,True,expanding_residual_calibrated_gaussian
ar,exact,pre_third,DELTA_MT,2021:Q3:pre_third:exact,2021-12-21,2021:Q3,1.481340584968882,1.0375,0.443840584968882,66,31.316763581661803,5.596138273994113,-2.644160491077814,1.3218255592014063,0.46839225459808476,0.39561734373970303,0.5905533836682418,0.3819182704626214,False,True,False,-4.114797689025231,7.077478858962994,True,-7.723487751932286,10.686168921870049,True,expanding_residual_calibrated_gaussian
ar,exact,pre_third,DELTA_MT,2021:Q4:pre_third:exact,2022-03-29,2021:Q4,0.2637271019178522,0.1469000000000004,0.1168271019178517,67,30.84638381688729,5.553952089898444,-2.6336695303693696,1.2989110527591443,0.4916088880711656,0.4810635085193691,0.504577439109958,0.4667289856168829,False,False,False,-5.290224987980592,5.817679191816296,True,-8.871711137066313,9.399165340902016,True,expanding_residual_calibrated_gaussian
ar,exact,pre_third,DELTA_MT,2022:Q1:pre_third:exact,2022-06-28,2022:Q1,1.4068572459975006,0.5592000000000001,0.8476572459975005,68,30.396474411816204,5.513299775254036,-2.6379210274301412,1.340320587833639,0.43890433020496616,0.3992939012286334,0.5866357388934951,0.3853531715216978,False,True,False,-4.106442529256535,6.920157021251537,True,-7.661713885799838,10.475428377794838,True,expanding_residual_calibrated_gaussian
ar,exact,pre_third,DELTA_MT,2022:Q2:pre_third:exact,2022-09-28,2022:Q2,-1.3764390234998656,1.2039,-2.5803390234998655,69,29.949615596322516,5.472624196518752,-2.729852619984245,1.7554934054692728,0.6813579258786713,0.5992914480860222,0.386650762236199,0.5851038622964368,False,True,False,-6.849063220018618,4.0961851730188865,True,-10.378104782086123,7.6252267350863905,True,expanding_residual_calibrated_gaussian
ar,exact,pre_third,DELTA_MT,2022:Q3:pre_third:exact,2022-12-21,2022:Q3,-1.1579935607316436,-0.3241,-0.8338935607316436,70,29.693338146301837,5.449159398136729,-2.6261092258299827,1.324251907676248,0.5608133207151587,0.5841448887381004,0.4015985656478822,0.5697767243467539,True,False,True,-6.607152958868372,4.291165837405085,True,-10.121063160593543,7.805076039130256,True,expanding_residual_calibrated_gaussian
ar,exact,pre_third,DELTA_MT,2022:Q4:pre_third:exact,2023-03-29,2022:Q4,0.4320850632441848,0.2157999999999997,0.216285063244185,71,29.311340119014805,5.413994839212059,-2.6087237426747065,1.2686699741971257,0.4840667910953388,0.4681946162159446,0.5170964689942055,0.45352899813081804,False,True,False,-4.981909775967874,5.8460799024562435,True,-8.473143984330324,9.337314110818692,True,expanding_residual_calibrated_gaussian
ar,exact,pre_third,DELTA_MT,2023:Q1:pre_third:exact,2023-06-28,2023:Q1,1.065946861316173,0.9250000000000004,0.140946861316173,72,28.90448567760177,5.376289210747667,-2.6012805810101027,1.2578858388036762,0.48954237399950096,0.42141763876647853,0.5639799838463813,0.4069225548652353,False,True,False,-4.310342349431494,6.4422360720638405,True,-7.777261946522194,9.90915566915454,True,expanding_residual_calibrated_gaussian
ar,exact,pre_third,DELTA_MT,2023:Q2:pre_third:exact,2023-09-27,2023:Q2,-48.16499359751761,0.4737,-48.63869359751761,73,28.510184617772918,5.339492917662961,-44.083146662468096,45.626207311945144,1.0,1.0,0.0,1.0,False,True,False,-53.50448651518057,-42.82550067985465,False,-56.947677889217225,-39.38230930581799,False,expanding_residual_calibrated_gaussian
ar,exact,pre_third,DELTA_MT,2023:Q3:pre_third:exact,2023-12-20,2023:Q3,42.86551126902684,-0.1657999999999999,43.03131126902684,74,61.220701416390334,7.824365879506807,-18.099282619874046,38.61688559298203,1.9026776331363696e-08,2.1451623299225444e-08,0.9999999752230035,1.856076479750371e-08,True,False,False,35.04114538952003,50.68987714853365,False,29.99557467352472,55.73544786452896,False,expanding_residual_calibrated_gaussian
ar,exact,pre_third,DELTA_MT,2023:Q4:pre_third:exact,2024-03-27,2023:Q4,16.655490122804174,0.0226999999999999,16.632790122804174,75,84.87115133864289,9.212554007366409,-4.769327464789669,11.694606914542554,0.0355022781127493,0.03531007201655012,0.9629667892078663,0.03365325193096372,False,False,False,7.442936115437766,25.86804413017058,False,1.5021872503012172,31.80879299530713,False,expanding_residual_calibrated_gaussian
ar,exact,pre_third,DELTA_MT,2024:Q1:pre_third:exact,2024-06-26,2024:Q1,-11.666840426915249,-0.5680999999999999,-11.09874042691525,76,87.0562822346334,9.330395609760252,-3.8597010144888966,6.904236673444521,0.8828834638478092,0.894425493436473,0.10171365230245488,0.890459761540178,True,False,True,-20.997236036675503,-2.3364448171549963,False,-27.013975486521492,3.6802946326909947,True,expanding_residual_calibrated_gaussian
ar,exact,pre_third,DELTA_MT,2024:Q2:pre_third:exact,2024-09-25,2024:Q2,-44.16973668729196,0.6000000000000001,-44.76973668729196,77,87.80082245507081,9.370209306897623,-14.570543146751426,39.48316542171732,0.999999114235262,0.9999987845862597,1.0942410965109062e-06,0.9999986505881074,False,True,False,-53.53994599418958,-34.79952738039434,False,-59.58235945103695,-28.757113923546964,False,expanding_residual_calibrated_gaussian
ar,exact,pre_third,DELTA_MT,2024:Q3:pre_third:exact,2024-12-18,2024:Q3,-2.3829113453886266,0.2678000000000002,-2.650711345388627,78,113.29325395596051,10.643930381018118,-3.314937564577361,2.749430170153245,0.5983331511894758,0.5885727677569783,0.4041323894878014,0.5812471746040244,False,True,False,-13.026841726406744,8.261019035629491,True,-19.890618837625244,15.12479614684799,True,expanding_residual_calibrated_gaussian
ar,exact,pre_third,DELTA_MT,2024:Q4:pre_third:exact,2025-03-26,2024:Q4,-2.8012046601607645,-0.5985,-2.2027046601607645,79,111.94537577356695,10.580424177393217,-3.2996149232174163,2.6548786506359647,0.5824584428623487,0.6044003316716702,0.3883368687606058,0.5971010947393021,True,False,True,-13.381628837553983,7.779219517232453,True,-20.204453743031042,14.602044422709515,True,expanding_residual_calibrated_gaussian
ar,pseudo,pre_advance,DELTA_SA,2008:Q1:pre_advance:pseudo,2008-04-30,2008:Q1,-0.1142763871234224,0.3031999999999999,-0.4174763871234224,12,0.40583080932270943,0.6370485141044671,-0.6827571383433656,0.2542748855822847,0.7438720341861671,0.571181950240202,0.3108890275163093,0.44647841705045566,False,True,False,-0.7513249012278894,0.5227721269810447,True,-1.1621279460922012,0.9335751718453563,True,expanding_residual_calibrated_gaussian
ar,pseudo,pre_advance,DELTA_SA,2008:Q2:pre_advance:pseudo,2008-07-31,2008:Q2,-0.0409454714210477,1.3898,-1.4307454714210477,13,0.3777109973167639,0.6145819695669276,-3.1419124387810564,1.088149713157056,0.9900438896851094,0.5265591970166134,0.347511470540359,0.39789433018787584,False,True,False,-0.6555274409879752,0.5736364981458799,False,-1.051842853122188,0.9699519102800925,False,expanding_residual_calibrated_gaussian
ar,pseudo,pre_advance,DELTA_SA,2008:Q3:pre_advance:pseudo,2008-10-31,2008:Q3,0.4220106688449552,-0.2618,0.6838106688449552,14,0.46287317547765,0.6803478341831111,-1.0388901958773622,0.4122379712525538,0.15742680548844398,0.26753454613677596,0.6279086284247631,0.1802917208646585,True,False,True,-0.25833716533815587,1.1023585030280663,False,-0.6970619337997139,1.5410832714896243,True,expanding_residual_calibrated_gaussian
ar,pseudo,pre_advance,DELTA_SA,2008:Q4:pre_advance:pseudo,2009-01-31,2008:Q4,-0.0676161523905722,-2.4444,2.3767838476094276,15,0.48876130826333386,0.6991146603121221,-6.339996235063952,1.9824719475285173,0.00033729252682806733,0.5385243621853821,0.35093665032813226,0.4249056190699748,True,False,True,-0.7667308127026943,0.6314985079215499,False,-1.2175574370599127,1.0823251322787681,False,expanding_residual_calibrated_gaussian
ar,pseudo,pre_advance,DELTA_SA,2009:Q1:pre_advance:pseudo,2009-04-30,2009:Q1,-1.8397929990735715,0.4245000000000001,-2.2642929990735716,16,0.8691868114042902,0.9323018885555742,-3.7981614800405405,1.7429484864635783,0.9924237230733902,0.9757742911375223,0.014338064752579371,0.9606997646200877,False,True,False,-2.772094887629146,-0.9074911105179974,False,-3.373293141877915,-0.3062928562692282,False,expanding_residual_calibrated_gaussian
ar,pseudo,pre_advance,DELTA_SA,2009:Q2:pre_advance:pseudo,2009-07-31,2009:Q2,0.102919209485575,0.0030000000000001,0.0999192094855749,17,1.1076770593005107,1.0524623790428382,-0.9745777350481971,0.24973677036739902,0.46218183427725545,0.4610499339865873,0.4632530522287467,0.3867424499160447,False,False,False,-0.9495431695572633,1.1553815885284133,True,-1.6282273519130124,1.8340657708841626,True,expanding_residual_calibrated_gaussian
ar,pseudo,pre_advance,DELTA_SA,2009:Q3:pre_advance:pseudo,2009-10-31,2009:Q3,-0.0872562001946869,-0.7522000000000002,0.6649437998053133,18,1.0464017227577895,1.022937790267712,-1.1528889622931755,0.4056678727529223,0.25783530154263995,0.5339884013982756,0.38942617728124773,0.45611915752795956,True,False,True,-1.1101939904623987,0.935681590073025,True,-1.769839134662257,1.5953267342728834,True,expanding_residual_calibrated_gaussian
ar,pseudo,pre_advance,DELTA_SA,2009:Q4:pre_advance:pseudo,2010-01-31,2009:Q4,-0.3680579063730702,0.1962000000000001,-0.5642579063730704,19,1.0232004092992362,1.0115336916283293,-1.0859901015486895,0.3588025565768688,0.7115177597966492,0.6420191863596216,0.2872008302263316,0.5659772727722574,False,False,False,-1.3795915980013995,0.6434757852552591,True,-2.0318827678315396,1.2957669550853992,True,expanding_residual_calibrated_gaussian
ar,pseudo,pre_advance,DELTA_SA,2010:Q1:pre_advance:pseudo,2010-04-30,2010:Q1,0.2289135101117398,-0.2023000000000001,0.43121351011174,20,0.9798082979076518,0.9898526647474621,-1.0036278688870195,0.30510234483258647,0.3315511365661409,0.40855633814368547,0.511651412367566,0.33239462128925434,True,False,True,-0.7609391546357224,1.218766174859202,True,-1.399249235645703,1.8570762558691827,True,expanding_residual_calibrated_gaussian
ar,pseudo,pre_advance,DELTA_SA,2010:Q2:pre_advance:pseudo,2010-07-31,2010:Q2,-0.086390593897168,-0.7725,0.6861094061028319,21,0.9458016852061135,0.9725233597225896,-1.1399382496746842,0.4127524244586527,0.24025142876811514,0.5353920414077538,0.3841948197699431,0.45350166212849524,True,False,True,-1.0589139536197576,0.8861327658254217,True,-1.6860491694319009,1.5132679816375647,True,expanding_residual_calibrated_gaussian
ar,pseudo,pre_advance,DELTA_SA,2010:Q3:pre_advance:pseudo,2010-10-31,2010:Q3,-0.4622933891534564,0.5148000000000001,-0.9770933891534566,22,0.9290692225174857,0.9638823696476068,-1.395952495634071,0.5897452412469287,0.8446384817135604,0.684249759976557,0.2460066496040233,0.6072358095904465,False,True,False,-1.426175758801063,0.5015889804941503,False,-2.047738800822902,1.1231520225159892,True,expanding_residual_calibrated_gaussian
ar,pseudo,pre_advance,DELTA_SA,2010:Q4:pre_advance:pseudo,2011-01-31,2010:Q4,0.2593162446709711,-0.3850000000000002,0.6443162446709714,23,0.9228386114267644,0.9606448935099611,-1.1037155011570723,0.39071752346481115,0.2512019464252072,0.3936033020035771,0.5246175563086153,0.3162776914549732,True,False,True,-0.70132864883899,1.219961138180932,True,-1.320803992631299,1.8394364819732414,True,expanding_residual_calibrated_gaussian
ar,pseudo,pre_advance,DELTA_SA,2011:Q1:pre_advance:pseudo,2011-04-30,2011:Q1,-0.1924365441525157,0.0939000000000001,-0.2863365441525158,24,0.9062170957556894,0.9519543559203295,-0.9149370836323114,0.2565697765964072,0.6182119592264911,0.5800998473836769,0.3400806518913373,0.49683036212906156,False,False,False,-1.1443909000728452,0.7595178117678139,True,-1.7582621191803225,1.373389030875291,True,expanding_residual_calibrated_gaussian
ar,pseudo,pre_advance,DELTA_SA,2011:Q2:pre_advance:pseudo,2011-07-31,2011:Q2,0.0308362889019209,-0.2928,0.323636288901921,25,0.8702374718810382,0.9328651949135192,-0.9096231921931055,0.26235452764252776,0.36432301431902947,0.48681518021918563,0.4280512235050744,0.40228049049575965,True,False,True,-0.9020289060115982,0.9637014838154401,True,-1.503590410408373,1.5652629882122149,True,expanding_residual_calibrated_gaussian
ar,pseudo,pre_advance,DELTA_SA,2011:Q3:pre_advance:pseudo,2011-10-31,2011:Q3,-0.2424732045611219,-0.4595999999999995,0.2171267954388775,26,0.8418145482940426,0.9175045222199412,-0.8608422066522204,0.23481987773456528,0.4064644383916029,0.6042158613607205,0.3148116072342614,0.5184612792391208,True,False,True,-1.1599777267810631,0.6750313176588193,True,-1.7516338456789697,1.2666874365567258,True,expanding_residual_calibrated_gaussian
ar,pseudo,pre_advance,DELTA_SA,2011:Q4:pre_advance:pseudo,2012-01-31,2011:Q4,-0.290303956352739,0.2299000000000002,-0.5202039563527392,27,0.8124519720579637,0.9013611773634161,-0.9816296963718638,0.3271994861351484,0.7180746972326681,0.6263012441633908,0.29323467871775,0.5399017514274802,False,True,False,-1.191665133716155,0.6110572210106772,True,-1.7729111581322032,1.1923032454267253,True,expanding_residual_calibrated_gaussian
ar,pseudo,pre_advance,DELTA_SA,2012:Q1:pre_advance:pseudo,2012-04-30,2012:Q1,0.1126826838062546,-0.3447,0.4573826838062547,28,0.790003529929462,0.8888214274698051,-0.9334833883525715,0.2995923404820582,0.3034181787786202,0.4495581964282955,0.46087108404674915,0.36249610989183334,True,False,True,-0.7761387436635505,1.0015041112760596,True,-1.3492984648796391,1.5746638324921485,True,expanding_residual_calibrated_gaussian
ar,pseudo,pre_advance,DELTA_SA,2012:Q2:pre_advance:pseudo,2012-07-31,2012:Q2,-0.2146916994700365,0.1949,-0.4095916994700366,29,0.7715309979571675,0.8783683725847417,-0.8979716905784965,0.28011562729961864,0.6795030846221166,0.5965476207176768,0.3184220219520193,0.5066724474552207,False,False,False,-1.093060072054778,0.6636766731147051,True,-1.659479102915511,1.2300957039754379,True,expanding_residual_calibrated_gaussian
ar,pseudo,pre_advance,DELTA_SA,2012:Q3:pre_advance:pseudo,2012-10-31,2012:Q3,0.0487375871132593,0.6579000000000002,-0.6091624128867408,30,0.7490985316065489,0.8655047842770998,-1.0221797586856265,0.3665817980683979,0.7592285818246084,0.47754696025889853,0.43063102456999613,0.3869067846893517,False,True,False,-0.8167671971638405,0.914242371390359,True,-1.3748910964487797,1.4723662706752985,True,expanding_residual_calibrated_gaussian
ar,pseudo,pre_advance,DELTA_SA,2012:Q4:pre_advance:pseudo,2013-01-31,2012:Q4,0.3278118154427831,0.2694999999999999,0.0583118154427831,31,0.7335894498200837,0.8564983653341574,-0.7663532184606981,0.20174254109541004,0.47286032183591076,0.3509581677046289,0.5593123432412874,0.26886680913490674,False,True,False,-0.5286865498913742,1.1843101807769405,True,-1.0810026272551128,1.736626258140679,True,expanding_residual_calibrated_gaussian
ar,pseudo,pre_advance,DELTA_SA,2013:Q1:pre_advance:pseudo,2013-04-30,2013:Q1,0.0527691961635057,-0.1162,0.1689691961635058,32,0.71056774332534,0.8429518036787987,-0.7681830222489018,0.21046062669459562,0.420564557899634,0.47504231951281595,0.43067300759777993,0.3821412183782616,True,False,False,-0.790182607515293,0.8957209998423045,True,-1.3337631354628516,1.439301527789863,True,expanding_residual_calibrated_gaussian
ar,pseudo,pre_advance,DELTA_SA,2013:Q2:pre_advance:pseudo,2013-07-31,2013:Q2,-0.0413799297238832,0.8419999999999999,-0.8833799297238831,33,0.6902497918472825,0.830812729709459,-1.2988613630613184,0.5371908593976946,0.8561706950710153,0.5198617331864112,0.3857036029566938,0.4242935205125607,False,True,False,-0.8721926594333421,0.7894327999855758,False,-1.40794526150394,1.3251854020561735,True,expanding_residual_calibrated_gaussian
ar,pseudo,pre_advance,DELTA_SA,2013:Q3:pre_advance:pseudo,2013-10-31,2013:Q3,0.4190872950330058,0.7550000000000003,-0.3359127049669945,34,0.6886469078876142,0.8298475208661011,-0.8143520794309802,0.24744807687015663,0.6571834961530209,0.3067733676919865,0.604113545693154,0.2278260480321109,False,True,False,-0.41076022583309535,1.248934815899107,True,-0.9458904094802882,1.7840649995462998,True,expanding_residual_calibrated_gaussian
ar,pseudo,pre_advance,DELTA_SA,2013:Q4:pre_advance:pseudo,2014-01-31,2013:Q4,0.4129908649123548,-0.8431000000000002,1.256090864912355,35,0.6700252946786466,0.8185507282255917,-1.8961101914246774,0.8385989257256297,0.06244962692085054,0.30694128917028995,0.6026471161949841,0.22696675784473935,True,False,True,-0.4055598633132369,1.2315415931379465,False,-0.9334052692532786,1.7593869990779882,True,expanding_residual_calibrated_gaussian
ar,pseudo,pre_advance,DELTA_SA,2014:Q1:pre_advance:pseudo,2014-04-30,2014:Q1,-0.5119576031808601,-1.0928,0.5808423968191399,36,0.7022431623030024,0.83799950018064,-0.9824151939819419,0.3503159631466912,0.2441140598456423,0.7293764730114747,0.19777600324570122,0.6451520978295757,True,False,True,-1.3499571033615,0.3260418969997798,True,-1.8903441204365066,0.8664289140747863,True,expanding_residual_calibrated_gaussian
ar,pseudo,pre_advance,DELTA_SA,2014:Q2:pre_advance:pseudo,2014-07-31,2014:Q2,-0.6612782981422266,0.2237999999999997,-0.8850782981422264,37,0.6940418986195067,0.833091770826904,-1.30067598082268,0.5381482391972957,0.8559733690789085,0.78633359756314,0.15060697101795517,0.7101060163105458,False,True,False,-1.4943700689691306,0.1718134726846774,False,-2.0315923189702842,0.7090357226858311,True,expanding_residual_calibrated_gaussian
ar,pseudo,pre_advance,DELTA_SA,2014:Q3:pre_advance:pseudo,2014-10-31,2014:Q3,0.0975109891599808,0.3467000000000002,-0.2491890108400194,38,0.6937040564050058,0.8328889820408274,-0.780839847347854,0.22416480248274662,0.6176010664780619,0.4534000669233684,0.45103279123603257,0.3604696746784677,False,True,False,-0.7353779928808466,0.9303999712008082,True,-1.2724694737977937,1.4674914521177553,True,expanding_residual_calibrated_gaussian
ar,pseudo,pre_advance,DELTA_SA,2014:Q4:pre_advance:pseudo,2015-01-31,2014:Q4,0.1718486665454435,-0.4497999999999997,0.6216486665454433,39,0.6762677843869741,0.8223550233244605,-1.0090759029121996,0.3712118218610972,0.2248434562674577,0.4172352892313453,0.48634584366262257,0.32557133404828476,True,False,True,-0.650506356779017,0.994203689869904,True,-1.180804976211558,1.524502309302445,True,expanding_residual_calibrated_gaussian
ar,pseudo,pre_advance,DELTA_SA,2015:Q1:pre_advance:pseudo,2015-04-30,2015:Q1,-0.2628561781685739,-0.9973,0.7344438218314261,40,0.6710619876064868,0.8191837325084568,-1.1213976870752294,0.4378532540483632,0.1849780303662251,0.6258477165772254,0.2860296711867768,0.5305809329817512,True,False,True,-1.0820399106770306,0.5563275543398829,True,-1.6102935117247537,1.084581155387606,True,expanding_residual_calibrated_gaussian
ar,pseudo,pre_advance,DELTA_SA,2015:Q2:pre_advance:pseudo,2015-07-31,2015:Q2,-0.5975131519624441,1.3627000000000002,-1.9602131519624444,41,0.6695871606423576,0.8182830565533895,-3.5876487940458928,1.5030590381628195,0.9917015879931071,0.7673670982856948,0.1648749647746517,0.6864417187227065,False,True,False,-1.4157962085158338,0.22076990459094537,False,-1.9434690054072234,0.7484427014823352,False,expanding_residual_calibrated_gaussian
