haminh109/Revision-Aware-DFM/outputs/full_state_space_release_revision_dfm/frozen/q2_manuscript_best_v1/mature_robustness_runs/mature_3y/evidence_dir/cumulative_loss_point.csv
timing_mode,checkpoint_id,outcome_id,baseline_model,model_id,target_quarter,loss_diff_baseline_minus_model,cumulative_loss_diff
exact,pre_advance,A,ar,bridge,2005:Q1,0.026508366163050925,0.026508366163050925
exact,pre_advance,A,ar,bridge,2005:Q2,0.25605091488063453,0.28255928104368544
exact,pre_advance,A,ar,bridge,2005:Q3,-0.1145844705953406,0.16797481044834484
exact,pre_advance,A,ar,bridge,2005:Q4,-1.067053416924928,-0.8990786064765831
exact,pre_advance,A,ar,bridge,2006:Q1,1.6356501256199305,0.7365715191433474
exact,pre_advance,A,ar,bridge,2006:Q2,0.7676987547042062,1.5042702738475535
exact,pre_advance,A,ar,bridge,2006:Q3,-0.11413741897172125,1.3901328548758323
exact,pre_advance,A,ar,bridge,2006:Q4,-11.42373598428023,-10.033603129404398
exact,pre_advance,A,ar,bridge,2007:Q1,2.9288243316873825,-7.104778797717016
exact,pre_advance,A,ar,bridge,2007:Q2,-0.571880895833992,-7.676659693551008
exact,pre_advance,A,ar,bridge,2007:Q3,-4.421703232049937,-12.098362925600945
exact,pre_advance,A,ar,bridge,2007:Q4,6.981606042021606,-5.116756883579339
exact,pre_advance,A,ar,bridge,2008:Q1,-0.8428265241404642,-5.959583407719803
exact,pre_advance,A,ar,bridge,2008:Q2,-0.5775901807402076,-6.537173588460011
exact,pre_advance,A,ar,bridge,2008:Q3,6.239153415743342,-0.2980201727166687
exact,pre_advance,A,ar,bridge,2008:Q4,18.935021625538596,18.637001452821927
exact,pre_advance,A,ar,bridge,2009:Q1,28.976487905078283,47.61348935790021
exact,pre_advance,A,ar,bridge,2009:Q2,-1.0972978517896448,46.51619150611056
exact,pre_advance,A,ar,bridge,2009:Q3,4.302859584500106,50.819051090610664
exact,pre_advance,A,ar,bridge,2009:Q4,0.8405391500749486,51.65959024068561
exact,pre_advance,A,ar,bridge,2010:Q1,-7.902887294564825,43.75670294612078
exact,pre_advance,A,ar,bridge,2010:Q2,0.011858308232202852,43.76856125435299
exact,pre_advance,A,ar,bridge,2010:Q3,0.18832454713788116,43.95688580149087
exact,pre_advance,A,ar,bridge,2010:Q4,0.2765286183734815,44.23341441986435
exact,pre_advance,A,ar,bridge,2011:Q1,-2.6235720668932383,41.609842352971114
exact,pre_advance,A,ar,bridge,2011:Q2,-1.4729019751695853,40.13694037780153
exact,pre_advance,A,ar,bridge,2011:Q3,-0.0022523077665603797,40.13468807003497
exact,pre_advance,A,ar,bridge,2011:Q4,-1.082757162786356,39.05193090724861
exact,pre_advance,A,ar,bridge,2012:Q1,-1.0541537717065796,37.99777713554203
exact,pre_advance,A,ar,bridge,2012:Q2,-0.4841720924257811,37.51360504311625
exact,pre_advance,A,ar,bridge,2012:Q3,-0.5745739215873314,36.93903112152892
exact,pre_advance,A,ar,bridge,2012:Q4,-8.166100960885938,28.772930160642982
exact,pre_advance,A,ar,bridge,2013:Q1,0.7861555844576769,29.55908574510066
exact,pre_advance,A,ar,bridge,2013:Q2,-0.3824613142293476,29.176624430871314
exact,pre_advance,A,ar,bridge,2013:Q3,-0.46677534104159424,28.70984908982972
exact,pre_advance,A,ar,bridge,2013:Q4,-0.039765412715874415,28.670083677113848
exact,pre_advance,A,ar,bridge,2014:Q1,3.920388840588136,32.59047251770198
exact,pre_advance,A,ar,bridge,2014:Q2,4.106194340754633,36.69666685845662
exact,pre_advance,A,ar,bridge,2014:Q3,-0.056094443733069724,36.64057241472354
exact,pre_advance,A,ar,bridge,2014:Q4,0.1575985164891277,36.798170931212674
exact,pre_advance,A,ar,bridge,2015:Q1,3.3836744740684486,40.18184540528112
exact,pre_advance,A,ar,bridge,2015:Q2,0.8610543008872912,41.04289970616841
exact,pre_advance,A,ar,bridge,2015:Q3,0.6136721270869122,41.65657183325533
exact,pre_advance,A,ar,bridge,2015:Q4,0.6515995292412713,42.3081713624966
exact,pre_advance,A,ar,bridge,2016:Q1,0.7787481652209838,43.08691952771758
exact,pre_advance,A,ar,bridge,2016:Q2,0.059797019294426566,43.14671654701201
exact,pre_advance,A,ar,bridge,2016:Q3,0.36377552260716206,43.510492069619175
exact,pre_advance,A,ar,bridge,2016:Q4,-0.7375381686773962,42.77295390094178
exact,pre_advance,A,ar,bridge,2017:Q1,-0.6640699525926914,42.10888394834909
exact,pre_advance,A,ar,bridge,2017:Q2,-0.12694577975501653,41.98193816859407
exact,pre_advance,A,ar,bridge,2017:Q3,-0.3142545493377593,41.66768361925631
exact,pre_advance,A,ar,bridge,2017:Q4,-1.1500300216843717,40.517653597571936
exact,pre_advance,A,ar,bridge,2018:Q1,-0.8594179119067495,39.65823568566519
exact,pre_advance,A,ar,bridge,2018:Q2,0.39498998888680337,40.053225674551996
exact,pre_advance,A,ar,bridge,2018:Q3,-0.1438588875744695,39.90936678697753
exact,pre_advance,A,ar,bridge,2018:Q4,0.09068553162124533,40.000052318598776
exact,pre_advance,A,ar,bridge,2019:Q1,-0.10760998024848467,39.89244233835029
exact,pre_advance,A,ar,bridge,2019:Q2,0.6089661755654483,40.50140851391574
exact,pre_advance,A,ar,bridge,2019:Q3,-0.33271829282384024,40.1686902210919
exact,pre_advance,A,ar,bridge,2019:Q4,-0.16781559230481113,40.00087462878709
exact,pre_advance,A,ar,bridge,2020:Q1,9.102458446038156,49.103333074825244
exact,pre_advance,A,ar,bridge,2020:Q2,532.6153717534219,581.7187048282472
exact,pre_advance,A,ar,bridge,2020:Q3,1642.8717471955658,2224.5904520238128
exact,pre_advance,A,ar,bridge,2020:Q4,-25.236584640080753,2199.353867383732
exact,pre_advance,A,ar,bridge,2021:Q1,12.991205256378652,2212.3450726401106
exact,pre_advance,A,ar,bridge,2021:Q2,15.009953845689985,2227.3550264858004
exact,pre_advance,A,ar,bridge,2021:Q3,-0.3051338757414128,2227.049892610059
exact,pre_advance,A,ar,bridge,2021:Q4,-0.5416554582639961,2226.508237151795
exact,pre_advance,A,ar,bridge,2022:Q1,-27.24056001814712,2199.267677133648
exact,pre_advance,A,ar,bridge,2022:Q2,2.3168008337014,2201.5844779673494
exact,pre_advance,A,ar,bridge,2022:Q3,-3.0659772522159,2198.5185007151335
exact,pre_advance,A,ar,bridge,2022:Q4,-18.358927656569044,2180.1595730585645
exact,pre_advance,A,ar,bridge,2023:Q1,1.746828477152817,2181.9064015357176
exact,pre_advance,A,ar,bridge,2023:Q2,-1.4069302895362061,2180.499471246181
exact,pre_advance,A,ar,bridge,2023:Q3,0.3615726347753414,2180.8610438809565
exact,pre_advance,A,ar,bridge,2023:Q4,-6.352938995644131,2174.508104885312
exact,pre_advance,A,ar,bridge,2024:Q1,0.7855773239734215,2175.2936822092856
exact,pre_advance,A,ar,bridge,2024:Q2,-0.6561092188970661,2174.6375729903884
exact,pre_advance,A,ar,bridge,2024:Q3,-0.07053545014004475,2174.5670375402483
exact,pre_advance,A,ar,bridge,2024:Q4,-0.00044289376299851135,2174.566594646485
exact,pre_advance,A,ar,indicator_revision_only_dfm_kalman_em,2005:Q1,-1.9733106283855526,-1.9733106283855526
exact,pre_advance,A,ar,indicator_revision_only_dfm_kalman_em,2005:Q2,-0.3554396436253387,-2.3287502720108915
exact,pre_advance,A,ar,indicator_revision_only_dfm_kalman_em,2005:Q3,0.5427757308438524,-1.7859745411670391
exact,pre_advance,A,ar,indicator_revision_only_dfm_kalman_em,2005:Q4,-23.56679242570979,-25.35276696687683
exact,pre_advance,A,ar,indicator_revision_only_dfm_kalman_em,2006:Q1,8.165950260584415,-17.18681670629241
exact,pre_advance,A,ar,indicator_revision_only_dfm_kalman_em,2006:Q2,-3.126242394763163,-20.313059101055575
exact,pre_advance,A,ar,indicator_revision_only_dfm_kalman_em,2006:Q3,-3.0426702003973984,-23.355729301452975
exact,pre_advance,A,ar,indicator_revision_only_dfm_kalman_em,2006:Q4,-19.28462614055642,-42.640355442009394
exact,pre_advance,A,ar,indicator_revision_only_dfm_kalman_em,2007:Q1,2.4147512170663616,-40.225604224943034
exact,pre_advance,A,ar,indicator_revision_only_dfm_kalman_em,2007:Q2,1.9225704749416315,-38.303033750001404
exact,pre_advance,A,ar,indicator_revision_only_dfm_kalman_em,2007:Q3,-36.82125087859579,-75.1242846285972
exact,pre_advance,A,ar,indicator_revision_only_dfm_kalman_em,2007:Q4,-2.5452488214484124,-77.6695334500456
exact,pre_advance,A,ar,indicator_revision_only_dfm_kalman_em,2008:Q1,-10.704548647859292,-88.3740820979049
exact,pre_advance,A,ar,indicator_revision_only_dfm_kalman_em,2008:Q2,-0.47080044305645574,-88.84488254096136
exact,pre_advance,A,ar,indicator_revision_only_dfm_kalman_em,2008:Q3,-2.9773225484666694,-91.82220508942804
exact,pre_advance,A,ar,indicator_revision_only_dfm_kalman_em,2008:Q4,-25.55280940545423,-117.37501449488227
exact,pre_advance,A,ar,indicator_revision_only_dfm_kalman_em,2009:Q1,1.6448927507092108,-115.73012174417306
exact,pre_advance,A,ar,indicator_revision_only_dfm_kalman_em,2009:Q2,-4.412366719187855,-120.14248846336092
exact,pre_advance,A,ar,indicator_revision_only_dfm_kalman_em,2009:Q3,-0.15509819185247586,-120.2975866552134
exact,pre_advance,A,ar,indicator_revision_only_dfm_kalman_em,2009:Q4,1.306415915331276,-118.99117073988212
exact,pre_advance,A,ar,indicator_revision_only_dfm_kalman_em,2010:Q1,-11.115058503996702,-130.10622924387883
exact,pre_advance,A,ar,indicator_revision_only_dfm_kalman_em,2010:Q2,-4.294985670984701,-134.40121491486354
exact,pre_advance,A,ar,indicator_revision_only_dfm_kalman_em,2010:Q3,0.08900672855550223,-134.31220818630806
exact,pre_advance,A,ar,indicator_revision_only_dfm_kalman_em,2010:Q4,0.6370410724922471,-133.6751671138158
exact,pre_advance,A,ar,indicator_revision_only_dfm_kalman_em,2011:Q1,-19.709311203839423,-153.38447831765524
exact,pre_advance,A,ar,indicator_revision_only_dfm_kalman_em,2011:Q2,0.4721336821820171,-152.91234463547323
exact,pre_advance,A,ar,indicator_revision_only_dfm_kalman_em,2011:Q3,-1.1364155030402932,-154.04876013851353
exact,pre_advance,A,ar,indicator_revision_only_dfm_kalman_em,2011:Q4,-3.5668912431950854,-157.6156513817086
exact,pre_advance,A,ar,indicator_revision_only_dfm_kalman_em,2012:Q1,-6.486158004918407,-164.101809386627
exact,pre_advance,A,ar,indicator_revision_only_dfm_kalman_em,2012:Q2,-0.968915971209694,-165.0707253578367
exact,pre_advance,A,ar,indicator_revision_only_dfm_kalman_em,2012:Q3,-0.18395782162121788,-165.2546831794579
exact,pre_advance,A,ar,indicator_revision_only_dfm_kalman_em,2012:Q4,-13.171338923257123,-178.42602210271502
exact,pre_advance,A,ar,indicator_revision_only_dfm_kalman_em,2013:Q1,1.5202845406860546,-176.90573756202897
exact,pre_advance,A,ar,indicator_revision_only_dfm_kalman_em,2013:Q2,-0.37398548844694024,-177.27972305047592
exact,pre_advance,A,ar,indicator_revision_only_dfm_kalman_em,2013:Q3,0.36548359665469987,-176.9142394538212
exact,pre_advance,A,ar,indicator_revision_only_dfm_kalman_em,2013:Q4,-2.2006644105720135,-179.11490386439323
exact,pre_advance,A,ar,indicator_revision_only_dfm_kalman_em,2014:Q1,2.959455846734154,-176.15544801765907
exact,pre_advance,A,ar,indicator_revision_only_dfm_kalman_em,2014:Q2,5.852354125993596,-170.30309389166547
exact,pre_advance,A,ar,indicator_revision_only_dfm_kalman_em,2014:Q3,-0.057076343395834825,-170.3601702350613
exact,pre_advance,A,ar,indicator_revision_only_dfm_kalman_em,2014:Q4,-0.03360559406353758,-170.39377582912485
exact,pre_advance,A,ar,indicator_revision_only_dfm_kalman_em,2015:Q1,5.105823534859164,-165.2879522942657
exact,pre_advance,A,ar,indicator_revision_only_dfm_kalman_em,2015:Q2,0.5086064611255435,-164.77934583314016
exact,pre_advance,A,ar,indicator_revision_only_dfm_kalman_em,2015:Q3,-1.983861590016915,-166.76320742315707
exact,pre_advance,A,ar,indicator_revision_only_dfm_kalman_em,2015:Q4,0.7868041967370125,-165.97640322642005
exact,pre_advance,A,ar,indicator_revision_only_dfm_kalman_em,2016:Q1,-0.9912084683288584,-166.9676116947489
exact,pre_advance,A,ar,indicator_revision_only_dfm_kalman_em,2016:Q2,-0.5712627322839116,-167.53887442703282
exact,pre_advance,A,ar,indicator_revision_only_dfm_kalman_em,2016:Q3,1.082819586403166,-166.45605484062966
exact,pre_advance,A,ar,indicator_revision_only_dfm_kalman_em,2016:Q4,-3.3976875427744604,-169.85374238340412
exact,pre_advance,A,ar,indicator_revision_only_dfm_kalman_em,2017:Q1,-3.2568534183902424,-173.11059580179437
exact,pre_advance,A,ar,indicator_revision_only_dfm_kalman_em,2017:Q2,0.1766355367498904,-172.93396026504448
exact,pre_advance,A,ar,indicator_revision_only_dfm_kalman_em,2017:Q3,-1.4478888438289865,-174.38184910887347
exact,pre_advance,A,ar,indicator_revision_only_dfm_kalman_em,2017:Q4,-10.141411332722543,-184.52326044159602
exact,pre_advance,A,ar,indicator_revision_only_dfm_kalman_em,2018:Q1,-1.0097645345570254,-185.53302497615306
exact,pre_advance,A,ar,indicator_revision_only_dfm_kalman_em,2018:Q2,1.1698937363819628,-184.3631312397711
exact,pre_advance,A,ar,indicator_revision_only_dfm_kalman_em,2018:Q3,0.048833000606181835,-184.3142982391649
exact,pre_advance,A,ar,indicator_revision_only_dfm_kalman_em,2018:Q4,0.16860944725566154,-184.14568879190927
exact,pre_advance,A,ar,indicator_revision_only_dfm_kalman_em,2019:Q1,-2.8228784606875523,-186.9685672525968
exact,pre_advance,A,ar,indicator_revision_only_dfm_kalman_em,2019:Q2,0.1877087972984875,-186.78085845529833
exact,pre_advance,A,ar,indicator_revision_only_dfm_kalman_em,2019:Q3,-0.3170395895070759,-187.09789804480542
exact,pre_advance,A,ar,indicator_revision_only_dfm_kalman_em,2019:Q4,-0.1985999501288262,-187.29649799493424
exact,pre_advance,A,ar,indicator_revision_only_dfm_kalman_em,2020:Q1,36.33057566497653,-150.96592232995772
exact,pre_advance,A,ar,indicator_revision_only_dfm_kalman_em,2020:Q2,976.4294477527332,825.4635254227754
exact,pre_advance,A,ar,indicator_revision_only_dfm_kalman_em,2020:Q3,2115.419204764396,2940.8827301871715
exact,pre_advance,A,ar,indicator_revision_only_dfm_kalman_em,2020:Q4,-18.17784466945778,2922.7048855177136
exact,pre_advance,A,ar,indicator_revision_only_dfm_kalman_em,2021:Q1,9.526584208742726,2932.2314697264565
exact,pre_advance,A,ar,indicator_revision_only_dfm_kalman_em,2021:Q2,6.85225408522769,2939.083723811684
exact,pre_advance,A,ar,indicator_revision_only_dfm_kalman_em,2021:Q3,-5.670112893969259,2933.413610917715
exact,pre_advance,A,ar,indicator_revision_only_dfm_kalman_em,2021:Q4,13.81198886487839,2947.2255997825932
exact,pre_advance,A,ar,indicator_revision_only_dfm_kalman_em,2022:Q1,-36.216826813725554,2911.0087729688676
exact,pre_advance,A,ar,indicator_revision_only_dfm_kalman_em,2022:Q2,-8.950158517524072,2902.0586144513436
exact,pre_advance,A,ar,indicator_revision_only_dfm_kalman_em,2022:Q3,-0.24218562746552097,2901.816428823878
exact,pre_advance,A,ar,indicator_revision_only_dfm_kalman_em,2022:Q4,-2.087509806935375,2899.7289190169427
exact,pre_advance,A,ar,indicator_revision_only_dfm_kalman_em,2023:Q1,-1.1432821294579893,2898.5856368874847
exact,pre_advance,A,ar,indicator_revision_only_dfm_kalman_em,2023:Q2,-0.3228326862538481,2898.2628042012307
exact,pre_advance,A,ar,indicator_revision_only_dfm_kalman_em,2023:Q3,-2.3242451260095587,2895.9385590752213
exact,pre_advance,A,ar,indicator_revision_only_dfm_kalman_em,2023:Q4,-1.0667004019801578,2894.871858673241
exact,pre_advance,A,ar,indicator_revision_only_dfm_kalman_em,2024:Q1,0.8689197266747541,2895.740778399916
exact,pre_advance,A,ar,indicator_revision_only_dfm_kalman_em,2024:Q2,-1.0886528442826566,2894.6521255556336
exact,pre_advance,A,ar,indicator_revision_only_dfm_kalman_em,2024:Q3,-0.7978876847849676,2893.8542378708485
exact,pre_advance,A,ar,indicator_revision_only_dfm_kalman_em,2024:Q4,-0.17914473930279357,2893.6750931315455
exact,pre_advance,A,ar,joint_indicator_revision_dfm_full_kalman_em,2005:Q1,-0.12946491456991902,-0.12946491456991902
exact,pre_advance,A,ar,joint_indicator_revision_dfm_full_kalman_em,2005:Q2,0.23178215730958657,0.10231724273966755
exact,pre_advance,A,ar,joint_indicator_revision_dfm_full_kalman_em,2005:Q3,0.40625722879242315,0.5085744715320907
exact,pre_advance,A,ar,joint_indicator_revision_dfm_full_kalman_em,2005:Q4,-17.994498876818607,-17.485924405286518
exact,pre_advance,A,ar,joint_indicator_revision_dfm_full_kalman_em,2006:Q1,6.44386011387631,-11.042064291410208
exact,pre_advance,A,ar,joint_indicator_revision_dfm_full_kalman_em,2006:Q2,-0.1777328510349916,-11.219797142445199
exact,pre_advance,A,ar,joint_indicator_revision_dfm_full_kalman_em,2006:Q3,-4.011166567016094,-15.230963709461292
exact,pre_advance,A,ar,joint_indicator_revision_dfm_full_kalman_em,2006:Q4,-20.43767542620641,-35.6686391356677
exact,pre_advance,A,ar,joint_indicator_revision_dfm_full_kalman_em,2007:Q1,-0.5673452841697189,-36.23598441983742
exact,pre_advance,A,ar,joint_indicator_revision_dfm_full_kalman_em,2007:Q2,1.8340113166007046,-34.40197310323672
exact,pre_advance,A,ar,joint_indicator_revision_dfm_full_kalman_em,2007:Q3,-33.695723698890674,-68.09769680212739
exact,pre_advance,A,ar,joint_indicator_revision_dfm_full_kalman_em,2007:Q4,-0.3819985220756088,-68.47969532420299
exact,pre_advance,A,ar,joint_indicator_revision_dfm_full_kalman_em,2008:Q1,-8.071576586823777,-76.55127191102677
exact,pre_advance,A,ar,joint_indicator_revision_dfm_full_kalman_em,2008:Q2,-0.030388603480465744,-76.58166051450723
exact,pre_advance,A,ar,joint_indicator_revision_dfm_full_kalman_em,2008:Q3,-2.7760406332717453,-79.35770114777898
exact,pre_advance,A,ar,joint_indicator_revision_dfm_full_kalman_em,2008:Q4,-11.32072971602037,-90.67843086379935
exact,pre_advance,A,ar,joint_indicator_revision_dfm_full_kalman_em,2009:Q1,-4.664660896827897,-95.34309176062725
exact,pre_advance,A,ar,joint_indicator_revision_dfm_full_kalman_em,2009:Q2,-0.40904964320806136,-95.75214140383531
exact,pre_advance,A,ar,joint_indicator_revision_dfm_full_kalman_em,2009:Q3,3.1579694396882037,-92.59417196414711
exact,pre_advance,A,ar,joint_indicator_revision_dfm_full_kalman_em,2009:Q4,0.34916820901748036,-92.24500375512963
exact,pre_advance,A,ar,joint_indicator_revision_dfm_full_kalman_em,2010:Q1,-9.350732145404677,-101.59573590053431
exact,pre_advance,A,ar,joint_indicator_revision_dfm_full_kalman_em,2010:Q2,-4.7717583990922225,-106.36749429962653
exact,pre_advance,A,ar,joint_indicator_revision_dfm_full_kalman_em,2010:Q3,0.09466991264214927,-106.27282438698438
exact,pre_advance,A,ar,joint_indicator_revision_dfm_full_kalman_em,2010:Q4,0.3294486881254117,-105.94337569885897
exact,pre_advance,A,ar,joint_indicator_revision_dfm_full_kalman_em,2011:Q1,-17.103122897653638,-123.0464985965126
exact,pre_advance,A,ar,joint_indicator_revision_dfm_full_kalman_em,2011:Q2,0.6956931923596987,-122.35080540415291
exact,pre_advance,A,ar,joint_indicator_revision_dfm_full_kalman_em,2011:Q3,-0.4648645012709383,-122.81566990542385
exact,pre_advance,A,ar,joint_indicator_revision_dfm_full_kalman_em,2011:Q4,-2.8392414510970623,-125.65491135652091
exact,pre_advance,A,ar,joint_indicator_revision_dfm_full_kalman_em,2012:Q1,-5.301149089811803,-130.9560604463327
exact,pre_advance,A,ar,joint_indicator_revision_dfm_full_kalman_em,2012:Q2,-0.7638421554208938,-131.7199026017536
exact,pre_advance,A,ar,joint_indicator_revision_dfm_full_kalman_em,2012:Q3,-0.044848112965752515,-131.76475071471936
exact,pre_advance,A,ar,joint_indicator_revision_dfm_full_kalman_em,2012:Q4,-9.137750435251364,-140.90250114997073
exact,pre_advance,A,ar,joint_indicator_revision_dfm_full_kalman_em,2013:Q1,1.7407427821883166,-139.16175836778243
exact,pre_advance,A,ar,joint_indicator_revision_dfm_full_kalman_em,2013:Q2,-0.24759470590707278,-139.4093530736895
exact,pre_advance,A,ar,joint_indicator_revision_dfm_full_kalman_em,2013:Q3,0.5569937098981225,-138.85235936379138
exact,pre_advance,A,ar,joint_indicator_revision_dfm_full_kalman_em,2013:Q4,-0.7415933458095585,-139.59395270960093
exact,pre_advance,A,ar,joint_indicator_revision_dfm_full_kalman_em,2014:Q1,1.6593474393074397,-137.93460527029347
exact,pre_advance,A,ar,joint_indicator_revision_dfm_full_kalman_em,2014:Q2,6.191224073564742,-131.74338119672873
exact,pre_advance,A,ar,joint_indicator_revision_dfm_full_kalman_em,2014:Q3,-0.22927063701051165,-131.97265183373923
exact,pre_advance,A,ar,joint_indicator_revision_dfm_full_kalman_em,2014:Q4,0.10617859516304297,-131.8664732385762
exact,pre_advance,A,ar,joint_indicator_revision_dfm_full_kalman_em,2015:Q1,4.704722618444586,-127.1617506201316
exact,pre_advance,A,ar,joint_indicator_revision_dfm_full_kalman_em,2015:Q2,0.6467348582812127,-126.51501576185039
exact,pre_advance,A,ar,joint_indicator_revision_dfm_full_kalman_em,2015:Q3,-0.5575945216136862,-127.07261028346407
exact,pre_advance,A,ar,joint_indicator_revision_dfm_full_kalman_em,2015:Q4,1.1976476382803196,-125.87496264518376
exact,pre_advance,A,ar,joint_indicator_revision_dfm_full_kalman_em,2016:Q1,-0.1731217867880297,-126.04808443197179
exact,pre_advance,A,ar,joint_indicator_revision_dfm_full_kalman_em,2016:Q2,-0.150520109021346,-126.19860454099313
exact,pre_advance,A,ar,joint_indicator_revision_dfm_full_kalman_em,2016:Q3,0.9879535119252193,-125.21065102906792
exact,pre_advance,A,ar,joint_indicator_revision_dfm_full_kalman_em,2016:Q4,-2.284263147705112,-127.49491417677304
exact,pre_advance,A,ar,joint_indicator_revision_dfm_full_kalman_em,2017:Q1,-2.156509886357036,-129.65142406313007
exact,pre_advance,A,ar,joint_indicator_revision_dfm_full_kalman_em,2017:Q2,0.8150037026043417,-128.83642036052572
exact,pre_advance,A,ar,joint_indicator_revision_dfm_full_kalman_em,2017:Q3,-2.0241735783159105,-130.86059393884165
exact,pre_advance,A,ar,joint_indicator_revision_dfm_full_kalman_em,2017:Q4,-7.130319578734385,-137.99091351757602
exact,pre_advance,A,ar,joint_indicator_revision_dfm_full_kalman_em,2018:Q1,-0.5560095068552223,-138.54692302443124
exact,pre_advance,A,ar,joint_indicator_revision_dfm_full_kalman_em,2018:Q2,0.8578152192268431,-137.6891078052044
exact,pre_advance,A,ar,joint_indicator_revision_dfm_full_kalman_em,2018:Q3,0.04295184537284789,-137.64615595983156
exact,pre_advance,A,ar,joint_indicator_revision_dfm_full_kalman_em,2018:Q4,0.16781722039527922,-137.47833873943628
exact,pre_advance,A,ar,joint_indicator_revision_dfm_full_kalman_em,2019:Q1,-2.294895968861353,-139.77323470829762
exact,pre_advance,A,ar,joint_indicator_revision_dfm_full_kalman_em,2019:Q2,0.10251007612865504,-139.67072463216897
exact,pre_advance,A,ar,joint_indicator_revision_dfm_full_kalman_em,2019:Q3,-0.20596907982534965,-139.8766937119943
exact,pre_advance,A,ar,joint_indicator_revision_dfm_full_kalman_em,2019:Q4,-0.28269601380256937,-140.15938972579687
exact,pre_advance,A,ar,joint_indicator_revision_dfm_full_kalman_em,2020:Q1,35.025485769339845,-105.13390395645703
exact,pre_advance,A,ar,joint_indicator_revision_dfm_full_kalman_em,2020:Q2,973.8214086232487,868.6875046667916
exact,pre_advance,A,ar,joint_indicator_revision_dfm_full_kalman_em,2020:Q3,2098.5378204197955,2967.225325086587
exact,pre_advance,A,ar,joint_indicator_revision_dfm_full_kalman_em,2020:Q4,-7.506670329832543,2959.7186547567544
exact,pre_advance,A,ar,joint_indicator_revision_dfm_full_kalman_em,2021:Q1,7.1925271494475815,2966.911181906202
exact,pre_advance,A,ar,joint_indicator_revision_dfm_full_kalman_em,2021:Q2,6.11683884429946,2973.028020750501
exact,pre_advance,A,ar,joint_indicator_revision_dfm_full_kalman_em,2021:Q3,-6.003062394786997,2967.0249583557143
exact,pre_advance,A,ar,joint_indicator_revision_dfm_full_kalman_em,2021:Q4,13.87967696326699,2980.904635318981
exact,pre_advance,A,ar,joint_indicator_revision_dfm_full_kalman_em,2022:Q1,-27.92300459050469,2952.9816307284764
exact,pre_advance,A,ar,joint_indicator_revision_dfm_full_kalman_em,2022:Q2,-10.266957061083433,2942.714673667393
exact,pre_advance,A,ar,joint_indicator_revision_dfm_full_kalman_em,2022:Q3,0.01720781494258563,2942.7318814823357
exact,pre_advance,A,ar,joint_indicator_revision_dfm_full_kalman_em,2022:Q4,-1.5171301293898747,2941.2147513529458
exact,pre_advance,A,ar,joint_indicator_revision_dfm_full_kalman_em,2023:Q1,-1.2461257009686646,2939.968625651977
exact,pre_advance,A,ar,joint_indicator_revision_dfm_full_kalman_em,2023:Q2,-0.10516105820946649,2939.8634645937677
exact,pre_advance,A,ar,joint_indicator_revision_dfm_full_kalman_em,2023:Q3,-2.704695350501903,2937.158769243266
exact,pre_advance,A,ar,joint_indicator_revision_dfm_full_kalman_em,2023:Q4,-0.7725712873930568,2936.386197955873
exact,pre_advance,A,ar,joint_indicator_revision_dfm_full_kalman_em,2024:Q1,0.8682487467210547,2937.2544467025937
exact,pre_advance,A,ar,joint_indicator_revision_dfm_full_kalman_em,2024:Q2,-1.3224251112484933,2935.9320215913453
exact,pre_advance,A,ar,joint_indicator_revision_dfm_full_kalman_em,2024:Q3,-1.091064420297767,2934.8409571710476
exact,pre_advance,A,ar,joint_indicator_revision_dfm_full_kalman_em,2024:Q4,-0.058639080653423145,2934.7823180903943
exact,pre_advance,A,ar,midas_umidas,2005:Q1,-187.6199151665184,-187.6199151665184
exact,pre_advance,A,ar,midas_umidas,2005:Q2,-221.40714001951997,-409.0270551860384
exact,pre_advance,A,ar,midas_umidas,2005:Q3,-286.1498872043989,-695.1769423904373
exact,pre_advance,A,ar,midas_umidas,2005:Q4,-121.10249273451387,-816.2794351249511
exact,pre_advance,A,ar,midas_umidas,2006:Q1,-416.6870798629993,-1232.9665149879504
exact,pre_advance,A,ar,midas_umidas,2006:Q2,-219.90095661332757,-1452.8674716012779
exact,pre_advance,A,ar,midas_umidas,2006:Q3,-16.762423352507025,-1469.629894953785
exact,pre_advance,A,ar,midas_umidas,2006:Q4,-19.797858160134435,-1489.4277531139194
exact,pre_advance,A,ar,midas_umidas,2007:Q1,-18.208297323335493,-1507.6360504372549
exact,pre_advance,A,ar,midas_umidas,2007:Q2,-90.46093777998257,-1598.0969882172374
exact,pre_advance,A,ar,midas_umidas,2007:Q3,-331.1259104236887,-1929.2228986409261
exact,pre_advance,A,ar,midas_umidas,2007:Q4,-28.7438112194976,-1957.9667098604236
exact,pre_advance,A,ar,midas_umidas,2008:Q1,-109.21614314991803,-2067.1828530103417
exact,pre_advance,A,ar,midas_umidas,2008:Q2,-565.4112016092611,-2632.5940546196025
exact,pre_advance,A,ar,midas_umidas,2008:Q3,-58.186597073757085,-2690.7806516933597
exact,pre_advance,A,ar,midas_umidas,2008:Q4,-32.728163358606764,-2723.5088150519664
exact,pre_advance,A,ar,midas_umidas,2009:Q1,8.583597191716123,-2714.92521786025
exact,pre_advance,A,ar,midas_umidas,2009:Q2,-53.39885734537558,-2768.324075205626
exact,pre_advance,A,ar,midas_umidas,2009:Q3,-303.9722662121401,-3072.2963414177657
exact,pre_advance,A,ar,midas_umidas,2009:Q4,-64.51058242069575,-3136.8069238384614
exact,pre_advance,A,ar,midas_umidas,2010:Q1,0.5983576798340858,-3136.2085661586275
exact,pre_advance,A,ar,midas_umidas,2010:Q2,-15.990555884620134,-3152.199122043248
exact,pre_advance,A,ar,midas_umidas,2010:Q3,-307.6546954204589,-3459.853817463707
exact,pre_advance,A,ar,midas_umidas,2010:Q4,-38.15978341146515,-3498.013600875172
exact,pre_advance,A,ar,midas_umidas,2011:Q1,-92.03290211782502,-3590.046502992997
exact,pre_advance,A,ar,midas_umidas,2011:Q2,-306.02198228956087,-3896.068485282558
exact,pre_advance,A,ar,midas_umidas,2011:Q3,-32.87401376606293,-3928.942499048621
exact,pre_advance,A,ar,midas_umidas,2011:Q4,-371.54817852718503,-4300.490677575806
exact,pre_advance,A,ar,midas_umidas,2012:Q1,-122.74567380920654,-4423.236351385013
exact,pre_advance,A,ar,midas_umidas,2012:Q2,-29.88797422631989,-4453.124325611333
exact,pre_advance,A,ar,midas_umidas,2012:Q3,-25.05258481143651,-4478.17691042277
exact,pre_advance,A,ar,midas_umidas,2012:Q4,-236.931833593097,-4715.108744015866
exact,pre_advance,A,ar,midas_umidas,2013:Q1,-289.46108812641023,-5004.569832142277
exact,pre_advance,A,ar,midas_umidas,2013:Q2,-166.00409066325903,-5170.573922805536
exact,pre_advance,A,ar,midas_umidas,2013:Q3,-133.94421055689523,-5304.518133362431
exact,pre_advance,A,ar,midas_umidas,2013:Q4,0.1844370828420358,-5304.333696279589
exact,pre_advance,A,ar,midas_umidas,2014:Q1,-24.41104941800282,-5328.744745697592
exact,pre_advance,A,ar,midas_umidas,2014:Q2,-6.904915448098296,-5335.6496611456905
exact,pre_advance,A,ar,midas_umidas,2014:Q3,-128.28898106590654,-5463.938642211597
exact,pre_advance,A,ar,midas_umidas,2014:Q4,0.023543689470378798,-5463.915098522127
exact,pre_advance,A,ar,midas_umidas,2015:Q1,-16.38452558657465,-5480.299624108701
exact,pre_advance,A,ar,midas_umidas,2015:Q2,-85.02922229388085,-5565.328846402582
exact,pre_advance,A,ar,midas_umidas,2015:Q3,-1.344957788895401,-5566.673804191477
exact,pre_advance,A,ar,midas_umidas,2015:Q4,-43.10958890173534,-5609.783393093212
exact,pre_advance,A,ar,midas_umidas,2016:Q1,1.120103032854391,-5608.663290060357
exact,pre_advance,A,ar,midas_umidas,2016:Q2,-0.666491131098135,-5609.329781191455
exact,pre_advance,A,ar,midas_umidas,2016:Q3,-25.335260654313558,-5634.665041845769
exact,pre_advance,A,ar,midas_umidas,2016:Q4,-11.497059059703457,-5646.1621009054725
exact,pre_advance,A,ar,midas_umidas,2017:Q1,-6.0698612183336405,-5652.231962123806
exact,pre_advance,A,ar,midas_umidas,2017:Q2,0.9452815682099636,-5651.286680555596
exact,pre_advance,A,ar,midas_umidas,2017:Q3,-0.41404128561245446,-5651.700721841208
exact,pre_advance,A,ar,midas_umidas,2017:Q4,-0.13420448164651677,-5651.834926322855
exact,pre_advance,A,ar,midas_umidas,2018:Q1,-3.997257024537364,-5655.832183347392
exact,pre_advance,A,ar,midas_umidas,2018:Q2,-18.26889602605065,-5674.101079373442
exact,pre_advance,A,ar,midas_umidas,2018:Q3,-2.021495069425829,-5676.122574442868
exact,pre_advance,A,ar,midas_umidas,2018:Q4,-0.8432647553047836,-5676.965839198173
exact,pre_advance,A,ar,midas_umidas,2019:Q1,-2.440618721248274,-5679.406457919421
exact,pre_advance,A,ar,midas_umidas,2019:Q2,-0.31022506279469664,-5679.716682982215
exact,pre_advance,A,ar,midas_umidas,2019:Q3,-0.5704491640055204,-5680.287132146221
exact,pre_advance,A,ar,midas_umidas,2019:Q4,-3.737028164518225,-5684.024160310739
exact,pre_advance,A,ar,midas_umidas,2020:Q1,-88.42740718615849,-5772.451567496897
exact,pre_advance,A,ar,midas_umidas,2020:Q2,-3056.4598925313708,-8828.911460028268
exact,pre_advance,A,ar,midas_umidas,2020:Q3,-1182.785561973823,-10011.697022002092
exact,pre_advance,A,ar,midas_umidas,2020:Q4,-9.845816644277923,-10021.54283864637
exact,pre_advance,A,ar,midas_umidas,2021:Q1,-8.101390902857082,-10029.644229549227
exact,pre_advance,A,ar,midas_umidas,2021:Q2,12.942854477099132,-10016.701375072127
exact,pre_advance,A,ar,midas_umidas,2021:Q3,-36.10650263151161,-10052.807877703639
exact,pre_advance,A,ar,midas_umidas,2021:Q4,-50.137724068774205,-10102.945601772413
exact,pre_advance,A,ar,midas_umidas,2022:Q1,11.516273142384971,-10091.429328630029
exact,pre_advance,A,ar,midas_umidas,2022:Q2,-81.47208354712295,-10172.901412177152
exact,pre_advance,A,ar,midas_umidas,2022:Q3,-10.828589581410352,-10183.730001758562
exact,pre_advance,A,ar,midas_umidas,2022:Q4,-26.164088543113238,-10209.894090301676
exact,pre_advance,A,ar,midas_umidas,2023:Q1,0.983950925470207,-10208.910139376205
exact,pre_advance,A,ar,midas_umidas,2023:Q2,-4.190128232118229,-10213.100267608323
exact,pre_advance,A,ar,midas_umidas,2023:Q3,5.646110506615621,-10207.454157101707
exact,pre_advance,A,ar,midas_umidas,2023:Q4,-0.5226186986627077,-10207.976775800369
exact,pre_advance,A,ar,midas_umidas,2024:Q1,-6.858121252587646,-10214.834897052957
exact,pre_advance,A,ar,midas_umidas,2024:Q2,-0.00908849640029552,-10214.843985549358
exact,pre_advance,A,ar,midas_umidas,2024:Q3,-3.39415843192423,-10218.238143981282
exact,pre_advance,A,ar,midas_umidas,2024:Q4,0.053104823491226846,-10218.18503915779
exact,pre_advance,A,ar,monthly_mixed_frequency_kalman_em,2005:Q1,-2.1887706149449646,-2.1887706149449646
exact,pre_advance,A,ar,monthly_mixed_frequency_kalman_em,2005:Q2,0.17769122295562556,-2.0110793919893393
exact,pre_advance,A,ar,monthly_mixed_frequency_kalman_em,2005:Q3,-8.90680389385683,-10.91788328584617
exact,pre_advance,A,ar,monthly_mixed_frequency_kalman_em,2005:Q4,-19.167770421767415,-30.085653707613584
exact,pre_advance,A,ar,monthly_mixed_frequency_kalman_em,2006:Q1,4.90212191911473,-25.183531788498854
exact,pre_advance,A,ar,monthly_mixed_frequency_kalman_em,2006:Q2,-4.327415400290123,-29.510947188788975
exact,pre_advance,A,ar,monthly_mixed_frequency_kalman_em,2006:Q3,0.9983114748424484,-28.512635713946526
exact,pre_advance,A,ar,monthly_mixed_frequency_kalman_em,2006:Q4,-2.526065138393342,-31.03870085233987
exact,pre_advance,A,ar,monthly_mixed_frequency_kalman_em,2007:Q1,-2.46764355994412,-33.50634441228399
exact,pre_advance,A,ar,monthly_mixed_frequency_kalman_em,2007:Q2,0.7979219438101759,-32.70842246847381
exact,pre_advance,A,ar,monthly_mixed_frequency_kalman_em,2007:Q3,0.23237747842197498,-32.47604499005184
exact,pre_advance,A,ar,monthly_mixed_frequency_kalman_em,2007:Q4,6.960900803082607,-25.51514418696923
exact,pre_advance,A,ar,monthly_mixed_frequency_kalman_em,2008:Q1,1.2074907826555448,-24.307653404313687
exact,pre_advance,A,ar,monthly_mixed_frequency_kalman_em,2008:Q2,-1.7764026599966423,-26.084056064310328
exact,pre_advance,A,ar,monthly_mixed_frequency_kalman_em,2008:Q3,-11.121346759231809,-37.20540282354214
exact,pre_advance,A,ar,monthly_mixed_frequency_kalman_em,2008:Q4,17.803664862038264,-19.401737961503873
exact,pre_advance,A,ar,monthly_mixed_frequency_kalman_em,2009:Q1,-5.20318185357327,-24.604919815077142
exact,pre_advance,A,ar,monthly_mixed_frequency_kalman_em,2009:Q2,-0.7457627369792187,-25.350682552056362
exact,pre_advance,A,ar,monthly_mixed_frequency_kalman_em,2009:Q3,-1.5301298346968313,-26.880812386753192
exact,pre_advance,A,ar,monthly_mixed_frequency_kalman_em,2009:Q4,1.7415528409300025,-25.13925954582319
exact,pre_advance,A,ar,monthly_mixed_frequency_kalman_em,2010:Q1,0.13654638432476818,-25.002713161498423
exact,pre_advance,A,ar,monthly_mixed_frequency_kalman_em,2010:Q2,-1.5354485139444984,-26.53816167544292
exact,pre_advance,A,ar,monthly_mixed_frequency_kalman_em,2010:Q3,0.15673388265207916,-26.38142779279084
exact,pre_advance,A,ar,monthly_mixed_frequency_kalman_em,2010:Q4,0.7353064628669079,-25.646121329923933
exact,pre_advance,A,ar,monthly_mixed_frequency_kalman_em,2011:Q1,-6.567182063827465,-32.213303393751396
exact,pre_advance,A,ar,monthly_mixed_frequency_kalman_em,2011:Q2,-1.3165684951776107,-33.52987188892901
exact,pre_advance,A,ar,monthly_mixed_frequency_kalman_em,2011:Q3,0.2603634518987799,-33.269508437030225
exact,pre_advance,A,ar,monthly_mixed_frequency_kalman_em,2011:Q4,-0.9448113270349071,-34.21431976406513
exact,pre_advance,A,ar,monthly_mixed_frequency_kalman_em,2012:Q1,-2.1027928452528224,-36.31711260931795
exact,pre_advance,A,ar,monthly_mixed_frequency_kalman_em,2012:Q2,-0.25052062431203315,-36.567633233629984
exact,pre_advance,A,ar,monthly_mixed_frequency_kalman_em,2012:Q3,-0.6930618533471989,-37.26069508697718
exact,pre_advance,A,ar,monthly_mixed_frequency_kalman_em,2012:Q4,-7.037393152180728,-44.298088239157906
exact,pre_advance,A,ar,monthly_mixed_frequency_kalman_em,2013:Q1,1.5681659671553267,-42.72992227200258
exact,pre_advance,A,ar,monthly_mixed_frequency_kalman_em,2013:Q2,-0.22126003398748162,-42.951182305990066
exact,pre_advance,A,ar,monthly_mixed_frequency_kalman_em,2013:Q3,0.5427048760581284,-42.408477429931935
exact,pre_advance,A,ar,monthly_mixed_frequency_kalman_em,2013:Q4,-0.26935359566557887,-42.67783102559751
exact,pre_advance,A,ar,monthly_mixed_frequency_kalman_em,2014:Q1,-3.0930633946900663,-45.770894420287576
exact,pre_advance,A,ar,monthly_mixed_frequency_kalman_em,2014:Q2,6.951105465379093,-38.81978895490848
exact,pre_advance,A,ar,monthly_mixed_frequency_kalman_em,2014:Q3,-0.5434338859773169,-39.3632228408858
exact,pre_advance,A,ar,monthly_mixed_frequency_kalman_em,2014:Q4,-0.658434300147843,-40.02165714103364
exact,pre_advance,A,ar,monthly_mixed_frequency_kalman_em,2015:Q1,3.4092326591990556,-36.61242448183459
exact,pre_advance,A,ar,monthly_mixed_frequency_kalman_em,2015:Q2,0.845298041701963,-35.76712644013262
exact,pre_advance,A,ar,monthly_mixed_frequency_kalman_em,2015:Q3,-0.020172686776771753,-35.787299126909396
exact,pre_advance,A,ar,monthly_mixed_frequency_kalman_em,2015:Q4,1.0253208604655304,-34.76197826644387
exact,pre_advance,A,ar,monthly_mixed_frequency_kalman_em,2016:Q1,0.27039945339814586,-34.49157881304572
exact,pre_advance,A,ar,monthly_mixed_frequency_kalman_em,2016:Q2,-1.0232812791833479,-35.51486009222907
exact,pre_advance,A,ar,monthly_mixed_frequency_kalman_em,2016:Q3,0.778877349511186,-34.73598274271789
exact,pre_advance,A,ar,monthly_mixed_frequency_kalman_em,2016:Q4,0.40030889483096543,-34.33567384788692
exact,pre_advance,A,ar,monthly_mixed_frequency_kalman_em,2017:Q1,-2.5620381650395623,-36.89771201292648
exact,pre_advance,A,ar,monthly_mixed_frequency_kalman_em,2017:Q2,0.8230890646158231,-36.07462294831066
exact,pre_advance,A,ar,monthly_mixed_frequency_kalman_em,2017:Q3,-0.4485606583066387,-36.5231836066173
exact,pre_advance,A,ar,monthly_mixed_frequency_kalman_em,2017:Q4,-1.7796424799533794,-38.30282608657068
exact,pre_advance,A,ar,monthly_mixed_frequency_kalman_em,2018:Q1,-2.428363555755167,-40.73118964232585
exact,pre_advance,A,ar,monthly_mixed_frequency_kalman_em,2018:Q2,2.068774585263168,-38.66241505706268
exact,pre_advance,A,ar,monthly_mixed_frequency_kalman_em,2018:Q3,0.02652525221560317,-38.635889804847075
exact,pre_advance,A,ar,monthly_mixed_frequency_kalman_em,2018:Q4,-0.0936576524016974,-38.72954745724877
exact,pre_advance,A,ar,monthly_mixed_frequency_kalman_em,2019:Q1,-1.3979166423194478,-40.127464099568215
exact,pre_advance,A,ar,monthly_mixed_frequency_kalman_em,2019:Q2,0.5867545038969182,-39.540709595671295
exact,pre_advance,A,ar,monthly_mixed_frequency_kalman_em,2019:Q3,-0.10448124821303262,-39.64519084388433
exact,pre_advance,A,ar,monthly_mixed_frequency_kalman_em,2019:Q4,-0.012678919412424022,-39.65786976329675
exact,pre_advance,A,ar,monthly_mixed_frequency_kalman_em,2020:Q1,34.16239146218578,-5.495478301110971
exact,pre_advance,A,ar,monthly_mixed_frequency_kalman_em,2020:Q2,131.5417782563968,126.04629995528583
exact,pre_advance,A,ar,monthly_mixed_frequency_kalman_em,2020:Q3,2326.8909276921822,2452.9372276474683
exact,pre_advance,A,ar,monthly_mixed_frequency_kalman_em,2020:Q4,-2.8540249734161,2450.0832026740522
exact,pre_advance,A,ar,monthly_mixed_frequency_kalman_em,2021:Q1,-65.65155430460851,2384.431648369444
exact,pre_advance,A,ar,monthly_mixed_frequency_kalman_em,2021:Q2,13.970201570019524,2398.4018499394633
exact,pre_advance,A,ar,monthly_mixed_frequency_kalman_em,2021:Q3,-1.59334494509176,2396.8085049943716
exact,pre_advance,A,ar,monthly_mixed_frequency_kalman_em,2021:Q4,7.6234697539417535,2404.431974748313
exact,pre_advance,A,ar,monthly_mixed_frequency_kalman_em,2022:Q1,-38.207124598194305,2366.224850150119
exact,pre_advance,A,ar,monthly_mixed_frequency_kalman_em,2022:Q2,-15.78571624067706,2350.439133909442
exact,pre_advance,A,ar,monthly_mixed_frequency_kalman_em,2022:Q3,-0.5640159520001568,2349.8751179574415
exact,pre_advance,A,ar,monthly_mixed_frequency_kalman_em,2022:Q4,-1.8570485456416856,2348.0180694118
exact,pre_advance,A,ar,monthly_mixed_frequency_kalman_em,2023:Q1,2.0644511544912585,2350.082520566291
exact,pre_advance,A,ar,monthly_mixed_frequency_kalman_em,2023:Q2,-0.19118021067786867,2349.891340355613
exact,pre_advance,A,ar,monthly_mixed_frequency_kalman_em,2023:Q3,0.7326715409065505,2350.6240118965197
exact,pre_advance,A,ar,monthly_mixed_frequency_kalman_em,2023:Q4,-7.372519364196675,2343.251492532323
exact,pre_advance,A,ar,monthly_mixed_frequency_kalman_em,2024:Q1,-0.017522135885225665,2343.2339703964376
exact,pre_advance,A,ar,monthly_mixed_frequency_kalman_em,2024:Q2,-1.5236913635295761,2341.710279032908
exact,pre_advance,A,ar,monthly_mixed_frequency_kalman_em,2024:Q3,-1.3913837390268164,2340.3188952938813
exact,pre_advance,A,ar,monthly_mixed_frequency_kalman_em,2024:Q4,-0.9649501478892022,2339.353945145992
exact,pre_advance,A,ar,no_revision,2005:Q1,0.01829276874886654,0.01829276874886654
exact,pre_advance,A,ar,no_revision,2005:Q2,-0.010434082728868699,0.00785868601999784
exact,pre_advance,A,ar,no_revision,2005:Q3,0.04475723724217473,0.05261592326217257
exact,pre_advance,A,ar,no_revision,2005:Q4,-0.005897102113586961,0.04671882114858561
exact,pre_advance,A,ar,no_revision,2006:Q1,0.14435758559098844,0.19107640673957405
exact,pre_advance,A,ar,no_revision,2006:Q2,0.10645890996238783,0.29753531670196187
exact,pre_advance,A,ar,no_revision,2006:Q3,-0.24152679339726402,0.056008523304697855
exact,pre_advance,A,ar,no_revision,2006:Q4,-0.30824079892148304,-0.2522322756167852
exact,pre_advance,A,ar,no_revision,2007:Q1,-0.23848279984936216,-0.49071507546614734
exact,pre_advance,A,ar,no_revision,2007:Q2,0.05512019812272051,-0.43559487734342683
exact,pre_advance,A,ar,no_revision,2007:Q3,-0.19969014430791188,-0.6352850216513387
exact,pre_advance,A,ar,no_revision,2007:Q4,-0.15567398880635874,-0.7909590104576975
exact,pre_advance,A,ar,no_revision,2008:Q1,0.05559234221203191,-0.7353666682456655
exact,pre_advance,A,ar,no_revision,2008:Q2,0.004622952477093177,-0.7307437157685723
exact,pre_advance,A,ar,no_revision,2008:Q3,-0.15221627551749783,-0.8829599912860702
exact,pre_advance,A,ar,no_revision,2008:Q4,0.5818162017862143,-0.3011437894998559
exact,pre_advance,A,ar,no_revision,2009:Q1,0.45423321116048854,0.15308942166063266
exact,pre_advance,A,ar,no_revision,2009:Q2,0.013307526119774815,0.16639694778040748
exact,pre_advance,A,ar,no_revision,2009:Q3,-1.023992772227114,-0.8575958244467066
exact,pre_advance,A,ar,no_revision,2009:Q4,-1.4621885824992091,-2.3197844069459155
exact,pre_advance,A,ar,no_revision,2010:Q1,0.5154181563893694,-1.804366250556546
exact,pre_advance,A,ar,no_revision,2010:Q2,0.1815894544157976,-1.6227767961407484
exact,pre_advance,A,ar,no_revision,2010:Q3,0.02901155984276077,-1.5937652362979877
exact,pre_advance,A,ar,no_revision,2010:Q4,0.21335030884274386,-1.3804149274552437
exact,pre_advance,A,ar,no_revision,2011:Q1,-0.06757887593352563,-1.4479938033887694
exact,pre_advance,A,ar,no_revision,2011:Q2,0.0202217337142232,-1.4277720696745462
exact,pre_advance,A,ar,no_revision,2011:Q3,-0.052984459561723096,-1.4807565292362692
exact,pre_advance,A,ar,no_revision,2011:Q4,0.01895665554257433,-1.4617998736936948
exact,pre_advance,A,ar,no_revision,2012:Q1,0.02232353618393504,-1.4394763375097597
exact,pre_advance,A,ar,no_revision,2012:Q2,0.11942453052189395,-1.3200518069878657
exact,pre_advance,A,ar,no_revision,2012:Q3,0.0006349170808925357,-1.3194168899069731
exact,pre_advance,A,ar,no_revision,2012:Q4,-0.06262090931865316,-1.3820377992256263
exact,pre_advance,A,ar,no_revision,2013:Q1,-0.008932871015000954,-1.3909706702406273
exact,pre_advance,A,ar,no_revision,2013:Q2,0.06324061631598044,-1.3277300539246468
exact,pre_advance,A,ar,no_revision,2013:Q3,0.0315667756852992,-1.2961632782393475
exact,pre_advance,A,ar,no_revision,2013:Q4,-0.17688786721241778,-1.4730511454517652
exact,pre_advance,A,ar,no_revision,2014:Q1,-0.02480433967617479,-1.49785548512794
exact,pre_advance,A,ar,no_revision,2014:Q2,-0.3039643587409291,-1.801819843868869
exact,pre_advance,A,ar,no_revision,2014:Q3,-0.01009808842494786,-1.811917932293817
exact,pre_advance,A,ar,no_revision,2014:Q4,-0.053005079780955394,-1.8649230120747724
exact,pre_advance,A,ar,no_revision,2015:Q1,0.67193818782102,-1.1929848242537524
exact,pre_advance,A,ar,no_revision,2015:Q2,0.08197493566980374,-1.1110098885839488
exact,pre_advance,A,ar,no_revision,2015:Q3,-0.08264742175217066,-1.1936573103361194
exact,pre_advance,A,ar,no_revision,2015:Q4,-0.12441534043486313,-1.3180726507709826
exact,pre_advance,A,ar,no_revision,2016:Q1,0.2275952927293533,-1.0904773580416292
exact,pre_advance,A,ar,no_revision,2016:Q2,-0.0046545719231812915,-1.0951319299648103
exact,pre_advance,A,ar,no_revision,2016:Q3,-0.04584231925914617,-1.1409742492239565
exact,pre_advance,A,ar,no_revision,2016:Q4,0.10114230910276367,-1.0398319401211928
exact,pre_advance,A,ar,no_revision,2017:Q1,0.246574617300388,-0.7932573228208049
exact,pre_advance,A,ar,no_revision,2017:Q2,-0.15926574147033767,-0.9525230642911425
exact,pre_advance,A,ar,no_revision,2017:Q3,0.022454236955837703,-0.9300688273353048
exact,pre_advance,A,ar,no_revision,2017:Q4,0.004727701091471227,-0.9253411262438336
exact,pre_advance,A,ar,no_revision,2018:Q1,0.03223932073775865,-0.8931018055060749
exact,pre_advance,A,ar,no_revision,2018:Q2,-0.05012498584200742,-0.9432267913480823
exact,pre_advance,A,ar,no_revision,2018:Q3,0.0040716179457951085,-0.9391551734022872
exact,pre_advance,A,ar,no_revision,2018:Q4,0.0107967518642271,-0.92835842153806
exact,pre_advance,A,ar,no_revision,2019:Q1,-0.06475700376940074,-0.9931154253074608
exact,pre_advance,A,ar,no_revision,2019:Q2,-0.08251128198875868,-1.0756267072962196
exact,pre_advance,A,ar,no_revision,2019:Q3,-0.02873654465966108,-1.1043632519558806
exact,pre_advance,A,ar,no_revision,2019:Q4,0.0032282376299231016,-1.1011350143259575
exact,pre_advance,A,ar,no_revision,2020:Q1,-0.47755925650978526,-1.5786942708357428
exact,pre_advance,A,ar,no_revision,2020:Q2,-0.5667662532794111,-2.145460524115154
exact,pre_advance,A,ar,no_revision,2020:Q3,-57.60016029331837,-59.74562081743352
exact,pre_advance,A,ar,no_revision,2020:Q4,-40.65854856282156,-100.40416938025507
exact,pre_advance,A,ar,no_revision,2021:Q1,-27.79553131153419,-128.19970069178925
exact,pre_advance,A,ar,no_revision,2021:Q2,-24.119251842538425,-152.31895253432768
exact,pre_advance,A,ar,no_revision,2021:Q3,-0.30877510409469244,-152.62772763842236
exact,pre_advance,A,ar,no_revision,2021:Q4,3.7679008571371924,-148.85982678128516
exact,pre_advance,A,ar,no_revision,2022:Q1,-0.5234667865097897,-149.38329356779496
exact,pre_advance,A,ar,no_revision,2022:Q2,-1.9855199282110494,-151.36881349600603
exact,pre_advance,A,ar,no_revision,2022:Q3,-0.033925124700511525,-151.40273862070654
exact,pre_advance,A,ar,no_revision,2022:Q4,-0.7384306425890252,-152.14116926329558
exact,pre_advance,A,ar,no_revision,2023:Q1,0.371137610273619,-151.77003165302196
exact,pre_advance,A,ar,no_revision,2023:Q2,-0.00528125482766627,-151.77531290784964
exact,pre_advance,A,ar,no_revision,2023:Q3,-0.5551736828791194,-152.33048659072875
exact,pre_advance,A,ar,no_revision,2023:Q4,-0.20210030709286464,-152.53258689782163
exact,pre_advance,A,ar,no_revision,2024:Q1,-0.31218151521482485,-152.84476841303646
exact,pre_advance,A,ar,no_revision,2024:Q2,0.0978852185130688,-152.7468831945234
exact,pre_advance,A,ar,no_revision,2024:Q3,-0.06291573213851451,-152.80979892666193
exact,pre_advance,A,ar,no_revision,2024:Q4,0.026146771737672124,-152.78365215492425
exact,pre_advance,A,ar,release_dfm,2005:Q1,0.005557468690040701,0.005557468690040701
exact,pre_advance,A,ar,release_dfm,2005:Q2,0.17688600917079522,0.18244347786083592
exact,pre_advance,A,ar,release_dfm,2005:Q3,-0.5496284026543578,-0.3671849247935218
exact,pre_advance,A,ar,release_dfm,2005:Q4,-1.598510703674827,-1.9656956284683487
exact,pre_advance,A,ar,release_dfm,2006:Q1,5.895364834230374,3.9296692057620257
exact,pre_advance,A,ar,release_dfm,2006:Q2,0.6326591475203756,4.5623283532824015
exact,pre_advance,A,ar,release_dfm,2006:Q3,-1.1815536331980458,3.3807747200843554
exact,pre_advance,A,ar,release_dfm,2006:Q4,-0.08961491202374061,3.291159808060615
exact,pre_advance,A,ar,release_dfm,2007:Q1,2.277615211128804,5.5687750191894185
exact,pre_advance,A,ar,release_dfm,2007:Q2,1.5721987404672848,7.140973759656704
exact,pre_advance,A,ar,release_dfm,2007:Q3,-0.9325969815824826,6.208376778074221
exact,pre_advance,A,ar,release_dfm,2007:Q4,5.619451697130961,11.827828475205182
exact,pre_advance,A,ar,release_dfm,2008:Q1,0.4071777558322208,12.235006231037403
exact,pre_advance,A,ar,release_dfm,2008:Q2,-0.1485463181038612,12.086459912933542
exact,pre_advance,A,ar,release_dfm,2008:Q3,5.4603986995371985,17.54685861247074
exact,pre_advance,A,ar,release_dfm,2008:Q4,25.320902423246768,42.86776103571751
exact,pre_advance,A,ar,release_dfm,2009:Q1,26.898920136255693,69.7666811719732
exact,pre_advance,A,ar,release_dfm,2009:Q2,0.6708675600601806,70.43754873203338
exact,pre_advance,A,ar,release_dfm,2009:Q3,7.624685900987867,78.06223463302125
exact,pre_advance,A,ar,release_dfm,2009:Q4,-0.05460311648701044,78.00763151653423
exact,pre_advance,A,ar,release_dfm,2010:Q1,-1.383510722457672,76.62412079407656
exact,pre_advance,A,ar,release_dfm,2010:Q2,-0.9692400609140532,75.65488073316251
exact,pre_advance,A,ar,release_dfm,2010:Q3,-0.16499710555444946,75.48988362760807
exact,pre_advance,A,ar,release_dfm,2010:Q4,0.42205119712596945,75.91193482473403
exact,pre_advance,A,ar,release_dfm,2011:Q1,-7.478070769233071,68.43386405550096
exact,pre_advance,A,ar,release_dfm,2011:Q2,-1.2601790103089012,67.17368504519206
exact,pre_advance,A,ar,release_dfm,2011:Q3,0.169691482379295,67.34337652757135
exact,pre_advance,A,ar,release_dfm,2011:Q4,-0.5786066882143093,66.76476983935704
exact,pre_advance,A,ar,release_dfm,2012:Q1,-2.2457574597114895,64.51901237964556
exact,pre_advance,A,ar,release_dfm,2012:Q2,-0.29124857939303794,64.22776380025252
exact,pre_advance,A,ar,release_dfm,2012:Q3,-0.2875970641695967,63.94016673608292
exact,pre_advance,A,ar,release_dfm,2012:Q4,-7.029358035026668,56.910808701056254
exact,pre_advance,A,ar,release_dfm,2013:Q1,1.5366394988358547,58.44744819989211
exact,pre_advance,A,ar,release_dfm,2013:Q2,-0.6193290521110049,57.8281191477811
exact,pre_advance,A,ar,release_dfm,2013:Q3,0.5116495142349746,58.33976866201608
exact,pre_advance,A,ar,release_dfm,2013:Q4,0.1881211670679197,58.527889829083996
exact,pre_advance,A,ar,release_dfm,2014:Q1,2.2611836602781894,60.78907348936219
exact,pre_advance,A,ar,release_dfm,2014:Q2,6.950285300050513,67.7393587894127
exact,pre_advance,A,ar,release_dfm,2014:Q3,-0.23970610456213043,67.49965268485057
exact,pre_advance,A,ar,release_dfm,2014:Q4,0.15993158149245626,67.65958426634303
exact,pre_advance,A,ar,release_dfm,2015:Q1,3.458441162000213,71.11802542834324
exact,pre_advance,A,ar,release_dfm,2015:Q2,0.608188766440848,71.72621419478409
exact,pre_advance,A,ar,release_dfm,2015:Q3,-0.49388308416577154,71.23233111061832
exact,pre_advance,A,ar,release_dfm,2015:Q4,-0.199694963921353,71.03263614669696
exact,pre_advance,A,ar,release_dfm,2016:Q1,-1.3432215168252546,69.6894146298717
exact,pre_advance,A,ar,release_dfm,2016:Q2,-0.9852587561590919,68.70415587371261
exact,pre_advance,A,ar,release_dfm,2016:Q3,0.8086089264622582,69.51276480017486
exact,pre_advance,A,ar,release_dfm,2016:Q4,-0.9426756961184087,68.57008910405645
exact,pre_advance,A,ar,release_dfm,2017:Q1,-2.1563377782168547,66.4137513258396
exact,pre_advance,A,ar,release_dfm,2017:Q2,0.8839097043219548,67.29766103016155
exact,pre_advance,A,ar,release_dfm,2017:Q3,-0.4498136888489407,66.84784734131262
exact,pre_advance,A,ar,release_dfm,2017:Q4,-1.472453224608988,65.37539411670363
exact,pre_advance,A,ar,release_dfm,2018:Q1,-1.1961916583162755,64.17920245838735
exact,pre_advance,A,ar,release_dfm,2018:Q2,0.7936938430062765,64.97289630139363
exact,pre_advance,A,ar,release_dfm,2018:Q3,-0.1781213138623781,64.79477498753126
exact,pre_advance,A,ar,release_dfm,2018:Q4,0.16398670734271426,64.95876169487397
exact,pre_advance,A,ar,release_dfm,2019:Q1,-1.3737634057761716,63.5849982890978
exact,pre_advance,A,ar,release_dfm,2019:Q2,0.5864738210399745,64.17147211013777
exact,pre_advance,A,ar,release_dfm,2019:Q3,-0.04636784297867397,64.1251042671591
exact,pre_advance,A,ar,release_dfm,2019:Q4,-0.009652078071393923,64.1154521890877
exact,pre_advance,A,ar,release_dfm,2020:Q1,20.78770088725128,84.90315307633898
exact,pre_advance,A,ar,release_dfm,2020:Q2,712.4929959502997,797.3961490266387
exact,pre_advance,A,ar,release_dfm,2020:Q3,2567.0847497712384,3364.480898797877
exact,pre_advance,A,ar,release_dfm,2020:Q4,-9.760194583218505,3354.720704214659
exact,pre_advance,A,ar,release_dfm,2021:Q1,14.717586220885224,3369.438290435544
exact,pre_advance,A,ar,release_dfm,2021:Q2,11.250739364102031,3380.689029799646
exact,pre_advance,A,ar,release_dfm,2021:Q3,-1.552906580913287,3379.136123218733
exact,pre_advance,A,ar,release_dfm,2021:Q4,14.115040173354647,3393.2511633920876
exact,pre_advance,A,ar,release_dfm,2022:Q1,-52.79943459352654,3340.451728798561
exact,pre_advance,A,ar,release_dfm,2022:Q2,-12.669399125677783,3327.782329672883
exact,pre_advance,A,ar,release_dfm,2022:Q3,0.01330019348445774,3327.7956298663676
exact,pre_advance,A,ar,release_dfm,2022:Q4,-1.3244838241014658,3326.471146042266
exact,pre_advance,A,ar,release_dfm,2023:Q1,0.6909286887191397,3327.162074730985
exact,pre_advance,A,ar,release_dfm,2023:Q2,-0.12096587289956348,3327.0411088580854
exact,pre_advance,A,ar,release_dfm,2023:Q3,-2.313832963877977,3324.7272758942077
exact,pre_advance,A,ar,release_dfm,2023:Q4,-1.707528374686477,3323.0197475195214
exact,pre_advance,A,ar,release_dfm,2024:Q1,0.4624004308907374,3323.482147950412
exact,pre_advance,A,ar,release_dfm,2024:Q2,0.12983346758590594,3323.611981417998
exact,pre_advance,A,ar,release_dfm,2024:Q3,-0.8060037928736986,3322.8059776251243
exact,pre_advance,A,ar,release_dfm,2024:Q4,0.033129491051418346,3322.839107116176
exact,pre_advance,A,ar,revision_dfm_kalman_em,2005:Q1,0.00722109002523582,0.00722109002523582
exact,pre_advance,A,ar,revision_dfm_kalman_em,2005:Q2,-0.39786593207248916,-0.39064484204725336
exact,pre_advance,A,ar,revision_dfm_kalman_em,2005:Q3,-0.993776096344874,-1.3844209383921273
exact,pre_advance,A,ar,revision_dfm_kalman_em,2005:Q4,-4.928791773327247,-6.313212711719374
exact,pre_advance,A,ar,revision_dfm_kalman_em,2006:Q1,2.8442188247344387,-3.4689938869849355
exact,pre_advance,A,ar,revision_dfm_kalman_em,2006:Q2,0.35311086788696744,-3.115883019097968
exact,pre_advance,A,ar,revision_dfm_kalman_em,2006:Q3,1.000909606480442,-2.114973412617526
exact,pre_advance,A,ar,revision_dfm_kalman_em,2006:Q4,-6.777641493505455,-8.892614906122981
exact,pre_advance,A,ar,revision_dfm_kalman_em,2007:Q1,-1.3990150745635637,-10.291629980686544
exact,pre_advance,A,ar,revision_dfm_kalman_em,2007:Q2,1.9222192608502744,-8.369410719836269
exact,pre_advance,A,ar,revision_dfm_kalman_em,2007:Q3,-1.765336118552104,-10.134746838388374
exact,pre_advance,A,ar,revision_dfm_kalman_em,2007:Q4,7.0040555065082195,-3.130691331880154
exact,pre_advance,A,ar,revision_dfm_kalman_em,2008:Q1,1.204853374206152,-1.9258379576740021
exact,pre_advance,A,ar,revision_dfm_kalman_em,2008:Q2,-1.7717123284804674,-3.6975502861544696
exact,pre_advance,A,ar,revision_dfm_kalman_em,2008:Q3,6.250741072271086,2.553190786116616
exact,pre_advance,A,ar,revision_dfm_kalman_em,2008:Q4,12.975311735036563,15.528502521153179
exact,pre_advance,A,ar,revision_dfm_kalman_em,2009:Q1,11.202743139954581,26.73124566110776
exact,pre_advance,A,ar,revision_dfm_kalman_em,2009:Q2,-23.141751941968476,3.589493719139284
exact,pre_advance,A,ar,revision_dfm_kalman_em,2009:Q3,6.9167878974713695,10.506281616610654
exact,pre_advance,A,ar,revision_dfm_kalman_em,2009:Q4,4.375592963496106,14.88187458010676
exact,pre_advance,A,ar,revision_dfm_kalman_em,2010:Q1,-8.229352774383019,6.652521805723742
exact,pre_advance,A,ar,revision_dfm_kalman_em,2010:Q2,-4.21163411815812,2.4408876875656222
exact,pre_advance,A,ar,revision_dfm_kalman_em,2010:Q3,-1.1243298589101935,1.3165578286554287
exact,pre_advance,A,ar,revision_dfm_kalman_em,2010:Q4,-1.224918473379141,0.09163935527628775
exact,pre_advance,A,ar,revision_dfm_kalman_em,2011:Q1,-15.064900585578988,-14.9732612303027
exact,pre_advance,A,ar,revision_dfm_kalman_em,2011:Q2,0.7152935352543345,-14.257967695048366
exact,pre_advance,A,ar,revision_dfm_kalman_em,2011:Q3,-0.04552542644087704,-14.303493121489243
exact,pre_advance,A,ar,revision_dfm_kalman_em,2011:Q4,-0.4579870821581257,-14.761480203647368
exact,pre_advance,A,ar,revision_dfm_kalman_em,2012:Q1,-2.247893021465396,-17.009373225112764
exact,pre_advance,A,ar,revision_dfm_kalman_em,2012:Q2,0.6728186902155241,-16.33655453489724
exact,pre_advance,A,ar,revision_dfm_kalman_em,2012:Q3,-0.15326148064135808,-16.489816015538597
exact,pre_advance,A,ar,revision_dfm_kalman_em,2012:Q4,-3.5930127375113123,-20.08282875304991
exact,pre_advance,A,ar,revision_dfm_kalman_em,2013:Q1,1.729292551871523,-18.353536201178386
exact,pre_advance,A,ar,revision_dfm_kalman_em,2013:Q2,0.2362984061752917,-18.117237795003096
exact,pre_advance,A,ar,revision_dfm_kalman_em,2013:Q3,0.2718209175264012,-17.845416877476694
exact,pre_advance,A,ar,revision_dfm_kalman_em,2013:Q4,-0.9361347238371647,-18.781551601313858
exact,pre_advance,A,ar,revision_dfm_kalman_em,2014:Q1,-1.0195348095545516,-19.801086410868407
exact,pre_advance,A,ar,revision_dfm_kalman_em,2014:Q2,6.9448149430889865,-12.856271467779422
exact,pre_advance,A,ar,revision_dfm_kalman_em,2014:Q3,-0.9765392986782659,-13.832810766457687
exact,pre_advance,A,ar,revision_dfm_kalman_em,2014:Q4,-0.3560169312958377,-14.188827697753524
exact,pre_advance,A,ar,revision_dfm_kalman_em,2015:Q1,5.307880890966612,-8.880946806786913
exact,pre_advance,A,ar,revision_dfm_kalman_em,2015:Q2,0.43721857602744907,-8.443728230759463
exact,pre_advance,A,ar,revision_dfm_kalman_em,2015:Q3,-0.7991695944864152,-9.242897825245878
exact,pre_advance,A,ar,revision_dfm_kalman_em,2015:Q4,1.565426564203829,-7.677471261042049
exact,pre_advance,A,ar,revision_dfm_kalman_em,2016:Q1,0.8296860057971276,-6.847785255244921
exact,pre_advance,A,ar,revision_dfm_kalman_em,2016:Q2,-0.3204333906725096,-7.168218645917431
exact,pre_advance,A,ar,revision_dfm_kalman_em,2016:Q3,0.5736815809236067,-6.594537064993824
exact,pre_advance,A,ar,revision_dfm_kalman_em,2016:Q4,-0.141289452669365,-6.735826517663189
exact,pre_advance,A,ar,revision_dfm_kalman_em,2017:Q1,-0.5952859524967118,-7.331112470159901
exact,pre_advance,A,ar,revision_dfm_kalman_em,2017:Q2,0.8587453941463652,-6.472367076013536
exact,pre_advance,A,ar,revision_dfm_kalman_em,2017:Q3,-5.565762452792,-12.038129528805536
exact,pre_advance,A,ar,revision_dfm_kalman_em,2017:Q4,-10.984336594006649,-23.022466122812183
exact,pre_advance,A,ar,revision_dfm_kalman_em,2018:Q1,-0.7083102543575746,-23.730776377169757
exact,pre_advance,A,ar,revision_dfm_kalman_em,2018:Q2,2.2321492000285925,-21.498627177141167
exact,pre_advance,A,ar,revision_dfm_kalman_em,2018:Q3,0.049620573112059994,-21.44900660402911
exact,pre_advance,A,ar,revision_dfm_kalman_em,2018:Q4,-0.013181145502637076,-21.462187749531747
exact,pre_advance,A,ar,revision_dfm_kalman_em,2019:Q1,-3.7313083545028687,-25.193496104034615
exact,pre_advance,A,ar,revision_dfm_kalman_em,2019:Q2,0.5890837005333133,-24.604412403501303
exact,pre_advance,A,ar,revision_dfm_kalman_em,2019:Q3,-0.25160382700604833,-24.85601623050735
exact,pre_advance,A,ar,revision_dfm_kalman_em,2019:Q4,-0.5882047925385758,-25.444221023045927
exact,pre_advance,A,ar,revision_dfm_kalman_em,2020:Q1,38.753992363094966,13.30977134004904
exact,pre_advance,A,ar,revision_dfm_kalman_em,2020:Q2,897.5618015298627,910.8715728699117
exact,pre_advance,A,ar,revision_dfm_kalman_em,2020:Q3,2206.368605600139,3117.2401784700505
exact,pre_advance,A,ar,revision_dfm_kalman_em,2020:Q4,0.26784629709169594,3117.508024767142
exact,pre_advance,A,ar,revision_dfm_kalman_em,2021:Q1,0.4102863389307121,3117.918311106073
exact,pre_advance,A,ar,revision_dfm_kalman_em,2021:Q2,10.336932079758519,3128.255243185831
exact,pre_advance,A,ar,revision_dfm_kalman_em,2021:Q3,-2.4876127529979204,3125.7676304328334
exact,pre_advance,A,ar,revision_dfm_kalman_em,2021:Q4,9.4572054695708,3135.2248359024043
exact,pre_advance,A,ar,revision_dfm_kalman_em,2022:Q1,-35.78218753896686,3099.4426483634375
exact,pre_advance,A,ar,revision_dfm_kalman_em,2022:Q2,-7.935544220154879,3091.5071041432825
exact,pre_advance,A,ar,revision_dfm_kalman_em,2022:Q3,-0.2402146253760043,3091.2668895179063
exact,pre_advance,A,ar,revision_dfm_kalman_em,2022:Q4,-3.940877345276592,3087.32601217263
exact,pre_advance,A,ar,revision_dfm_kalman_em,2023:Q1,0.11507531045063124,3087.4410874830805
exact,pre_advance,A,ar,revision_dfm_kalman_em,2023:Q2,-0.0020014315114734353,3087.439086051569
exact,pre_advance,A,ar,revision_dfm_kalman_em,2023:Q3,0.7754034448130014,3088.214489496382
exact,pre_advance,A,ar,revision_dfm_kalman_em,2023:Q4,-5.445754359458367,3082.7687351369236
exact,pre_advance,A,ar,revision_dfm_kalman_em,2024:Q1,0.8363510551108112,3083.6050861920344
exact,pre_advance,A,ar,revision_dfm_kalman_em,2024:Q2,-1.5911793711626496,3082.013906820872
exact,pre_advance,A,ar,revision_dfm_kalman_em,2024:Q3,-1.3460621057321345,3080.66784471514
exact,pre_advance,A,ar,revision_dfm_kalman_em,2024:Q4,-0.03728275681549287,3080.6305619583245
exact,pre_advance,A,ar,standard_dfm,2005:Q1,0.005557468690040701,0.005557468690040701
exact,pre_advance,A,ar,standard_dfm,2005:Q2,0.17688600917079522,0.18244347786083592
exact,pre_advance,A,ar,standard_dfm,2005:Q3,-0.5496284026543578,-0.3671849247935218
exact,pre_advance,A,ar,standard_dfm,2005:Q4,-1.598510703674827,-1.9656956284683487
exact,pre_advance,A,ar,standard_dfm,2006:Q1,5.895364834230374,3.9296692057620257
exact,pre_advance,A,ar,standard_dfm,2006:Q2,0.6326591475203756,4.5623283532824015
exact,pre_advance,A,ar,standard_dfm,2006:Q3,-1.1815536331980458,3.3807747200843554
exact,pre_advance,A,ar,standard_dfm,2006:Q4,-0.08961491202374061,3.291159808060615
exact,pre_advance,A,ar,standard_dfm,2007:Q1,2.277615211128804,5.5687750191894185
exact,pre_advance,A,ar,standard_dfm,2007:Q2,1.5721987404672848,7.140973759656704
exact,pre_advance,A,ar,standard_dfm,2007:Q3,-0.9325969815824826,6.208376778074221
exact,pre_advance,A,ar,standard_dfm,2007:Q4,5.619451697130961,11.827828475205182
exact,pre_advance,A,ar,standard_dfm,2008:Q1,0.4071777558322208,12.235006231037403
exact,pre_advance,A,ar,standard_dfm,2008:Q2,-0.1485463181038612,12.086459912933542
exact,pre_advance,A,ar,standard_dfm,2008:Q3,5.4603986995371985,17.54685861247074
exact,pre_advance,A,ar,standard_dfm,2008:Q4,25.320902423246768,42.86776103571751
exact,pre_advance,A,ar,standard_dfm,2009:Q1,26.898920136255693,69.7666811719732
exact,pre_advance,A,ar,standard_dfm,2009:Q2,0.6708675600601806,70.43754873203338
exact,pre_advance,A,ar,standard_dfm,2009:Q3,7.624685900987867,78.06223463302125
exact,pre_advance,A,ar,standard_dfm,2009:Q4,-0.05460311648701044,78.00763151653423
exact,pre_advance,A,ar,standard_dfm,2010:Q1,-1.383510722457672,76.62412079407656
exact,pre_advance,A,ar,standard_dfm,2010:Q2,-0.9692400609140532,75.65488073316251
exact,pre_advance,A,ar,standard_dfm,2010:Q3,-0.16499710555444946,75.48988362760807
exact,pre_advance,A,ar,standard_dfm,2010:Q4,0.42205119712596945,75.91193482473403
exact,pre_advance,A,ar,standard_dfm,2011:Q1,-7.478070769233071,68.43386405550096
exact,pre_advance,A,ar,standard_dfm,2011:Q2,-1.2601790103089012,67.17368504519206
exact,pre_advance,A,ar,standard_dfm,2011:Q3,0.169691482379295,67.34337652757135
exact,pre_advance,A,ar,standard_dfm,2011:Q4,-0.5786066882143093,66.76476983935704
exact,pre_advance,A,ar,standard_dfm,2012:Q1,-2.2457574597114895,64.51901237964556
exact,pre_advance,A,ar,standard_dfm,2012:Q2,-0.29124857939303794,64.22776380025252
exact,pre_advance,A,ar,standard_dfm,2012:Q3,-0.2875970641695967,63.94016673608292
exact,pre_advance,A,ar,standard_dfm,2012:Q4,-7.029358035026668,56.910808701056254
exact,pre_advance,A,ar,standard_dfm,2013:Q1,1.5366394988358547,58.44744819989211
exact,pre_advance,A,ar,standard_dfm,2013:Q2,-0.6193290521110049,57.8281191477811
exact,pre_advance,A,ar,standard_dfm,2013:Q3,0.5116495142349746,58.33976866201608
exact,pre_advance,A,ar,standard_dfm,2013:Q4,0.1881211670679197,58.527889829083996
exact,pre_advance,A,ar,standard_dfm,2014:Q1,2.2611836602781894,60.78907348936219
exact,pre_advance,A,ar,standard_dfm,2014:Q2,6.950285300050513,67.7393587894127
exact,pre_advance,A,ar,standard_dfm,2014:Q3,-0.23970610456213043,67.49965268485057
exact,pre_advance,A,ar,standard_dfm,2014:Q4,0.15993158149245626,67.65958426634303
exact,pre_advance,A,ar,standard_dfm,2015:Q1,3.458441162000213,71.11802542834324
exact,pre_advance,A,ar,standard_dfm,2015:Q2,0.608188766440848,71.72621419478409
exact,pre_advance,A,ar,standard_dfm,2015:Q3,-0.49388308416577154,71.23233111061832
exact,pre_advance,A,ar,standard_dfm,2015:Q4,-0.199694963921353,71.03263614669696
exact,pre_advance,A,ar,standard_dfm,2016:Q1,-1.3432215168252546,69.6894146298717
exact,pre_advance,A,ar,standard_dfm,2016:Q2,-0.9852587561590919,68.70415587371261
exact,pre_advance,A,ar,standard_dfm,2016:Q3,0.8086089264622582,69.51276480017486
exact,pre_advance,A,ar,standard_dfm,2016:Q4,-0.9426756961184087,68.57008910405645
exact,pre_advance,A,ar,standard_dfm,2017:Q1,-2.1563377782168547,66.4137513258396
exact,pre_advance,A,ar,standard_dfm,2017:Q2,0.8839097043219548,67.29766103016155
exact,pre_advance,A,ar,standard_dfm,2017:Q3,-0.4498136888489407,66.84784734131262
exact,pre_advance,A,ar,standard_dfm,2017:Q4,-1.472453224608988,65.37539411670363
exact,pre_advance,A,ar,standard_dfm,2018:Q1,-1.1961916583162755,64.17920245838735
exact,pre_advance,A,ar,standard_dfm,2018:Q2,0.7936938430062765,64.97289630139363
exact,pre_advance,A,ar,standard_dfm,2018:Q3,-0.1781213138623781,64.79477498753126
exact,pre_advance,A,ar,standard_dfm,2018:Q4,0.16398670734271426,64.95876169487397
exact,pre_advance,A,ar,standard_dfm,2019:Q1,-1.3737634057761716,63.5849982890978
exact,pre_advance,A,ar,standard_dfm,2019:Q2,0.5864738210399745,64.17147211013777
exact,pre_advance,A,ar,standard_dfm,2019:Q3,-0.04636784297867397,64.1251042671591
exact,pre_advance,A,ar,standard_dfm,2019:Q4,-0.009652078071393923,64.1154521890877
exact,pre_advance,A,ar,standard_dfm,2020:Q1,20.78770088725128,84.90315307633898
exact,pre_advance,A,ar,standard_dfm,2020:Q2,712.4929959502997,797.3961490266387
exact,pre_advance,A,ar,standard_dfm,2020:Q3,2567.0847497712384,3364.480898797877
exact,pre_advance,A,ar,standard_dfm,2020:Q4,-9.760194583218505,3354.720704214659
exact,pre_advance,A,ar,standard_dfm,2021:Q1,14.717586220885224,3369.438290435544
exact,pre_advance,A,ar,standard_dfm,2021:Q2,11.250739364102031,3380.689029799646
exact,pre_advance,A,ar,standard_dfm,2021:Q3,-1.552906580913287,3379.136123218733
exact,pre_advance,A,ar,standard_dfm,2021:Q4,14.115040173354647,3393.2511633920876
exact,pre_advance,A,ar,standard_dfm,2022:Q1,-52.79943459352654,3340.451728798561
exact,pre_advance,A,ar,standard_dfm,2022:Q2,-12.669399125677783,3327.782329672883
exact,pre_advance,A,ar,standard_dfm,2022:Q3,0.01330019348445774,3327.7956298663676
exact,pre_advance,A,ar,standard_dfm,2022:Q4,-1.3244838241014658,3326.471146042266
exact,pre_advance,A,ar,standard_dfm,2023:Q1,0.6909286887191397,3327.162074730985
exact,pre_advance,A,ar,standard_dfm,2023:Q2,-0.12096587289956348,3327.0411088580854
exact,pre_advance,A,ar,standard_dfm,2023:Q3,-2.313832963877977,3324.7272758942077
exact,pre_advance,A,ar,standard_dfm,2023:Q4,-1.707528374686477,3323.0197475195214
exact,pre_advance,A,ar,standard_dfm,2024:Q1,0.4624004308907374,3323.482147950412
exact,pre_advance,A,ar,standard_dfm,2024:Q2,0.12983346758590594,3323.611981417998
exact,pre_advance,A,ar,standard_dfm,2024:Q3,-0.8060037928736986,3322.8059776251243
exact,pre_advance,A,ar,standard_dfm,2024:Q4,0.033129491051418346,3322.839107116176
exact,pre_advance,A,no_revision,ar,2005:Q1,-0.01829276874886654,-0.01829276874886654
exact,pre_advance,A,no_revision,ar,2005:Q2,0.010434082728868699,-0.00785868601999784
exact,pre_advance,A,no_revision,ar,2005:Q3,-0.04475723724217473,-0.05261592326217257
exact,pre_advance,A,no_revision,ar,2005:Q4,0.005897102113586961,-0.04671882114858561
exact,pre_advance,A,no_revision,ar,2006:Q1,-0.14435758559098844,-0.19107640673957405
exact,pre_advance,A,no_revision,ar,2006:Q2,-0.10645890996238783,-0.29753531670196187
exact,pre_advance,A,no_revision,ar,2006:Q3,0.24152679339726402,-0.056008523304697855
exact,pre_advance,A,no_revision,ar,2006:Q4,0.30824079892148304,0.2522322756167852
exact,pre_advance,A,no_revision,ar,2007:Q1,0.23848279984936216,0.49071507546614734
exact,pre_advance,A,no_revision,ar,2007:Q2,-0.05512019812272051,0.43559487734342683
exact,pre_advance,A,no_revision,ar,2007:Q3,0.19969014430791188,0.6352850216513387
exact,pre_advance,A,no_revision,ar,2007:Q4,0.15567398880635874,0.7909590104576975
exact,pre_advance,A,no_revision,ar,2008:Q1,-0.05559234221203191,0.7353666682456655
exact,pre_advance,A,no_revision,ar,2008:Q2,-0.004622952477093177,0.7307437157685723
exact,pre_advance,A,no_revision,ar,2008:Q3,0.15221627551749783,0.8829599912860702
exact,pre_advance,A,no_revision,ar,2008:Q4,-0.5818162017862143,0.3011437894998559
exact,pre_advance,A,no_revision,ar,2009:Q1,-0.45423321116048854,-0.15308942166063266
exact,pre_advance,A,no_revision,ar,2009:Q2,-0.013307526119774815,-0.16639694778040748
exact,pre_advance,A,no_revision,ar,2009:Q3,1.023992772227114,0.8575958244467066
exact,pre_advance,A,no_revision,ar,2009:Q4,1.4621885824992091,2.3197844069459155
exact,pre_advance,A,no_revision,ar,2010:Q1,-0.5154181563893694,1.804366250556546
exact,pre_advance,A,no_revision,ar,2010:Q2,-0.1815894544157976,1.6227767961407484
exact,pre_advance,A,no_revision,ar,2010:Q3,-0.02901155984276077,1.5937652362979877
exact,pre_advance,A,no_revision,ar,2010:Q4,-0.21335030884274386,1.3804149274552437
exact,pre_advance,A,no_revision,ar,2011:Q1,0.06757887593352563,1.4479938033887694
exact,pre_advance,A,no_revision,ar,2011:Q2,-0.0202217337142232,1.4277720696745462
exact,pre_advance,A,no_revision,ar,2011:Q3,0.052984459561723096,1.4807565292362692
exact,pre_advance,A,no_revision,ar,2011:Q4,-0.01895665554257433,1.4617998736936948
exact,pre_advance,A,no_revision,ar,2012:Q1,-0.02232353618393504,1.4394763375097597
exact,pre_advance,A,no_revision,ar,2012:Q2,-0.11942453052189395,1.3200518069878657
exact,pre_advance,A,no_revision,ar,2012:Q3,-0.0006349170808925357,1.3194168899069731
exact,pre_advance,A,no_revision,ar,2012:Q4,0.06262090931865316,1.3820377992256263
exact,pre_advance,A,no_revision,ar,2013:Q1,0.008932871015000954,1.3909706702406273
exact,pre_advance,A,no_revision,ar,2013:Q2,-0.06324061631598044,1.3277300539246468
exact,pre_advance,A,no_revision,ar,2013:Q3,-0.0315667756852992,1.2961632782393475
exact,pre_advance,A,no_revision,ar,2013:Q4,0.17688786721241778,1.4730511454517652
exact,pre_advance,A,no_revision,ar,2014:Q1,0.02480433967617479,1.49785548512794
exact,pre_advance,A,no_revision,ar,2014:Q2,0.3039643587409291,1.801819843868869
exact,pre_advance,A,no_revision,ar,2014:Q3,0.01009808842494786,1.811917932293817
exact,pre_advance,A,no_revision,ar,2014:Q4,0.053005079780955394,1.8649230120747724
exact,pre_advance,A,no_revision,ar,2015:Q1,-0.67193818782102,1.1929848242537524
exact,pre_advance,A,no_revision,ar,2015:Q2,-0.08197493566980374,1.1110098885839488
exact,pre_advance,A,no_revision,ar,2015:Q3,0.08264742175217066,1.1936573103361194
exact,pre_advance,A,no_revision,ar,2015:Q4,0.12441534043486313,1.3180726507709826
exact,pre_advance,A,no_revision,ar,2016:Q1,-0.2275952927293533,1.0904773580416292
exact,pre_advance,A,no_revision,ar,2016:Q2,0.0046545719231812915,1.0951319299648103
exact,pre_advance,A,no_revision,ar,2016:Q3,0.04584231925914617,1.1409742492239565
exact,pre_advance,A,no_revision,ar,2016:Q4,-0.10114230910276367,1.0398319401211928
exact,pre_advance,A,no_revision,ar,2017:Q1,-0.246574617300388,0.7932573228208049
exact,pre_advance,A,no_revision,ar,2017:Q2,0.15926574147033767,0.9525230642911425
exact,pre_advance,A,no_revision,ar,2017:Q3,-0.022454236955837703,0.9300688273353048
exact,pre_advance,A,no_revision,ar,2017:Q4,-0.004727701091471227,0.9253411262438336
exact,pre_advance,A,no_revision,ar,2018:Q1,-0.03223932073775865,0.8931018055060749
exact,pre_advance,A,no_revision,ar,2018:Q2,0.05012498584200742,0.9432267913480823
exact,pre_advance,A,no_revision,ar,2018:Q3,-0.0040716179457951085,0.9391551734022872
exact,pre_advance,A,no_revision,ar,2018:Q4,-0.0107967518642271,0.92835842153806
exact,pre_advance,A,no_revision,ar,2019:Q1,0.06475700376940074,0.9931154253074608
exact,pre_advance,A,no_revision,ar,2019:Q2,0.08251128198875868,1.0756267072962196
exact,pre_advance,A,no_revision,ar,2019:Q3,0.02873654465966108,1.1043632519558806
exact,pre_advance,A,no_revision,ar,2019:Q4,-0.0032282376299231016,1.1011350143259575
exact,pre_advance,A,no_revision,ar,2020:Q1,0.47755925650978526,1.5786942708357428
exact,pre_advance,A,no_revision,ar,2020:Q2,0.5667662532794111,2.145460524115154
exact,pre_advance,A,no_revision,ar,2020:Q3,57.60016029331837,59.74562081743352
exact,pre_advance,A,no_revision,ar,2020:Q4,40.65854856282156,100.40416938025507
exact,pre_advance,A,no_revision,ar,2021:Q1,27.79553131153419,128.19970069178925
exact,pre_advance,A,no_revision,ar,2021:Q2,24.119251842538425,152.31895253432768
exact,pre_advance,A,no_revision,ar,2021:Q3,0.30877510409469244,152.62772763842236
exact,pre_advance,A,no_revision,ar,2021:Q4,-3.7679008571371924,148.85982678128516
exact,pre_advance,A,no_revision,ar,2022:Q1,0.5234667865097897,149.38329356779496
exact,pre_advance,A,no_revision,ar,2022:Q2,1.9855199282110494,151.36881349600603
exact,pre_advance,A,no_revision,ar,2022:Q3,0.033925124700511525,151.40273862070654
exact,pre_advance,A,no_revision,ar,2022:Q4,0.7384306425890252,152.14116926329558
exact,pre_advance,A,no_revision,ar,2023:Q1,-0.371137610273619,151.77003165302196
exact,pre_advance,A,no_revision,ar,2023:Q2,0.00528125482766627,151.77531290784964
exact,pre_advance,A,no_revision,ar,2023:Q3,0.5551736828791194,152.33048659072875
exact,pre_advance,A,no_revision,ar,2023:Q4,0.20210030709286464,152.53258689782163
exact,pre_advance,A,no_revision,ar,2024:Q1,0.31218151521482485,152.84476841303646
exact,pre_advance,A,no_revision,ar,2024:Q2,-0.0978852185130688,152.7468831945234
exact,pre_advance,A,no_revision,ar,2024:Q3,0.06291573213851451,152.80979892666193
exact,pre_advance,A,no_revision,ar,2024:Q4,-0.026146771737672124,152.78365215492425
exact,pre_advance,A,no_revision,bridge,2005:Q1,0.008215597414184386,0.008215597414184386
exact,pre_advance,A,no_revision,bridge,2005:Q2,0.2664849976095032,0.2747005950236876
exact,pre_advance,A,no_revision,bridge,2005:Q3,-0.15934170783751533,0.11535888718617227
exact,pre_advance,A,no_revision,bridge,2005:Q4,-1.061156314811341,-0.9457974276251687
exact,pre_advance,A,no_revision,bridge,2006:Q1,1.491292540028942,0.5454951124037734
exact,pre_advance,A,no_revision,bridge,2006:Q2,0.6612398447418184,1.2067349571455916
exact,pre_advance,A,no_revision,bridge,2006:Q3,0.12738937442554277,1.3341243315711344
exact,pre_advance,A,no_revision,bridge,2006:Q4,-11.115495185358746,-9.781370853787612
exact,pre_advance,A,no_revision,bridge,2007:Q1,3.1673071315367447,-6.614063722250867
exact,pre_advance,A,no_revision,bridge,2007:Q2,-0.6270010939567126,-7.2410648162075795
exact,pre_advance,A,no_revision,bridge,2007:Q3,-4.222013087742026,-11.463077903949605
exact,pre_advance,A,no_revision,bridge,2007:Q4,7.137280030827965,-4.32579787312164
exact,pre_advance,A,no_revision,bridge,2008:Q1,-0.8984188663524961,-5.224216739474136
exact,pre_advance,A,no_revision,bridge,2008:Q2,-0.5822131332173008,-5.806429872691437
exact,pre_advance,A,no_revision,bridge,2008:Q3,6.39136969126084,0.5849398185694028
exact,pre_advance,A,no_revision,bridge,2008:Q4,18.35320542375238,18.938145242321784
exact,pre_advance,A,no_revision,bridge,2009:Q1,28.522254693917795,47.46039993623958
exact,pre_advance,A,no_revision,bridge,2009:Q2,-1.1106053779094194,46.34979455833016
exact,pre_advance,A,no_revision,bridge,2009:Q3,5.32685235672722,51.67664691505738
exact,pre_advance,A,no_revision,bridge,2009:Q4,2.3027277325741577,53.97937464763154
exact,pre_advance,A,no_revision,bridge,2010:Q1,-8.418305450954193,45.561069196677344
exact,pre_advance,A,no_revision,bridge,2010:Q2,-0.16973114618359475,45.39133805049375
exact,pre_advance,A,no_revision,bridge,2010:Q3,0.1593129872951204,45.550651037788874
exact,pre_advance,A,no_revision,bridge,2010:Q4,0.06317830953073766,45.61382934731961
exact,pre_advance,A,no_revision,bridge,2011:Q1,-2.555993190959713,43.0578361563599
exact,pre_advance,A,no_revision,bridge,2011:Q2,-1.4931237088838087,41.56471244747609
exact,pre_advance,A,no_revision,bridge,2011:Q3,0.05073215179516272,41.61544459927125
exact,pre_advance,A,no_revision,bridge,2011:Q4,-1.1017138183289303,40.51373078094232
exact,pre_advance,A,no_revision,bridge,2012:Q1,-1.0764773078905148,39.437253473051804
exact,pre_advance,A,no_revision,bridge,2012:Q2,-0.603596622947675,38.83365685010413
exact,pre_advance,A,no_revision,bridge,2012:Q3,-0.575208838668224,38.2584480114359
exact,pre_advance,A,no_revision,bridge,2012:Q4,-8.103480051567285,30.154967959868618
exact,pre_advance,A,no_revision,bridge,2013:Q1,0.7950884554726778,30.950056415341294
exact,pre_advance,A,no_revision,bridge,2013:Q2,-0.44570193054532803,30.504354484795964
exact,pre_advance,A,no_revision,bridge,2013:Q3,-0.49834211672689344,30.006012368069072
exact,pre_advance,A,no_revision,bridge,2013:Q4,0.13712245449654337,30.143134822565617
exact,pre_advance,A,no_revision,bridge,2014:Q1,3.9451931802643108,34.088328002829925
exact,pre_advance,A,no_revision,bridge,2014:Q2,4.410158699495562,38.498486702325486
exact,pre_advance,A,no_revision,bridge,2014:Q3,-0.045996355308121864,38.45249034701737
exact,pre_advance,A,no_revision,bridge,2014:Q4,0.2106035962700831,38.66309394328745
exact,pre_advance,A,no_revision,bridge,2015:Q1,2.7117362862474286,41.37483022953488
exact,pre_advance,A,no_revision,bridge,2015:Q2,0.7790793652174874,42.15390959475236
exact,pre_advance,A,no_revision,bridge,2015:Q3,0.6963195488390829,42.85022914359145
exact,pre_advance,A,no_revision,bridge,2015:Q4,0.7760148696761344,43.62624401326758
exact,pre_advance,A,no_revision,bridge,2016:Q1,0.5511528724916305,44.17739688575921
exact,pre_advance,A,no_revision,bridge,2016:Q2,0.06445159121760785,44.24184847697681
exact,pre_advance,A,no_revision,bridge,2016:Q3,0.40961784186630823,44.65146631884312
exact,pre_advance,A,no_revision,bridge,2016:Q4,-0.8386804777801599,43.81278584106296
exact,pre_advance,A,no_revision,bridge,2017:Q1,-0.9106445698930794,42.90214127116988
exact,pre_advance,A,no_revision,bridge,2017:Q2,0.032319961715321144,42.934461232885205
exact,pre_advance,A,no_revision,bridge,2017:Q3,-0.336708786293597,42.597752446591606
exact,pre_advance,A,no_revision,bridge,2017:Q4,-1.154757722775843,41.442994723815765
exact,pre_advance,A,no_revision,bridge,2018:Q1,-0.8916572326445082,40.55133749117126
exact,pre_advance,A,no_revision,bridge,2018:Q2,0.4451149747288108,40.99645246590007
exact,pre_advance,A,no_revision,bridge,2018:Q3,-0.1479305055202646,40.848521960379806
exact,pre_advance,A,no_revision,bridge,2018:Q4,0.07988877975701823,40.928410740136826
exact,pre_advance,A,no_revision,bridge,2019:Q1,-0.042852976479083926,40.885557763657744
exact,pre_advance,A,no_revision,bridge,2019:Q2,0.691477457554207,41.57703522121195
exact,pre_advance,A,no_revision,bridge,2019:Q3,-0.3039817481641791,41.273053473047774
exact,pre_advance,A,no_revision,bridge,2019:Q4,-0.17104382993473424,41.10200964311304
exact,pre_advance,A,no_revision,bridge,2020:Q1,9.580017702547941,50.682027345660984
exact,pre_advance,A,no_revision,bridge,2020:Q2,533.1821380067013,583.8641653523623
exact,pre_advance,A,no_revision,bridge,2020:Q3,1700.4719074888842,2284.3360728412463
exact,pre_advance,A,no_revision,bridge,2020:Q4,15.421963922740805,2299.758036763987
exact,pre_advance,A,no_revision,bridge,2021:Q1,40.78673656791285,2340.5447733319
exact,pre_advance,A,no_revision,bridge,2021:Q2,39.12920568822841,2379.6739790201286
exact,pre_advance,A,no_revision,bridge,2021:Q3,0.003641228353279624,2379.677620248482
exact,pre_advance,A,no_revision,bridge,2021:Q4,-4.309556315401188,2375.368063933081
exact,pre_advance,A,no_revision,bridge,2022:Q1,-26.71709323163733,2348.650970701444
exact,pre_advance,A,no_revision,bridge,2022:Q2,4.3023207619124495,2352.9532914633564
exact,pre_advance,A,no_revision,bridge,2022:Q3,-3.032052127515388,2349.921239335841
exact,pre_advance,A,no_revision,bridge,2022:Q4,-17.62049701398002,2332.300742321861
exact,pre_advance,A,no_revision,bridge,2023:Q1,1.375690866879198,2333.6764331887402
exact,pre_advance,A,no_revision,bridge,2023:Q2,-1.4016490347085397,2332.2747841540317
exact,pre_advance,A,no_revision,bridge,2023:Q3,0.9167463176544608,2333.1915304716863
exact,pre_advance,A,no_revision,bridge,2023:Q4,-6.150838688551266,2327.040691783135
exact,pre_advance,A,no_revision,bridge,2024:Q1,1.0977588391882465,2328.1384506223235
exact,pre_advance,A,no_revision,bridge,2024:Q2,-0.7539944374101349,2327.3844561849132
exact,pre_advance,A,no_revision,bridge,2024:Q3,-0.007619718001530246,2327.3768364669118
exact,pre_advance,A,no_revision,bridge,2024:Q4,-0.026589665500670635,2327.3502468014112
exact,pre_advance,A,no_revision,indicator_revision_only_dfm_kalman_em,2005:Q1,-1.9916033971344191,-1.9916033971344191
exact,pre_advance,A,no_revision,indicator_revision_only_dfm_kalman_em,2005:Q2,-0.34500556089647,-2.3366089580308893
exact,pre_advance,A,no_revision,indicator_revision_only_dfm_kalman_em,2005:Q3,0.49801849360167766,-1.8385904644292117
exact,pre_advance,A,no_revision,indicator_revision_only_dfm_kalman_em,2005:Q4,-23.560895323596203,-25.399485788025416
exact,pre_advance,A,no_revision,indicator_revision_only_dfm_kalman_em,2006:Q1,8.021592674993427,-17.377893113031988
exact,pre_advance,A,no_revision,indicator_revision_only_dfm_kalman_em,2006:Q2,-3.232701304725551,-20.61059441775754
exact,pre_advance,A,no_revision,indicator_revision_only_dfm_kalman_em,2006:Q3,-2.801143407000134,-23.411737824757672
exact,pre_advance,A,no_revision,indicator_revision_only_dfm_kalman_em,2006:Q4,-18.976385341634934,-42.3881231663926
exact,pre_advance,A,no_revision,indicator_revision_only_dfm_kalman_em,2007:Q1,2.653234016915724,-39.73488914947688
exact,pre_advance,A,no_revision,indicator_revision_only_dfm_kalman_em,2007:Q2,1.867450276818911,-37.867438872657964
exact,pre_advance,A,no_revision,indicator_revision_only_dfm_kalman_em,2007:Q3,-36.62156073428788,-74.48899960694584
exact,pre_advance,A,no_revision,indicator_revision_only_dfm_kalman_em,2007:Q4,-2.3895748326420536,-76.8785744395879
exact,pre_advance,A,no_revision,indicator_revision_only_dfm_kalman_em,2008:Q1,-10.760140990071324,-87.63871542965921
exact,pre_advance,A,no_revision,indicator_revision_only_dfm_kalman_em,2008:Q2,-0.4754233955335489,-88.11413882519277
exact,pre_advance,A,no_revision,indicator_revision_only_dfm_kalman_em,2008:Q3,-2.8251062729491716,-90.93924509814194
exact,pre_advance,A,no_revision,indicator_revision_only_dfm_kalman_em,2008:Q4,-26.134625607240444,-117.07387070538238
exact,pre_advance,A,no_revision,indicator_revision_only_dfm_kalman_em,2009:Q1,1.1906595395487223,-115.88321116583366
exact,pre_advance,A,no_revision,indicator_revision_only_dfm_kalman_em,2009:Q2,-4.42567424530763,-120.30888541114129
exact,pre_advance,A,no_revision,indicator_revision_only_dfm_kalman_em,2009:Q3,0.8688945803746382,-119.43999083076665
exact,pre_advance,A,no_revision,indicator_revision_only_dfm_kalman_em,2009:Q4,2.768604497830485,-116.67138633293617
exact,pre_advance,A,no_revision,indicator_revision_only_dfm_kalman_em,2010:Q1,-11.630476660386071,-128.30186299332223
exact,pre_advance,A,no_revision,indicator_revision_only_dfm_kalman_em,2010:Q2,-4.476575125400498,-132.77843811872273
exact,pre_advance,A,no_revision,indicator_revision_only_dfm_kalman_em,2010:Q3,0.059995168712741465,-132.71844295001
exact,pre_advance,A,no_revision,indicator_revision_only_dfm_kalman_em,2010:Q4,0.42369076364950314,-132.2947521863605
exact,pre_advance,A,no_revision,indicator_revision_only_dfm_kalman_em,2011:Q1,-19.6417323279059,-151.9364845142664
exact,pre_advance,A,no_revision,indicator_revision_only_dfm_kalman_em,2011:Q2,0.4519119484677939,-151.4845725657986
exact,pre_advance,A,no_revision,indicator_revision_only_dfm_kalman_em,2011:Q3,-1.08343104347857,-152.56800360927718
exact,pre_advance,A,no_revision,indicator_revision_only_dfm_kalman_em,2011:Q4,-3.5858478987376596,-156.15385150801484
exact,pre_advance,A,no_revision,indicator_revision_only_dfm_kalman_em,2012:Q1,-6.508481541102341,-162.6623330491172
exact,pre_advance,A,no_revision,indicator_revision_only_dfm_kalman_em,2012:Q2,-1.088340501731588,-163.75067355084877
exact,pre_advance,A,no_revision,indicator_revision_only_dfm_kalman_em,2012:Q3,-0.1845927387021104,-163.9352662895509
exact,pre_advance,A,no_revision,indicator_revision_only_dfm_kalman_em,2012:Q4,-13.10871801393847,-177.04398430348937
exact,pre_advance,A,no_revision,indicator_revision_only_dfm_kalman_em,2013:Q1,1.5292174117010555,-175.5147668917883
exact,pre_advance,A,no_revision,indicator_revision_only_dfm_kalman_em,2013:Q2,-0.4372261047629207,-175.9519929965512
exact,pre_advance,A,no_revision,indicator_revision_only_dfm_kalman_em,2013:Q3,0.3339168209694007,-175.61807617558182
exact,pre_advance,A,no_revision,indicator_revision_only_dfm_kalman_em,2013:Q4,-2.0237765433595953,-177.6418527189414
exact,pre_advance,A,no_revision,indicator_revision_only_dfm_kalman_em,2014:Q1,2.984260186410329,-174.65759253253108
exact,pre_advance,A,no_revision,indicator_revision_only_dfm_kalman_em,2014:Q2,6.156318484734525,-168.50127404779656
exact,pre_advance,A,no_revision,indicator_revision_only_dfm_kalman_em,2014:Q3,-0.046978254970886965,-168.54825230276745
exact,pre_advance,A,no_revision,indicator_revision_only_dfm_kalman_em,2014:Q4,0.019399485717417814,-168.52885281705002
exact,pre_advance,A,no_revision,indicator_revision_only_dfm_kalman_em,2015:Q1,4.433885347038144,-164.09496747001188
exact,pre_advance,A,no_revision,indicator_revision_only_dfm_kalman_em,2015:Q2,0.4266315254557398,-163.66833594455613
exact,pre_advance,A,no_revision,indicator_revision_only_dfm_kalman_em,2015:Q3,-1.9012141682647443,-165.56955011282088
exact,pre_advance,A,no_revision,indicator_revision_only_dfm_kalman_em,2015:Q4,0.9112195371718756,-164.658330575649
exact,pre_advance,A,no_revision,indicator_revision_only_dfm_kalman_em,2016:Q1,-1.2188037610582119,-165.8771343367072
exact,pre_advance,A,no_revision,indicator_revision_only_dfm_kalman_em,2016:Q2,-0.5666081603607303,-166.44374249706794
exact,pre_advance,A,no_revision,indicator_revision_only_dfm_kalman_em,2016:Q3,1.1286619056623122,-165.31508059140563
exact,pre_advance,A,no_revision,indicator_revision_only_dfm_kalman_em,2016:Q4,-3.498829851877224,-168.81391044328285
exact,pre_advance,A,no_revision,indicator_revision_only_dfm_kalman_em,2017:Q1,-3.5034280356906304,-172.31733847897348
exact,pre_advance,A,no_revision,indicator_revision_only_dfm_kalman_em,2017:Q2,0.3359012782202281,-171.98143720075325
exact,pre_advance,A,no_revision,indicator_revision_only_dfm_kalman_em,2017:Q3,-1.4703430807848243,-173.45178028153808
exact,pre_advance,A,no_revision,indicator_revision_only_dfm_kalman_em,2017:Q4,-10.146139033814014,-183.5979193153521
exact,pre_advance,A,no_revision,indicator_revision_only_dfm_kalman_em,2018:Q1,-1.0420038552947841,-184.63992317064688
exact,pre_advance,A,no_revision,indicator_revision_only_dfm_kalman_em,2018:Q2,1.2200187222239702,-183.4199044484229
exact,pre_advance,A,no_revision,indicator_revision_only_dfm_kalman_em,2018:Q3,0.04476138266038673,-183.3751430657625
exact,pre_advance,A,no_revision,indicator_revision_only_dfm_kalman_em,2018:Q4,0.15781269539143444,-183.21733037037106
exact,pre_advance,A,no_revision,indicator_revision_only_dfm_kalman_em,2019:Q1,-2.758121456918152,-185.97545182728922
exact,pre_advance,A,no_revision,indicator_revision_only_dfm_kalman_em,2019:Q2,0.2702200792872462,-185.70523174800198
exact,pre_advance,A,no_revision,indicator_revision_only_dfm_kalman_em,2019:Q3,-0.28830304484741487,-185.9935347928494
exact,pre_advance,A,no_revision,indicator_revision_only_dfm_kalman_em,2019:Q4,-0.2018281877587493,-186.19536298060814
exact,pre_advance,A,no_revision,indicator_revision_only_dfm_kalman_em,2020:Q1,36.808134921486314,-149.3872280591218
exact,pre_advance,A,no_revision,indicator_revision_only_dfm_kalman_em,2020:Q2,976.9962140060126,827.6089859468907
exact,pre_advance,A,no_revision,indicator_revision_only_dfm_kalman_em,2020:Q3,2173.0193650577144,3000.628351004605
exact,pre_advance,A,no_revision,indicator_revision_only_dfm_kalman_em,2020:Q4,22.480703893363778,3023.1090548979687
exact,pre_advance,A,no_revision,indicator_revision_only_dfm_kalman_em,2021:Q1,37.32211552027692,3060.4311704182455
exact,pre_advance,A,no_revision,indicator_revision_only_dfm_kalman_em,2021:Q2,30.971505927766113,3091.4026763460115
exact,pre_advance,A,no_revision,indicator_revision_only_dfm_kalman_em,2021:Q3,-5.361337789874566,3086.041338556137
exact,pre_advance,A,no_revision,indicator_revision_only_dfm_kalman_em,2021:Q4,10.044088007741198,3096.085426563878
exact,pre_advance,A,no_revision,indicator_revision_only_dfm_kalman_em,2022:Q1,-35.69336002721576,3060.3920665366622
exact,pre_advance,A,no_revision,indicator_revision_only_dfm_kalman_em,2022:Q2,-6.964638589313022,3053.4274279473493
exact,pre_advance,A,no_revision,indicator_revision_only_dfm_kalman_em,2022:Q3,-0.20826050276500943,3053.2191674445844
exact,pre_advance,A,no_revision,indicator_revision_only_dfm_kalman_em,2022:Q4,-1.3490791643463496,3051.870088280238
exact,pre_advance,A,no_revision,indicator_revision_only_dfm_kalman_em,2023:Q1,-1.5144197397316084,3050.3556685405065
exact,pre_advance,A,no_revision,indicator_revision_only_dfm_kalman_em,2023:Q2,-0.3175514314261818,3050.0381171090803
exact,pre_advance,A,no_revision,indicator_revision_only_dfm_kalman_em,2023:Q3,-1.7690714431304393,3048.2690456659498
exact,pre_advance,A,no_revision,indicator_revision_only_dfm_kalman_em,2023:Q4,-0.8646000948872932,3047.4044455710623
exact,pre_advance,A,no_revision,indicator_revision_only_dfm_kalman_em,2024:Q1,1.181101241889579,3048.585546812952
exact,pre_advance,A,no_revision,indicator_revision_only_dfm_kalman_em,2024:Q2,-1.1865380627957254,3047.3990087501566
exact,pre_advance,A,no_revision,indicator_revision_only_dfm_kalman_em,2024:Q3,-0.7349719526464531,3046.66403679751
exact,pre_advance,A,no_revision,indicator_revision_only_dfm_kalman_em,2024:Q4,-0.2052915110404657,3046.45874528647
exact,pre_advance,A,no_revision,joint_indicator_revision_dfm_full_kalman_em,2005:Q1,-0.14775768331878555,-0.14775768331878555
exact,pre_advance,A,no_revision,joint_indicator_revision_dfm_full_kalman_em,2005:Q2,0.24221624003845527,0.09445855671966971
exact,pre_advance,A,no_revision,joint_indicator_revision_dfm_full_kalman_em,2005:Q3,0.3614999915502484,0.4559585482699181
exact,pre_advance,A,no_revision,joint_indicator_revision_dfm_full_kalman_em,2005:Q4,-17.98860177470502,-17.532643226435102
exact,pre_advance,A,no_revision,joint_indicator_revision_dfm_full_kalman_em,2006:Q1,6.299502528285322,-11.23314069814978
exact,pre_advance,A,no_revision,joint_indicator_revision_dfm_full_kalman_em,2006:Q2,-0.2841917609973794,-11.517332459147159
exact,pre_advance,A,no_revision,joint_indicator_revision_dfm_full_kalman_em,2006:Q3,-3.7696397736188296,-15.286972232765988
exact,pre_advance,A,no_revision,joint_indicator_revision_dfm_full_kalman_em,2006:Q4,-20.129434627284926,-35.41640686005091
exact,pre_advance,A,no_revision,joint_indicator_revision_dfm_full_kalman_em,2007:Q1,-0.3288624843203567,-35.745269344371266
exact,pre_advance,A,no_revision,joint_indicator_revision_dfm_full_kalman_em,2007:Q2,1.778891118477984,-33.96637822589328
exact,pre_advance,A,no_revision,joint_indicator_revision_dfm_full_kalman_em,2007:Q3,-33.496033554582766,-67.46241178047605
exact,pre_advance,A,no_revision,joint_indicator_revision_dfm_full_kalman_em,2007:Q4,-0.22632453326925006,-67.6887363137453
exact,pre_advance,A,no_revision,joint_indicator_revision_dfm_full_kalman_em,2008:Q1,-8.12716892903581,-75.8159052427811
exact,pre_advance,A,no_revision,joint_indicator_revision_dfm_full_kalman_em,2008:Q2,-0.03501155595755892,-75.85091679873865
exact,pre_advance,A,no_revision,joint_indicator_revision_dfm_full_kalman_em,2008:Q3,-2.6238243577542475,-78.4747411564929
exact,pre_advance,A,no_revision,joint_indicator_revision_dfm_full_kalman_em,2008:Q4,-11.902545917806584,-90.37728707429949
exact,pre_advance,A,no_revision,joint_indicator_revision_dfm_full_kalman_em,2009:Q1,-5.118894107988385,-95.49618118228787
exact,pre_advance,A,no_revision,joint_indicator_revision_dfm_full_kalman_em,2009:Q2,-0.4223571693278362,-95.91853835161571
exact,pre_advance,A,no_revision,joint_indicator_revision_dfm_full_kalman_em,2009:Q3,4.181962211915318,-91.73657613970039
exact,pre_advance,A,no_revision,joint_indicator_revision_dfm_full_kalman_em,2009:Q4,1.8113567915166895,-89.9252193481837
exact,pre_advance,A,no_revision,joint_indicator_revision_dfm_full_kalman_em,2010:Q1,-9.866150301794047,-99.79136964997775
exact,pre_advance,A,no_revision,joint_indicator_revision_dfm_full_kalman_em,2010:Q2,-4.95334785350802,-104.74471750348577
exact,pre_advance,A,no_revision,joint_indicator_revision_dfm_full_kalman_em,2010:Q3,0.0656583527993885,-104.67905915068638
exact,pre_advance,A,no_revision,joint_indicator_revision_dfm_full_kalman_em,2010:Q4,0.11609837928266786,-104.56296077140372
exact,pre_advance,A,no_revision,joint_indicator_revision_dfm_full_kalman_em,2011:Q1,-17.035544021720114,-121.59850479312384
exact,pre_advance,A,no_revision,joint_indicator_revision_dfm_full_kalman_em,2011:Q2,0.6754714586454755,-120.92303333447836
exact,pre_advance,A,no_revision,joint_indicator_revision_dfm_full_kalman_em,2011:Q3,-0.4118800417092152,-121.33491337618757
exact,pre_advance,A,no_revision,joint_indicator_revision_dfm_full_kalman_em,2011:Q4,-2.8581981066396365,-124.1931114828272
exact,pre_advance,A,no_revision,joint_indicator_revision_dfm_full_kalman_em,2012:Q1,-5.323472625995738,-129.51658410882294
exact,pre_advance,A,no_revision,joint_indicator_revision_dfm_full_kalman_em,2012:Q2,-0.8832666859427878,-130.39985079476574
exact,pre_advance,A,no_revision,joint_indicator_revision_dfm_full_kalman_em,2012:Q3,-0.04548303004664506,-130.4453338248124
exact,pre_advance,A,no_revision,joint_indicator_revision_dfm_full_kalman_em,2012:Q4,-9.075129525932711,-139.5204633507451
exact,pre_advance,A,no_revision,joint_indicator_revision_dfm_full_kalman_em,2013:Q1,1.7496756532033175,-137.77078769754178
exact,pre_advance,A,no_revision,joint_indicator_revision_dfm_full_kalman_em,2013:Q2,-0.3108353222230532,-138.08162301976483
exact,pre_advance,A,no_revision,joint_indicator_revision_dfm_full_kalman_em,2013:Q3,0.5254269342128233,-137.55619608555202
exact,pre_advance,A,no_revision,joint_indicator_revision_dfm_full_kalman_em,2013:Q4,-0.5647054785971408,-138.12090156414916
exact,pre_advance,A,no_revision,joint_indicator_revision_dfm_full_kalman_em,2014:Q1,1.6841517789836145,-136.43674978516555
exact,pre_advance,A,no_revision,joint_indicator_revision_dfm_full_kalman_em,2014:Q2,6.495188432305671,-129.94156135285988
exact,pre_advance,A,no_revision,joint_indicator_revision_dfm_full_kalman_em,2014:Q3,-0.2191725485855638,-130.16073390144544
exact,pre_advance,A,no_revision,joint_indicator_revision_dfm_full_kalman_em,2014:Q4,0.15918367494399838,-130.00155022650145
exact,pre_advance,A,no_revision,joint_indicator_revision_dfm_full_kalman_em,2015:Q1,4.032784430623566,-125.96876579587789
exact,pre_advance,A,no_revision,joint_indicator_revision_dfm_full_kalman_em,2015:Q2,0.5647599226114088,-125.40400587326647
exact,pre_advance,A,no_revision,joint_indicator_revision_dfm_full_kalman_em,2015:Q3,-0.4749470998615155,-125.87895297312798
exact,pre_advance,A,no_revision,joint_indicator_revision_dfm_full_kalman_em,2015:Q4,1.3220629787151827,-124.5568899944128
exact,pre_advance,A,no_revision,joint_indicator_revision_dfm_full_kalman_em,2016:Q1,-0.400717079517383,-124.95760707393018
exact,pre_advance,A,no_revision,joint_indicator_revision_dfm_full_kalman_em,2016:Q2,-0.14586553709816472,-125.10347261102834
exact,pre_advance,A,no_revision,joint_indicator_revision_dfm_full_kalman_em,2016:Q3,1.0337958311843656,-124.06967677984397
exact,pre_advance,A,no_revision,joint_indicator_revision_dfm_full_kalman_em,2016:Q4,-2.3854054568078755,-126.45508223665185
exact,pre_advance,A,no_revision,joint_indicator_revision_dfm_full_kalman_em,2017:Q1,-2.403084503657424,-128.85816674030926
exact,pre_advance,A,no_revision,joint_indicator_revision_dfm_full_kalman_em,2017:Q2,0.9742694440746794,-127.88389729623458
exact,pre_advance,A,no_revision,joint_indicator_revision_dfm_full_kalman_em,2017:Q3,-2.0466278152717483,-129.93052511150634
exact,pre_advance,A,no_revision,joint_indicator_revision_dfm_full_kalman_em,2017:Q4,-7.135047279825856,-137.0655723913322
exact,pre_advance,A,no_revision,joint_indicator_revision_dfm_full_kalman_em,2018:Q1,-0.588248827592981,-137.6538212189252
exact,pre_advance,A,no_revision,joint_indicator_revision_dfm_full_kalman_em,2018:Q2,0.9079402050688505,-136.74588101385635
exact,pre_advance,A,no_revision,joint_indicator_revision_dfm_full_kalman_em,2018:Q3,0.03888022742705278,-136.7070007864293
exact,pre_advance,A,no_revision,joint_indicator_revision_dfm_full_kalman_em,2018:Q4,0.15702046853105212,-136.54998031789825
exact,pre_advance,A,no_revision,joint_indicator_revision_dfm_full_kalman_em,2019:Q1,-2.2301389650919523,-138.7801192829902
exact,pre_advance,A,no_revision,joint_indicator_revision_dfm_full_kalman_em,2019:Q2,0.18502135811741371,-138.5950979248728
exact,pre_advance,A,no_revision,joint_indicator_revision_dfm_full_kalman_em,2019:Q3,-0.17723253516568857,-138.7723304600385
exact,pre_advance,A,no_revision,joint_indicator_revision_dfm_full_kalman_em,2019:Q4,-0.2859242514324925,-139.058254711471
exact,pre_advance,A,no_revision,joint_indicator_revision_dfm_full_kalman_em,2020:Q1,35.50304502584963,-103.55520968562136
exact,pre_advance,A,no_revision,joint_indicator_revision_dfm_full_kalman_em,2020:Q2,974.3881748765281,870.8329651909067
exact,pre_advance,A,no_revision,joint_indicator_revision_dfm_full_kalman_em,2020:Q3,2156.137980713114,3026.9709459040205
exact,pre_advance,A,no_revision,joint_indicator_revision_dfm_full_kalman_em,2020:Q4,33.15187823298901,3060.1228241370095
exact,pre_advance,A,no_revision,joint_indicator_revision_dfm_full_kalman_em,2021:Q1,34.988058460981776,3095.1108825979913
exact,pre_advance,A,no_revision,joint_indicator_revision_dfm_full_kalman_em,2021:Q2,30.236090686837883,3125.3469732848293
exact,pre_advance,A,no_revision,joint_indicator_revision_dfm_full_kalman_em,2021:Q3,-5.694287290692304,3119.652685994137
exact,pre_advance,A,no_revision,joint_indicator_revision_dfm_full_kalman_em,2021:Q4,10.111776106129797,3129.7644621002664
exact,pre_advance,A,no_revision,joint_indicator_revision_dfm_full_kalman_em,2022:Q1,-27.3995378039949,3102.3649242962715
exact,pre_advance,A,no_revision,joint_indicator_revision_dfm_full_kalman_em,2022:Q2,-8.281437132872384,3094.0834871633992
exact,pre_advance,A,no_revision,joint_indicator_revision_dfm_full_kalman_em,2022:Q3,0.051132939643097154,3094.1346201030424
exact,pre_advance,A,no_revision,joint_indicator_revision_dfm_full_kalman_em,2022:Q4,-0.7786994868008493,3093.3559206162417
exact,pre_advance,A,no_revision,joint_indicator_revision_dfm_full_kalman_em,2023:Q1,-1.6172633112422836,3091.7386573049994
exact,pre_advance,A,no_revision,joint_indicator_revision_dfm_full_kalman_em,2023:Q2,-0.09987980338180022,3091.6387775016174
exact,pre_advance,A,no_revision,joint_indicator_revision_dfm_full_kalman_em,2023:Q3,-2.1495216676227837,3089.489255833995
exact,pre_advance,A,no_revision,joint_indicator_revision_dfm_full_kalman_em,2023:Q4,-0.5704709803001922,3088.9187848536944
exact,pre_advance,A,no_revision,joint_indicator_revision_dfm_full_kalman_em,2024:Q1,1.1804302619358795,3090.09921511563
exact,pre_advance,A,no_revision,joint_indicator_revision_dfm_full_kalman_em,2024:Q2,-1.420310329761562,3088.678904785869
exact,pre_advance,A,no_revision,joint_indicator_revision_dfm_full_kalman_em,2024:Q3,-1.0281486881592525,3087.6507560977097
exact,pre_advance,A,no_revision,joint_indicator_revision_dfm_full_kalman_em,2024:Q4,-0.08478585239109526,3087.5659702453186
exact,pre_advance,A,no_revision,midas_umidas,2005:Q1,-187.63820793526727,-187.63820793526727
exact,pre_advance,A,no_revision,midas_umidas,2005:Q2,-221.3967059367911,-409.0349138720584
exact,pre_advance,A,no_revision,midas_umidas,2005:Q3,-286.19464444164106,-695.2295583136995
exact,pre_advance,A,no_revision,midas_umidas,2005:Q4,-121.09659563240028,-816.3261539460998
exact,pre_advance,A,no_revision,midas_umidas,2006:Q1,-416.8314374485903,-1233.1575913946901
exact,pre_advance,A,no_revision,midas_umidas,2006:Q2,-220.00741552328995,-1453.16500691798
exact,pre_advance,A,no_revision,midas_umidas,2006:Q3,-16.52089655910976,-1469.6859034770898
exact,pre_advance,A,no_revision,midas_umidas,2006:Q4,-19.48961736121295,-1489.1755208383029
exact,pre_advance,A,no_revision,midas_umidas,2007:Q1,-17.969814523486132,-1507.145335361789
exact,pre_advance,A,no_revision,midas_umidas,2007:Q2,-90.5160579781053,-1597.6613933398942
exact,pre_advance,A,no_revision,midas_umidas,2007:Q3,-330.9262202793808,-1928.587613619275
exact,pre_advance,A,no_revision,midas_umidas,2007:Q4,-28.588137230691242,-1957.1757508499663
exact,pre_advance,A,no_revision,midas_umidas,2008:Q1,-109.27173549213006,-2066.4474863420965
exact,pre_advance,A,no_revision,midas_umidas,2008:Q2,-565.4158245617381,-2631.8633109038346
exact,pre_advance,A,no_revision,midas_umidas,2008:Q3,-58.03438079823959,-2689.897691702074
exact,pre_advance,A,no_revision,midas_umidas,2008:Q4,-33.30997956039298,-2723.207671262467
