haminh109/Revision-Aware-DFM/outputs/full_state_space_release_revision_dfm/frozen/q2_manuscript_best_v1/mature_robustness_runs/mature_3y/evidence_dir/cumulative_loss_revision.csv
timing_mode,checkpoint_id,outcome_id,baseline_model,model_id,target_quarter,loss_diff_baseline_minus_model,cumulative_loss_diff
exact,pre_advance,DELTA_SA,ar,bridge,2005:Q1,-0.013846057404504467,-0.013846057404504467
exact,pre_advance,DELTA_SA,ar,bridge,2005:Q2,-0.0016502791972834857,-0.015496336601787952
exact,pre_advance,DELTA_SA,ar,bridge,2005:Q3,-0.11888984019706639,-0.13438617679885434
exact,pre_advance,DELTA_SA,ar,bridge,2005:Q4,-0.0033836766731660667,-0.13776985347202042
exact,pre_advance,DELTA_SA,ar,bridge,2006:Q1,-0.04844188468453305,-0.18621173815655348
exact,pre_advance,DELTA_SA,ar,bridge,2006:Q2,-0.1371256323997568,-0.3233373705563103
exact,pre_advance,DELTA_SA,ar,bridge,2006:Q3,-0.06429144563741201,-0.3876288161937223
exact,pre_advance,DELTA_SA,ar,bridge,2006:Q4,0.34557919085510314,-0.04204962533861917
exact,pre_advance,DELTA_SA,ar,bridge,2007:Q1,-0.007824031136799381,-0.04987365647541855
exact,pre_advance,DELTA_SA,ar,bridge,2007:Q2,0.06896631884463494,0.019092662369216397
exact,pre_advance,DELTA_SA,ar,bridge,2007:Q3,0.059803740894770696,0.07889640326398709
exact,pre_advance,DELTA_SA,ar,bridge,2007:Q4,-0.012197856569414689,0.0666985466945724
exact,pre_advance,DELTA_SA,ar,bridge,2008:Q1,-0.004344598103960942,0.062353948590611455
exact,pre_advance,DELTA_SA,ar,bridge,2008:Q2,-0.574407111363402,-0.5120531627727904
exact,pre_advance,DELTA_SA,ar,bridge,2008:Q3,0.6190200450590351,0.10696688228624462
exact,pre_advance,DELTA_SA,ar,bridge,2008:Q4,3.9506126973357483,4.057579579621993
exact,pre_advance,DELTA_SA,ar,bridge,2009:Q1,-6.0988802018433,-2.041300622221307
exact,pre_advance,DELTA_SA,ar,bridge,2009:Q2,0.1268137068232697,-1.9144869153980373
exact,pre_advance,DELTA_SA,ar,bridge,2009:Q3,-0.06823089199505694,-1.9827178073930942
exact,pre_advance,DELTA_SA,ar,bridge,2009:Q4,-0.034868451184789206,-2.017586258577883
exact,pre_advance,DELTA_SA,ar,bridge,2010:Q1,-0.0886727021965403,-2.1062589607744235
exact,pre_advance,DELTA_SA,ar,bridge,2010:Q2,-0.09358245387922659,-2.1998414146536502
exact,pre_advance,DELTA_SA,ar,bridge,2010:Q3,0.0949221697737268,-2.104919244879923
exact,pre_advance,DELTA_SA,ar,bridge,2010:Q4,-0.5663990366542817,-2.671318281534205
exact,pre_advance,DELTA_SA,ar,bridge,2011:Q1,0.006841226592887183,-2.664477054941318
exact,pre_advance,DELTA_SA,ar,bridge,2011:Q2,-0.10501821756764976,-2.769495272508968
exact,pre_advance,DELTA_SA,ar,bridge,2011:Q3,-0.12148482455549353,-2.8909800970644612
exact,pre_advance,DELTA_SA,ar,bridge,2011:Q4,0.0628784200154297,-2.8281016770490317
exact,pre_advance,DELTA_SA,ar,bridge,2012:Q1,-0.035887713043292774,-2.8639893900923243
exact,pre_advance,DELTA_SA,ar,bridge,2012:Q2,-0.048823982105551195,-2.9128133721978755
exact,pre_advance,DELTA_SA,ar,bridge,2012:Q3,0.007775069522669126,-2.9050383026752065
exact,pre_advance,DELTA_SA,ar,bridge,2012:Q4,0.004271385099178611,-2.900766917576028
exact,pre_advance,DELTA_SA,ar,bridge,2013:Q1,0.08666220076802922,-2.8141047168079987
exact,pre_advance,DELTA_SA,ar,bridge,2013:Q2,0.025496976212487366,-2.7886077405955114
exact,pre_advance,DELTA_SA,ar,bridge,2013:Q3,-0.06520892381398495,-2.8538166644094964
exact,pre_advance,DELTA_SA,ar,bridge,2013:Q4,-0.4483601219941036,-3.3021767864036002
exact,pre_advance,DELTA_SA,ar,bridge,2014:Q1,0.08408982928438968,-3.2180869571192106
exact,pre_advance,DELTA_SA,ar,bridge,2014:Q2,0.1627494765353877,-3.0553374805838227
exact,pre_advance,DELTA_SA,ar,bridge,2014:Q3,0.02095518071252716,-3.0343822998712957
exact,pre_advance,DELTA_SA,ar,bridge,2014:Q4,0.04340036392903157,-2.9909819359422642
exact,pre_advance,DELTA_SA,ar,bridge,2015:Q1,0.09722612747043735,-2.893755808471827
exact,pre_advance,DELTA_SA,ar,bridge,2015:Q2,0.5270016182401931,-2.366754190231634
exact,pre_advance,DELTA_SA,ar,bridge,2015:Q3,0.00641361838518265,-2.360340571846451
exact,pre_advance,DELTA_SA,ar,bridge,2015:Q4,0.0004635473514232574,-2.359877024495028
exact,pre_advance,DELTA_SA,ar,bridge,2016:Q1,-0.02869336754687048,-2.388570392041898
exact,pre_advance,DELTA_SA,ar,bridge,2016:Q2,-0.006980417169187014,-2.3955508092110853
exact,pre_advance,DELTA_SA,ar,bridge,2016:Q3,0.008611368466015026,-2.38693944074507
exact,pre_advance,DELTA_SA,ar,bridge,2016:Q4,-0.0009847649917325008,-2.3879242057368026
exact,pre_advance,DELTA_SA,ar,bridge,2017:Q1,0.006128595802208259,-2.3817956099345943
exact,pre_advance,DELTA_SA,ar,bridge,2017:Q2,-0.02510746702309855,-2.406903076957693
exact,pre_advance,DELTA_SA,ar,bridge,2017:Q3,0.0015224765331057744,-2.405380600424587
exact,pre_advance,DELTA_SA,ar,bridge,2017:Q4,-0.012532396692822412,-2.4179129971174094
exact,pre_advance,DELTA_SA,ar,bridge,2018:Q1,-0.001025526276306192,-2.4189385233937157
exact,pre_advance,DELTA_SA,ar,bridge,2018:Q2,0.02459572516719082,-2.394342798226525
exact,pre_advance,DELTA_SA,ar,bridge,2018:Q3,-0.0028625928778965534,-2.3972053911044213
exact,pre_advance,DELTA_SA,ar,bridge,2019:Q1,-0.3022766661113528,-2.699482057215774
exact,pre_advance,DELTA_SA,ar,bridge,2019:Q2,-0.004735905859539644,-2.7042179630753136
exact,pre_advance,DELTA_SA,ar,bridge,2019:Q3,0.015341164816805796,-2.688876798258508
exact,pre_advance,DELTA_SA,ar,bridge,2019:Q4,-0.044503658959924405,-2.7333804572184324
exact,pre_advance,DELTA_SA,ar,bridge,2020:Q1,0.044386080987889376,-2.688994376230543
exact,pre_advance,DELTA_SA,ar,bridge,2020:Q2,-3.0940398410540673,-5.7830342172846105
exact,pre_advance,DELTA_SA,ar,bridge,2020:Q3,1.4176473053505392,-4.365386911934071
exact,pre_advance,DELTA_SA,ar,bridge,2020:Q4,0.3499640349292389,-4.015422877004832
exact,pre_advance,DELTA_SA,ar,bridge,2021:Q1,-0.013363060193281033,-4.028785937198113
exact,pre_advance,DELTA_SA,ar,bridge,2021:Q2,-0.03577411651444864,-4.064560053712562
exact,pre_advance,DELTA_SA,ar,bridge,2021:Q3,0.0032954658604867817,-4.061264587852075
exact,pre_advance,DELTA_SA,ar,bridge,2021:Q4,-0.001890367406223347,-4.063154955258298
exact,pre_advance,DELTA_SA,ar,bridge,2022:Q1,-0.034155159355693535,-4.097310114613991
exact,pre_advance,DELTA_SA,ar,bridge,2022:Q2,-0.017409303051805713,-4.114719417665797
exact,pre_advance,DELTA_SA,ar,bridge,2022:Q3,0.009108149975887866,-4.105611267689909
exact,pre_advance,DELTA_SA,ar,bridge,2022:Q4,-0.07401877594323583,-4.179630043633145
exact,pre_advance,DELTA_SA,ar,bridge,2023:Q1,0.002725620713285002,-4.1769044229198595
exact,pre_advance,DELTA_SA,ar,bridge,2023:Q2,-0.21283992077671957,-4.389744343696579
exact,pre_advance,DELTA_SA,ar,bridge,2023:Q3,-0.02913487901324642,-4.418879222709825
exact,pre_advance,DELTA_SA,ar,bridge,2023:Q4,-0.05489730055734936,-4.4737765232671745
exact,pre_advance,DELTA_SA,ar,bridge,2024:Q1,0.08308195917709739,-4.390694564090077
exact,pre_advance,DELTA_SA,ar,bridge,2024:Q2,-0.04089950912320364,-4.43159407321328
exact,pre_advance,DELTA_SA,ar,bridge,2024:Q3,0.002078917593568988,-4.429515155619711
exact,pre_advance,DELTA_SA,ar,bridge,2024:Q4,-0.00014364795373976344,-4.429658803573451
exact,pre_advance,DELTA_SA,ar,indicator_revision_only_dfm_kalman_em,2005:Q1,-0.15257503321613658,-0.15257503321613658
exact,pre_advance,DELTA_SA,ar,indicator_revision_only_dfm_kalman_em,2005:Q2,0.10304262774761302,-0.049532405468523555
exact,pre_advance,DELTA_SA,ar,indicator_revision_only_dfm_kalman_em,2005:Q3,0.03151683579611303,-0.018015569672410525
exact,pre_advance,DELTA_SA,ar,indicator_revision_only_dfm_kalman_em,2005:Q4,-0.17958946757420496,-0.1976050372466155
exact,pre_advance,DELTA_SA,ar,indicator_revision_only_dfm_kalman_em,2006:Q1,-0.22225097588053042,-0.41985601312714593
exact,pre_advance,DELTA_SA,ar,indicator_revision_only_dfm_kalman_em,2006:Q2,-0.1338214718146227,-0.5536774849417686
exact,pre_advance,DELTA_SA,ar,indicator_revision_only_dfm_kalman_em,2006:Q3,-0.2655324769569707,-0.8192099618987393
exact,pre_advance,DELTA_SA,ar,indicator_revision_only_dfm_kalman_em,2006:Q4,1.1280810824986391,0.30887112059989985
exact,pre_advance,DELTA_SA,ar,indicator_revision_only_dfm_kalman_em,2007:Q1,-0.36488258133290913,-0.05601146073300928
exact,pre_advance,DELTA_SA,ar,indicator_revision_only_dfm_kalman_em,2007:Q2,0.2101220628635298,0.15411060213052052
exact,pre_advance,DELTA_SA,ar,indicator_revision_only_dfm_kalman_em,2007:Q3,-0.5038879623481906,-0.34977736021767003
exact,pre_advance,DELTA_SA,ar,indicator_revision_only_dfm_kalman_em,2007:Q4,0.23194641324995732,-0.11783094696771271
exact,pre_advance,DELTA_SA,ar,indicator_revision_only_dfm_kalman_em,2008:Q1,-0.06565748592115798,-0.18348843288887068
exact,pre_advance,DELTA_SA,ar,indicator_revision_only_dfm_kalman_em,2008:Q2,-0.7051418869943866,-0.8886303198832572
exact,pre_advance,DELTA_SA,ar,indicator_revision_only_dfm_kalman_em,2008:Q3,0.8839041046210189,-0.004726215262238376
exact,pre_advance,DELTA_SA,ar,indicator_revision_only_dfm_kalman_em,2008:Q4,0.39399862829546173,0.38927241303322335
exact,pre_advance,DELTA_SA,ar,indicator_revision_only_dfm_kalman_em,2009:Q1,1.3203689037955737,1.709641316828797
exact,pre_advance,DELTA_SA,ar,indicator_revision_only_dfm_kalman_em,2009:Q2,0.36877932291984866,2.0784206397486455
exact,pre_advance,DELTA_SA,ar,indicator_revision_only_dfm_kalman_em,2009:Q3,0.31974831955083616,2.3981689592994817
exact,pre_advance,DELTA_SA,ar,indicator_revision_only_dfm_kalman_em,2009:Q4,0.2461874095178597,2.6443563688173413
exact,pre_advance,DELTA_SA,ar,indicator_revision_only_dfm_kalman_em,2010:Q1,0.012274663642203441,2.656631032459545
exact,pre_advance,DELTA_SA,ar,indicator_revision_only_dfm_kalman_em,2010:Q2,-0.10097637669884518,2.5556546557606996
exact,pre_advance,DELTA_SA,ar,indicator_revision_only_dfm_kalman_em,2010:Q3,0.41001530272678194,2.9656699584874815
exact,pre_advance,DELTA_SA,ar,indicator_revision_only_dfm_kalman_em,2010:Q4,0.33708017745408314,3.3027501359415647
exact,pre_advance,DELTA_SA,ar,indicator_revision_only_dfm_kalman_em,2011:Q1,0.05273638935335863,3.3554865252949235
exact,pre_advance,DELTA_SA,ar,indicator_revision_only_dfm_kalman_em,2011:Q2,0.0864949621817803,3.4419814874767036
exact,pre_advance,DELTA_SA,ar,indicator_revision_only_dfm_kalman_em,2011:Q3,-0.03822954602021156,3.403751941456492
exact,pre_advance,DELTA_SA,ar,indicator_revision_only_dfm_kalman_em,2011:Q4,0.1042486389810256,3.5080005804375176
exact,pre_advance,DELTA_SA,ar,indicator_revision_only_dfm_kalman_em,2012:Q1,0.12270345028699549,3.6307040307245133
exact,pre_advance,DELTA_SA,ar,indicator_revision_only_dfm_kalman_em,2012:Q2,0.05124300972150874,3.681947040446022
exact,pre_advance,DELTA_SA,ar,indicator_revision_only_dfm_kalman_em,2012:Q3,-0.19803121584843814,3.483915824597584
exact,pre_advance,DELTA_SA,ar,indicator_revision_only_dfm_kalman_em,2012:Q4,-0.06160444841889918,3.4223113761786847
exact,pre_advance,DELTA_SA,ar,indicator_revision_only_dfm_kalman_em,2013:Q1,0.13839352919058448,3.560704905369269
exact,pre_advance,DELTA_SA,ar,indicator_revision_only_dfm_kalman_em,2013:Q2,0.010665904843470964,3.5713708102127404
exact,pre_advance,DELTA_SA,ar,indicator_revision_only_dfm_kalman_em,2013:Q3,-0.49085393179229264,3.0805168784204477
exact,pre_advance,DELTA_SA,ar,indicator_revision_only_dfm_kalman_em,2013:Q4,0.8147882022650561,3.895305080685504
exact,pre_advance,DELTA_SA,ar,indicator_revision_only_dfm_kalman_em,2014:Q1,-0.6728261778290336,3.22247890285647
exact,pre_advance,DELTA_SA,ar,indicator_revision_only_dfm_kalman_em,2014:Q2,0.3153905835886226,3.537869486445093
exact,pre_advance,DELTA_SA,ar,indicator_revision_only_dfm_kalman_em,2014:Q3,-0.05736992828325174,3.480499558161841
exact,pre_advance,DELTA_SA,ar,indicator_revision_only_dfm_kalman_em,2014:Q4,0.18045818425062124,3.6609577424124624
exact,pre_advance,DELTA_SA,ar,indicator_revision_only_dfm_kalman_em,2015:Q1,-0.30424364925329495,3.3567140931591677
exact,pre_advance,DELTA_SA,ar,indicator_revision_only_dfm_kalman_em,2015:Q2,1.0249249122593762,4.381639005418544
exact,pre_advance,DELTA_SA,ar,indicator_revision_only_dfm_kalman_em,2015:Q3,-0.3345827492334456,4.0470562561850985
exact,pre_advance,DELTA_SA,ar,indicator_revision_only_dfm_kalman_em,2015:Q4,-0.09676443992777004,3.9502918162573284
exact,pre_advance,DELTA_SA,ar,indicator_revision_only_dfm_kalman_em,2016:Q1,-0.09029065158363185,3.8600011646736965
exact,pre_advance,DELTA_SA,ar,indicator_revision_only_dfm_kalman_em,2016:Q2,0.1360297525459644,3.996030917219661
exact,pre_advance,DELTA_SA,ar,indicator_revision_only_dfm_kalman_em,2016:Q3,-0.021175007572158712,3.974855909647502
exact,pre_advance,DELTA_SA,ar,indicator_revision_only_dfm_kalman_em,2016:Q4,0.02734587565242416,4.002201785299926
exact,pre_advance,DELTA_SA,ar,indicator_revision_only_dfm_kalman_em,2017:Q1,-0.056295362083760514,3.945906423216165
exact,pre_advance,DELTA_SA,ar,indicator_revision_only_dfm_kalman_em,2017:Q2,-0.1998229027002102,3.746083520515955
exact,pre_advance,DELTA_SA,ar,indicator_revision_only_dfm_kalman_em,2017:Q3,-0.09239460605426397,3.653688914461691
exact,pre_advance,DELTA_SA,ar,indicator_revision_only_dfm_kalman_em,2017:Q4,0.035699658663772574,3.6893885731254636
exact,pre_advance,DELTA_SA,ar,indicator_revision_only_dfm_kalman_em,2018:Q1,0.012703611098869368,3.702092184224333
exact,pre_advance,DELTA_SA,ar,indicator_revision_only_dfm_kalman_em,2018:Q2,0.0030213569949030655,3.705113541219236
exact,pre_advance,DELTA_SA,ar,indicator_revision_only_dfm_kalman_em,2018:Q3,0.0032310710133240618,3.70834461223256
exact,pre_advance,DELTA_SA,ar,indicator_revision_only_dfm_kalman_em,2019:Q1,0.3134694480182471,4.021814060250807
exact,pre_advance,DELTA_SA,ar,indicator_revision_only_dfm_kalman_em,2019:Q2,-0.00020861065790184213,4.021605449592905
exact,pre_advance,DELTA_SA,ar,indicator_revision_only_dfm_kalman_em,2019:Q3,-0.020795440927072837,4.000810008665832
exact,pre_advance,DELTA_SA,ar,indicator_revision_only_dfm_kalman_em,2019:Q4,0.022807340587339162,4.023617349253171
exact,pre_advance,DELTA_SA,ar,indicator_revision_only_dfm_kalman_em,2020:Q1,0.04374626691208146,4.067363616165252
exact,pre_advance,DELTA_SA,ar,indicator_revision_only_dfm_kalman_em,2020:Q2,-0.4848885887598303,3.582475027405422
exact,pre_advance,DELTA_SA,ar,indicator_revision_only_dfm_kalman_em,2020:Q3,6.6030936783793335,10.185568705784755
exact,pre_advance,DELTA_SA,ar,indicator_revision_only_dfm_kalman_em,2020:Q4,0.3494364241901803,10.535005129974936
exact,pre_advance,DELTA_SA,ar,indicator_revision_only_dfm_kalman_em,2021:Q1,0.010481372036795358,10.54548650201173
exact,pre_advance,DELTA_SA,ar,indicator_revision_only_dfm_kalman_em,2021:Q2,0.005674643654305938,10.551161145666036
exact,pre_advance,DELTA_SA,ar,indicator_revision_only_dfm_kalman_em,2021:Q3,-0.00428446848418562,10.546876677181851
exact,pre_advance,DELTA_SA,ar,indicator_revision_only_dfm_kalman_em,2021:Q4,-0.009636975615624089,10.537239701566227
exact,pre_advance,DELTA_SA,ar,indicator_revision_only_dfm_kalman_em,2022:Q1,0.05376352283472801,10.591003224400955
exact,pre_advance,DELTA_SA,ar,indicator_revision_only_dfm_kalman_em,2022:Q2,-0.01747374549873487,10.57352947890222
exact,pre_advance,DELTA_SA,ar,indicator_revision_only_dfm_kalman_em,2022:Q3,-0.038912176234116996,10.534617302668103
exact,pre_advance,DELTA_SA,ar,indicator_revision_only_dfm_kalman_em,2022:Q4,0.058622083054108,10.59323938572221
exact,pre_advance,DELTA_SA,ar,indicator_revision_only_dfm_kalman_em,2023:Q1,-0.02740533844308022,10.56583404727913
exact,pre_advance,DELTA_SA,ar,indicator_revision_only_dfm_kalman_em,2023:Q2,0.06172819389498699,10.627562241174118
exact,pre_advance,DELTA_SA,ar,indicator_revision_only_dfm_kalman_em,2023:Q3,-0.03194758936873526,10.595614651805382
exact,pre_advance,DELTA_SA,ar,indicator_revision_only_dfm_kalman_em,2023:Q4,0.03690159867203891,10.63251625047742
exact,pre_advance,DELTA_SA,ar,indicator_revision_only_dfm_kalman_em,2024:Q1,0.07155817897030346,10.704074429447724
exact,pre_advance,DELTA_SA,ar,indicator_revision_only_dfm_kalman_em,2024:Q2,-0.009033581491366181,10.695040847956358
exact,pre_advance,DELTA_SA,ar,indicator_revision_only_dfm_kalman_em,2024:Q3,0.00727617350536104,10.702317021461718
exact,pre_advance,DELTA_SA,ar,indicator_revision_only_dfm_kalman_em,2024:Q4,-0.008788760628669104,10.69352826083305
exact,pre_advance,DELTA_SA,ar,joint_indicator_revision_dfm_full_kalman_em,2005:Q1,-0.017212814086494953,-0.017212814086494953
exact,pre_advance,DELTA_SA,ar,joint_indicator_revision_dfm_full_kalman_em,2005:Q2,-0.02008317718362565,-0.03729599127012061
exact,pre_advance,DELTA_SA,ar,joint_indicator_revision_dfm_full_kalman_em,2005:Q3,0.21659940679399778,0.17930341552387719
exact,pre_advance,DELTA_SA,ar,joint_indicator_revision_dfm_full_kalman_em,2005:Q4,0.04595649594164119,0.22525991146551838
exact,pre_advance,DELTA_SA,ar,joint_indicator_revision_dfm_full_kalman_em,2006:Q1,0.010974329899358645,0.23623424136487703
exact,pre_advance,DELTA_SA,ar,joint_indicator_revision_dfm_full_kalman_em,2006:Q2,0.045410147696937325,0.2816443890618143
exact,pre_advance,DELTA_SA,ar,joint_indicator_revision_dfm_full_kalman_em,2006:Q3,-0.7723390660886382,-0.4906946770268239
exact,pre_advance,DELTA_SA,ar,joint_indicator_revision_dfm_full_kalman_em,2006:Q4,1.7161153017428983,1.2254206247160744
exact,pre_advance,DELTA_SA,ar,joint_indicator_revision_dfm_full_kalman_em,2007:Q1,-0.37772815369371465,0.8476924710223597
exact,pre_advance,DELTA_SA,ar,joint_indicator_revision_dfm_full_kalman_em,2007:Q2,0.42425887803970364,1.2719513490620633
exact,pre_advance,DELTA_SA,ar,joint_indicator_revision_dfm_full_kalman_em,2007:Q3,-1.6555412530232498,-0.38358990396118653
exact,pre_advance,DELTA_SA,ar,joint_indicator_revision_dfm_full_kalman_em,2007:Q4,-0.07420129717844773,-0.45779120113963423
exact,pre_advance,DELTA_SA,ar,joint_indicator_revision_dfm_full_kalman_em,2008:Q1,-0.23947662661419358,-0.6972678277538278
exact,pre_advance,DELTA_SA,ar,joint_indicator_revision_dfm_full_kalman_em,2008:Q2,-0.45049989295083326,-1.147767720704661
exact,pre_advance,DELTA_SA,ar,joint_indicator_revision_dfm_full_kalman_em,2008:Q3,0.9330997333424962,-0.21466798736216486
exact,pre_advance,DELTA_SA,ar,joint_indicator_revision_dfm_full_kalman_em,2008:Q4,3.5676404630119127,3.352972475649748
exact,pre_advance,DELTA_SA,ar,joint_indicator_revision_dfm_full_kalman_em,2009:Q1,1.446755172725455,4.799727648375203
exact,pre_advance,DELTA_SA,ar,joint_indicator_revision_dfm_full_kalman_em,2009:Q2,-0.16822192959072924,4.631505718784474
exact,pre_advance,DELTA_SA,ar,joint_indicator_revision_dfm_full_kalman_em,2009:Q3,-2.145392658744933,2.4861130600395414
exact,pre_advance,DELTA_SA,ar,joint_indicator_revision_dfm_full_kalman_em,2009:Q4,0.19259055886479992,2.678703618904341
exact,pre_advance,DELTA_SA,ar,joint_indicator_revision_dfm_full_kalman_em,2010:Q1,-0.4368031523569781,2.241900466547363
exact,pre_advance,DELTA_SA,ar,joint_indicator_revision_dfm_full_kalman_em,2010:Q2,-0.35687548465829033,1.8850249818890727
exact,pre_advance,DELTA_SA,ar,joint_indicator_revision_dfm_full_kalman_em,2010:Q3,0.5702398360028887,2.4552648178919614
exact,pre_advance,DELTA_SA,ar,joint_indicator_revision_dfm_full_kalman_em,2010:Q4,0.2492287257622831,2.7044935436542445
exact,pre_advance,DELTA_SA,ar,joint_indicator_revision_dfm_full_kalman_em,2011:Q1,-0.007700280049450808,2.6967932636047935
exact,pre_advance,DELTA_SA,ar,joint_indicator_revision_dfm_full_kalman_em,2011:Q2,-0.06261240328319703,2.6341808603215964
exact,pre_advance,DELTA_SA,ar,joint_indicator_revision_dfm_full_kalman_em,2011:Q3,-0.4073644805764173,2.226816379745179
exact,pre_advance,DELTA_SA,ar,joint_indicator_revision_dfm_full_kalman_em,2011:Q4,0.13536884466101878,2.362185224406198
exact,pre_advance,DELTA_SA,ar,joint_indicator_revision_dfm_full_kalman_em,2012:Q1,-0.05229716350890887,2.309888060897289
exact,pre_advance,DELTA_SA,ar,joint_indicator_revision_dfm_full_kalman_em,2012:Q2,0.08874094300926728,2.398629003906556
exact,pre_advance,DELTA_SA,ar,joint_indicator_revision_dfm_full_kalman_em,2012:Q3,-0.018763400314433076,2.379865603592123
exact,pre_advance,DELTA_SA,ar,joint_indicator_revision_dfm_full_kalman_em,2012:Q4,0.008547078490726192,2.388412682082849
exact,pre_advance,DELTA_SA,ar,joint_indicator_revision_dfm_full_kalman_em,2013:Q1,0.08799219322575831,2.4764048753086074
exact,pre_advance,DELTA_SA,ar,joint_indicator_revision_dfm_full_kalman_em,2013:Q2,0.20622258412422745,2.682627459432835
exact,pre_advance,DELTA_SA,ar,joint_indicator_revision_dfm_full_kalman_em,2013:Q3,-0.31763674631179245,2.3649907131210424
exact,pre_advance,DELTA_SA,ar,joint_indicator_revision_dfm_full_kalman_em,2013:Q4,0.36241416267971616,2.7274048758007585
exact,pre_advance,DELTA_SA,ar,joint_indicator_revision_dfm_full_kalman_em,2014:Q1,-0.9679899554531377,1.7594149203476208
exact,pre_advance,DELTA_SA,ar,joint_indicator_revision_dfm_full_kalman_em,2014:Q2,0.278944818768474,2.038359739116095
exact,pre_advance,DELTA_SA,ar,joint_indicator_revision_dfm_full_kalman_em,2014:Q3,0.00872131058114893,2.0470810496972436
exact,pre_advance,DELTA_SA,ar,joint_indicator_revision_dfm_full_kalman_em,2014:Q4,0.09761038985045789,2.1446914395477013
exact,pre_advance,DELTA_SA,ar,joint_indicator_revision_dfm_full_kalman_em,2015:Q1,-0.16870357887345044,1.975987860674251
exact,pre_advance,DELTA_SA,ar,joint_indicator_revision_dfm_full_kalman_em,2015:Q2,1.7354720641080252,3.711459924782276
exact,pre_advance,DELTA_SA,ar,joint_indicator_revision_dfm_full_kalman_em,2015:Q3,-0.30874181279179747,3.402718111990479
exact,pre_advance,DELTA_SA,ar,joint_indicator_revision_dfm_full_kalman_em,2015:Q4,-0.07065034652007295,3.332067765470406
exact,pre_advance,DELTA_SA,ar,joint_indicator_revision_dfm_full_kalman_em,2016:Q1,-0.03997696576632733,3.292090799704079
exact,pre_advance,DELTA_SA,ar,joint_indicator_revision_dfm_full_kalman_em,2016:Q2,0.0957607120311568,3.387851511735236
exact,pre_advance,DELTA_SA,ar,joint_indicator_revision_dfm_full_kalman_em,2016:Q3,0.04199135350084864,3.4298428652360844
exact,pre_advance,DELTA_SA,ar,joint_indicator_revision_dfm_full_kalman_em,2016:Q4,-0.03617294499803103,3.3936699202380534
exact,pre_advance,DELTA_SA,ar,joint_indicator_revision_dfm_full_kalman_em,2017:Q1,0.10202885972324544,3.4956987799612986
exact,pre_advance,DELTA_SA,ar,joint_indicator_revision_dfm_full_kalman_em,2017:Q2,-0.04524295231026654,3.450455827651032
exact,pre_advance,DELTA_SA,ar,joint_indicator_revision_dfm_full_kalman_em,2017:Q3,-0.063704725299232,3.3867511023517998
exact,pre_advance,DELTA_SA,ar,joint_indicator_revision_dfm_full_kalman_em,2017:Q4,-0.1503013207698954,3.2364497815819044
exact,pre_advance,DELTA_SA,ar,joint_indicator_revision_dfm_full_kalman_em,2018:Q1,-0.11486592239157911,3.1215838591903253
exact,pre_advance,DELTA_SA,ar,joint_indicator_revision_dfm_full_kalman_em,2018:Q2,0.030705032308804656,3.15228889149913
exact,pre_advance,DELTA_SA,ar,joint_indicator_revision_dfm_full_kalman_em,2018:Q3,-0.008666624043943225,3.143622267455187
exact,pre_advance,DELTA_SA,ar,joint_indicator_revision_dfm_full_kalman_em,2019:Q1,0.3071178321442779,3.450740099599465
exact,pre_advance,DELTA_SA,ar,joint_indicator_revision_dfm_full_kalman_em,2019:Q2,-0.011698978901625353,3.4390411206978393
exact,pre_advance,DELTA_SA,ar,joint_indicator_revision_dfm_full_kalman_em,2019:Q3,0.019356940923755672,3.458398061621595
exact,pre_advance,DELTA_SA,ar,joint_indicator_revision_dfm_full_kalman_em,2019:Q4,0.02163306819085614,3.480031129812451
exact,pre_advance,DELTA_SA,ar,joint_indicator_revision_dfm_full_kalman_em,2020:Q1,0.0846936256779693,3.56472475549042
exact,pre_advance,DELTA_SA,ar,joint_indicator_revision_dfm_full_kalman_em,2020:Q2,-2.9044717344909445,0.6602530209994755
exact,pre_advance,DELTA_SA,ar,joint_indicator_revision_dfm_full_kalman_em,2020:Q3,6.060882952624623,6.721135973624099
exact,pre_advance,DELTA_SA,ar,joint_indicator_revision_dfm_full_kalman_em,2020:Q4,0.16789245357617127,6.88902842720027
exact,pre_advance,DELTA_SA,ar,joint_indicator_revision_dfm_full_kalman_em,2021:Q1,-0.3764943924448237,6.512534034755447
exact,pre_advance,DELTA_SA,ar,joint_indicator_revision_dfm_full_kalman_em,2021:Q2,0.005740524058976915,6.518274558814424
exact,pre_advance,DELTA_SA,ar,joint_indicator_revision_dfm_full_kalman_em,2021:Q3,-0.06640706415058098,6.451867494663843
exact,pre_advance,DELTA_SA,ar,joint_indicator_revision_dfm_full_kalman_em,2021:Q4,-0.013599183359909773,6.438268311303934
exact,pre_advance,DELTA_SA,ar,joint_indicator_revision_dfm_full_kalman_em,2022:Q1,-0.47824490192721736,5.960023409376716
exact,pre_advance,DELTA_SA,ar,joint_indicator_revision_dfm_full_kalman_em,2022:Q2,-0.01586575505324722,5.944157654323469
exact,pre_advance,DELTA_SA,ar,joint_indicator_revision_dfm_full_kalman_em,2022:Q3,-0.010520277620766155,5.933637376702703
exact,pre_advance,DELTA_SA,ar,joint_indicator_revision_dfm_full_kalman_em,2022:Q4,0.10515895873528903,6.038796335437992
exact,pre_advance,DELTA_SA,ar,joint_indicator_revision_dfm_full_kalman_em,2023:Q1,-0.13360801169400643,5.905188323743985
exact,pre_advance,DELTA_SA,ar,joint_indicator_revision_dfm_full_kalman_em,2023:Q2,-0.43238168575565594,5.472806637988329
exact,pre_advance,DELTA_SA,ar,joint_indicator_revision_dfm_full_kalman_em,2023:Q3,0.0010108925603442495,5.473817530548673
exact,pre_advance,DELTA_SA,ar,joint_indicator_revision_dfm_full_kalman_em,2023:Q4,0.04194242712638614,5.515759957675059
exact,pre_advance,DELTA_SA,ar,joint_indicator_revision_dfm_full_kalman_em,2024:Q1,0.06494074421540155,5.580700701890461
exact,pre_advance,DELTA_SA,ar,joint_indicator_revision_dfm_full_kalman_em,2024:Q2,-0.002210417316545791,5.578490284573915
exact,pre_advance,DELTA_SA,ar,joint_indicator_revision_dfm_full_kalman_em,2024:Q3,0.006314694570854734,5.58480497914477
exact,pre_advance,DELTA_SA,ar,joint_indicator_revision_dfm_full_kalman_em,2024:Q4,-0.006499216195677272,5.578305762949093
exact,pre_advance,DELTA_SA,ar,midas_umidas,2005:Q1,-39.797824425064846,-39.797824425064846
exact,pre_advance,DELTA_SA,ar,midas_umidas,2005:Q2,-10.838923677608678,-50.63674810267352
exact,pre_advance,DELTA_SA,ar,midas_umidas,2005:Q3,-2.2266161401798246,-52.86336424285334
exact,pre_advance,DELTA_SA,ar,midas_umidas,2005:Q4,-76.51074939331531,-129.37411363616866
exact,pre_advance,DELTA_SA,ar,midas_umidas,2006:Q1,-624.8393306229966,-754.2134442591653
exact,pre_advance,DELTA_SA,ar,midas_umidas,2006:Q2,-51.60484976710727,-805.8182940262725
exact,pre_advance,DELTA_SA,ar,midas_umidas,2006:Q3,-2.896052548813862,-808.7143465750863
exact,pre_advance,DELTA_SA,ar,midas_umidas,2006:Q4,-20.201108426843934,-828.9154550019302
exact,pre_advance,DELTA_SA,ar,midas_umidas,2007:Q1,-339.242528006535,-1168.1579830084652
exact,pre_advance,DELTA_SA,ar,midas_umidas,2007:Q2,-454.63351199969196,-1622.7914950081572
exact,pre_advance,DELTA_SA,ar,midas_umidas,2007:Q3,-1445.2558135562338,-3068.0473085643907
exact,pre_advance,DELTA_SA,ar,midas_umidas,2007:Q4,-109.85550522469542,-3177.902813789086
exact,pre_advance,DELTA_SA,ar,midas_umidas,2008:Q1,-0.353653234035842,-3178.256467023122
exact,pre_advance,DELTA_SA,ar,midas_umidas,2008:Q2,-411.6733521385076,-3589.9298191616294
exact,pre_advance,DELTA_SA,ar,midas_umidas,2008:Q3,-16.457374174265517,-3606.387193335895
exact,pre_advance,DELTA_SA,ar,midas_umidas,2008:Q4,-658.2226269871077,-4264.609820323003
exact,pre_advance,DELTA_SA,ar,midas_umidas,2009:Q1,-1734.2252989296749,-5998.835119252678
exact,pre_advance,DELTA_SA,ar,midas_umidas,2009:Q2,0.22143764520565734,-5998.613681607472
exact,pre_advance,DELTA_SA,ar,midas_umidas,2009:Q3,-124.17561613051467,-6122.789297737987
exact,pre_advance,DELTA_SA,ar,midas_umidas,2009:Q4,-110.45342341372383,-6233.242721151711
exact,pre_advance,DELTA_SA,ar,midas_umidas,2010:Q1,-275.029314951508,-6508.272036103219
exact,pre_advance,DELTA_SA,ar,midas_umidas,2010:Q2,-53.83744935649098,-6562.1094854597095
exact,pre_advance,DELTA_SA,ar,midas_umidas,2010:Q3,-504.1498345524276,-7066.259320012137
exact,pre_advance,DELTA_SA,ar,midas_umidas,2010:Q4,-149.34422941051264,-7215.60354942265
exact,pre_advance,DELTA_SA,ar,midas_umidas,2011:Q1,-76.18270495073548,-7291.786254373385
exact,pre_advance,DELTA_SA,ar,midas_umidas,2011:Q2,-451.8456247833127,-7743.631879156698
exact,pre_advance,DELTA_SA,ar,midas_umidas,2011:Q3,0.1306085067816537,-7743.5012706499165
exact,pre_advance,DELTA_SA,ar,midas_umidas,2011:Q4,-178.48758528534628,-7921.988855935263
exact,pre_advance,DELTA_SA,ar,midas_umidas,2012:Q1,-165.6814547360206,-8087.670310671284
exact,pre_advance,DELTA_SA,ar,midas_umidas,2012:Q2,-47.673541919418405,-8135.343852590702
exact,pre_advance,DELTA_SA,ar,midas_umidas,2012:Q3,-52.97128713103753,-8188.31513972174
exact,pre_advance,DELTA_SA,ar,midas_umidas,2012:Q4,-35.87250645476155,-8224.1876461765
exact,pre_advance,DELTA_SA,ar,midas_umidas,2013:Q1,-78.68787456069492,-8302.875520737196
exact,pre_advance,DELTA_SA,ar,midas_umidas,2013:Q2,-223.52534495255938,-8526.400865689755
exact,pre_advance,DELTA_SA,ar,midas_umidas,2013:Q3,-20.60176487992064,-8547.002630569676
exact,pre_advance,DELTA_SA,ar,midas_umidas,2013:Q4,-23.131777229382795,-8570.134407799058
exact,pre_advance,DELTA_SA,ar,midas_umidas,2014:Q1,-86.83478800644464,-8656.969195805503
exact,pre_advance,DELTA_SA,ar,midas_umidas,2014:Q2,-148.1537614966031,-8805.122957302106
exact,pre_advance,DELTA_SA,ar,midas_umidas,2014:Q3,-21.563616269848954,-8826.686573571955
exact,pre_advance,DELTA_SA,ar,midas_umidas,2014:Q4,-15.719381848728865,-8842.405955420683
exact,pre_advance,DELTA_SA,ar,midas_umidas,2015:Q1,-3.2433959454790857,-8845.649351366163
exact,pre_advance,DELTA_SA,ar,midas_umidas,2015:Q2,2.8534791315047743,-8842.795872234658
exact,pre_advance,DELTA_SA,ar,midas_umidas,2015:Q3,-43.68811698390953,-8886.483989218566
exact,pre_advance,DELTA_SA,ar,midas_umidas,2015:Q4,-24.973768284074954,-8911.457757502641
exact,pre_advance,DELTA_SA,ar,midas_umidas,2016:Q1,-25.74251643989438,-8937.200273942535
exact,pre_advance,DELTA_SA,ar,midas_umidas,2016:Q2,-7.702559624924386,-8944.90283356746
exact,pre_advance,DELTA_SA,ar,midas_umidas,2016:Q3,-0.418644520766393,-8945.321478088226
exact,pre_advance,DELTA_SA,ar,midas_umidas,2016:Q4,-1.6878248577371244,-8947.009302945964
exact,pre_advance,DELTA_SA,ar,midas_umidas,2017:Q1,-1.396469369919674,-8948.405772315884
exact,pre_advance,DELTA_SA,ar,midas_umidas,2017:Q2,-0.2386418337185627,-8948.644414149603
exact,pre_advance,DELTA_SA,ar,midas_umidas,2017:Q3,-9.894772171958993,-8958.539186321563
exact,pre_advance,DELTA_SA,ar,midas_umidas,2017:Q4,-0.06785400372463576,-8958.607040325287
exact,pre_advance,DELTA_SA,ar,midas_umidas,2018:Q1,-0.8285480132736229,-8959.435588338562
exact,pre_advance,DELTA_SA,ar,midas_umidas,2018:Q2,-12.28694297591866,-8971.72253131448
exact,pre_advance,DELTA_SA,ar,midas_umidas,2018:Q3,-4.533494700401147,-8976.256026014882
exact,pre_advance,DELTA_SA,ar,midas_umidas,2019:Q1,0.29472275296400674,-8975.961303261918
exact,pre_advance,DELTA_SA,ar,midas_umidas,2019:Q2,-0.43696293477333575,-8976.398266196691
exact,pre_advance,DELTA_SA,ar,midas_umidas,2019:Q3,-1.073933679541503,-8977.472199876232
exact,pre_advance,DELTA_SA,ar,midas_umidas,2019:Q4,-0.7868392335367862,-8978.25903910977
exact,pre_advance,DELTA_SA,ar,midas_umidas,2020:Q1,-1.0551657413501645,-8979.31420485112
exact,pre_advance,DELTA_SA,ar,midas_umidas,2020:Q2,-2064.435032508436,-11043.749237359556
exact,pre_advance,DELTA_SA,ar,midas_umidas,2020:Q3,-4078.7524783179065,-15122.501715677463
exact,pre_advance,DELTA_SA,ar,midas_umidas,2020:Q4,-6.506950483246372,-15129.00866616071
exact,pre_advance,DELTA_SA,ar,midas_umidas,2021:Q1,-4.596760703580678,-15133.60542686429
exact,pre_advance,DELTA_SA,ar,midas_umidas,2021:Q2,-8.28713987226398,-15141.892566736553
exact,pre_advance,DELTA_SA,ar,midas_umidas,2021:Q3,-0.14777608474138854,-15142.040342821294
exact,pre_advance,DELTA_SA,ar,midas_umidas,2021:Q4,-0.6833823726336089,-15142.723725193928
exact,pre_advance,DELTA_SA,ar,midas_umidas,2022:Q1,-0.35382729002974433,-15143.077552483957
exact,pre_advance,DELTA_SA,ar,midas_umidas,2022:Q2,0.08787319677964962,-15142.989679287177
exact,pre_advance,DELTA_SA,ar,midas_umidas,2022:Q3,0.09018879892357301,-15142.899490488253
exact,pre_advance,DELTA_SA,ar,midas_umidas,2022:Q4,-4.967035646849074,-15147.866526135102
exact,pre_advance,DELTA_SA,ar,midas_umidas,2023:Q1,-0.7470003290390006,-15148.61352646414
exact,pre_advance,DELTA_SA,ar,midas_umidas,2023:Q2,-3.5272575221531675,-15152.140783986293
exact,pre_advance,DELTA_SA,ar,midas_umidas,2023:Q3,-0.22947939040660967,-15152.3702633767
exact,pre_advance,DELTA_SA,ar,midas_umidas,2023:Q4,-0.11970627412488263,-15152.489969650826
exact,pre_advance,DELTA_SA,ar,midas_umidas,2024:Q1,0.1867492213036634,-15152.303220429521
exact,pre_advance,DELTA_SA,ar,midas_umidas,2024:Q2,0.0029975257085396354,-15152.300222903812
exact,pre_advance,DELTA_SA,ar,midas_umidas,2024:Q3,-0.20633145236123396,-15152.506554356174
exact,pre_advance,DELTA_SA,ar,midas_umidas,2024:Q4,-1.63604893282211,-15154.142603288996
exact,pre_advance,DELTA_SA,ar,monthly_mixed_frequency_kalman_em,2005:Q1,-0.16713502659704857,-0.16713502659704857
exact,pre_advance,DELTA_SA,ar,monthly_mixed_frequency_kalman_em,2005:Q2,0.03011039644179339,-0.13702463015525518
exact,pre_advance,DELTA_SA,ar,monthly_mixed_frequency_kalman_em,2005:Q3,-0.2038122650447804,-0.3408368952000356
exact,pre_advance,DELTA_SA,ar,monthly_mixed_frequency_kalman_em,2005:Q4,0.06958712872325293,-0.27124976647678267
exact,pre_advance,DELTA_SA,ar,monthly_mixed_frequency_kalman_em,2006:Q1,-0.2019425127361343,-0.47319227921291696
exact,pre_advance,DELTA_SA,ar,monthly_mixed_frequency_kalman_em,2006:Q2,0.05923812973200195,-0.413954149480915
exact,pre_advance,DELTA_SA,ar,monthly_mixed_frequency_kalman_em,2006:Q3,-0.2946684909100374,-0.7086226403909524
exact,pre_advance,DELTA_SA,ar,monthly_mixed_frequency_kalman_em,2006:Q4,0.6396437755911473,-0.06897886479980508
exact,pre_advance,DELTA_SA,ar,monthly_mixed_frequency_kalman_em,2007:Q1,-0.22850494015175235,-0.29748380495155746
exact,pre_advance,DELTA_SA,ar,monthly_mixed_frequency_kalman_em,2007:Q2,0.3970939019386026,0.09961009698704515
exact,pre_advance,DELTA_SA,ar,monthly_mixed_frequency_kalman_em,2007:Q3,-0.12917372234601476,-0.029563625358969614
exact,pre_advance,DELTA_SA,ar,monthly_mixed_frequency_kalman_em,2007:Q4,0.194228265074803,0.1646646397158334
exact,pre_advance,DELTA_SA,ar,monthly_mixed_frequency_kalman_em,2008:Q1,0.023800827413410323,0.18846546712924372
exact,pre_advance,DELTA_SA,ar,monthly_mixed_frequency_kalman_em,2008:Q2,-0.5072839130592868,-0.31881844593004305
exact,pre_advance,DELTA_SA,ar,monthly_mixed_frequency_kalman_em,2008:Q3,0.9486168396987233,0.6297983937686803
exact,pre_advance,DELTA_SA,ar,monthly_mixed_frequency_kalman_em,2008:Q4,1.831614911068061,2.4614133048367415
exact,pre_advance,DELTA_SA,ar,monthly_mixed_frequency_kalman_em,2009:Q1,1.4940703707321548,3.955483675568896
exact,pre_advance,DELTA_SA,ar,monthly_mixed_frequency_kalman_em,2009:Q2,0.24413719937425254,4.1996208749431485
exact,pre_advance,DELTA_SA,ar,monthly_mixed_frequency_kalman_em,2009:Q3,0.2661162865386054,4.465737161481754
exact,pre_advance,DELTA_SA,ar,monthly_mixed_frequency_kalman_em,2009:Q4,0.28435669625238497,4.750093857734139
exact,pre_advance,DELTA_SA,ar,monthly_mixed_frequency_kalman_em,2010:Q1,-0.03853012061706888,4.71156373711707
exact,pre_advance,DELTA_SA,ar,monthly_mixed_frequency_kalman_em,2010:Q2,-0.29010577067867116,4.4214579664384
exact,pre_advance,DELTA_SA,ar,monthly_mixed_frequency_kalman_em,2010:Q3,0.47338211334569447,4.894840079784094
exact,pre_advance,DELTA_SA,ar,monthly_mixed_frequency_kalman_em,2010:Q4,0.1437040411975884,5.038544120981682
exact,pre_advance,DELTA_SA,ar,monthly_mixed_frequency_kalman_em,2011:Q1,0.042048995390641164,5.080593116372324
exact,pre_advance,DELTA_SA,ar,monthly_mixed_frequency_kalman_em,2011:Q2,-0.009523757222372087,5.071069359149952
exact,pre_advance,DELTA_SA,ar,monthly_mixed_frequency_kalman_em,2011:Q3,-0.19422112876727876,4.876848230382674
exact,pre_advance,DELTA_SA,ar,monthly_mixed_frequency_kalman_em,2011:Q4,0.15670707688295998,5.033555307265634
exact,pre_advance,DELTA_SA,ar,monthly_mixed_frequency_kalman_em,2012:Q1,0.017187622535908165,5.050742929801542
exact,pre_advance,DELTA_SA,ar,monthly_mixed_frequency_kalman_em,2012:Q2,0.0860671524088417,5.136810082210384
exact,pre_advance,DELTA_SA,ar,monthly_mixed_frequency_kalman_em,2012:Q3,0.05371543615867991,5.190525518369064
exact,pre_advance,DELTA_SA,ar,monthly_mixed_frequency_kalman_em,2012:Q4,-0.016607704694963157,5.173917813674101
exact,pre_advance,DELTA_SA,ar,monthly_mixed_frequency_kalman_em,2013:Q1,0.07797426450054493,5.251892078174646
exact,pre_advance,DELTA_SA,ar,monthly_mixed_frequency_kalman_em,2013:Q2,0.1844964493312924,5.4363885275059385
exact,pre_advance,DELTA_SA,ar,monthly_mixed_frequency_kalman_em,2013:Q3,-0.3217678025627878,5.11462072494315
exact,pre_advance,DELTA_SA,ar,monthly_mixed_frequency_kalman_em,2013:Q4,0.7019245144934764,5.816545239436627
exact,pre_advance,DELTA_SA,ar,monthly_mixed_frequency_kalman_em,2014:Q1,-0.8624957264292459,4.954049513007381
exact,pre_advance,DELTA_SA,ar,monthly_mixed_frequency_kalman_em,2014:Q2,0.3415920955409257,5.295641608548307
exact,pre_advance,DELTA_SA,ar,monthly_mixed_frequency_kalman_em,2014:Q3,0.05437918132087517,5.350020789869182
exact,pre_advance,DELTA_SA,ar,monthly_mixed_frequency_kalman_em,2014:Q4,0.15694002208452104,5.506960811953704
exact,pre_advance,DELTA_SA,ar,monthly_mixed_frequency_kalman_em,2015:Q1,-0.18846792795549905,5.318492883998204
exact,pre_advance,DELTA_SA,ar,monthly_mixed_frequency_kalman_em,2015:Q2,1.5707253252466027,6.889218209244807
exact,pre_advance,DELTA_SA,ar,monthly_mixed_frequency_kalman_em,2015:Q3,-0.3728951480742426,6.5163230611705645
exact,pre_advance,DELTA_SA,ar,monthly_mixed_frequency_kalman_em,2015:Q4,-0.06518641623307264,6.451136644937492
exact,pre_advance,DELTA_SA,ar,monthly_mixed_frequency_kalman_em,2016:Q1,-0.07359451959094172,6.37754212534655
exact,pre_advance,DELTA_SA,ar,monthly_mixed_frequency_kalman_em,2016:Q2,0.08091300516676891,6.458455130513319
exact,pre_advance,DELTA_SA,ar,monthly_mixed_frequency_kalman_em,2016:Q3,0.044655553084283164,6.503110683597602
exact,pre_advance,DELTA_SA,ar,monthly_mixed_frequency_kalman_em,2016:Q4,-0.06497835293859887,6.438132330659003
exact,pre_advance,DELTA_SA,ar,monthly_mixed_frequency_kalman_em,2017:Q1,0.07425235725059745,6.5123846879096
exact,pre_advance,DELTA_SA,ar,monthly_mixed_frequency_kalman_em,2017:Q2,-0.06714725557247234,6.445237432337128
exact,pre_advance,DELTA_SA,ar,monthly_mixed_frequency_kalman_em,2017:Q3,-0.0449859553196092,6.40025147701752
exact,pre_advance,DELTA_SA,ar,monthly_mixed_frequency_kalman_em,2017:Q4,-0.000658521905462367,6.399592955112057
exact,pre_advance,DELTA_SA,ar,monthly_mixed_frequency_kalman_em,2018:Q1,-0.04371459595403325,6.355878359158024
exact,pre_advance,DELTA_SA,ar,monthly_mixed_frequency_kalman_em,2018:Q2,-0.0012970476121509367,6.354581311545873
exact,pre_advance,DELTA_SA,ar,monthly_mixed_frequency_kalman_em,2018:Q3,-0.005144348670668521,6.349436962875204
exact,pre_advance,DELTA_SA,ar,monthly_mixed_frequency_kalman_em,2019:Q1,0.28906901815479563,6.63850598103
exact,pre_advance,DELTA_SA,ar,monthly_mixed_frequency_kalman_em,2019:Q2,-0.0007490695726574721,6.637756911457342
exact,pre_advance,DELTA_SA,ar,monthly_mixed_frequency_kalman_em,2019:Q3,-0.10013597120819952,6.537620940249142
exact,pre_advance,DELTA_SA,ar,monthly_mixed_frequency_kalman_em,2019:Q4,-0.014582928009474343,6.523038012239668
exact,pre_advance,DELTA_SA,ar,monthly_mixed_frequency_kalman_em,2020:Q1,-0.22412980776200747,6.2989082044776605
exact,pre_advance,DELTA_SA,ar,monthly_mixed_frequency_kalman_em,2020:Q2,-0.3694206232886156,5.929487581189045
exact,pre_advance,DELTA_SA,ar,monthly_mixed_frequency_kalman_em,2020:Q3,5.050970507979914,10.980458089168959
exact,pre_advance,DELTA_SA,ar,monthly_mixed_frequency_kalman_em,2020:Q4,0.3544972585079026,11.334955347676862
exact,pre_advance,DELTA_SA,ar,monthly_mixed_frequency_kalman_em,2021:Q1,-0.18442697077210357,11.15052837690476
exact,pre_advance,DELTA_SA,ar,monthly_mixed_frequency_kalman_em,2021:Q2,0.005567494184067256,11.156095871088826
exact,pre_advance,DELTA_SA,ar,monthly_mixed_frequency_kalman_em,2021:Q3,-0.005745833271258008,11.150350037817569
exact,pre_advance,DELTA_SA,ar,monthly_mixed_frequency_kalman_em,2021:Q4,-0.009937898161973178,11.140412139655595
exact,pre_advance,DELTA_SA,ar,monthly_mixed_frequency_kalman_em,2022:Q1,0.006465075269687343,11.146877214925283
exact,pre_advance,DELTA_SA,ar,monthly_mixed_frequency_kalman_em,2022:Q2,0.049778132131863544,11.196655347057145
exact,pre_advance,DELTA_SA,ar,monthly_mixed_frequency_kalman_em,2022:Q3,0.04843143509266742,11.245086782149812
exact,pre_advance,DELTA_SA,ar,monthly_mixed_frequency_kalman_em,2022:Q4,0.010957199274652982,11.256043981424465
exact,pre_advance,DELTA_SA,ar,monthly_mixed_frequency_kalman_em,2023:Q1,-0.015514841358593087,11.240529140065872
exact,pre_advance,DELTA_SA,ar,monthly_mixed_frequency_kalman_em,2023:Q2,-0.007570963959538685,11.232958176106333
exact,pre_advance,DELTA_SA,ar,monthly_mixed_frequency_kalman_em,2023:Q3,0.021460063996169464,11.254418240102503
exact,pre_advance,DELTA_SA,ar,monthly_mixed_frequency_kalman_em,2023:Q4,0.024985551935956474,11.279403792038458
exact,pre_advance,DELTA_SA,ar,monthly_mixed_frequency_kalman_em,2024:Q1,0.03721708883952238,11.31662088087798
exact,pre_advance,DELTA_SA,ar,monthly_mixed_frequency_kalman_em,2024:Q2,0.0032910333870525303,11.319911914265033
exact,pre_advance,DELTA_SA,ar,monthly_mixed_frequency_kalman_em,2024:Q3,0.006446976752358734,11.326358891017392
exact,pre_advance,DELTA_SA,ar,monthly_mixed_frequency_kalman_em,2024:Q4,-0.0005865612915657158,11.325772329725826
exact,pre_advance,DELTA_SA,ar,no_revision,2005:Q1,-0.15257503321613658,-0.15257503321613658
exact,pre_advance,DELTA_SA,ar,no_revision,2005:Q2,0.10304262774761302,-0.049532405468523555
exact,pre_advance,DELTA_SA,ar,no_revision,2005:Q3,0.03151683579611303,-0.018015569672410525
exact,pre_advance,DELTA_SA,ar,no_revision,2005:Q4,-0.17958946757420496,-0.1976050372466155
exact,pre_advance,DELTA_SA,ar,no_revision,2006:Q1,-0.22225097588053042,-0.41985601312714593
exact,pre_advance,DELTA_SA,ar,no_revision,2006:Q2,-0.1338214718146227,-0.5536774849417686
exact,pre_advance,DELTA_SA,ar,no_revision,2006:Q3,-0.2655324769569707,-0.8192099618987393
exact,pre_advance,DELTA_SA,ar,no_revision,2006:Q4,1.1280810824986391,0.30887112059989985
exact,pre_advance,DELTA_SA,ar,no_revision,2007:Q1,-0.36488258133290913,-0.05601146073300928
exact,pre_advance,DELTA_SA,ar,no_revision,2007:Q2,0.2101220628635298,0.15411060213052052
exact,pre_advance,DELTA_SA,ar,no_revision,2007:Q3,-0.5038879623481906,-0.34977736021767003
exact,pre_advance,DELTA_SA,ar,no_revision,2007:Q4,0.23194641324995732,-0.11783094696771271
exact,pre_advance,DELTA_SA,ar,no_revision,2008:Q1,-0.06565748592115798,-0.18348843288887068
exact,pre_advance,DELTA_SA,ar,no_revision,2008:Q2,-0.7051418869943866,-0.8886303198832572
exact,pre_advance,DELTA_SA,ar,no_revision,2008:Q3,0.8839041046210189,-0.004726215262238376
exact,pre_advance,DELTA_SA,ar,no_revision,2008:Q4,0.39399862829546173,0.38927241303322335
exact,pre_advance,DELTA_SA,ar,no_revision,2009:Q1,1.3203689037955737,1.709641316828797
exact,pre_advance,DELTA_SA,ar,no_revision,2009:Q2,0.36877932291984866,2.0784206397486455
exact,pre_advance,DELTA_SA,ar,no_revision,2009:Q3,0.31974831955083616,2.3981689592994817
exact,pre_advance,DELTA_SA,ar,no_revision,2009:Q4,0.2461874095178597,2.6443563688173413
exact,pre_advance,DELTA_SA,ar,no_revision,2010:Q1,0.012274663642203441,2.656631032459545
exact,pre_advance,DELTA_SA,ar,no_revision,2010:Q2,-0.10097637669884518,2.5556546557606996
exact,pre_advance,DELTA_SA,ar,no_revision,2010:Q3,0.41001530272678194,2.9656699584874815
exact,pre_advance,DELTA_SA,ar,no_revision,2010:Q4,0.33708017745408314,3.3027501359415647
exact,pre_advance,DELTA_SA,ar,no_revision,2011:Q1,0.05273638935335863,3.3554865252949235
exact,pre_advance,DELTA_SA,ar,no_revision,2011:Q2,0.0864949621817803,3.4419814874767036
exact,pre_advance,DELTA_SA,ar,no_revision,2011:Q3,-0.03822954602021156,3.403751941456492
exact,pre_advance,DELTA_SA,ar,no_revision,2011:Q4,0.1042486389810256,3.5080005804375176
exact,pre_advance,DELTA_SA,ar,no_revision,2012:Q1,0.12270345028699549,3.6307040307245133
exact,pre_advance,DELTA_SA,ar,no_revision,2012:Q2,0.05124300972150874,3.681947040446022
exact,pre_advance,DELTA_SA,ar,no_revision,2012:Q3,-0.19803121584843814,3.483915824597584
exact,pre_advance,DELTA_SA,ar,no_revision,2012:Q4,-0.06160444841889918,3.4223113761786847
exact,pre_advance,DELTA_SA,ar,no_revision,2013:Q1,0.13839352919058448,3.560704905369269
exact,pre_advance,DELTA_SA,ar,no_revision,2013:Q2,0.010665904843470964,3.5713708102127404
exact,pre_advance,DELTA_SA,ar,no_revision,2013:Q3,-0.49085393179229264,3.0805168784204477
exact,pre_advance,DELTA_SA,ar,no_revision,2013:Q4,0.8147882022650561,3.895305080685504
exact,pre_advance,DELTA_SA,ar,no_revision,2014:Q1,-0.6728261778290336,3.22247890285647
exact,pre_advance,DELTA_SA,ar,no_revision,2014:Q2,0.3153905835886226,3.537869486445093
exact,pre_advance,DELTA_SA,ar,no_revision,2014:Q3,-0.05736992828325174,3.480499558161841
exact,pre_advance,DELTA_SA,ar,no_revision,2014:Q4,0.18045818425062124,3.6609577424124624
exact,pre_advance,DELTA_SA,ar,no_revision,2015:Q1,-0.30424364925329495,3.3567140931591677
exact,pre_advance,DELTA_SA,ar,no_revision,2015:Q2,1.0249249122593762,4.381639005418544
exact,pre_advance,DELTA_SA,ar,no_revision,2015:Q3,-0.3345827492334456,4.0470562561850985
exact,pre_advance,DELTA_SA,ar,no_revision,2015:Q4,-0.09676443992777004,3.9502918162573284
exact,pre_advance,DELTA_SA,ar,no_revision,2016:Q1,-0.09029065158363185,3.8600011646736965
exact,pre_advance,DELTA_SA,ar,no_revision,2016:Q2,0.1360297525459644,3.996030917219661
exact,pre_advance,DELTA_SA,ar,no_revision,2016:Q3,-0.021175007572158712,3.974855909647502
exact,pre_advance,DELTA_SA,ar,no_revision,2016:Q4,0.02734587565242416,4.002201785299926
exact,pre_advance,DELTA_SA,ar,no_revision,2017:Q1,-0.056295362083760514,3.945906423216165
exact,pre_advance,DELTA_SA,ar,no_revision,2017:Q2,-0.1998229027002102,3.746083520515955
exact,pre_advance,DELTA_SA,ar,no_revision,2017:Q3,-0.09239460605426397,3.653688914461691
exact,pre_advance,DELTA_SA,ar,no_revision,2017:Q4,0.035699658663772574,3.6893885731254636
exact,pre_advance,DELTA_SA,ar,no_revision,2018:Q1,0.012703611098869368,3.702092184224333
exact,pre_advance,DELTA_SA,ar,no_revision,2018:Q2,0.0030213569949030655,3.705113541219236
exact,pre_advance,DELTA_SA,ar,no_revision,2018:Q3,0.0032310710133240618,3.70834461223256
exact,pre_advance,DELTA_SA,ar,no_revision,2019:Q1,0.3134694480182471,4.021814060250807
exact,pre_advance,DELTA_SA,ar,no_revision,2019:Q2,-0.00020861065790184213,4.021605449592905
exact,pre_advance,DELTA_SA,ar,no_revision,2019:Q3,-0.020795440927072837,4.000810008665832
exact,pre_advance,DELTA_SA,ar,no_revision,2019:Q4,0.022807340587339162,4.023617349253171
exact,pre_advance,DELTA_SA,ar,no_revision,2020:Q1,0.04374626691208146,4.067363616165252
exact,pre_advance,DELTA_SA,ar,no_revision,2020:Q2,-0.4848885887598303,3.582475027405422
exact,pre_advance,DELTA_SA,ar,no_revision,2020:Q3,6.6030936783793335,10.185568705784755
exact,pre_advance,DELTA_SA,ar,no_revision,2020:Q4,0.3494364241901803,10.535005129974936
exact,pre_advance,DELTA_SA,ar,no_revision,2021:Q1,0.010481372036795358,10.54548650201173
exact,pre_advance,DELTA_SA,ar,no_revision,2021:Q2,0.005674643654305938,10.551161145666036
exact,pre_advance,DELTA_SA,ar,no_revision,2021:Q3,-0.00428446848418562,10.546876677181851
exact,pre_advance,DELTA_SA,ar,no_revision,2021:Q4,-0.009636975615624089,10.537239701566227
exact,pre_advance,DELTA_SA,ar,no_revision,2022:Q1,0.05376352283472801,10.591003224400955
exact,pre_advance,DELTA_SA,ar,no_revision,2022:Q2,-0.01747374549873487,10.57352947890222
exact,pre_advance,DELTA_SA,ar,no_revision,2022:Q3,-0.038912176234116996,10.534617302668103
exact,pre_advance,DELTA_SA,ar,no_revision,2022:Q4,0.058622083054108,10.59323938572221
exact,pre_advance,DELTA_SA,ar,no_revision,2023:Q1,-0.02740533844308022,10.56583404727913
exact,pre_advance,DELTA_SA,ar,no_revision,2023:Q2,0.06172819389498699,10.627562241174118
exact,pre_advance,DELTA_SA,ar,no_revision,2023:Q3,-0.03194758936873526,10.595614651805382
exact,pre_advance,DELTA_SA,ar,no_revision,2023:Q4,0.03690159867203891,10.63251625047742
exact,pre_advance,DELTA_SA,ar,no_revision,2024:Q1,0.07155817897030346,10.704074429447724
exact,pre_advance,DELTA_SA,ar,no_revision,2024:Q2,-0.009033581491366181,10.695040847956358
exact,pre_advance,DELTA_SA,ar,no_revision,2024:Q3,0.00727617350536104,10.702317021461718
exact,pre_advance,DELTA_SA,ar,no_revision,2024:Q4,-0.008788760628669104,10.69352826083305
exact,pre_advance,DELTA_SA,ar,release_dfm,2005:Q1,-0.06457257404199196,-0.06457257404199196
exact,pre_advance,DELTA_SA,ar,release_dfm,2005:Q2,0.05392100705411307,-0.010651566987878891
exact,pre_advance,DELTA_SA,ar,release_dfm,2005:Q3,0.12191070539466523,0.11125913840678633
exact,pre_advance,DELTA_SA,ar,release_dfm,2005:Q4,-0.03851182739693809,0.07274731100984824
exact,pre_advance,DELTA_SA,ar,release_dfm,2006:Q1,-0.09630907940028732,-0.02356176839043908
exact,pre_advance,DELTA_SA,ar,release_dfm,2006:Q2,-0.006343046395281451,-0.029904814785720532
exact,pre_advance,DELTA_SA,ar,release_dfm,2006:Q3,-0.1027035776815714,-0.13260839246729195
exact,pre_advance,DELTA_SA,ar,release_dfm,2006:Q4,1.0276047402758972,0.8949963478086053
exact,pre_advance,DELTA_SA,ar,release_dfm,2007:Q1,-0.41408575323464875,0.4809105945739565
exact,pre_advance,DELTA_SA,ar,release_dfm,2007:Q2,0.3272665697635969,0.8081771643375535
exact,pre_advance,DELTA_SA,ar,release_dfm,2007:Q3,-0.3348463681699476,0.47333079616760587
exact,pre_advance,DELTA_SA,ar,release_dfm,2007:Q4,0.23170019018880766,0.7050309863564135
exact,pre_advance,DELTA_SA,ar,release_dfm,2008:Q1,-0.09998664863071874,0.6050443377256948
exact,pre_advance,DELTA_SA,ar,release_dfm,2008:Q2,-0.7880304720767588,-0.18298613435106403
exact,pre_advance,DELTA_SA,ar,release_dfm,2008:Q3,0.9004291296287449,0.7174429952776809
exact,pre_advance,DELTA_SA,ar,release_dfm,2008:Q4,2.0518569757106633,2.769299970988344
exact,pre_advance,DELTA_SA,ar,release_dfm,2009:Q1,-1.309095775368377,1.4602041956199672
exact,pre_advance,DELTA_SA,ar,release_dfm,2009:Q2,0.29556918667558446,1.7557733822955517
exact,pre_advance,DELTA_SA,ar,release_dfm,2009:Q3,0.06344779921680854,1.8192211815123602
exact,pre_advance,DELTA_SA,ar,release_dfm,2009:Q4,0.2826198032348088,2.101840984747169
exact,pre_advance,DELTA_SA,ar,release_dfm,2010:Q1,-0.23945245033583445,1.8623885344113345
exact,pre_advance,DELTA_SA,ar,release_dfm,2010:Q2,-0.43427508410354076,1.4281134503077937
exact,pre_advance,DELTA_SA,ar,release_dfm,2010:Q3,0.5008024804713807,1.9289159307791743
exact,pre_advance,DELTA_SA,ar,release_dfm,2010:Q4,0.25584879905282176,2.184764729831996
exact,pre_advance,DELTA_SA,ar,release_dfm,2011:Q1,0.016558704882427375,2.2013234347144235
exact,pre_advance,DELTA_SA,ar,release_dfm,2011:Q2,0.014075986477936259,2.2153994211923598
exact,pre_advance,DELTA_SA,ar,release_dfm,2011:Q3,-0.15806562807392172,2.057333793118438
exact,pre_advance,DELTA_SA,ar,release_dfm,2011:Q4,0.1550867166435113,2.2124205097619494
exact,pre_advance,DELTA_SA,ar,release_dfm,2012:Q1,-0.06456927922788744,2.147851230534062
exact,pre_advance,DELTA_SA,ar,release_dfm,2012:Q2,0.07649001778942476,2.2243412483234866
exact,pre_advance,DELTA_SA,ar,release_dfm,2012:Q3,-0.09411694703936069,2.1302243012841258
exact,pre_advance,DELTA_SA,ar,release_dfm,2012:Q4,0.0020050161951079247,2.1322293174792337
exact,pre_advance,DELTA_SA,ar,release_dfm,2013:Q1,0.09100039082084721,2.2232297083000807
exact,pre_advance,DELTA_SA,ar,release_dfm,2013:Q2,0.19390107916547772,2.4171307874655583
exact,pre_advance,DELTA_SA,ar,release_dfm,2013:Q3,-0.3479050431917394,2.069225744273819
exact,pre_advance,DELTA_SA,ar,release_dfm,2013:Q4,0.4497329579020104,2.518958702175829
exact,pre_advance,DELTA_SA,ar,release_dfm,2014:Q1,-0.8583308373830141,1.660627864792815
exact,pre_advance,DELTA_SA,ar,release_dfm,2014:Q2,0.3652294107029636,2.0258572754957784
exact,pre_advance,DELTA_SA,ar,release_dfm,2014:Q3,0.01403490485174793,2.0398921803475263
exact,pre_advance,DELTA_SA,ar,release_dfm,2014:Q4,0.08228803521466005,2.1221802155621865
exact,pre_advance,DELTA_SA,ar,release_dfm,2015:Q1,-0.31184236052820247,1.8103378550339841
exact,pre_advance,DELTA_SA,ar,release_dfm,2015:Q2,1.3035716979369338,3.113909552970918
exact,pre_advance,DELTA_SA,ar,release_dfm,2015:Q3,-0.23002657645394253,2.8838829765169756
exact,pre_advance,DELTA_SA,ar,release_dfm,2015:Q4,-0.07014253561235265,2.8137404409046227
exact,pre_advance,DELTA_SA,ar,release_dfm,2016:Q1,-0.06222528198854299,2.75151515891608
exact,pre_advance,DELTA_SA,ar,release_dfm,2016:Q2,0.11559094826535313,2.8671061071814328
exact,pre_advance,DELTA_SA,ar,release_dfm,2016:Q3,0.012368181166111498,2.879474288347544
exact,pre_advance,DELTA_SA,ar,release_dfm,2016:Q4,-2.457762946924194e-05,2.8794497107180748
exact,pre_advance,DELTA_SA,ar,release_dfm,2017:Q1,0.03677153658568007,2.916221247303755
exact,pre_advance,DELTA_SA,ar,release_dfm,2017:Q2,-0.10011724287491425,2.8161040044288406
exact,pre_advance,DELTA_SA,ar,release_dfm,2017:Q3,-0.05757220247213498,2.7585318019567056
exact,pre_advance,DELTA_SA,ar,release_dfm,2017:Q4,-0.018795635845599436,2.739736166111106
exact,pre_advance,DELTA_SA,ar,release_dfm,2018:Q1,-0.07137453950156954,2.6683616266095362
exact,pre_advance,DELTA_SA,ar,release_dfm,2018:Q2,0.02732140167321683,2.695683028282753
exact,pre_advance,DELTA_SA,ar,release_dfm,2018:Q3,-0.01517884791799765,2.680504180364755
exact,pre_advance,DELTA_SA,ar,release_dfm,2019:Q1,0.3056651959381533,2.9861693763029082
exact,pre_advance,DELTA_SA,ar,release_dfm,2019:Q2,-0.006542066970037425,2.9796273093328707
exact,pre_advance,DELTA_SA,ar,release_dfm,2019:Q3,0.0045591534171501615,2.9841864627500208
exact,pre_advance,DELTA_SA,ar,release_dfm,2019:Q4,0.022458742746033496,3.006645205496054
exact,pre_advance,DELTA_SA,ar,release_dfm,2020:Q1,0.07929702576198386,3.0859422312580382
exact,pre_advance,DELTA_SA,ar,release_dfm,2020:Q2,-6.343919910050812,-3.257977678792774
exact,pre_advance,DELTA_SA,ar,release_dfm,2020:Q3,6.585229036056758,3.3272513572639837
exact,pre_advance,DELTA_SA,ar,release_dfm,2020:Q4,0.3553294223382184,3.682580779602202
exact,pre_advance,DELTA_SA,ar,release_dfm,2021:Q1,0.0024895334042018043,3.685070313006404
exact,pre_advance,DELTA_SA,ar,release_dfm,2021:Q2,0.006350212614450523,3.6914205256208543
exact,pre_advance,DELTA_SA,ar,release_dfm,2021:Q3,0.003397448164514412,3.694817973785369
exact,pre_advance,DELTA_SA,ar,release_dfm,2021:Q4,0.00022254856130138077,3.69504052234667
exact,pre_advance,DELTA_SA,ar,release_dfm,2022:Q1,0.02398197233090931,3.719022494677579
exact,pre_advance,DELTA_SA,ar,release_dfm,2022:Q2,0.04202620704813996,3.761048701725719
exact,pre_advance,DELTA_SA,ar,release_dfm,2022:Q3,0.021558902901119156,3.782607604626838
exact,pre_advance,DELTA_SA,ar,release_dfm,2022:Q4,0.007549276239000424,3.7901568808658386
exact,pre_advance,DELTA_SA,ar,release_dfm,2023:Q1,0.0036429627516610056,3.7937998436175
exact,pre_advance,DELTA_SA,ar,release_dfm,2023:Q2,-0.015892029036106203,3.7779078145813934
exact,pre_advance,DELTA_SA,ar,release_dfm,2023:Q3,0.011327669946062588,3.789235484527456
exact,pre_advance,DELTA_SA,ar,release_dfm,2023:Q4,0.01429794297308309,3.8035334275005392
exact,pre_advance,DELTA_SA,ar,release_dfm,2024:Q1,-0.001782041940785073,3.8017513855597542
exact,pre_advance,DELTA_SA,ar,release_dfm,2024:Q2,0.0030115301445589647,3.804762915704313
exact,pre_advance,DELTA_SA,ar,release_dfm,2024:Q3,0.0003461342174390092,3.805109049921752
exact,pre_advance,DELTA_SA,ar,release_dfm,2024:Q4,2.5610952888988313e-05,3.805134660874641
exact,pre_advance,DELTA_SA,ar,revision_dfm_kalman_em,2005:Q1,-0.1033894251501679,-0.1033894251501679
exact,pre_advance,DELTA_SA,ar,revision_dfm_kalman_em,2005:Q2,0.08100467176436904,-0.02238475338579886
exact,pre_advance,DELTA_SA,ar,revision_dfm_kalman_em,2005:Q3,0.13903867161207056,0.1166539182262717
exact,pre_advance,DELTA_SA,ar,revision_dfm_kalman_em,2005:Q4,-0.022331060276487166,0.09432285794978454
exact,pre_advance,DELTA_SA,ar,revision_dfm_kalman_em,2006:Q1,-0.11654888367851923,-0.022226025728734694
exact,pre_advance,DELTA_SA,ar,revision_dfm_kalman_em,2006:Q2,-0.08114915242346987,-0.10337517815220457
exact,pre_advance,DELTA_SA,ar,revision_dfm_kalman_em,2006:Q3,-0.235634558055962,-0.33900973620816655
exact,pre_advance,DELTA_SA,ar,revision_dfm_kalman_em,2006:Q4,1.2219080080043059,0.8828982717961393
exact,pre_advance,DELTA_SA,ar,revision_dfm_kalman_em,2007:Q1,-0.9413700409934442,-0.0584717691973049
exact,pre_advance,DELTA_SA,ar,revision_dfm_kalman_em,2007:Q2,0.5019939006571286,0.44352213145982367
exact,pre_advance,DELTA_SA,ar,revision_dfm_kalman_em,2007:Q3,-0.42108697163950426,0.022435159820319406
exact,pre_advance,DELTA_SA,ar,revision_dfm_kalman_em,2007:Q4,0.20535275400105607,0.22778791382137548
exact,pre_advance,DELTA_SA,ar,revision_dfm_kalman_em,2008:Q1,-0.012249022713134074,0.2155388911082414
exact,pre_advance,DELTA_SA,ar,revision_dfm_kalman_em,2008:Q2,-0.4439274012254608,-0.22838851011721942
exact,pre_advance,DELTA_SA,ar,revision_dfm_kalman_em,2008:Q3,0.9250314353312196,0.6966429252140002
exact,pre_advance,DELTA_SA,ar,revision_dfm_kalman_em,2008:Q4,2.449578049347461,3.1462209745614613
exact,pre_advance,DELTA_SA,ar,revision_dfm_kalman_em,2009:Q1,1.2895854660794135,4.435806440640874
exact,pre_advance,DELTA_SA,ar,revision_dfm_kalman_em,2009:Q2,-0.6105717083234584,3.825234732317416
exact,pre_advance,DELTA_SA,ar,revision_dfm_kalman_em,2009:Q3,-1.193236105219388,2.631998627098028
exact,pre_advance,DELTA_SA,ar,revision_dfm_kalman_em,2009:Q4,0.26714942690495297,2.899148054002981
exact,pre_advance,DELTA_SA,ar,revision_dfm_kalman_em,2010:Q1,-0.23338236295971537,2.6657656910432657
exact,pre_advance,DELTA_SA,ar,revision_dfm_kalman_em,2010:Q2,-0.8804812829985001,1.7852844080447654
exact,pre_advance,DELTA_SA,ar,revision_dfm_kalman_em,2010:Q3,0.6490022666076867,2.4342866746524523
exact,pre_advance,DELTA_SA,ar,revision_dfm_kalman_em,2010:Q4,0.2830034472289824,2.717290121881435
exact,pre_advance,DELTA_SA,ar,revision_dfm_kalman_em,2011:Q1,-0.04459753091818468,2.6726925909632504
exact,pre_advance,DELTA_SA,ar,revision_dfm_kalman_em,2011:Q2,-0.08238871548177104,2.5903038754814793
exact,pre_advance,DELTA_SA,ar,revision_dfm_kalman_em,2011:Q3,-0.40449303822851024,2.185810837252969
exact,pre_advance,DELTA_SA,ar,revision_dfm_kalman_em,2011:Q4,0.1514709871257308,2.3372818243787
exact,pre_advance,DELTA_SA,ar,revision_dfm_kalman_em,2012:Q1,-0.14872164103427496,2.188560183344425
exact,pre_advance,DELTA_SA,ar,revision_dfm_kalman_em,2012:Q2,0.08895138991012003,2.277511573254545
exact,pre_advance,DELTA_SA,ar,revision_dfm_kalman_em,2012:Q3,-0.07148985683807585,2.206021716416469
exact,pre_advance,DELTA_SA,ar,revision_dfm_kalman_em,2012:Q4,-0.002360250446721385,2.2036614659697475
exact,pre_advance,DELTA_SA,ar,revision_dfm_kalman_em,2013:Q1,0.021352383857087542,2.2250138498268353
exact,pre_advance,DELTA_SA,ar,revision_dfm_kalman_em,2013:Q2,0.2665024410629543,2.4915162908897894
exact,pre_advance,DELTA_SA,ar,revision_dfm_kalman_em,2013:Q3,-0.33931000492706687,2.1522062859627225
exact,pre_advance,DELTA_SA,ar,revision_dfm_kalman_em,2013:Q4,0.3532785343648992,2.505484820327622
exact,pre_advance,DELTA_SA,ar,revision_dfm_kalman_em,2014:Q1,-1.2633186323717,1.2421661879559218
exact,pre_advance,DELTA_SA,ar,revision_dfm_kalman_em,2014:Q2,0.31651350756823704,1.5586796955241589
exact,pre_advance,DELTA_SA,ar,revision_dfm_kalman_em,2014:Q3,-0.025834872875856965,1.5328448226483018
exact,pre_advance,DELTA_SA,ar,revision_dfm_kalman_em,2014:Q4,0.037690448678477595,1.5705352713267793
exact,pre_advance,DELTA_SA,ar,revision_dfm_kalman_em,2015:Q1,-0.3270223964746256,1.2435128748521538
exact,pre_advance,DELTA_SA,ar,revision_dfm_kalman_em,2015:Q2,1.5498869938184827,2.7933998686706367
exact,pre_advance,DELTA_SA,ar,revision_dfm_kalman_em,2015:Q3,-0.2548215276969039,2.538578340973733
exact,pre_advance,DELTA_SA,ar,revision_dfm_kalman_em,2015:Q4,-0.11661674099529441,2.4219615999784385
exact,pre_advance,DELTA_SA,ar,revision_dfm_kalman_em,2016:Q1,-0.04259037017366011,2.379371229804778
exact,pre_advance,DELTA_SA,ar,revision_dfm_kalman_em,2016:Q2,0.07015127725153575,2.449522507056314
exact,pre_advance,DELTA_SA,ar,revision_dfm_kalman_em,2016:Q3,0.040076343464335494,2.4895988505206494
exact,pre_advance,DELTA_SA,ar,revision_dfm_kalman_em,2016:Q4,0.006681310624374361,2.4962801611450236
exact,pre_advance,DELTA_SA,ar,revision_dfm_kalman_em,2017:Q1,0.0757949785263659,2.5720751396713895
exact,pre_advance,DELTA_SA,ar,revision_dfm_kalman_em,2017:Q2,-0.021916110558572174,2.5501590291128173
exact,pre_advance,DELTA_SA,ar,revision_dfm_kalman_em,2017:Q3,-0.12241162722422733,2.42774740188859
exact,pre_advance,DELTA_SA,ar,revision_dfm_kalman_em,2017:Q4,-0.1362305845646021,2.291516817323988
exact,pre_advance,DELTA_SA,ar,revision_dfm_kalman_em,2018:Q1,-0.12373848656719139,2.167778330756797
exact,pre_advance,DELTA_SA,ar,revision_dfm_kalman_em,2018:Q2,0.023137346976825155,2.190915677733622
exact,pre_advance,DELTA_SA,ar,revision_dfm_kalman_em,2018:Q3,-0.014432851639123346,2.1764828260944986
exact,pre_advance,DELTA_SA,ar,revision_dfm_kalman_em,2019:Q1,0.30431179757992877,2.480794623674427
exact,pre_advance,DELTA_SA,ar,revision_dfm_kalman_em,2019:Q2,-0.004670472735359039,2.476124150939068
exact,pre_advance,DELTA_SA,ar,revision_dfm_kalman_em,2019:Q3,0.018158861736251263,2.4942830126753193
exact,pre_advance,DELTA_SA,ar,revision_dfm_kalman_em,2019:Q4,0.020562125776679263,2.5148451384519985
exact,pre_advance,DELTA_SA,ar,revision_dfm_kalman_em,2020:Q1,0.10686743388397014,2.621712572335969
exact,pre_advance,DELTA_SA,ar,revision_dfm_kalman_em,2020:Q2,-4.61332419377735,-1.9916116214413813
exact,pre_advance,DELTA_SA,ar,revision_dfm_kalman_em,2020:Q3,6.056449377336998,4.064837755895617
exact,pre_advance,DELTA_SA,ar,revision_dfm_kalman_em,2020:Q4,0.2466761662988905,4.311513922194507
exact,pre_advance,DELTA_SA,ar,revision_dfm_kalman_em,2021:Q1,-0.03849138994224588,4.273022532252261
exact,pre_advance,DELTA_SA,ar,revision_dfm_kalman_em,2021:Q2,0.0021345837091250285,4.275157115961386
exact,pre_advance,DELTA_SA,ar,revision_dfm_kalman_em,2021:Q3,0.0019622134435941874,4.2771193294049805
exact,pre_advance,DELTA_SA,ar,revision_dfm_kalman_em,2021:Q4,-0.011504816897167593,4.265614512507813
exact,pre_advance,DELTA_SA,ar,revision_dfm_kalman_em,2022:Q1,0.017838620997732133,4.283453133505545
exact,pre_advance,DELTA_SA,ar,revision_dfm_kalman_em,2022:Q2,0.11132401548822823,4.394777148993773
exact,pre_advance,DELTA_SA,ar,revision_dfm_kalman_em,2022:Q3,0.08478821021826484,4.479565359212038
exact,pre_advance,DELTA_SA,ar,revision_dfm_kalman_em,2022:Q4,0.0002587181562043045,4.479824077368242
exact,pre_advance,DELTA_SA,ar,revision_dfm_kalman_em,2023:Q1,0.0014731200687434862,4.4812971974369855
exact,pre_advance,DELTA_SA,ar,revision_dfm_kalman_em,2023:Q2,-0.057331251351193574,4.423965946085792
exact,pre_advance,DELTA_SA,ar,revision_dfm_kalman_em,2023:Q3,0.031936913731324436,4.455902859817116
exact,pre_advance,DELTA_SA,ar,revision_dfm_kalman_em,2023:Q4,0.028764124940141467,4.484666984757258
exact,pre_advance,DELTA_SA,ar,revision_dfm_kalman_em,2024:Q1,0.021871851902906053,4.506538836660164
exact,pre_advance,DELTA_SA,ar,revision_dfm_kalman_em,2024:Q2,0.001979891450180733,4.508518728110345
exact,pre_advance,DELTA_SA,ar,revision_dfm_kalman_em,2024:Q3,-0.007024414420037416,4.501494313690308
exact,pre_advance,DELTA_SA,ar,revision_dfm_kalman_em,2024:Q4,1.740146055278713e-05,4.50151171515086
exact,pre_advance,DELTA_SA,ar,standard_dfm,2005:Q1,-0.06457257404199196,-0.06457257404199196
exact,pre_advance,DELTA_SA,ar,standard_dfm,2005:Q2,0.05392100705411307,-0.010651566987878891
exact,pre_advance,DELTA_SA,ar,standard_dfm,2005:Q3,0.12191070539466523,0.11125913840678633
exact,pre_advance,DELTA_SA,ar,standard_dfm,2005:Q4,-0.03851182739693809,0.07274731100984824
exact,pre_advance,DELTA_SA,ar,standard_dfm,2006:Q1,-0.09630907940028732,-0.02356176839043908
exact,pre_advance,DELTA_SA,ar,standard_dfm,2006:Q2,-0.006343046395281451,-0.029904814785720532
exact,pre_advance,DELTA_SA,ar,standard_dfm,2006:Q3,-0.1027035776815714,-0.13260839246729195
exact,pre_advance,DELTA_SA,ar,standard_dfm,2006:Q4,1.0276047402758972,0.8949963478086053
exact,pre_advance,DELTA_SA,ar,standard_dfm,2007:Q1,-0.41408575323464875,0.4809105945739565
exact,pre_advance,DELTA_SA,ar,standard_dfm,2007:Q2,0.3272665697635969,0.8081771643375535
exact,pre_advance,DELTA_SA,ar,standard_dfm,2007:Q3,-0.3348463681699476,0.47333079616760587
exact,pre_advance,DELTA_SA,ar,standard_dfm,2007:Q4,0.23170019018880766,0.7050309863564135
exact,pre_advance,DELTA_SA,ar,standard_dfm,2008:Q1,-0.09998664863071874,0.6050443377256948
exact,pre_advance,DELTA_SA,ar,standard_dfm,2008:Q2,-0.7880304720767588,-0.18298613435106403
exact,pre_advance,DELTA_SA,ar,standard_dfm,2008:Q3,0.9004291296287449,0.7174429952776809
exact,pre_advance,DELTA_SA,ar,standard_dfm,2008:Q4,2.0518569757106633,2.769299970988344
exact,pre_advance,DELTA_SA,ar,standard_dfm,2009:Q1,-1.309095775368377,1.4602041956199672
exact,pre_advance,DELTA_SA,ar,standard_dfm,2009:Q2,0.29556918667558446,1.7557733822955517
exact,pre_advance,DELTA_SA,ar,standard_dfm,2009:Q3,0.06344779921680854,1.8192211815123602
exact,pre_advance,DELTA_SA,ar,standard_dfm,2009:Q4,0.2826198032348088,2.101840984747169
exact,pre_advance,DELTA_SA,ar,standard_dfm,2010:Q1,-0.23945245033583445,1.8623885344113345
exact,pre_advance,DELTA_SA,ar,standard_dfm,2010:Q2,-0.43427508410354076,1.4281134503077937
exact,pre_advance,DELTA_SA,ar,standard_dfm,2010:Q3,0.5008024804713807,1.9289159307791743
exact,pre_advance,DELTA_SA,ar,standard_dfm,2010:Q4,0.25584879905282176,2.184764729831996
exact,pre_advance,DELTA_SA,ar,standard_dfm,2011:Q1,0.016558704882427375,2.2013234347144235
exact,pre_advance,DELTA_SA,ar,standard_dfm,2011:Q2,0.014075986477936259,2.2153994211923598
exact,pre_advance,DELTA_SA,ar,standard_dfm,2011:Q3,-0.15806562807392172,2.057333793118438
exact,pre_advance,DELTA_SA,ar,standard_dfm,2011:Q4,0.1550867166435113,2.2124205097619494
exact,pre_advance,DELTA_SA,ar,standard_dfm,2012:Q1,-0.06456927922788744,2.147851230534062
exact,pre_advance,DELTA_SA,ar,standard_dfm,2012:Q2,0.07649001778942476,2.2243412483234866
exact,pre_advance,DELTA_SA,ar,standard_dfm,2012:Q3,-0.09411694703936069,2.1302243012841258
exact,pre_advance,DELTA_SA,ar,standard_dfm,2012:Q4,0.0020050161951079247,2.1322293174792337
exact,pre_advance,DELTA_SA,ar,standard_dfm,2013:Q1,0.09100039082084721,2.2232297083000807
exact,pre_advance,DELTA_SA,ar,standard_dfm,2013:Q2,0.19390107916547772,2.4171307874655583
exact,pre_advance,DELTA_SA,ar,standard_dfm,2013:Q3,-0.3479050431917394,2.069225744273819
exact,pre_advance,DELTA_SA,ar,standard_dfm,2013:Q4,0.4497329579020104,2.518958702175829
exact,pre_advance,DELTA_SA,ar,standard_dfm,2014:Q1,-0.8583308373830141,1.660627864792815
exact,pre_advance,DELTA_SA,ar,standard_dfm,2014:Q2,0.3652294107029636,2.0258572754957784
exact,pre_advance,DELTA_SA,ar,standard_dfm,2014:Q3,0.01403490485174793,2.0398921803475263
exact,pre_advance,DELTA_SA,ar,standard_dfm,2014:Q4,0.08228803521466005,2.1221802155621865
exact,pre_advance,DELTA_SA,ar,standard_dfm,2015:Q1,-0.31184236052820247,1.8103378550339841
exact,pre_advance,DELTA_SA,ar,standard_dfm,2015:Q2,1.3035716979369338,3.113909552970918
exact,pre_advance,DELTA_SA,ar,standard_dfm,2015:Q3,-0.23002657645394253,2.8838829765169756
exact,pre_advance,DELTA_SA,ar,standard_dfm,2015:Q4,-0.07014253561235265,2.8137404409046227
exact,pre_advance,DELTA_SA,ar,standard_dfm,2016:Q1,-0.06222528198854299,2.75151515891608
exact,pre_advance,DELTA_SA,ar,standard_dfm,2016:Q2,0.11559094826535313,2.8671061071814328
exact,pre_advance,DELTA_SA,ar,standard_dfm,2016:Q3,0.012368181166111498,2.879474288347544
exact,pre_advance,DELTA_SA,ar,standard_dfm,2016:Q4,-2.457762946924194e-05,2.8794497107180748
exact,pre_advance,DELTA_SA,ar,standard_dfm,2017:Q1,0.03677153658568007,2.916221247303755
exact,pre_advance,DELTA_SA,ar,standard_dfm,2017:Q2,-0.10011724287491425,2.8161040044288406
exact,pre_advance,DELTA_SA,ar,standard_dfm,2017:Q3,-0.05757220247213498,2.7585318019567056
exact,pre_advance,DELTA_SA,ar,standard_dfm,2017:Q4,-0.018795635845599436,2.739736166111106
exact,pre_advance,DELTA_SA,ar,standard_dfm,2018:Q1,-0.07137453950156954,2.6683616266095362
exact,pre_advance,DELTA_SA,ar,standard_dfm,2018:Q2,0.02732140167321683,2.695683028282753
exact,pre_advance,DELTA_SA,ar,standard_dfm,2018:Q3,-0.01517884791799765,2.680504180364755
exact,pre_advance,DELTA_SA,ar,standard_dfm,2019:Q1,0.3056651959381533,2.9861693763029082
exact,pre_advance,DELTA_SA,ar,standard_dfm,2019:Q2,-0.006542066970037425,2.9796273093328707
exact,pre_advance,DELTA_SA,ar,standard_dfm,2019:Q3,0.0045591534171501615,2.9841864627500208
exact,pre_advance,DELTA_SA,ar,standard_dfm,2019:Q4,0.022458742746033496,3.006645205496054
exact,pre_advance,DELTA_SA,ar,standard_dfm,2020:Q1,0.07929702576198386,3.0859422312580382
exact,pre_advance,DELTA_SA,ar,standard_dfm,2020:Q2,-6.343919910050812,-3.257977678792774
exact,pre_advance,DELTA_SA,ar,standard_dfm,2020:Q3,6.585229036056758,3.3272513572639837
exact,pre_advance,DELTA_SA,ar,standard_dfm,2020:Q4,0.3553294223382184,3.682580779602202
exact,pre_advance,DELTA_SA,ar,standard_dfm,2021:Q1,0.0024895334042018043,3.685070313006404
exact,pre_advance,DELTA_SA,ar,standard_dfm,2021:Q2,0.006350212614450523,3.6914205256208543
exact,pre_advance,DELTA_SA,ar,standard_dfm,2021:Q3,0.003397448164514412,3.694817973785369
exact,pre_advance,DELTA_SA,ar,standard_dfm,2021:Q4,0.00022254856130138077,3.69504052234667
exact,pre_advance,DELTA_SA,ar,standard_dfm,2022:Q1,0.02398197233090931,3.719022494677579
exact,pre_advance,DELTA_SA,ar,standard_dfm,2022:Q2,0.04202620704813996,3.761048701725719
exact,pre_advance,DELTA_SA,ar,standard_dfm,2022:Q3,0.021558902901119156,3.782607604626838
exact,pre_advance,DELTA_SA,ar,standard_dfm,2022:Q4,0.007549276239000424,3.7901568808658386
exact,pre_advance,DELTA_SA,ar,standard_dfm,2023:Q1,0.0036429627516610056,3.7937998436175
exact,pre_advance,DELTA_SA,ar,standard_dfm,2023:Q2,-0.015892029036106203,3.7779078145813934
exact,pre_advance,DELTA_SA,ar,standard_dfm,2023:Q3,0.011327669946062588,3.789235484527456
exact,pre_advance,DELTA_SA,ar,standard_dfm,2023:Q4,0.01429794297308309,3.8035334275005392
exact,pre_advance,DELTA_SA,ar,standard_dfm,2024:Q1,-0.001782041940785073,3.8017513855597542
exact,pre_advance,DELTA_SA,ar,standard_dfm,2024:Q2,0.0030115301445589647,3.804762915704313
exact,pre_advance,DELTA_SA,ar,standard_dfm,2024:Q3,0.0003461342174390092,3.805109049921752
exact,pre_advance,DELTA_SA,ar,standard_dfm,2024:Q4,2.5610952888988313e-05,3.805134660874641
exact,pre_advance,DELTA_SA,no_revision,ar,2005:Q1,0.15257503321613658,0.15257503321613658
exact,pre_advance,DELTA_SA,no_revision,ar,2005:Q2,-0.10304262774761302,0.049532405468523555
exact,pre_advance,DELTA_SA,no_revision,ar,2005:Q3,-0.03151683579611303,0.018015569672410525
exact,pre_advance,DELTA_SA,no_revision,ar,2005:Q4,0.17958946757420496,0.1976050372466155
exact,pre_advance,DELTA_SA,no_revision,ar,2006:Q1,0.22225097588053042,0.41985601312714593
exact,pre_advance,DELTA_SA,no_revision,ar,2006:Q2,0.1338214718146227,0.5536774849417686
exact,pre_advance,DELTA_SA,no_revision,ar,2006:Q3,0.2655324769569707,0.8192099618987393
exact,pre_advance,DELTA_SA,no_revision,ar,2006:Q4,-1.1280810824986391,-0.30887112059989985
exact,pre_advance,DELTA_SA,no_revision,ar,2007:Q1,0.36488258133290913,0.05601146073300928
exact,pre_advance,DELTA_SA,no_revision,ar,2007:Q2,-0.2101220628635298,-0.15411060213052052
exact,pre_advance,DELTA_SA,no_revision,ar,2007:Q3,0.5038879623481906,0.34977736021767003
exact,pre_advance,DELTA_SA,no_revision,ar,2007:Q4,-0.23194641324995732,0.11783094696771271
exact,pre_advance,DELTA_SA,no_revision,ar,2008:Q1,0.06565748592115798,0.18348843288887068
exact,pre_advance,DELTA_SA,no_revision,ar,2008:Q2,0.7051418869943866,0.8886303198832572
exact,pre_advance,DELTA_SA,no_revision,ar,2008:Q3,-0.8839041046210189,0.004726215262238376
exact,pre_advance,DELTA_SA,no_revision,ar,2008:Q4,-0.39399862829546173,-0.38927241303322335
exact,pre_advance,DELTA_SA,no_revision,ar,2009:Q1,-1.3203689037955737,-1.709641316828797
exact,pre_advance,DELTA_SA,no_revision,ar,2009:Q2,-0.36877932291984866,-2.0784206397486455
exact,pre_advance,DELTA_SA,no_revision,ar,2009:Q3,-0.31974831955083616,-2.3981689592994817
exact,pre_advance,DELTA_SA,no_revision,ar,2009:Q4,-0.2461874095178597,-2.6443563688173413
exact,pre_advance,DELTA_SA,no_revision,ar,2010:Q1,-0.012274663642203441,-2.656631032459545
exact,pre_advance,DELTA_SA,no_revision,ar,2010:Q2,0.10097637669884518,-2.5556546557606996
exact,pre_advance,DELTA_SA,no_revision,ar,2010:Q3,-0.41001530272678194,-2.9656699584874815
exact,pre_advance,DELTA_SA,no_revision,ar,2010:Q4,-0.33708017745408314,-3.3027501359415647
exact,pre_advance,DELTA_SA,no_revision,ar,2011:Q1,-0.05273638935335863,-3.3554865252949235
exact,pre_advance,DELTA_SA,no_revision,ar,2011:Q2,-0.0864949621817803,-3.4419814874767036
exact,pre_advance,DELTA_SA,no_revision,ar,2011:Q3,0.03822954602021156,-3.403751941456492
exact,pre_advance,DELTA_SA,no_revision,ar,2011:Q4,-0.1042486389810256,-3.5080005804375176
exact,pre_advance,DELTA_SA,no_revision,ar,2012:Q1,-0.12270345028699549,-3.6307040307245133
exact,pre_advance,DELTA_SA,no_revision,ar,2012:Q2,-0.05124300972150874,-3.681947040446022
exact,pre_advance,DELTA_SA,no_revision,ar,2012:Q3,0.19803121584843814,-3.483915824597584
exact,pre_advance,DELTA_SA,no_revision,ar,2012:Q4,0.06160444841889918,-3.4223113761786847
exact,pre_advance,DELTA_SA,no_revision,ar,2013:Q1,-0.13839352919058448,-3.560704905369269
exact,pre_advance,DELTA_SA,no_revision,ar,2013:Q2,-0.010665904843470964,-3.5713708102127404
exact,pre_advance,DELTA_SA,no_revision,ar,2013:Q3,0.49085393179229264,-3.0805168784204477
exact,pre_advance,DELTA_SA,no_revision,ar,2013:Q4,-0.8147882022650561,-3.895305080685504
exact,pre_advance,DELTA_SA,no_revision,ar,2014:Q1,0.6728261778290336,-3.22247890285647
exact,pre_advance,DELTA_SA,no_revision,ar,2014:Q2,-0.3153905835886226,-3.537869486445093
exact,pre_advance,DELTA_SA,no_revision,ar,2014:Q3,0.05736992828325174,-3.480499558161841
exact,pre_advance,DELTA_SA,no_revision,ar,2014:Q4,-0.18045818425062124,-3.6609577424124624
exact,pre_advance,DELTA_SA,no_revision,ar,2015:Q1,0.30424364925329495,-3.3567140931591677
exact,pre_advance,DELTA_SA,no_revision,ar,2015:Q2,-1.0249249122593762,-4.381639005418544
exact,pre_advance,DELTA_SA,no_revision,ar,2015:Q3,0.3345827492334456,-4.0470562561850985
exact,pre_advance,DELTA_SA,no_revision,ar,2015:Q4,0.09676443992777004,-3.9502918162573284
exact,pre_advance,DELTA_SA,no_revision,ar,2016:Q1,0.09029065158363185,-3.8600011646736965
exact,pre_advance,DELTA_SA,no_revision,ar,2016:Q2,-0.1360297525459644,-3.996030917219661
exact,pre_advance,DELTA_SA,no_revision,ar,2016:Q3,0.021175007572158712,-3.974855909647502
exact,pre_advance,DELTA_SA,no_revision,ar,2016:Q4,-0.02734587565242416,-4.002201785299926
exact,pre_advance,DELTA_SA,no_revision,ar,2017:Q1,0.056295362083760514,-3.945906423216165
exact,pre_advance,DELTA_SA,no_revision,ar,2017:Q2,0.1998229027002102,-3.746083520515955
exact,pre_advance,DELTA_SA,no_revision,ar,2017:Q3,0.09239460605426397,-3.653688914461691
exact,pre_advance,DELTA_SA,no_revision,ar,2017:Q4,-0.035699658663772574,-3.6893885731254636
exact,pre_advance,DELTA_SA,no_revision,ar,2018:Q1,-0.012703611098869368,-3.702092184224333
exact,pre_advance,DELTA_SA,no_revision,ar,2018:Q2,-0.0030213569949030655,-3.705113541219236
exact,pre_advance,DELTA_SA,no_revision,ar,2018:Q3,-0.0032310710133240618,-3.70834461223256
exact,pre_advance,DELTA_SA,no_revision,ar,2019:Q1,-0.3134694480182471,-4.021814060250807
exact,pre_advance,DELTA_SA,no_revision,ar,2019:Q2,0.00020861065790184213,-4.021605449592905
exact,pre_advance,DELTA_SA,no_revision,ar,2019:Q3,0.020795440927072837,-4.000810008665832
exact,pre_advance,DELTA_SA,no_revision,ar,2019:Q4,-0.022807340587339162,-4.023617349253171
exact,pre_advance,DELTA_SA,no_revision,ar,2020:Q1,-0.04374626691208146,-4.067363616165252
exact,pre_advance,DELTA_SA,no_revision,ar,2020:Q2,0.4848885887598303,-3.582475027405422
exact,pre_advance,DELTA_SA,no_revision,ar,2020:Q3,-6.6030936783793335,-10.185568705784755
exact,pre_advance,DELTA_SA,no_revision,ar,2020:Q4,-0.3494364241901803,-10.535005129974936
exact,pre_advance,DELTA_SA,no_revision,ar,2021:Q1,-0.010481372036795358,-10.54548650201173
exact,pre_advance,DELTA_SA,no_revision,ar,2021:Q2,-0.005674643654305938,-10.551161145666036
exact,pre_advance,DELTA_SA,no_revision,ar,2021:Q3,0.00428446848418562,-10.546876677181851
exact,pre_advance,DELTA_SA,no_revision,ar,2021:Q4,0.009636975615624089,-10.537239701566227
exact,pre_advance,DELTA_SA,no_revision,ar,2022:Q1,-0.05376352283472801,-10.591003224400955
exact,pre_advance,DELTA_SA,no_revision,ar,2022:Q2,0.01747374549873487,-10.57352947890222
exact,pre_advance,DELTA_SA,no_revision,ar,2022:Q3,0.038912176234116996,-10.534617302668103
exact,pre_advance,DELTA_SA,no_revision,ar,2022:Q4,-0.058622083054108,-10.59323938572221
exact,pre_advance,DELTA_SA,no_revision,ar,2023:Q1,0.02740533844308022,-10.56583404727913
exact,pre_advance,DELTA_SA,no_revision,ar,2023:Q2,-0.06172819389498699,-10.627562241174118
exact,pre_advance,DELTA_SA,no_revision,ar,2023:Q3,0.03194758936873526,-10.595614651805382
exact,pre_advance,DELTA_SA,no_revision,ar,2023:Q4,-0.03690159867203891,-10.63251625047742
exact,pre_advance,DELTA_SA,no_revision,ar,2024:Q1,-0.07155817897030346,-10.704074429447724
exact,pre_advance,DELTA_SA,no_revision,ar,2024:Q2,0.009033581491366181,-10.695040847956358
exact,pre_advance,DELTA_SA,no_revision,ar,2024:Q3,-0.00727617350536104,-10.702317021461718
exact,pre_advance,DELTA_SA,no_revision,ar,2024:Q4,0.008788760628669104,-10.69352826083305
exact,pre_advance,DELTA_SA,no_revision,bridge,2005:Q1,0.13872897581163213,0.13872897581163213
exact,pre_advance,DELTA_SA,no_revision,bridge,2005:Q2,-0.10469290694489651,0.034036068866735616
exact,pre_advance,DELTA_SA,no_revision,bridge,2005:Q3,-0.15040667599317942,-0.1163706071264438
exact,pre_advance,DELTA_SA,no_revision,bridge,2005:Q4,0.1762057909010389,0.05983518377459511
exact,pre_advance,DELTA_SA,no_revision,bridge,2006:Q1,0.17380909119599736,0.23364427497059248
exact,pre_advance,DELTA_SA,no_revision,bridge,2006:Q2,-0.0033041605851341083,0.23034011438545837
exact,pre_advance,DELTA_SA,no_revision,bridge,2006:Q3,0.20124103131955867,0.43158114570501704
exact,pre_advance,DELTA_SA,no_revision,bridge,2006:Q4,-0.782501891643536,-0.35092074593851896
exact,pre_advance,DELTA_SA,no_revision,bridge,2007:Q1,0.35705855019610977,0.0061378042575908065
exact,pre_advance,DELTA_SA,no_revision,bridge,2007:Q2,-0.14115574401889486,-0.13501793976130405
exact,pre_advance,DELTA_SA,no_revision,bridge,2007:Q3,0.5636917032429613,0.4286737634816572
exact,pre_advance,DELTA_SA,no_revision,bridge,2007:Q4,-0.244144269819372,0.1845294936622852
exact,pre_advance,DELTA_SA,no_revision,bridge,2008:Q1,0.06131288781719704,0.24584238147948223
exact,pre_advance,DELTA_SA,no_revision,bridge,2008:Q2,0.13073477563098468,0.3765771571104669
exact,pre_advance,DELTA_SA,no_revision,bridge,2008:Q3,-0.2648840595619838,0.11169309754848311
exact,pre_advance,DELTA_SA,no_revision,bridge,2008:Q4,3.5566140690402865,3.66830716658877
exact,pre_advance,DELTA_SA,no_revision,bridge,2009:Q1,-7.419249105638873,-3.7509419390501035
exact,pre_advance,DELTA_SA,no_revision,bridge,2009:Q2,-0.24196561609657893,-3.9929075551466826
exact,pre_advance,DELTA_SA,no_revision,bridge,2009:Q3,-0.3879792115458931,-4.3808867666925755
exact,pre_advance,DELTA_SA,no_revision,bridge,2009:Q4,-0.28105586070264893,-4.6619426273952245
exact,pre_advance,DELTA_SA,no_revision,bridge,2010:Q1,-0.10094736583874375,-4.762889993233968
exact,pre_advance,DELTA_SA,no_revision,bridge,2010:Q2,0.0073939228196185924,-4.75549607041435
exact,pre_advance,DELTA_SA,no_revision,bridge,2010:Q3,-0.31509313295305513,-5.070589203367405
exact,pre_advance,DELTA_SA,no_revision,bridge,2010:Q4,-0.9034792141083648,-5.974068417475769
exact,pre_advance,DELTA_SA,no_revision,bridge,2011:Q1,-0.045895162760471446,-6.019963580236241
exact,pre_advance,DELTA_SA,no_revision,bridge,2011:Q2,-0.19151317974943005,-6.211476759985671
exact,pre_advance,DELTA_SA,no_revision,bridge,2011:Q3,-0.08325527853528197,-6.294732038520953
exact,pre_advance,DELTA_SA,no_revision,bridge,2011:Q4,-0.0413702189655959,-6.336102257486549
exact,pre_advance,DELTA_SA,no_revision,bridge,2012:Q1,-0.15859116333028828,-6.494693420816837
exact,pre_advance,DELTA_SA,no_revision,bridge,2012:Q2,-0.10006699182705994,-6.594760412643897
exact,pre_advance,DELTA_SA,no_revision,bridge,2012:Q3,0.20580628537110726,-6.38895412727279
exact,pre_advance,DELTA_SA,no_revision,bridge,2012:Q4,0.06587583351807778,-6.323078293754712
exact,pre_advance,DELTA_SA,no_revision,bridge,2013:Q1,-0.05173132842255527,-6.374809622177267
exact,pre_advance,DELTA_SA,no_revision,bridge,2013:Q2,0.014831071369016402,-6.3599785508082505
exact,pre_advance,DELTA_SA,no_revision,bridge,2013:Q3,0.42564500797830773,-5.934333542829942
exact,pre_advance,DELTA_SA,no_revision,bridge,2013:Q4,-1.2631483242591597,-7.1974818670891025
exact,pre_advance,DELTA_SA,no_revision,bridge,2014:Q1,0.7569160071134233,-6.440565859975679
exact,pre_advance,DELTA_SA,no_revision,bridge,2014:Q2,-0.15264110705323486,-6.593206967028914
exact,pre_advance,DELTA_SA,no_revision,bridge,2014:Q3,0.07832510899577891,-6.514881858033135
exact,pre_advance,DELTA_SA,no_revision,bridge,2014:Q4,-0.13705782032158967,-6.651939678354725
exact,pre_advance,DELTA_SA,no_revision,bridge,2015:Q1,0.4014697767237323,-6.250469901630993
exact,pre_advance,DELTA_SA,no_revision,bridge,2015:Q2,-0.4979232940191831,-6.748393195650176
exact,pre_advance,DELTA_SA,no_revision,bridge,2015:Q3,0.3409963676186283,-6.407396828031548
exact,pre_advance,DELTA_SA,no_revision,bridge,2015:Q4,0.0972279872791933,-6.310168840752354
exact,pre_advance,DELTA_SA,no_revision,bridge,2016:Q1,0.061597284036761374,-6.248571556715593
exact,pre_advance,DELTA_SA,no_revision,bridge,2016:Q2,-0.1430101697151514,-6.391581726430744
exact,pre_advance,DELTA_SA,no_revision,bridge,2016:Q3,0.02978637603817374,-6.361795350392571
exact,pre_advance,DELTA_SA,no_revision,bridge,2016:Q4,-0.02833064064415666,-6.390125991036728
exact,pre_advance,DELTA_SA,no_revision,bridge,2017:Q1,0.06242395788596877,-6.327702033150759
exact,pre_advance,DELTA_SA,no_revision,bridge,2017:Q2,0.17471543567711162,-6.152986597473648
exact,pre_advance,DELTA_SA,no_revision,bridge,2017:Q3,0.09391708258736975,-6.059069514886278
exact,pre_advance,DELTA_SA,no_revision,bridge,2017:Q4,-0.048232055356594986,-6.107301570242873
exact,pre_advance,DELTA_SA,no_revision,bridge,2018:Q1,-0.01372913737517556,-6.121030707618049
exact,pre_advance,DELTA_SA,no_revision,bridge,2018:Q2,0.021574368172287754,-6.099456339445761
exact,pre_advance,DELTA_SA,no_revision,bridge,2018:Q3,-0.006093663891220615,-6.105550003336982
exact,pre_advance,DELTA_SA,no_revision,bridge,2019:Q1,-0.6157461141295999,-6.721296117466582
exact,pre_advance,DELTA_SA,no_revision,bridge,2019:Q2,-0.004527295201637802,-6.72582341266822
exact,pre_advance,DELTA_SA,no_revision,bridge,2019:Q3,0.036136605743878635,-6.689686806924341
exact,pre_advance,DELTA_SA,no_revision,bridge,2019:Q4,-0.06731099954726356,-6.756997806471604
exact,pre_advance,DELTA_SA,no_revision,bridge,2020:Q1,0.0006398140758079179,-6.756357992395796
exact,pre_advance,DELTA_SA,no_revision,bridge,2020:Q2,-2.609151252294237,-9.365509244690033
exact,pre_advance,DELTA_SA,no_revision,bridge,2020:Q3,-5.185446373028794,-14.550955617718827
exact,pre_advance,DELTA_SA,no_revision,bridge,2020:Q4,0.0005276107390586081,-14.550428006979768
exact,pre_advance,DELTA_SA,no_revision,bridge,2021:Q1,-0.02384443223007639,-14.574272439209844
exact,pre_advance,DELTA_SA,no_revision,bridge,2021:Q2,-0.04144876016875458,-14.6157211993786
exact,pre_advance,DELTA_SA,no_revision,bridge,2021:Q3,0.007579934344672402,-14.608141265033927
exact,pre_advance,DELTA_SA,no_revision,bridge,2021:Q4,0.007746608209400742,-14.600394656824527
exact,pre_advance,DELTA_SA,no_revision,bridge,2022:Q1,-0.08791868219042155,-14.688313339014949
exact,pre_advance,DELTA_SA,no_revision,bridge,2022:Q2,6.444244692915824e-05,-14.68824889656802
exact,pre_advance,DELTA_SA,no_revision,bridge,2022:Q3,0.04802032621000486,-14.640228570358016
exact,pre_advance,DELTA_SA,no_revision,bridge,2022:Q4,-0.13264085899734385,-14.77286942935536
exact,pre_advance,DELTA_SA,no_revision,bridge,2023:Q1,0.03013095915636522,-14.742738470198995
exact,pre_advance,DELTA_SA,no_revision,bridge,2023:Q2,-0.27456811467170655,-15.017306584870703
exact,pre_advance,DELTA_SA,no_revision,bridge,2023:Q3,0.0028127103554888427,-15.014493874515214
exact,pre_advance,DELTA_SA,no_revision,bridge,2023:Q4,-0.09179889922938826,-15.106292773744602
exact,pre_advance,DELTA_SA,no_revision,bridge,2024:Q1,0.011523780206793927,-15.094768993537809
exact,pre_advance,DELTA_SA,no_revision,bridge,2024:Q2,-0.03186592763183746,-15.126634921169646
exact,pre_advance,DELTA_SA,no_revision,bridge,2024:Q3,-0.005197255911792052,-15.131832177081439
exact,pre_advance,DELTA_SA,no_revision,bridge,2024:Q4,0.008645112674929342,-15.12318706440651
exact,pre_advance,DELTA_SA,no_revision,indicator_revision_only_dfm_kalman_em,2005:Q1,0.0,0.0
exact,pre_advance,DELTA_SA,no_revision,indicator_revision_only_dfm_kalman_em,2005:Q2,0.0,0.0
exact,pre_advance,DELTA_SA,no_revision,indicator_revision_only_dfm_kalman_em,2005:Q3,0.0,0.0
exact,pre_advance,DELTA_SA,no_revision,indicator_revision_only_dfm_kalman_em,2005:Q4,0.0,0.0
exact,pre_advance,DELTA_SA,no_revision,indicator_revision_only_dfm_kalman_em,2006:Q1,0.0,0.0
exact,pre_advance,DELTA_SA,no_revision,indicator_revision_only_dfm_kalman_em,2006:Q2,0.0,0.0
exact,pre_advance,DELTA_SA,no_revision,indicator_revision_only_dfm_kalman_em,2006:Q3,0.0,0.0
exact,pre_advance,DELTA_SA,no_revision,indicator_revision_only_dfm_kalman_em,2006:Q4,0.0,0.0
exact,pre_advance,DELTA_SA,no_revision,indicator_revision_only_dfm_kalman_em,2007:Q1,0.0,0.0
exact,pre_advance,DELTA_SA,no_revision,indicator_revision_only_dfm_kalman_em,2007:Q2,0.0,0.0
exact,pre_advance,DELTA_SA,no_revision,indicator_revision_only_dfm_kalman_em,2007:Q3,0.0,0.0
exact,pre_advance,DELTA_SA,no_revision,indicator_revision_only_dfm_kalman_em,2007:Q4,0.0,0.0
exact,pre_advance,DELTA_SA,no_revision,indicator_revision_only_dfm_kalman_em,2008:Q1,0.0,0.0
exact,pre_advance,DELTA_SA,no_revision,indicator_revision_only_dfm_kalman_em,2008:Q2,0.0,0.0
exact,pre_advance,DELTA_SA,no_revision,indicator_revision_only_dfm_kalman_em,2008:Q3,0.0,0.0
exact,pre_advance,DELTA_SA,no_revision,indicator_revision_only_dfm_kalman_em,2008:Q4,0.0,0.0
exact,pre_advance,DELTA_SA,no_revision,indicator_revision_only_dfm_kalman_em,2009:Q1,0.0,0.0
exact,pre_advance,DELTA_SA,no_revision,indicator_revision_only_dfm_kalman_em,2009:Q2,0.0,0.0
exact,pre_advance,DELTA_SA,no_revision,indicator_revision_only_dfm_kalman_em,2009:Q3,0.0,0.0
exact,pre_advance,DELTA_SA,no_revision,indicator_revision_only_dfm_kalman_em,2009:Q4,0.0,0.0
exact,pre_advance,DELTA_SA,no_revision,indicator_revision_only_dfm_kalman_em,2010:Q1,0.0,0.0
exact,pre_advance,DELTA_SA,no_revision,indicator_revision_only_dfm_kalman_em,2010:Q2,0.0,0.0
exact,pre_advance,DELTA_SA,no_revision,indicator_revision_only_dfm_kalman_em,2010:Q3,0.0,0.0
exact,pre_advance,DELTA_SA,no_revision,indicator_revision_only_dfm_kalman_em,2010:Q4,0.0,0.0
exact,pre_advance,DELTA_SA,no_revision,indicator_revision_only_dfm_kalman_em,2011:Q1,0.0,0.0
exact,pre_advance,DELTA_SA,no_revision,indicator_revision_only_dfm_kalman_em,2011:Q2,0.0,0.0
exact,pre_advance,DELTA_SA,no_revision,indicator_revision_only_dfm_kalman_em,2011:Q3,0.0,0.0
exact,pre_advance,DELTA_SA,no_revision,indicator_revision_only_dfm_kalman_em,2011:Q4,0.0,0.0
exact,pre_advance,DELTA_SA,no_revision,indicator_revision_only_dfm_kalman_em,2012:Q1,0.0,0.0
exact,pre_advance,DELTA_SA,no_revision,indicator_revision_only_dfm_kalman_em,2012:Q2,0.0,0.0
exact,pre_advance,DELTA_SA,no_revision,indicator_revision_only_dfm_kalman_em,2012:Q3,0.0,0.0
exact,pre_advance,DELTA_SA,no_revision,indicator_revision_only_dfm_kalman_em,2012:Q4,0.0,0.0
exact,pre_advance,DELTA_SA,no_revision,indicator_revision_only_dfm_kalman_em,2013:Q1,0.0,0.0
exact,pre_advance,DELTA_SA,no_revision,indicator_revision_only_dfm_kalman_em,2013:Q2,0.0,0.0
exact,pre_advance,DELTA_SA,no_revision,indicator_revision_only_dfm_kalman_em,2013:Q3,0.0,0.0
exact,pre_advance,DELTA_SA,no_revision,indicator_revision_only_dfm_kalman_em,2013:Q4,0.0,0.0
exact,pre_advance,DELTA_SA,no_revision,indicator_revision_only_dfm_kalman_em,2014:Q1,0.0,0.0
exact,pre_advance,DELTA_SA,no_revision,indicator_revision_only_dfm_kalman_em,2014:Q2,0.0,0.0
exact,pre_advance,DELTA_SA,no_revision,indicator_revision_only_dfm_kalman_em,2014:Q3,0.0,0.0
exact,pre_advance,DELTA_SA,no_revision,indicator_revision_only_dfm_kalman_em,2014:Q4,0.0,0.0
exact,pre_advance,DELTA_SA,no_revision,indicator_revision_only_dfm_kalman_em,2015:Q1,0.0,0.0
exact,pre_advance,DELTA_SA,no_revision,indicator_revision_only_dfm_kalman_em,2015:Q2,0.0,0.0
exact,pre_advance,DELTA_SA,no_revision,indicator_revision_only_dfm_kalman_em,2015:Q3,0.0,0.0
exact,pre_advance,DELTA_SA,no_revision,indicator_revision_only_dfm_kalman_em,2015:Q4,0.0,0.0
exact,pre_advance,DELTA_SA,no_revision,indicator_revision_only_dfm_kalman_em,2016:Q1,0.0,0.0
exact,pre_advance,DELTA_SA,no_revision,indicator_revision_only_dfm_kalman_em,2016:Q2,0.0,0.0
exact,pre_advance,DELTA_SA,no_revision,indicator_revision_only_dfm_kalman_em,2016:Q3,0.0,0.0
exact,pre_advance,DELTA_SA,no_revision,indicator_revision_only_dfm_kalman_em,2016:Q4,0.0,0.0
exact,pre_advance,DELTA_SA,no_revision,indicator_revision_only_dfm_kalman_em,2017:Q1,0.0,0.0
exact,pre_advance,DELTA_SA,no_revision,indicator_revision_only_dfm_kalman_em,2017:Q2,0.0,0.0
exact,pre_advance,DELTA_SA,no_revision,indicator_revision_only_dfm_kalman_em,2017:Q3,0.0,0.0
exact,pre_advance,DELTA_SA,no_revision,indicator_revision_only_dfm_kalman_em,2017:Q4,0.0,0.0
exact,pre_advance,DELTA_SA,no_revision,indicator_revision_only_dfm_kalman_em,2018:Q1,0.0,0.0
exact,pre_advance,DELTA_SA,no_revision,indicator_revision_only_dfm_kalman_em,2018:Q2,0.0,0.0
exact,pre_advance,DELTA_SA,no_revision,indicator_revision_only_dfm_kalman_em,2018:Q3,0.0,0.0
exact,pre_advance,DELTA_SA,no_revision,indicator_revision_only_dfm_kalman_em,2019:Q1,0.0,0.0
exact,pre_advance,DELTA_SA,no_revision,indicator_revision_only_dfm_kalman_em,2019:Q2,0.0,0.0
exact,pre_advance,DELTA_SA,no_revision,indicator_revision_only_dfm_kalman_em,2019:Q3,0.0,0.0
exact,pre_advance,DELTA_SA,no_revision,indicator_revision_only_dfm_kalman_em,2019:Q4,0.0,0.0
exact,pre_advance,DELTA_SA,no_revision,indicator_revision_only_dfm_kalman_em,2020:Q1,0.0,0.0
exact,pre_advance,DELTA_SA,no_revision,indicator_revision_only_dfm_kalman_em,2020:Q2,0.0,0.0
exact,pre_advance,DELTA_SA,no_revision,indicator_revision_only_dfm_kalman_em,2020:Q3,0.0,0.0
exact,pre_advance,DELTA_SA,no_revision,indicator_revision_only_dfm_kalman_em,2020:Q4,0.0,0.0
exact,pre_advance,DELTA_SA,no_revision,indicator_revision_only_dfm_kalman_em,2021:Q1,0.0,0.0
exact,pre_advance,DELTA_SA,no_revision,indicator_revision_only_dfm_kalman_em,2021:Q2,0.0,0.0
exact,pre_advance,DELTA_SA,no_revision,indicator_revision_only_dfm_kalman_em,2021:Q3,0.0,0.0
exact,pre_advance,DELTA_SA,no_revision,indicator_revision_only_dfm_kalman_em,2021:Q4,0.0,0.0
exact,pre_advance,DELTA_SA,no_revision,indicator_revision_only_dfm_kalman_em,2022:Q1,0.0,0.0
exact,pre_advance,DELTA_SA,no_revision,indicator_revision_only_dfm_kalman_em,2022:Q2,0.0,0.0
exact,pre_advance,DELTA_SA,no_revision,indicator_revision_only_dfm_kalman_em,2022:Q3,0.0,0.0
exact,pre_advance,DELTA_SA,no_revision,indicator_revision_only_dfm_kalman_em,2022:Q4,0.0,0.0
exact,pre_advance,DELTA_SA,no_revision,indicator_revision_only_dfm_kalman_em,2023:Q1,0.0,0.0
exact,pre_advance,DELTA_SA,no_revision,indicator_revision_only_dfm_kalman_em,2023:Q2,0.0,0.0
exact,pre_advance,DELTA_SA,no_revision,indicator_revision_only_dfm_kalman_em,2023:Q3,0.0,0.0
exact,pre_advance,DELTA_SA,no_revision,indicator_revision_only_dfm_kalman_em,2023:Q4,0.0,0.0
exact,pre_advance,DELTA_SA,no_revision,indicator_revision_only_dfm_kalman_em,2024:Q1,0.0,0.0
exact,pre_advance,DELTA_SA,no_revision,indicator_revision_only_dfm_kalman_em,2024:Q2,0.0,0.0
exact,pre_advance,DELTA_SA,no_revision,indicator_revision_only_dfm_kalman_em,2024:Q3,0.0,0.0
exact,pre_advance,DELTA_SA,no_revision,indicator_revision_only_dfm_kalman_em,2024:Q4,0.0,0.0
exact,pre_advance,DELTA_SA,no_revision,joint_indicator_revision_dfm_full_kalman_em,2005:Q1,0.13536221912964164,0.13536221912964164
exact,pre_advance,DELTA_SA,no_revision,joint_indicator_revision_dfm_full_kalman_em,2005:Q2,-0.12312580493123867,0.012236414198402962
exact,pre_advance,DELTA_SA,no_revision,joint_indicator_revision_dfm_full_kalman_em,2005:Q3,0.18508257099788475,0.1973189851962877
exact,pre_advance,DELTA_SA,no_revision,joint_indicator_revision_dfm_full_kalman_em,2005:Q4,0.22554596351584616,0.42286494871213387
exact,pre_advance,DELTA_SA,no_revision,joint_indicator_revision_dfm_full_kalman_em,2006:Q1,0.23322530577988906,0.656090254492023
exact,pre_advance,DELTA_SA,no_revision,joint_indicator_revision_dfm_full_kalman_em,2006:Q2,0.17923161951156003,0.835321874003583
exact,pre_advance,DELTA_SA,no_revision,joint_indicator_revision_dfm_full_kalman_em,2006:Q3,-0.5068065891316675,0.3285152848719155
exact,pre_advance,DELTA_SA,no_revision,joint_indicator_revision_dfm_full_kalman_em,2006:Q4,0.5880342192442591,0.9165495041161746
exact,pre_advance,DELTA_SA,no_revision,joint_indicator_revision_dfm_full_kalman_em,2007:Q1,-0.012845572360805524,0.9037039317553691
exact,pre_advance,DELTA_SA,no_revision,joint_indicator_revision_dfm_full_kalman_em,2007:Q2,0.21413681517617383,1.117840746931543
exact,pre_advance,DELTA_SA,no_revision,joint_indicator_revision_dfm_full_kalman_em,2007:Q3,-1.1516532906750592,-0.033812543743516166
exact,pre_advance,DELTA_SA,no_revision,joint_indicator_revision_dfm_full_kalman_em,2007:Q4,-0.30614771042840505,-0.3399602541719212
exact,pre_advance,DELTA_SA,no_revision,joint_indicator_revision_dfm_full_kalman_em,2008:Q1,-0.1738191406930356,-0.5137793948649568
exact,pre_advance,DELTA_SA,no_revision,joint_indicator_revision_dfm_full_kalman_em,2008:Q2,0.25464199404355337,-0.25913740082140346
exact,pre_advance,DELTA_SA,no_revision,joint_indicator_revision_dfm_full_kalman_em,2008:Q3,0.04919562872147733,-0.20994177209992615
exact,pre_advance,DELTA_SA,no_revision,joint_indicator_revision_dfm_full_kalman_em,2008:Q4,3.173641834716451,2.9637000626165246
exact,pre_advance,DELTA_SA,no_revision,joint_indicator_revision_dfm_full_kalman_em,2009:Q1,0.1263862689298814,3.090086331546406
exact,pre_advance,DELTA_SA,no_revision,joint_indicator_revision_dfm_full_kalman_em,2009:Q2,-0.5370012525105778,2.5530850790358284
exact,pre_advance,DELTA_SA,no_revision,joint_indicator_revision_dfm_full_kalman_em,2009:Q3,-2.465140978295769,0.0879441007400592
exact,pre_advance,DELTA_SA,no_revision,joint_indicator_revision_dfm_full_kalman_em,2009:Q4,-0.05359685065305977,0.03434725008699944
exact,pre_advance,DELTA_SA,no_revision,joint_indicator_revision_dfm_full_kalman_em,2010:Q1,-0.4490778159991815,-0.41473056591218205
exact,pre_advance,DELTA_SA,no_revision,joint_indicator_revision_dfm_full_kalman_em,2010:Q2,-0.25589910795944515,-0.6706296738716272
exact,pre_advance,DELTA_SA,no_revision,joint_indicator_revision_dfm_full_kalman_em,2010:Q3,0.16022453327610686,-0.5104051405955203
exact,pre_advance,DELTA_SA,no_revision,joint_indicator_revision_dfm_full_kalman_em,2010:Q4,-0.0878514516918,-0.5982565922873203
exact,pre_advance,DELTA_SA,no_revision,joint_indicator_revision_dfm_full_kalman_em,2011:Q1,-0.06043666940280944,-0.6586932616901298
exact,pre_advance,DELTA_SA,no_revision,joint_indicator_revision_dfm_full_kalman_em,2011:Q2,-0.14910736546497733,-0.807800627155107
exact,pre_advance,DELTA_SA,no_revision,joint_indicator_revision_dfm_full_kalman_em,2011:Q3,-0.3691349345562057,-1.1769355617113129
exact,pre_advance,DELTA_SA,no_revision,joint_indicator_revision_dfm_full_kalman_em,2011:Q4,0.031120205679993178,-1.1458153560313198
exact,pre_advance,DELTA_SA,no_revision,joint_indicator_revision_dfm_full_kalman_em,2012:Q1,-0.17500061379590437,-1.3208159698272242
exact,pre_advance,DELTA_SA,no_revision,joint_indicator_revision_dfm_full_kalman_em,2012:Q2,0.03749793328775855,-1.2833180365394656
exact,pre_advance,DELTA_SA,no_revision,joint_indicator_revision_dfm_full_kalman_em,2012:Q3,0.17926781553400506,-1.1040502210054606
exact,pre_advance,DELTA_SA,no_revision,joint_indicator_revision_dfm_full_kalman_em,2012:Q4,0.07015152690962537,-1.0338986940958352
exact,pre_advance,DELTA_SA,no_revision,joint_indicator_revision_dfm_full_kalman_em,2013:Q1,-0.050401335964826176,-1.0843000300606613
exact,pre_advance,DELTA_SA,no_revision,joint_indicator_revision_dfm_full_kalman_em,2013:Q2,0.19555667928075648,-0.8887433507799049
exact,pre_advance,DELTA_SA,no_revision,joint_indicator_revision_dfm_full_kalman_em,2013:Q3,0.1732171854805002,-0.7155261652994047
exact,pre_advance,DELTA_SA,no_revision,joint_indicator_revision_dfm_full_kalman_em,2013:Q4,-0.45237403958533995,-1.1679002048847447
exact,pre_advance,DELTA_SA,no_revision,joint_indicator_revision_dfm_full_kalman_em,2014:Q1,-0.29516377762410406,-1.4630639825088487
exact,pre_advance,DELTA_SA,no_revision,joint_indicator_revision_dfm_full_kalman_em,2014:Q2,-0.036445764820148586,-1.4995097473289973
exact,pre_advance,DELTA_SA,no_revision,joint_indicator_revision_dfm_full_kalman_em,2014:Q3,0.06609123886440067,-1.4334185084645967
exact,pre_advance,DELTA_SA,no_revision,joint_indicator_revision_dfm_full_kalman_em,2014:Q4,-0.08284779440016335,-1.51626630286476
exact,pre_advance,DELTA_SA,no_revision,joint_indicator_revision_dfm_full_kalman_em,2015:Q1,0.1355400703798445,-1.3807262324849154
exact,pre_advance,DELTA_SA,no_revision,joint_indicator_revision_dfm_full_kalman_em,2015:Q2,0.710547151848649,-0.6701790806362664
exact,pre_advance,DELTA_SA,no_revision,joint_indicator_revision_dfm_full_kalman_em,2015:Q3,0.025840936441648144,-0.6443381441946183
exact,pre_advance,DELTA_SA,no_revision,joint_indicator_revision_dfm_full_kalman_em,2015:Q4,0.02611409340769709,-0.6182240507869212
exact,pre_advance,DELTA_SA,no_revision,joint_indicator_revision_dfm_full_kalman_em,2016:Q1,0.05031368581730452,-0.5679103649696167
exact,pre_advance,DELTA_SA,no_revision,joint_indicator_revision_dfm_full_kalman_em,2016:Q2,-0.040269040514807605,-0.6081794054844243
exact,pre_advance,DELTA_SA,no_revision,joint_indicator_revision_dfm_full_kalman_em,2016:Q3,0.06316636107300735,-0.545013044411417
exact,pre_advance,DELTA_SA,no_revision,joint_indicator_revision_dfm_full_kalman_em,2016:Q4,-0.0635188206504552,-0.6085318650618722
exact,pre_advance,DELTA_SA,no_revision,joint_indicator_revision_dfm_full_kalman_em,2017:Q1,0.15832422180700595,-0.45020764325486623
exact,pre_advance,DELTA_SA,no_revision,joint_indicator_revision_dfm_full_kalman_em,2017:Q2,0.15457995038994365,-0.2956276928649226
exact,pre_advance,DELTA_SA,no_revision,joint_indicator_revision_dfm_full_kalman_em,2017:Q3,0.02868988075503197,-0.2669378121098906
exact,pre_advance,DELTA_SA,no_revision,joint_indicator_revision_dfm_full_kalman_em,2017:Q4,-0.186000979433668,-0.4529387915435586
exact,pre_advance,DELTA_SA,no_revision,joint_indicator_revision_dfm_full_kalman_em,2018:Q1,-0.12756953349044847,-0.5805083250340071
exact,pre_advance,DELTA_SA,no_revision,joint_indicator_revision_dfm_full_kalman_em,2018:Q2,0.02768367531390159,-0.5528246497201055
exact,pre_advance,DELTA_SA,no_revision,joint_indicator_revision_dfm_full_kalman_em,2018:Q3,-0.011897695057267286,-0.5647223447773727
exact,pre_advance,DELTA_SA,no_revision,joint_indicator_revision_dfm_full_kalman_em,2019:Q1,-0.0063516158739692265,-0.571073960651342
exact,pre_advance,DELTA_SA,no_revision,joint_indicator_revision_dfm_full_kalman_em,2019:Q2,-0.011490368243723511,-0.5825643288950655
