haminh109/Revision-Aware-DFM/outputs/full_state_space_release_revision_dfm/frozen/q2_manuscript_best_v1/runs/exact_pseudo_backtest_max_iter100/run_dir/forecast_results.csv
model_id,timing_mode,forecast_origin,forecast_origin_date,checkpoint_id,target_id,target_quarter,forecast_value,forecast_variance,forecast_sd,density_source,realized_value,forecast_error,revision_target_flag,converged,n_iter,loglikelihood,llf_initial,llf_final,llf_last_improvement,llf_relative_last_improvement,llf_history_length,n_indicators,initialization_seed,initialization_jitter
ar,exact,2005:Q1:pre_advance:exact,2005-04-27,pre_advance,A,2005:Q1,2.91427503282673,,,not_available,3.0876,-0.17332496717326995,False,True,0,,,,,,,13,,0.0
no_revision,exact,2005:Q1:pre_advance:exact,2005-04-27,pre_advance,A,2005:Q1,2.979208231416087,,,not_available,3.0876,-0.10839176858391308,False,True,0,,,,,,,13,,0.0
bridge,exact,2005:Q1:pre_advance:exact,2005-04-27,pre_advance,A,2005:Q1,3.028159457585212,,,not_available,3.0876,-0.05944054241478813,False,True,0,,,,,,,13,,0.0
midas_umidas,exact,2005:Q1:pre_advance:exact,2005-04-27,pre_advance,A,2005:Q1,16.786138488141816,,,not_available,3.0876,13.698538488141816,False,True,0,,,,,,,13,,0.0
monthly_mixed_frequency_kalman_em,exact,2005:Q1:pre_advance:exact,2005-04-27,pre_advance,A,2005:Q1,2.275883389126721,3.685813939877023,1.9198473741099897,model_implied_state_space,3.0876,-0.8117166108732792,False,True,69,-2880.070283328214,-3648.828755686391,-2880.070283328214,0.2660082914085251,9.232115396672413e-05,69.0,13,,0.0
standard_dfm,exact,2005:Q1:pre_advance:exact,2005-04-27,pre_advance,A,2005:Q1,3.2440738813846406,,,not_available,3.0876,0.15647388138464047,False,True,0,,,,,,,13,,0.0
release_dfm,exact,2005:Q1:pre_advance:exact,2005-04-27,pre_advance,A,2005:Q1,3.2440738813846406,,,not_available,3.0876,0.15647388138464047,False,True,0,,,,,,,13,,0.0
revision_dfm_kalman_em,exact,2005:Q1:pre_advance:exact,2005-04-27,pre_advance,A,2005:Q1,3.0836519185945965,4.226674182073059,2.0558876871252134,model_implied_state_space,3.0876,-0.003948081405403592,False,True,31,-973.2114726503162,-1662.4073345730442,-973.2114726503162,0.09045391189783913,9.283971367787622e-05,31.0,13,,0.0
indicator_revision_only_dfm_kalman_em,exact,2005:Q1:pre_advance:exact,2005-04-27,pre_advance,A,2005:Q1,5.161155281319671,5.758902864063914,2.3997714191280624,model_implied_state_space,3.0876,2.0735552813196705,False,True,26,-1739.1501009134845,-2505.9405164391596,-1739.1501009134845,0.16408933230604816,9.428718861556445e-05,26.0,13,,0.0
joint_indicator_revision_dfm_full_kalman_em,exact,2005:Q1:pre_advance:exact,2005-04-27,pre_advance,A,2005:Q1,4.761828115922878,4.417041101305677,2.1016757840603475,model_implied_state_space,3.0876,1.6742281159228778,False,True,29,-1705.067720581706,-2515.777266403571,-1705.067720581706,0.1540410904772216,9.028198674845969e-05,29.0,13,,0.0
ar,exact,2005:Q1:pre_second:exact,2005-05-25,pre_second,S,2005:Q1,3.2499698412702402,,,not_available,3.4827,-0.23273015872975966,False,True,0,,,,,,,13,,0.0
no_revision,exact,2005:Q1:pre_second:exact,2005-05-25,pre_second,S,2005:Q1,3.0876,,,not_available,3.4827,-0.3950999999999998,False,True,0,,,,,,,13,,0.0
bridge,exact,2005:Q1:pre_second:exact,2005-05-25,pre_second,S,2005:Q1,3.2504980081513053,,,not_available,3.4827,-0.2322019918486946,False,True,0,,,,,,,13,,0.0
midas_umidas,exact,2005:Q1:pre_second:exact,2005-05-25,pre_second,S,2005:Q1,2.9916234375979873,,,not_available,3.4827,-0.4910765624020126,False,True,0,,,,,,,13,,0.0
monthly_mixed_frequency_kalman_em,exact,2005:Q1:pre_second:exact,2005-05-25,pre_second,S,2005:Q1,2.9678630548593743,0.3210384852064185,0.5666025813622971,model_implied_state_space,3.4827,-0.5148369451406256,False,True,74,-2902.053293019287,-3667.7534928964296,-2902.053293019287,0.25162981625680914,8.667013040127117e-05,74.0,13,,0.0
standard_dfm,exact,2005:Q1:pre_second:exact,2005-05-25,pre_second,S,2005:Q1,3.3895048532491394,,,not_available,3.4827,-0.09319514675086049,False,True,0,,,,,,,13,,0.0
release_dfm,exact,2005:Q1:pre_second:exact,2005-05-25,pre_second,S,2005:Q1,3.254643629342127,,,not_available,3.4827,-0.22805637065787288,False,True,0,,,,,,,13,,0.0
revision_dfm_kalman_em,exact,2005:Q1:pre_second:exact,2005-05-25,pre_second,S,2005:Q1,3.170599219689633,0.38401984841526354,0.6196933503074432,model_implied_state_space,3.4827,-0.31210078031036703,False,True,36,-974.4630002613612,-1660.316726913146,-974.4630002613612,0.09522030387927316,9.760596740613012e-05,36.0,13,,0.0
indicator_revision_only_dfm_kalman_em,exact,2005:Q1:pre_second:exact,2005-05-25,pre_second,S,2005:Q1,3.2249483763271822,0.41135670671385505,0.6413709587390554,model_implied_state_space,3.4827,-0.2577516236728177,False,True,26,-1740.2121981324092,-2507.103087629376,-1740.2121981324092,0.16237569119743966,9.324570005688367e-05,26.0,13,,0.0
joint_indicator_revision_dfm_full_kalman_em,exact,2005:Q1:pre_second:exact,2005-05-25,pre_second,S,2005:Q1,3.1480263222890876,0.3523963488854282,0.5936298079488834,model_implied_state_space,3.4827,-0.3346736777109123,False,True,29,-1705.8591125174491,-2517.044313725102,-1705.8591125174491,0.15636500073537718,9.160139600064725e-05,29.0,13,,0.0
ar,exact,2005:Q1:pre_third:exact,2005-06-28,pre_third,T,2005:Q1,3.2971112010822035,,,not_available,3.7592,-0.4620887989177964,False,True,0,,,,,,,13,,0.0
no_revision,exact,2005:Q1:pre_third:exact,2005-06-28,pre_third,T,2005:Q1,3.4827,,,not_available,3.7592,-0.27649999999999997,False,True,0,,,,,,,13,,0.0
bridge,exact,2005:Q1:pre_third:exact,2005-06-28,pre_third,T,2005:Q1,3.4244436909862546,,,not_available,3.7592,-0.3347563090137453,False,True,0,,,,,,,13,,0.0
midas_umidas,exact,2005:Q1:pre_third:exact,2005-06-28,pre_third,T,2005:Q1,2.716290983651371,,,not_available,3.7592,-1.042909016348629,False,True,0,,,,,,,13,,0.0
monthly_mixed_frequency_kalman_em,exact,2005:Q1:pre_third:exact,2005-06-28,pre_third,T,2005:Q1,3.3852214063077426,0.12656690439975968,0.35576242690840704,model_implied_state_space,3.7592,-0.3739785936922573,False,True,75,-2920.8624539645266,-3686.9083266151565,-2920.8624539645266,0.2713687103546363,9.286662652096785e-05,75.0,13,,0.0
standard_dfm,exact,2005:Q1:pre_third:exact,2005-06-28,pre_third,T,2005:Q1,3.4995382694100576,,,not_available,3.7592,-0.25966173058994224,False,True,0,,,,,,,13,,0.0
release_dfm,exact,2005:Q1:pre_third:exact,2005-06-28,pre_third,T,2005:Q1,3.5257836412759946,,,not_available,3.7592,-0.23341635872400524,False,True,0,,,,,,,13,,0.0
revision_dfm_kalman_em,exact,2005:Q1:pre_third:exact,2005-06-28,pre_third,T,2005:Q1,3.4652386355481655,0.1407657782018499,0.3751876573154425,model_implied_state_space,3.7592,-0.2939613644518344,False,True,31,-973.7325329701816,-1664.875727908764,-973.7325329701816,0.09329712968690274,9.570646038107615e-05,31.0,13,,0.0
indicator_revision_only_dfm_kalman_em,exact,2005:Q1:pre_third:exact,2005-06-28,pre_third,T,2005:Q1,3.466049443231798,0.14478647397018415,0.3805081785851444,model_implied_state_space,3.7592,-0.293150556768202,False,True,26,-1739.7754623822784,-2508.0518334168505,-1739.7754623822784,0.16394014590150618,9.416763482027775e-05,26.0,13,,0.0
joint_indicator_revision_dfm_full_kalman_em,exact,2005:Q1:pre_third:exact,2005-06-28,pre_third,T,2005:Q1,3.45882749213391,0.13931270504292662,0.37324617217451356,model_implied_state_space,3.7592,-0.30037250786608993,False,True,29,-1705.4207561075596,-2517.964609215461,-1705.4207561075596,0.15657759152827566,9.174948502854321e-05,29.0,13,,0.0
ar,pseudo,2005:Q1:pre_advance:pseudo,2005-04-30,pre_advance,A,2005:Q1,2.91427503282673,,,not_available,3.0876,-0.17332496717326995,False,True,0,,,,,,,13,,0.0
no_revision,pseudo,2005:Q1:pre_advance:pseudo,2005-04-30,pre_advance,A,2005:Q1,2.979208231416087,,,not_available,3.0876,-0.10839176858391308,False,True,0,,,,,,,13,,0.0
bridge,pseudo,2005:Q1:pre_advance:pseudo,2005-04-30,pre_advance,A,2005:Q1,3.028159457585212,,,not_available,3.0876,-0.05944054241478813,False,True,0,,,,,,,13,,0.0
midas_umidas,pseudo,2005:Q1:pre_advance:pseudo,2005-04-30,pre_advance,A,2005:Q1,16.786138488141816,,,not_available,3.0876,13.698538488141816,False,True,0,,,,,,,13,,0.0
monthly_mixed_frequency_kalman_em,pseudo,2005:Q1:pre_advance:pseudo,2005-04-30,pre_advance,A,2005:Q1,2.275883389126721,3.685813939877023,1.9198473741099897,model_implied_state_space,3.0876,-0.8117166108732792,False,True,69,-2880.070283328214,-3648.828755686391,-2880.070283328214,0.2660082914085251,9.232115396672413e-05,69.0,13,,0.0
standard_dfm,pseudo,2005:Q1:pre_advance:pseudo,2005-04-30,pre_advance,A,2005:Q1,3.2440738813846406,,,not_available,3.0876,0.15647388138464047,False,True,0,,,,,,,13,,0.0
release_dfm,pseudo,2005:Q1:pre_advance:pseudo,2005-04-30,pre_advance,A,2005:Q1,3.2440738813846406,,,not_available,3.0876,0.15647388138464047,False,True,0,,,,,,,13,,0.0
revision_dfm_kalman_em,pseudo,2005:Q1:pre_advance:pseudo,2005-04-30,pre_advance,A,2005:Q1,3.0836519185945965,4.226674182073059,2.0558876871252134,model_implied_state_space,3.0876,-0.003948081405403592,False,True,31,-973.2114726503162,-1662.4073345730442,-973.2114726503162,0.09045391189783913,9.283971367787622e-05,31.0,13,,0.0
indicator_revision_only_dfm_kalman_em,pseudo,2005:Q1:pre_advance:pseudo,2005-04-30,pre_advance,A,2005:Q1,5.161155281319671,5.758902864063914,2.3997714191280624,model_implied_state_space,3.0876,2.0735552813196705,False,True,26,-1739.1501009134845,-2505.9405164391596,-1739.1501009134845,0.16408933230604816,9.428718861556445e-05,26.0,13,,0.0
joint_indicator_revision_dfm_full_kalman_em,pseudo,2005:Q1:pre_advance:pseudo,2005-04-30,pre_advance,A,2005:Q1,4.761828115922878,4.417041101305677,2.1016757840603475,model_implied_state_space,3.0876,1.6742281159228778,False,True,29,-1705.067720581706,-2515.777266403571,-1705.067720581706,0.1540410904772216,9.028198674845969e-05,29.0,13,,0.0
ar,pseudo,2005:Q1:pre_second:pseudo,2005-05-31,pre_second,S,2005:Q1,3.2499698412702402,,,not_available,3.4827,-0.23273015872975966,False,True,0,,,,,,,13,,0.0
no_revision,pseudo,2005:Q1:pre_second:pseudo,2005-05-31,pre_second,S,2005:Q1,3.0876,,,not_available,3.4827,-0.3950999999999998,False,True,0,,,,,,,13,,0.0
bridge,pseudo,2005:Q1:pre_second:pseudo,2005-05-31,pre_second,S,2005:Q1,3.2504980081513053,,,not_available,3.4827,-0.2322019918486946,False,True,0,,,,,,,13,,0.0
midas_umidas,pseudo,2005:Q1:pre_second:pseudo,2005-05-31,pre_second,S,2005:Q1,2.9916234375979873,,,not_available,3.4827,-0.4910765624020126,False,True,0,,,,,,,13,,0.0
monthly_mixed_frequency_kalman_em,pseudo,2005:Q1:pre_second:pseudo,2005-05-31,pre_second,S,2005:Q1,2.9678630548593743,0.3210384852064185,0.5666025813622971,model_implied_state_space,3.4827,-0.5148369451406256,False,True,74,-2902.053293019287,-3667.7534928964296,-2902.053293019287,0.25162981625680914,8.667013040127117e-05,74.0,13,,0.0
standard_dfm,pseudo,2005:Q1:pre_second:pseudo,2005-05-31,pre_second,S,2005:Q1,3.3895048532491394,,,not_available,3.4827,-0.09319514675086049,False,True,0,,,,,,,13,,0.0
release_dfm,pseudo,2005:Q1:pre_second:pseudo,2005-05-31,pre_second,S,2005:Q1,3.254643629342127,,,not_available,3.4827,-0.22805637065787288,False,True,0,,,,,,,13,,0.0
revision_dfm_kalman_em,pseudo,2005:Q1:pre_second:pseudo,2005-05-31,pre_second,S,2005:Q1,3.170599219689633,0.38401984841526354,0.6196933503074432,model_implied_state_space,3.4827,-0.31210078031036703,False,True,36,-974.4630002613612,-1660.316726913146,-974.4630002613612,0.09522030387927316,9.760596740613012e-05,36.0,13,,0.0
indicator_revision_only_dfm_kalman_em,pseudo,2005:Q1:pre_second:pseudo,2005-05-31,pre_second,S,2005:Q1,3.2249483763271822,0.41135670671385505,0.6413709587390554,model_implied_state_space,3.4827,-0.2577516236728177,False,True,26,-1740.2121981324092,-2507.103087629376,-1740.2121981324092,0.16237569119743966,9.324570005688367e-05,26.0,13,,0.0
joint_indicator_revision_dfm_full_kalman_em,pseudo,2005:Q1:pre_second:pseudo,2005-05-31,pre_second,S,2005:Q1,3.1480263222890876,0.3523963488854282,0.5936298079488834,model_implied_state_space,3.4827,-0.3346736777109123,False,True,29,-1705.8591125174491,-2517.044313725102,-1705.8591125174491,0.15636500073537718,9.160139600064725e-05,29.0,13,,0.0
ar,pseudo,2005:Q1:pre_third:pseudo,2005-06-30,pre_third,T,2005:Q1,3.2971112010822035,,,not_available,3.7592,-0.4620887989177964,False,True,0,,,,,,,13,,0.0
no_revision,pseudo,2005:Q1:pre_third:pseudo,2005-06-30,pre_third,T,2005:Q1,3.4827,,,not_available,3.7592,-0.27649999999999997,False,True,0,,,,,,,13,,0.0
bridge,pseudo,2005:Q1:pre_third:pseudo,2005-06-30,pre_third,T,2005:Q1,3.4244436909862546,,,not_available,3.7592,-0.3347563090137453,False,True,0,,,,,,,13,,0.0
midas_umidas,pseudo,2005:Q1:pre_third:pseudo,2005-06-30,pre_third,T,2005:Q1,2.716290983651371,,,not_available,3.7592,-1.042909016348629,False,True,0,,,,,,,13,,0.0
monthly_mixed_frequency_kalman_em,pseudo,2005:Q1:pre_third:pseudo,2005-06-30,pre_third,T,2005:Q1,3.3852214063077426,0.12656690439975968,0.35576242690840704,model_implied_state_space,3.7592,-0.3739785936922573,False,True,75,-2920.8624539645266,-3686.9083266151565,-2920.8624539645266,0.2713687103546363,9.286662652096785e-05,75.0,13,,0.0
standard_dfm,pseudo,2005:Q1:pre_third:pseudo,2005-06-30,pre_third,T,2005:Q1,3.4995382694100576,,,not_available,3.7592,-0.25966173058994224,False,True,0,,,,,,,13,,0.0
release_dfm,pseudo,2005:Q1:pre_third:pseudo,2005-06-30,pre_third,T,2005:Q1,3.5257836412759946,,,not_available,3.7592,-0.23341635872400524,False,True,0,,,,,,,13,,0.0
revision_dfm_kalman_em,pseudo,2005:Q1:pre_third:pseudo,2005-06-30,pre_third,T,2005:Q1,3.4652386355481655,0.1407657782018499,0.3751876573154425,model_implied_state_space,3.7592,-0.2939613644518344,False,True,31,-973.7325329701816,-1664.875727908764,-973.7325329701816,0.09329712968690274,9.570646038107615e-05,31.0,13,,0.0
indicator_revision_only_dfm_kalman_em,pseudo,2005:Q1:pre_third:pseudo,2005-06-30,pre_third,T,2005:Q1,3.466049443231798,0.14478647397018415,0.3805081785851444,model_implied_state_space,3.7592,-0.293150556768202,False,True,26,-1739.7754623822784,-2508.0518334168505,-1739.7754623822784,0.16394014590150618,9.416763482027775e-05,26.0,13,,0.0
joint_indicator_revision_dfm_full_kalman_em,pseudo,2005:Q1:pre_third:pseudo,2005-06-30,pre_third,T,2005:Q1,3.45882749213391,0.13931270504292662,0.37324617217451356,model_implied_state_space,3.7592,-0.30037250786608993,False,True,29,-1705.4207561075596,-2517.964609215461,-1705.4207561075596,0.15657759152827566,9.174948502854321e-05,29.0,13,,0.0
ar,exact,2005:Q2:pre_advance:exact,2005-07-28,pre_advance,A,2005:Q2,2.8861030313857308,,,not_available,3.414,-0.5278969686142694,False,True,0,,,,,,,13,,0.0
no_revision,exact,2005:Q2:pre_advance:exact,2005-07-28,pre_advance,A,2005:Q2,2.8763111567077075,,,not_available,3.414,-0.5376888432922926,False,True,0,,,,,,,13,,0.0
bridge,exact,2005:Q2:pre_advance:exact,2005-07-28,pre_advance,A,2005:Q2,3.2635862553105595,,,not_available,3.414,-0.1504137446894407,False,True,0,,,,,,,13,,0.0
midas_umidas,exact,2005:Q2:pre_advance:exact,2005-07-28,pre_advance,A,2005:Q2,-11.475117342214695,,,not_available,3.414,-14.889117342214695,False,True,0,,,,,,,13,,0.0
monthly_mixed_frequency_kalman_em,exact,2005:Q2:pre_advance:exact,2005-07-28,pre_advance,A,2005:Q2,3.5128058448189483,3.576845543920292,1.891255018214173,model_implied_state_space,3.414,0.09880584481894816,False,True,72,-2937.971652496614,-3707.8458463480947,-2937.971652496614,0.2860832100036532,9.73317877259501e-05,72.0,13,,0.0
standard_dfm,exact,2005:Q2:pre_advance:exact,2005-07-28,pre_advance,A,2005:Q2,3.0949558019625814,,,not_available,3.414,-0.3190441980374188,False,True,0,,,,,,,13,,0.0
release_dfm,exact,2005:Q2:pre_advance:exact,2005-07-28,pre_advance,A,2005:Q2,3.0949558019625814,,,not_available,3.414,-0.3190441980374188,False,True,0,,,,,,,13,,0.0
revision_dfm_kalman_em,exact,2005:Q2:pre_advance:exact,2005-07-28,pre_advance,A,2005:Q2,2.7608538998716488,4.30716928960763,2.0753720846170283,model_implied_state_space,3.414,-0.6531461001283514,False,True,30,-992.3474572930251,-1684.7416032737274,-992.3474572930251,0.09767074731962566,9.8315190807055e-05,30.0,13,,0.0
indicator_revision_only_dfm_kalman_em,exact,2005:Q2:pre_advance:exact,2005-07-28,pre_advance,A,2005:Q2,3.7213127975992313,5.651241343367325,2.3772339689999646,model_implied_state_space,3.414,0.30731279759923114,False,True,27,-1774.7302401015895,-2545.271625802687,-1774.7302401015895,0.16570769259647022,9.330934777023017e-05,27.0,13,,0.0
joint_indicator_revision_dfm_full_kalman_em,exact,2005:Q2:pre_advance:exact,2005-07-28,pre_advance,A,2005:Q2,3.221309784443864,4.3795428309108795,2.0927357288752155,model_implied_state_space,3.414,-0.1926902155561363,False,True,29,-1740.7457186322613,-2555.1737123976977,-1740.7457186322613,0.15767194248610394,9.051704206975538e-05,29.0,13,,0.0
ar,exact,2005:Q2:pre_second:exact,2005-08-30,pre_second,S,2005:Q2,3.1044419421848652,,,not_available,3.2872,-0.18275805781513466,False,True,0,,,,,,,13,,0.0
no_revision,exact,2005:Q2:pre_second:exact,2005-08-30,pre_second,S,2005:Q2,3.414,,,not_available,3.2872,0.12680000000000025,False,True,0,,,,,,,13,,0.0
bridge,exact,2005:Q2:pre_second:exact,2005-08-30,pre_second,S,2005:Q2,3.4612755095476753,,,not_available,3.2872,0.17407550954767537,False,True,0,,,,,,,13,,0.0
midas_umidas,exact,2005:Q2:pre_second:exact,2005-08-30,pre_second,S,2005:Q2,2.3981884819928703,,,not_available,3.2872,-0.8890115180071296,False,True,0,,,,,,,13,,0.0
monthly_mixed_frequency_kalman_em,exact,2005:Q2:pre_second:exact,2005-08-30,pre_second,S,2005:Q2,3.543499651070542,0.3222341558764442,0.5676567236248015,model_implied_state_space,3.2872,0.2562996510705422,False,True,72,-2957.105413069139,-3727.8089762326504,-2957.105413069139,0.2756175785625601,9.316500332690984e-05,72.0,13,,0.0
standard_dfm,exact,2005:Q2:pre_second:exact,2005-08-30,pre_second,S,2005:Q2,3.1619076245312066,,,not_available,3.2872,-0.12529237546879335,False,True,0,,,,,,,13,,0.0
release_dfm,exact,2005:Q2:pre_second:exact,2005-08-30,pre_second,S,2005:Q2,3.5854204859407894,,,not_available,3.2872,0.29822048594078954,False,True,0,,,,,,,13,,0.0
revision_dfm_kalman_em,exact,2005:Q2:pre_second:exact,2005-08-30,pre_second,S,2005:Q2,3.5139577362604286,0.3811055835269058,0.6173374956431091,model_implied_state_space,3.2872,0.22675773626042872,False,True,35,-995.9265216592298,-1684.3824339511475,-995.9265216592298,0.09587618636817297,9.616252009518111e-05,35.0,13,,0.0
indicator_revision_only_dfm_kalman_em,exact,2005:Q2:pre_second:exact,2005-08-30,pre_second,S,2005:Q2,3.479885042924987,0.40227801303674987,0.6342539026578787,model_implied_state_space,3.2872,0.19268504292498712,False,True,35,-1777.5061322984852,-2545.8484052825343,-1777.5061322984852,0.17079606037532358,9.60242175811617e-05,35.0,13,,0.0
joint_indicator_revision_dfm_full_kalman_em,exact,2005:Q2:pre_second:exact,2005-08-30,pre_second,S,2005:Q2,3.7771956857360554,0.33949980789940043,0.5826661204321051,model_implied_state_space,3.2872,0.48999568573605545,False,True,37,-1743.8532512589247,-2555.9521119418882,-1743.8532512589247,0.16188224986626665,9.276839309740641e-05,37.0,13,,0.0
ar,exact,2005:Q2:pre_third:exact,2005-09-28,pre_third,T,2005:Q2,3.2616822864055117,,,not_available,3.3096,-0.047917713594488376,False,True,0,,,,,,,13,,0.0
no_revision,exact,2005:Q2:pre_third:exact,2005-09-28,pre_third,T,2005:Q2,3.2872,,,not_available,3.3096,-0.022400000000000198,False,True,0,,,,,,,13,,0.0
bridge,exact,2005:Q2:pre_third:exact,2005-09-28,pre_third,T,2005:Q2,4.014211750324724,,,not_available,3.3096,0.7046117503247236,False,True,0,,,,,,,13,,0.0
midas_umidas,exact,2005:Q2:pre_third:exact,2005-09-28,pre_third,T,2005:Q2,3.844244246502831,,,not_available,3.3096,0.5346442465028307,False,True,0,,,,,,,13,,0.0
monthly_mixed_frequency_kalman_em,exact,2005:Q2:pre_third:exact,2005-09-28,pre_third,T,2005:Q2,3.390243429926566,0.12844123060784304,0.3583869844286244,model_implied_state_space,3.3096,0.0806434299265657,False,True,69,-2973.580361950088,-3747.853048052629,-2973.580361950088,0.297373612571846,9.996162498274964e-05,69.0,13,,0.0
standard_dfm,exact,2005:Q2:pre_third:exact,2005-09-28,pre_third,T,2005:Q2,3.2867577792956033,,,not_available,3.3096,-0.022842220704396787,False,True,0,,,,,,,13,,0.0
release_dfm,exact,2005:Q2:pre_third:exact,2005-09-28,pre_third,T,2005:Q2,3.4684469391111326,,,not_available,3.3096,0.15884693911113246,False,True,0,,,,,,,13,,0.0
revision_dfm_kalman_em,exact,2005:Q2:pre_third:exact,2005-09-28,pre_third,T,2005:Q2,3.3028830564563005,0.14029248594618976,0.3745563855365301,model_implied_state_space,3.3096,-0.006716943543699561,False,True,30,-995.480252404602,-1688.4668116744315,-995.480252404602,0.09813963147030336,9.847657971973276e-05,30.0,13,,0.0
indicator_revision_only_dfm_kalman_em,exact,2005:Q2:pre_third:exact,2005-09-28,pre_third,T,2005:Q2,3.2965951184761426,0.1443455852637897,0.37992839491644964,model_implied_state_space,3.3096,-0.013004881523857481,False,True,27,-1777.7287792292739,-2549.8877960218556,-1777.7287792292739,0.1635468399038018,9.193745878098852e-05,27.0,13,,0.0
joint_indicator_revision_dfm_full_kalman_em,exact,2005:Q2:pre_third:exact,2005-09-28,pre_third,T,2005:Q2,3.3218901229711646,0.139022404295155,0.3728570829354794,model_implied_state_space,3.3096,0.012290122971164497,False,True,29,-1743.6707945459302,-2559.8579794868456,-1743.6707945459302,0.1604547153576732,9.19600193002075e-05,29.0,13,,0.0
ar,pseudo,2005:Q2:pre_advance:pseudo,2005-07-31,pre_advance,A,2005:Q2,2.8861030313857308,,,not_available,3.414,-0.5278969686142694,False,True,0,,,,,,,13,,0.0
no_revision,pseudo,2005:Q2:pre_advance:pseudo,2005-07-31,pre_advance,A,2005:Q2,2.8763111567077075,,,not_available,3.414,-0.5376888432922926,False,True,0,,,,,,,13,,0.0
bridge,pseudo,2005:Q2:pre_advance:pseudo,2005-07-31,pre_advance,A,2005:Q2,3.2635862553105595,,,not_available,3.414,-0.1504137446894407,False,True,0,,,,,,,13,,0.0
midas_umidas,pseudo,2005:Q2:pre_advance:pseudo,2005-07-31,pre_advance,A,2005:Q2,-11.475117342214695,,,not_available,3.414,-14.889117342214695,False,True,0,,,,,,,13,,0.0
monthly_mixed_frequency_kalman_em,pseudo,2005:Q2:pre_advance:pseudo,2005-07-31,pre_advance,A,2005:Q2,3.5128058448189483,3.576845543920292,1.891255018214173,model_implied_state_space,3.414,0.09880584481894816,False,True,72,-2937.971652496614,-3707.8458463480947,-2937.971652496614,0.2860832100036532,9.73317877259501e-05,72.0,13,,0.0
standard_dfm,pseudo,2005:Q2:pre_advance:pseudo,2005-07-31,pre_advance,A,2005:Q2,3.0949558019625814,,,not_available,3.414,-0.3190441980374188,False,True,0,,,,,,,13,,0.0
release_dfm,pseudo,2005:Q2:pre_advance:pseudo,2005-07-31,pre_advance,A,2005:Q2,3.0949558019625814,,,not_available,3.414,-0.3190441980374188,False,True,0,,,,,,,13,,0.0
revision_dfm_kalman_em,pseudo,2005:Q2:pre_advance:pseudo,2005-07-31,pre_advance,A,2005:Q2,2.7608538998716488,4.30716928960763,2.0753720846170283,model_implied_state_space,3.414,-0.6531461001283514,False,True,30,-992.3474572930251,-1684.7416032737274,-992.3474572930251,0.09767074731962566,9.8315190807055e-05,30.0,13,,0.0
indicator_revision_only_dfm_kalman_em,pseudo,2005:Q2:pre_advance:pseudo,2005-07-31,pre_advance,A,2005:Q2,3.7213127975992313,5.651241343367325,2.3772339689999646,model_implied_state_space,3.414,0.30731279759923114,False,True,27,-1774.7302401015895,-2545.271625802687,-1774.7302401015895,0.16570769259647022,9.330934777023017e-05,27.0,13,,0.0
joint_indicator_revision_dfm_full_kalman_em,pseudo,2005:Q2:pre_advance:pseudo,2005-07-31,pre_advance,A,2005:Q2,3.221309784443864,4.3795428309108795,2.0927357288752155,model_implied_state_space,3.414,-0.1926902155561363,False,True,29,-1740.7457186322613,-2555.1737123976977,-1740.7457186322613,0.15767194248610394,9.051704206975538e-05,29.0,13,,0.0
ar,pseudo,2005:Q2:pre_second:pseudo,2005-08-31,pre_second,S,2005:Q2,3.1044419421848652,,,not_available,3.2872,-0.18275805781513466,False,True,0,,,,,,,13,,0.0
no_revision,pseudo,2005:Q2:pre_second:pseudo,2005-08-31,pre_second,S,2005:Q2,3.414,,,not_available,3.2872,0.12680000000000025,False,True,0,,,,,,,13,,0.0
bridge,pseudo,2005:Q2:pre_second:pseudo,2005-08-31,pre_second,S,2005:Q2,3.4612755095476753,,,not_available,3.2872,0.17407550954767537,False,True,0,,,,,,,13,,0.0
midas_umidas,pseudo,2005:Q2:pre_second:pseudo,2005-08-31,pre_second,S,2005:Q2,2.3981884819928703,,,not_available,3.2872,-0.8890115180071296,False,True,0,,,,,,,13,,0.0
monthly_mixed_frequency_kalman_em,pseudo,2005:Q2:pre_second:pseudo,2005-08-31,pre_second,S,2005:Q2,3.543499651070542,0.3222341558764442,0.5676567236248015,model_implied_state_space,3.2872,0.2562996510705422,False,True,72,-2957.105413069139,-3727.8089762326504,-2957.105413069139,0.2756175785625601,9.316500332690984e-05,72.0,13,,0.0
standard_dfm,pseudo,2005:Q2:pre_second:pseudo,2005-08-31,pre_second,S,2005:Q2,3.1619076245312066,,,not_available,3.2872,-0.12529237546879335,False,True,0,,,,,,,13,,0.0
release_dfm,pseudo,2005:Q2:pre_second:pseudo,2005-08-31,pre_second,S,2005:Q2,3.5854204859407894,,,not_available,3.2872,0.29822048594078954,False,True,0,,,,,,,13,,0.0
revision_dfm_kalman_em,pseudo,2005:Q2:pre_second:pseudo,2005-08-31,pre_second,S,2005:Q2,3.5139577362604286,0.3811055835269058,0.6173374956431091,model_implied_state_space,3.2872,0.22675773626042872,False,True,35,-995.9265216592298,-1684.3824339511475,-995.9265216592298,0.09587618636817297,9.616252009518111e-05,35.0,13,,0.0
indicator_revision_only_dfm_kalman_em,pseudo,2005:Q2:pre_second:pseudo,2005-08-31,pre_second,S,2005:Q2,3.479885042924987,0.40227801303674987,0.6342539026578787,model_implied_state_space,3.2872,0.19268504292498712,False,True,35,-1777.5061322984852,-2545.8484052825343,-1777.5061322984852,0.17079606037532358,9.60242175811617e-05,35.0,13,,0.0
joint_indicator_revision_dfm_full_kalman_em,pseudo,2005:Q2:pre_second:pseudo,2005-08-31,pre_second,S,2005:Q2,3.7771956857360554,0.33949980789940043,0.5826661204321051,model_implied_state_space,3.2872,0.48999568573605545,False,True,37,-1743.8532512589247,-2555.9521119418882,-1743.8532512589247,0.16188224986626665,9.276839309740641e-05,37.0,13,,0.0
ar,pseudo,2005:Q2:pre_third:pseudo,2005-09-30,pre_third,T,2005:Q2,3.2616822864055117,,,not_available,3.3096,-0.047917713594488376,False,True,0,,,,,,,13,,0.0
no_revision,pseudo,2005:Q2:pre_third:pseudo,2005-09-30,pre_third,T,2005:Q2,3.2872,,,not_available,3.3096,-0.022400000000000198,False,True,0,,,,,,,13,,0.0
bridge,pseudo,2005:Q2:pre_third:pseudo,2005-09-30,pre_third,T,2005:Q2,4.014211750324724,,,not_available,3.3096,0.7046117503247236,False,True,0,,,,,,,13,,0.0
midas_umidas,pseudo,2005:Q2:pre_third:pseudo,2005-09-30,pre_third,T,2005:Q2,3.844244246502831,,,not_available,3.3096,0.5346442465028307,False,True,0,,,,,,,13,,0.0
monthly_mixed_frequency_kalman_em,pseudo,2005:Q2:pre_third:pseudo,2005-09-30,pre_third,T,2005:Q2,3.390243429926566,0.12844123060784304,0.3583869844286244,model_implied_state_space,3.3096,0.0806434299265657,False,True,69,-2973.580361950088,-3747.853048052629,-2973.580361950088,0.297373612571846,9.996162498274964e-05,69.0,13,,0.0
standard_dfm,pseudo,2005:Q2:pre_third:pseudo,2005-09-30,pre_third,T,2005:Q2,3.2867577792956033,,,not_available,3.3096,-0.022842220704396787,False,True,0,,,,,,,13,,0.0
release_dfm,pseudo,2005:Q2:pre_third:pseudo,2005-09-30,pre_third,T,2005:Q2,3.4684469391111326,,,not_available,3.3096,0.15884693911113246,False,True,0,,,,,,,13,,0.0
revision_dfm_kalman_em,pseudo,2005:Q2:pre_third:pseudo,2005-09-30,pre_third,T,2005:Q2,3.3028830564563005,0.14029248594618976,0.3745563855365301,model_implied_state_space,3.3096,-0.006716943543699561,False,True,30,-995.480252404602,-1688.4668116744315,-995.480252404602,0.09813963147030336,9.847657971973276e-05,30.0,13,,0.0
indicator_revision_only_dfm_kalman_em,pseudo,2005:Q2:pre_third:pseudo,2005-09-30,pre_third,T,2005:Q2,3.2965951184761426,0.1443455852637897,0.37992839491644964,model_implied_state_space,3.3096,-0.013004881523857481,False,True,27,-1777.7287792292739,-2549.8877960218556,-1777.7287792292739,0.1635468399038018,9.193745878098852e-05,27.0,13,,0.0
joint_indicator_revision_dfm_full_kalman_em,pseudo,2005:Q2:pre_third:pseudo,2005-09-30,pre_third,T,2005:Q2,3.3218901229711646,0.139022404295155,0.3728570829354794,model_implied_state_space,3.3096,0.012290122971164497,False,True,29,-1743.6707945459302,-2559.8579794868456,-1743.6707945459302,0.1604547153576732,9.19600193002075e-05,29.0,13,,0.0
ar,exact,2005:Q3:pre_advance:exact,2005-10-27,pre_advance,A,2005:Q3,3.04969286031635,,,not_available,3.8045,-0.75480713968365,False,True,0,,,,,,,13,,0.0
no_revision,exact,2005:Q3:pre_advance:exact,2005-10-27,pre_advance,A,2005:Q3,3.079947323602184,,,not_available,3.8045,-0.7245526763978161,False,True,0,,,,,,,13,,0.0
bridge,exact,2005:Q3:pre_advance:exact,2005-10-27,pre_advance,A,2005:Q3,2.977264671503475,,,not_available,3.8045,-0.827235328496525,False,True,0,,,,,,,13,,0.0
midas_umidas,exact,2005:Q3:pre_advance:exact,2005-10-27,pre_advance,A,2005:Q3,20.737297200168886,,,not_available,3.8045,16.932797200168885,False,True,0,,,,,,,13,,0.0
monthly_mixed_frequency_kalman_em,exact,2005:Q3:pre_advance:exact,2005-10-27,pre_advance,A,2005:Q3,0.9124658015285587,3.2628534741633755,1.806337032273705,model_implied_state_space,3.8045,-2.8920341984714413,False,True,59,-2989.111764996933,-3762.775135172252,-2989.111764996933,0.27720953300195106,9.27001588632884e-05,59.0,13,,0.0
standard_dfm,exact,2005:Q3:pre_advance:exact,2005-10-27,pre_advance,A,2005:Q3,2.746500840845433,,,not_available,3.8045,-1.057999159154567,False,True,0,,,,,,,13,,0.0
release_dfm,exact,2005:Q3:pre_advance:exact,2005-10-27,pre_advance,A,2005:Q3,2.746500840845433,,,not_available,3.8045,-1.057999159154567,False,True,0,,,,,,,13,,0.0
revision_dfm_kalman_em,exact,2005:Q3:pre_advance:exact,2005-10-27,pre_advance,A,2005:Q3,2.62998507669737,4.455470323461984,2.110798503756809,model_implied_state_space,3.8045,-1.1745149233026302,False,True,30,-1014.5195729328133,-1709.0092630557303,-1014.5195729328133,0.093192901968564,9.176027035458165e-05,30.0,13,,0.0
indicator_revision_only_dfm_kalman_em,exact,2005:Q3:pre_advance:exact,2005-10-27,pre_advance,A,2005:Q3,4.659950010682477,4.420333215832069,2.102458849973542,model_implied_state_space,3.8045,0.8554500106824774,False,True,41,-1823.4151072432817,-2585.241640478143,-1823.4151072432817,0.1793954207751085,9.832070660805815e-05,41.0,13,,0.0
joint_indicator_revision_dfm_full_kalman_em,exact,2005:Q3:pre_advance:exact,2005-10-27,pre_advance,A,2005:Q3,4.301061269032511,3.642036367248004,1.9084120014420376,model_implied_state_space,3.8045,0.49656126903251074,False,True,35,-1790.5511581844517,-2595.3049297346356,-1790.5511581844517,0.16526144949261834,9.223638723274189e-05,35.0,13,,0.0
ar,exact,2005:Q3:pre_second:exact,2005-11-29,pre_second,S,2005:Q3,3.0178774499499244,,,not_available,4.2839,-1.2660225500500757,False,True,0,,,,,,,13,,0.0
no_revision,exact,2005:Q3:pre_second:exact,2005-11-29,pre_second,S,2005:Q3,3.8045,,,not_available,4.2839,-0.47940000000000005,False,True,0,,,,,,,13,,0.0
bridge,exact,2005:Q3:pre_second:exact,2005-11-29,pre_second,S,2005:Q3,2.9202077731301666,,,not_available,4.2839,-1.3636922268698335,False,True,0,,,,,,,13,,0.0
midas_umidas,exact,2005:Q3:pre_second:exact,2005-11-29,pre_second,S,2005:Q3,4.804219178182805,,,not_available,4.2839,0.5203191781828052,False,True,0,,,,,,,13,,0.0
monthly_mixed_frequency_kalman_em,exact,2005:Q3:pre_second:exact,2005-11-29,pre_second,S,2005:Q3,3.48526184094056,0.3391526810187345,0.5823681662133796,model_implied_state_space,4.2839,-0.7986381590594402,False,True,51,-3010.255411828581,-3788.228159781836,-3010.255411828581,0.2626710177833047,8.722212869299418e-05,51.0,13,,0.0
standard_dfm,exact,2005:Q3:pre_second:exact,2005-11-29,pre_second,S,2005:Q3,2.9173005702868537,,,not_available,4.2839,-1.3665994297131463,False,True,0,,,,,,,13,,0.0
release_dfm,exact,2005:Q3:pre_second:exact,2005-11-29,pre_second,S,2005:Q3,3.978465790622625,,,not_available,4.2839,-0.305434209377375,False,True,0,,,,,,,13,,0.0
revision_dfm_kalman_em,exact,2005:Q3:pre_second:exact,2005-11-29,pre_second,S,2005:Q3,3.9886293456627966,0.3790525789109173,0.6156724607377833,model_implied_state_space,4.2839,-0.29527065433720345,False,True,34,-1018.7652819412492,-1707.669264833886,-1018.7652819412492,0.09853571189250943,9.661653858772512e-05,34.0,13,,0.0
indicator_revision_only_dfm_kalman_em,exact,2005:Q3:pre_second:exact,2005-11-29,pre_second,S,2005:Q3,3.806877626893422,0.3896897589306207,0.6242513587735478,model_implied_state_space,4.2839,-0.4770223731065779,False,True,32,-1832.3161905605486,-2587.652236839675,-1832.3161905605486,0.16569638513578866,9.037252362051684e-05,32.0,13,,0.0
joint_indicator_revision_dfm_full_kalman_em,exact,2005:Q3:pre_second:exact,2005-11-29,pre_second,S,2005:Q3,4.042022946441447,0.34967606533031803,0.5913341401697674,model_implied_state_space,4.2839,-0.24187705355855282,False,True,35,-1802.7480123805205,-2597.8140124354627,-1802.7480123805205,0.16301215081693954,9.036595962890724e-05,35.0,13,,0.0
ar,exact,2005:Q3:pre_third:exact,2005-12-20,pre_third,T,2005:Q3,3.0673509604805287,,,not_available,4.1425,-1.0751490395194714,False,True,0,,,,,,,13,,0.0
no_revision,exact,2005:Q3:pre_third:exact,2005-12-20,pre_third,T,2005:Q3,4.2839,,,not_available,4.1425,0.14139999999999997,False,True,0,,,,,,,13,,0.0
bridge,exact,2005:Q3:pre_third:exact,2005-12-20,pre_third,T,2005:Q3,3.4924246726879247,,,not_available,4.1425,-0.6500753273120754,False,True,0,,,,,,,13,,0.0
midas_umidas,exact,2005:Q3:pre_third:exact,2005-12-20,pre_third,T,2005:Q3,3.3176660699905716,,,not_available,4.1425,-0.8248339300094285,False,True,0,,,,,,,13,,0.0
monthly_mixed_frequency_kalman_em,exact,2005:Q3:pre_third:exact,2005-12-20,pre_third,T,2005:Q3,4.096364289521917,0.13419507381014603,0.36632645797177416,model_implied_state_space,4.1425,-0.04613571047808307,False,True,58,-3028.6226125620237,-3810.642134857024,-3028.6226125620237,0.29984317900925817,9.896067750549908e-05,58.0,13,,0.0
standard_dfm,exact,2005:Q3:pre_third:exact,2005-12-20,pre_third,T,2005:Q3,3.028406574059412,,,not_available,4.1425,-1.1140934259405881,False,True,0,,,,,,,13,,0.0
release_dfm,exact,2005:Q3:pre_third:exact,2005-12-20,pre_third,T,2005:Q3,4.29439784843032,,,not_available,4.1425,0.15189784843031973,False,True,0,,,,,,,13,,0.0
revision_dfm_kalman_em,exact,2005:Q3:pre_third:exact,2005-12-20,pre_third,T,2005:Q3,4.273075629481183,0.13950066313439313,0.37349787567587733,model_implied_state_space,4.1425,0.13057562948118306,False,True,30,-1017.9620908735847,-1712.3079455702755,-1017.9620908735847,0.09478195953101931,9.300948951702044e-05,30.0,13,,0.0
indicator_revision_only_dfm_kalman_em,exact,2005:Q3:pre_third:exact,2005-12-20,pre_third,T,2005:Q3,4.256645521246951,0.143432802468391,0.3787252334719605,model_implied_state_space,4.1425,0.1141455212469511,False,True,32,-1832.1112431082668,-2588.73287733138,-1832.1112431082668,0.170317463884885,9.290305839967668e-05,32.0,13,,0.0
joint_indicator_revision_dfm_full_kalman_em,exact,2005:Q3:pre_third:exact,2005-12-20,pre_third,T,2005:Q3,4.279202991000846,0.13967862977651294,0.37373604291867935,model_implied_state_space,4.1425,0.1367029910008455,False,True,35,-1802.2571357918562,-2598.868116579888,-1802.2571357918562,0.16808730948332595,9.32044796369584e-05,35.0,13,,0.0
ar,pseudo,2005:Q3:pre_advance:pseudo,2005-10-31,pre_advance,A,2005:Q3,3.04969286031635,,,not_available,3.8045,-0.75480713968365,False,True,0,,,,,,,13,,0.0
no_revision,pseudo,2005:Q3:pre_advance:pseudo,2005-10-31,pre_advance,A,2005:Q3,3.079947323602184,,,not_available,3.8045,-0.7245526763978161,False,True,0,,,,,,,13,,0.0
bridge,pseudo,2005:Q3:pre_advance:pseudo,2005-10-31,pre_advance,A,2005:Q3,2.977264671503475,,,not_available,3.8045,-0.827235328496525,False,True,0,,,,,,,13,,0.0
midas_umidas,pseudo,2005:Q3:pre_advance:pseudo,2005-10-31,pre_advance,A,2005:Q3,20.737297200168886,,,not_available,3.8045,16.932797200168885,False,True,0,,,,,,,13,,0.0
monthly_mixed_frequency_kalman_em,pseudo,2005:Q3:pre_advance:pseudo,2005-10-31,pre_advance,A,2005:Q3,0.9124658015285587,3.2628534741633755,1.806337032273705,model_implied_state_space,3.8045,-2.8920341984714413,False,True,59,-2989.111764996933,-3762.775135172252,-2989.111764996933,0.27720953300195106,9.27001588632884e-05,59.0,13,,0.0
standard_dfm,pseudo,2005:Q3:pre_advance:pseudo,2005-10-31,pre_advance,A,2005:Q3,2.746500840845433,,,not_available,3.8045,-1.057999159154567,False,True,0,,,,,,,13,,0.0
release_dfm,pseudo,2005:Q3:pre_advance:pseudo,2005-10-31,pre_advance,A,2005:Q3,2.746500840845433,,,not_available,3.8045,-1.057999159154567,False,True,0,,,,,,,13,,0.0
revision_dfm_kalman_em,pseudo,2005:Q3:pre_advance:pseudo,2005-10-31,pre_advance,A,2005:Q3,2.62998507669737,4.455470323461984,2.110798503756809,model_implied_state_space,3.8045,-1.1745149233026302,False,True,30,-1014.5195729328133,-1709.0092630557303,-1014.5195729328133,0.093192901968564,9.176027035458165e-05,30.0,13,,0.0
indicator_revision_only_dfm_kalman_em,pseudo,2005:Q3:pre_advance:pseudo,2005-10-31,pre_advance,A,2005:Q3,4.659950010682477,4.420333215832069,2.102458849973542,model_implied_state_space,3.8045,0.8554500106824774,False,True,41,-1823.4151072432817,-2585.241640478143,-1823.4151072432817,0.1793954207751085,9.832070660805815e-05,41.0,13,,0.0
joint_indicator_revision_dfm_full_kalman_em,pseudo,2005:Q3:pre_advance:pseudo,2005-10-31,pre_advance,A,2005:Q3,4.301061269032511,3.642036367248004,1.9084120014420376,model_implied_state_space,3.8045,0.49656126903251074,False,True,35,-1790.5511581844517,-2595.3049297346356,-1790.5511581844517,0.16526144949261834,9.223638723274189e-05,35.0,13,,0.0
ar,pseudo,2005:Q3:pre_second:pseudo,2005-11-30,pre_second,S,2005:Q3,3.0178774499499244,,,not_available,4.2839,-1.2660225500500757,False,True,0,,,,,,,13,,0.0
no_revision,pseudo,2005:Q3:pre_second:pseudo,2005-11-30,pre_second,S,2005:Q3,3.8045,,,not_available,4.2839,-0.47940000000000005,False,True,0,,,,,,,13,,0.0
bridge,pseudo,2005:Q3:pre_second:pseudo,2005-11-30,pre_second,S,2005:Q3,2.9202077731301666,,,not_available,4.2839,-1.3636922268698335,False,True,0,,,,,,,13,,0.0
midas_umidas,pseudo,2005:Q3:pre_second:pseudo,2005-11-30,pre_second,S,2005:Q3,4.804219178182805,,,not_available,4.2839,0.5203191781828052,False,True,0,,,,,,,13,,0.0
monthly_mixed_frequency_kalman_em,pseudo,2005:Q3:pre_second:pseudo,2005-11-30,pre_second,S,2005:Q3,3.48526184094056,0.3391526810187345,0.5823681662133796,model_implied_state_space,4.2839,-0.7986381590594402,False,True,51,-3010.255411828581,-3788.228159781836,-3010.255411828581,0.2626710177833047,8.722212869299418e-05,51.0,13,,0.0
standard_dfm,pseudo,2005:Q3:pre_second:pseudo,2005-11-30,pre_second,S,2005:Q3,2.9173005702868537,,,not_available,4.2839,-1.3665994297131463,False,True,0,,,,,,,13,,0.0
release_dfm,pseudo,2005:Q3:pre_second:pseudo,2005-11-30,pre_second,S,2005:Q3,3.978465790622625,,,not_available,4.2839,-0.305434209377375,False,True,0,,,,,,,13,,0.0
revision_dfm_kalman_em,pseudo,2005:Q3:pre_second:pseudo,2005-11-30,pre_second,S,2005:Q3,3.9886293456627966,0.3790525789109173,0.6156724607377833,model_implied_state_space,4.2839,-0.29527065433720345,False,True,34,-1018.7652819412492,-1707.669264833886,-1018.7652819412492,0.09853571189250943,9.661653858772512e-05,34.0,13,,0.0
indicator_revision_only_dfm_kalman_em,pseudo,2005:Q3:pre_second:pseudo,2005-11-30,pre_second,S,2005:Q3,3.806877626893422,0.3896897589306207,0.6242513587735478,model_implied_state_space,4.2839,-0.4770223731065779,False,True,32,-1832.3161905605486,-2587.652236839675,-1832.3161905605486,0.16569638513578866,9.037252362051684e-05,32.0,13,,0.0
joint_indicator_revision_dfm_full_kalman_em,pseudo,2005:Q3:pre_second:pseudo,2005-11-30,pre_second,S,2005:Q3,4.042022946441447,0.34967606533031803,0.5913341401697674,model_implied_state_space,4.2839,-0.24187705355855282,False,True,35,-1802.7480123805205,-2597.8140124354627,-1802.7480123805205,0.16301215081693954,9.036595962890724e-05,35.0,13,,0.0
ar,pseudo,2005:Q3:pre_third:pseudo,2005-12-31,pre_third,T,2005:Q3,3.0673509604805287,,,not_available,4.1425,-1.0751490395194714,False,True,0,,,,,,,13,,0.0
no_revision,pseudo,2005:Q3:pre_third:pseudo,2005-12-31,pre_third,T,2005:Q3,4.2839,,,not_available,4.1425,0.14139999999999997,False,True,0,,,,,,,13,,0.0
bridge,pseudo,2005:Q3:pre_third:pseudo,2005-12-31,pre_third,T,2005:Q3,3.4924246726879247,,,not_available,4.1425,-0.6500753273120754,False,True,0,,,,,,,13,,0.0
midas_umidas,pseudo,2005:Q3:pre_third:pseudo,2005-12-31,pre_third,T,2005:Q3,3.3176660699905716,,,not_available,4.1425,-0.8248339300094285,False,True,0,,,,,,,13,,0.0
monthly_mixed_frequency_kalman_em,pseudo,2005:Q3:pre_third:pseudo,2005-12-31,pre_third,T,2005:Q3,4.096324046441439,0.13417584018518258,0.3663002050029219,model_implied_state_space,4.1425,-0.046175953558560856,False,True,58,-3029.9286067712324,-3811.935850325436,-3029.9286067712324,0.2956652572715939,9.753988182264515e-05,58.0,13,,0.0
standard_dfm,pseudo,2005:Q3:pre_third:pseudo,2005-12-31,pre_third,T,2005:Q3,3.028406574059412,,,not_available,4.1425,-1.1140934259405881,False,True,0,,,,,,,13,,0.0
release_dfm,pseudo,2005:Q3:pre_third:pseudo,2005-12-31,pre_third,T,2005:Q3,4.29439784843032,,,not_available,4.1425,0.15189784843031973,False,True,0,,,,,,,13,,0.0
revision_dfm_kalman_em,pseudo,2005:Q3:pre_third:pseudo,2005-12-31,pre_third,T,2005:Q3,4.273075629481183,0.13950066313439313,0.37349787567587733,model_implied_state_space,4.1425,0.13057562948118306,False,True,30,-1017.9620908735847,-1712.3079455702755,-1017.9620908735847,0.09478195953101931,9.300948951702044e-05,30.0,13,,0.0
indicator_revision_only_dfm_kalman_em,pseudo,2005:Q3:pre_third:pseudo,2005-12-31,pre_third,T,2005:Q3,4.256645521246951,0.143432802468391,0.3787252334719605,model_implied_state_space,4.1425,0.1141455212469511,False,True,32,-1832.1112431082668,-2588.73287733138,-1832.1112431082668,0.170317463884885,9.290305839967668e-05,32.0,13,,0.0
joint_indicator_revision_dfm_full_kalman_em,pseudo,2005:Q3:pre_third:pseudo,2005-12-31,pre_third,T,2005:Q3,4.279202991000846,0.13967862977651294,0.37373604291867935,model_implied_state_space,4.1425,0.1367029910008455,False,True,35,-1802.2571357918562,-2598.868116579888,-1802.2571357918562,0.16808730948332595,9.32044796369584e-05,35.0,13,,0.0
ar,exact,2005:Q4:pre_advance:exact,2006-01-26,pre_advance,A,2005:Q4,3.2464479729838,,,not_available,1.1187,2.1277479729838,False,True,0,,,,,,,13,,0.0
no_revision,exact,2005:Q4:pre_advance:exact,2006-01-26,pre_advance,A,2005:Q4,3.2478332834395918,,,not_available,1.1187,2.1291332834395917,False,True,0,,,,,,,13,,0.0
bridge,exact,2005:Q4:pre_advance:exact,2006-01-26,pre_advance,A,2005:Q4,3.483940971542138,,,not_available,1.1187,2.365240971542138,False,True,0,,,,,,,13,,0.0
midas_umidas,exact,2005:Q4:pre_advance:exact,2006-01-26,pre_advance,A,2005:Q4,12.327170197681426,,,not_available,1.1187,11.208470197681425,False,True,0,,,,,,,13,,0.0
monthly_mixed_frequency_kalman_em,exact,2005:Q4:pre_advance:exact,2006-01-26,pre_advance,A,2005:Q4,4.66847241588984,3.498108267145331,1.8703230381795897,model_implied_state_space,1.1187,3.5497724158898403,False,True,53,-3047.572901695067,-3827.0347549852104,-3047.572901695067,0.2567833530747521,8.422358071821826e-05,53.0,13,,0.0
standard_dfm,exact,2005:Q4:pre_advance:exact,2006-01-26,pre_advance,A,2005:Q4,3.593739825984927,,,not_available,1.1187,2.475039825984927,False,True,0,,,,,,,13,,0.0
release_dfm,exact,2005:Q4:pre_advance:exact,2006-01-26,pre_advance,A,2005:Q4,3.593739825984927,,,not_available,1.1187,2.475039825984927,False,True,0,,,,,,,13,,0.0
revision_dfm_kalman_em,exact,2005:Q4:pre_advance:exact,2006-01-26,pre_advance,A,2005:Q4,4.078735620030675,4.5993381913208795,2.1446067684591688,model_implied_state_space,1.1187,2.9600356200306748,False,True,33,-1035.3569649689098,-1728.2196829045288,-1035.3569649689098,0.10307541830206901,9.944948602510618e-05,33.0,13,,0.0
indicator_revision_only_dfm_kalman_em,exact,2005:Q4:pre_advance:exact,2006-01-26,pre_advance,A,2005:Q4,6.185396653580654,4.974840741362748,2.2304351013564028,model_implied_state_space,1.1187,5.066696653580655,False,True,33,-1856.1366268187264,-2629.6880295276055,-1856.1366268187264,0.1841547390527012,9.915074492315013e-05,33.0,13,,0.0
joint_indicator_revision_dfm_full_kalman_em,exact,2005:Q4:pre_advance:exact,2006-01-26,pre_advance,A,2005:Q4,5.697693636010824,4.0318740145640275,2.0079526923122537,model_implied_state_space,1.1187,4.578993636010823,False,True,29,-1823.3830117340601,-2639.7272410694154,-1823.3830117340601,0.1766187965770314,9.680078064955613e-05,29.0,13,,0.0
ar,exact,2005:Q4:pre_second:exact,2006-02-27,pre_second,S,2005:Q4,3.4737475066981256,,,not_available,1.6274,1.8463475066981256,False,True,0,,,,,,,13,,0.0
no_revision,exact,2005:Q4:pre_second:exact,2006-02-27,pre_second,S,2005:Q4,1.1187,,,not_available,1.6274,-0.5086999999999999,False,True,0,,,,,,,13,,0.0
bridge,exact,2005:Q4:pre_second:exact,2006-02-27,pre_second,S,2005:Q4,4.0760537733207425,,,not_available,1.6274,2.4486537733207427,False,True,0,,,,,,,13,,0.0
midas_umidas,exact,2005:Q4:pre_second:exact,2006-02-27,pre_second,S,2005:Q4,-0.5649122577966739,,,not_available,1.6274,-2.192312257796674,False,True,0,,,,,,,13,,0.0
monthly_mixed_frequency_kalman_em,exact,2005:Q4:pre_second:exact,2006-02-27,pre_second,S,2005:Q4,1.3258737816608814,0.3424323474864679,0.5851771932384822,model_implied_state_space,1.6274,-0.3015262183391185,False,True,55,-3067.427102364222,-3852.4301530166954,-3067.427102364222,0.24545368921008048,7.998692748298774e-05,55.0,13,,0.0
standard_dfm,exact,2005:Q4:pre_second:exact,2006-02-27,pre_second,S,2005:Q4,4.011089933926364,,,not_available,1.6274,2.383689933926364,False,True,0,,,,,,,13,,0.0
release_dfm,exact,2005:Q4:pre_second:exact,2006-02-27,pre_second,S,2005:Q4,1.2384132484984511,,,not_available,1.6274,-0.3889867515015488,False,True,0,,,,,,,13,,0.0
revision_dfm_kalman_em,exact,2005:Q4:pre_second:exact,2006-02-27,pre_second,S,2005:Q4,1.1583822802725017,0.3773671472368176,0.6143021628130716,model_implied_state_space,1.6274,-0.4690177197274983,False,True,34,-1037.382774499776,-1729.7311644599981,-1037.382774499776,0.09724315826406382,9.363989350836496e-05,34.0,13,,0.0
indicator_revision_only_dfm_kalman_em,exact,2005:Q4:pre_second:exact,2006-02-27,pre_second,S,2005:Q4,1.4786370263723332,0.40369921837631173,0.635373290575164,model_implied_state_space,1.6274,-0.14876297362766677,False,True,31,-1859.9280738502543,-2631.298825420381,-1859.9280738502543,0.17835494386736173,9.583274825552258e-05,31.0,13,,0.0
joint_indicator_revision_dfm_full_kalman_em,exact,2005:Q4:pre_second:exact,2006-02-27,pre_second,S,2005:Q4,1.0932689186599067,0.3417044807305931,0.5845549424396248,model_implied_state_space,1.6274,-0.5341310813400932,False,True,29,-1826.5956956114367,-2641.4229510222926,-1826.5956956114367,0.17074036687586158,9.34147621462765e-05,29.0,13,,0.0
ar,exact,2005:Q4:pre_third:exact,2006-03-29,pre_third,T,2005:Q4,3.434949731336563,,,not_available,1.6527,1.7822497313365628,False,True,0,,,,,,,13,,0.0
no_revision,exact,2005:Q4:pre_third:exact,2006-03-29,pre_third,T,2005:Q4,1.6274,,,not_available,1.6527,-0.0253000000000001,False,True,0,,,,,,,13,,0.0
bridge,exact,2005:Q4:pre_third:exact,2006-03-29,pre_third,T,2005:Q4,4.0602604490807135,,,not_available,1.6527,2.407560449080713,False,True,0,,,,,,,13,,0.0
midas_umidas,exact,2005:Q4:pre_third:exact,2006-03-29,pre_third,T,2005:Q4,4.1201324831475805,,,not_available,1.6527,2.4674324831475802,False,True,0,,,,,,,13,,0.0
monthly_mixed_frequency_kalman_em,exact,2005:Q4:pre_third:exact,2006-03-29,pre_third,T,2005:Q4,1.6817680380051256,0.13319945685253345,0.36496500770968915,model_implied_state_space,1.6527,0.029068038005125585,False,True,56,-3085.014074804009,-3871.567354229314,-3085.014074804009,0.30065169792123925,9.741446500564828e-05,56.0,13,,0.0
standard_dfm,exact,2005:Q4:pre_third:exact,2006-03-29,pre_third,T,2005:Q4,4.1259477507131495,,,not_available,1.6527,2.473247750713149,False,True,0,,,,,,,13,,0.0
release_dfm,exact,2005:Q4:pre_third:exact,2006-03-29,pre_third,T,2005:Q4,1.6144351660270495,,,not_available,1.6527,-0.03826483397295055,False,True,0,,,,,,,13,,0.0
revision_dfm_kalman_em,exact,2005:Q4:pre_third:exact,2006-03-29,pre_third,T,2005:Q4,1.599252426627957,0.13875235126298865,0.3724947667591971,model_implied_state_space,1.6527,-0.05344757337204298,False,True,29,-1036.9392099476943,-1734.315139020762,-1036.9392099476943,0.09967077880514807,9.601834830636671e-05,29.0,13,,0.0
indicator_revision_only_dfm_kalman_em,exact,2005:Q4:pre_third:exact,2006-03-29,pre_third,T,2005:Q4,1.6189290241627525,0.14248682000195523,0.37747426402597994,model_implied_state_space,1.6527,-0.03377097583724753,False,True,31,-1859.5316050259937,-2632.4265263400825,-1859.5316050259937,0.1797614438551136,9.660898895681921e-05,31.0,13,,0.0
joint_indicator_revision_dfm_full_kalman_em,exact,2005:Q4:pre_third:exact,2006-03-29,pre_third,T,2005:Q4,1.5875192566029692,0.13756912210981315,0.37090311687799704,model_implied_state_space,1.6527,-0.06518074339703084,False,True,29,-1826.5550298545957,-2642.521270393173,-1826.5550298545957,0.1672981642736886,9.153368742561065e-05,29.0,13,,0.0
ar,pseudo,2005:Q4:pre_advance:pseudo,2006-01-31,pre_advance,A,2005:Q4,3.2464479729838,,,not_available,1.1187,2.1277479729838,False,True,0,,,,,,,13,,0.0
no_revision,pseudo,2005:Q4:pre_advance:pseudo,2006-01-31,pre_advance,A,2005:Q4,3.2478332834395918,,,not_available,1.1187,2.1291332834395917,False,True,0,,,,,,,13,,0.0
bridge,pseudo,2005:Q4:pre_advance:pseudo,2006-01-31,pre_advance,A,2005:Q4,3.4969057302226005,,,not_available,1.1187,2.3782057302226005,False,True,0,,,,,,,13,,0.0
midas_umidas,pseudo,2005:Q4:pre_advance:pseudo,2006-01-31,pre_advance,A,2005:Q4,12.362913455090634,,,not_available,1.1187,11.244213455090634,False,True,0,,,,,,,13,,0.0
monthly_mixed_frequency_kalman_em,pseudo,2005:Q4:pre_advance:pseudo,2006-01-31,pre_advance,A,2005:Q4,4.667777969111777,3.4981074391633915,1.8703228168322685,model_implied_state_space,1.1187,3.5490779691117766,False,True,53,-3047.5500898107134,-3827.0398730172396,-3047.5500898107134,0.2554818435828565,8.379735525221797e-05,53.0,13,,0.0
standard_dfm,pseudo,2005:Q4:pre_advance:pseudo,2006-01-31,pre_advance,A,2005:Q4,3.593304057725815,,,not_available,1.1187,2.474604057725815,False,True,0,,,,,,,13,,0.0
release_dfm,pseudo,2005:Q4:pre_advance:pseudo,2006-01-31,pre_advance,A,2005:Q4,3.593304057725815,,,not_available,1.1187,2.474604057725815,False,True,0,,,,,,,13,,0.0
revision_dfm_kalman_em,pseudo,2005:Q4:pre_advance:pseudo,2006-01-31,pre_advance,A,2005:Q4,4.078298195759862,4.59923615536505,2.1445829793610343,model_implied_state_space,1.1187,2.959598195759862,False,True,33,-1035.357781961052,-1728.2196191196922,-1035.357781961052,0.10307341162729244,9.944747174289609e-05,33.0,13,,0.0
indicator_revision_only_dfm_kalman_em,pseudo,2005:Q4:pre_advance:pseudo,2006-01-31,pre_advance,A,2005:Q4,6.184775764080154,4.974842142152412,2.2304354153735124,model_implied_state_space,1.1187,5.0660757640801535,False,True,33,-1856.1349383207173,-2629.6866801344836,-1856.1349383207173,0.18417226487554217,9.916027021198023e-05,33.0,13,,0.0
joint_indicator_revision_dfm_full_kalman_em,pseudo,2005:Q4:pre_advance:pseudo,2006-01-31,pre_advance,A,2005:Q4,5.697021967189485,4.031912262095478,2.0079622163017605,model_implied_state_space,1.1187,4.578321967189485,False,True,29,-1823.381780363242,-2639.725894862193,-1823.381780363242,0.1765810087074442,9.678013729013676e-05,29.0,13,,0.0
ar,pseudo,2005:Q4:pre_second:pseudo,2006-02-28,pre_second,S,2005:Q4,3.4737475066981256,,,not_available,1.6274,1.8463475066981256,False,True,0,,,,,,,13,,0.0
no_revision,pseudo,2005:Q4:pre_second:pseudo,2006-02-28,pre_second,S,2005:Q4,1.1187,,,not_available,1.6274,-0.5086999999999999,False,True,0,,,,,,,13,,0.0
bridge,pseudo,2005:Q4:pre_second:pseudo,2006-02-28,pre_second,S,2005:Q4,4.0760537733207425,,,not_available,1.6274,2.4486537733207427,False,True,0,,,,,,,13,,0.0
midas_umidas,pseudo,2005:Q4:pre_second:pseudo,2006-02-28,pre_second,S,2005:Q4,-0.5649122577966739,,,not_available,1.6274,-2.192312257796674,False,True,0,,,,,,,13,,0.0
monthly_mixed_frequency_kalman_em,pseudo,2005:Q4:pre_second:pseudo,2006-02-28,pre_second,S,2005:Q4,1.3258737816608814,0.3424323474864679,0.5851771932384822,model_implied_state_space,1.6274,-0.3015262183391185,False,True,55,-3067.427102364222,-3852.4301530166954,-3067.427102364222,0.24545368921008048,7.998692748298774e-05,55.0,13,,0.0
standard_dfm,pseudo,2005:Q4:pre_second:pseudo,2006-02-28,pre_second,S,2005:Q4,4.011089933926364,,,not_available,1.6274,2.383689933926364,False,True,0,,,,,,,13,,0.0
release_dfm,pseudo,2005:Q4:pre_second:pseudo,2006-02-28,pre_second,S,2005:Q4,1.2384132484984511,,,not_available,1.6274,-0.3889867515015488,False,True,0,,,,,,,13,,0.0
revision_dfm_kalman_em,pseudo,2005:Q4:pre_second:pseudo,2006-02-28,pre_second,S,2005:Q4,1.1583822802725017,0.3773671472368176,0.6143021628130716,model_implied_state_space,1.6274,-0.4690177197274983,False,True,34,-1037.382774499776,-1729.7311644599981,-1037.382774499776,0.09724315826406382,9.363989350836496e-05,34.0,13,,0.0
indicator_revision_only_dfm_kalman_em,pseudo,2005:Q4:pre_second:pseudo,2006-02-28,pre_second,S,2005:Q4,1.4786370263723332,0.40369921837631173,0.635373290575164,model_implied_state_space,1.6274,-0.14876297362766677,False,True,31,-1859.9280738502543,-2631.298825420381,-1859.9280738502543,0.17835494386736173,9.583274825552258e-05,31.0,13,,0.0
joint_indicator_revision_dfm_full_kalman_em,pseudo,2005:Q4:pre_second:pseudo,2006-02-28,pre_second,S,2005:Q4,1.0932689186599067,0.3417044807305931,0.5845549424396248,model_implied_state_space,1.6274,-0.5341310813400932,False,True,29,-1826.5956956114367,-2641.4229510222926,-1826.5956956114367,0.17074036687586158,9.34147621462765e-05,29.0,13,,0.0
ar,pseudo,2005:Q4:pre_third:pseudo,2006-03-31,pre_third,T,2005:Q4,3.434949731336563,,,not_available,1.6527,1.7822497313365628,False,True,0,,,,,,,13,,0.0
no_revision,pseudo,2005:Q4:pre_third:pseudo,2006-03-31,pre_third,T,2005:Q4,1.6274,,,not_available,1.6527,-0.0253000000000001,False,True,0,,,,,,,13,,0.0
bridge,pseudo,2005:Q4:pre_third:pseudo,2006-03-31,pre_third,T,2005:Q4,4.005852251483771,,,not_available,1.6527,2.3531522514837704,False,True,0,,,,,,,13,,0.0
midas_umidas,pseudo,2005:Q4:pre_third:pseudo,2006-03-31,pre_third,T,2005:Q4,3.98135625072308,,,not_available,1.6527,2.32865625072308,False,True,0,,,,,,,13,,0.0
monthly_mixed_frequency_kalman_em,pseudo,2005:Q4:pre_third:pseudo,2006-03-31,pre_third,T,2005:Q4,1.6786207332556857,0.13314797894573407,0.36489447645276035,model_implied_state_space,1.6527,0.02592073325568567,False,True,56,-3084.3098043477958,-3871.844562911713,-3084.3098043477958,0.24164617910855668,7.831539450340131e-05,56.0,13,,0.0
standard_dfm,pseudo,2005:Q4:pre_third:pseudo,2006-03-31,pre_third,T,2005:Q4,4.130967524639935,,,not_available,1.6527,2.478267524639935,False,True,0,,,,,,,13,,0.0
release_dfm,pseudo,2005:Q4:pre_third:pseudo,2006-03-31,pre_third,T,2005:Q4,1.6154042763820453,,,not_available,1.6527,-0.037295723617954746,False,True,0,,,,,,,13,,0.0
revision_dfm_kalman_em,pseudo,2005:Q4:pre_third:pseudo,2006-03-31,pre_third,T,2005:Q4,1.5992193442222808,0.13874860866070704,0.37248974302751886,model_implied_state_space,1.6527,-0.05348065577771921,False,True,29,-1036.9655819050877,-1734.406416497379,-1036.9655819050877,0.09940362244606149,9.575857372315241e-05,29.0,13,,0.0
indicator_revision_only_dfm_kalman_em,pseudo,2005:Q4:pre_third:pseudo,2006-03-31,pre_third,T,2005:Q4,1.6189190745375899,0.14248691445643769,0.3774743891397636,model_implied_state_space,1.6527,-0.03378092546241018,False,True,31,-1859.5657947961693,-2632.5782972447423,-1859.5657947961693,0.1796490429098867,9.654681327029657e-05,31.0,13,,0.0
joint_indicator_revision_dfm_full_kalman_em,pseudo,2005:Q4:pre_third:pseudo,2006-03-31,pre_third,T,2005:Q4,1.587599945575402,0.13756832939549357,0.3709020482492562,model_implied_state_space,1.6527,-0.0651000544245981,False,True,29,-1826.5846494126158,-2642.6721893451054,-1826.5846494126158,0.16714208545431575,9.144681801532909e-05,29.0,13,,0.0
ar,exact,2006:Q1:pre_advance:exact,2006-04-27,pre_advance,A,2006:Q1,1.9162734650651858,,,not_available,4.8178,-2.9015265349348143,False,True,0,,,,,,,13,,0.0
no_revision,exact,2006:Q1:pre_advance:exact,2006-04-27,pre_advance,A,2006:Q1,1.9412571709533264,,,not_available,4.8178,-2.8765428290466737,False,True,0,,,,,,,13,,0.0
bridge,exact,2006:Q1:pre_advance:exact,2006-04-27,pre_advance,A,2006:Q1,2.213341110458663,,,not_available,4.8178,-2.604458889541337,False,True,0,,,,,,,13,,0.0
midas_umidas,exact,2006:Q1:pre_advance:exact,2006-04-27,pre_advance,A,2006:Q1,25.43589729569944,,,not_available,4.8178,20.618097295699442,False,True,0,,,,,,,13,,0.0
monthly_mixed_frequency_kalman_em,exact,2006:Q1:pre_advance:exact,2006-04-27,pre_advance,A,2006:Q1,4.687099846059716,3.716693625574573,1.9278728240147411,model_implied_state_space,4.8178,-0.13070015394028367,False,True,50,-3101.210893384204,-3887.7916086825885,-3101.210893384204,0.29941352311152514,9.650685847680241e-05,50.0,13,,0.0
standard_dfm,exact,2006:Q1:pre_advance:exact,2006-04-27,pre_advance,A,2006:Q1,3.2292499067701845,,,not_available,4.8178,-1.5885500932298156,False,True,0,,,,,,,13,,0.0
release_dfm,exact,2006:Q1:pre_advance:exact,2006-04-27,pre_advance,A,2006:Q1,3.2292499067701845,,,not_available,4.8178,-1.5885500932298156,False,True,0,,,,,,,13,,0.0
revision_dfm_kalman_em,exact,2006:Q1:pre_advance:exact,2006-04-27,pre_advance,A,2006:Q1,2.868793508055329,5.0284769090654615,2.242426567151188,model_implied_state_space,4.8178,-1.949006491944671,False,True,29,-1053.8962039562002,-1753.9865766963499,-1053.8962039562002,0.09456905927481785,8.963970272887939e-05,29.0,13,,0.0
indicator_revision_only_dfm_kalman_em,exact,2006:Q1:pre_advance:exact,2006-04-27,pre_advance,A,2006:Q1,4.910805279687205,5.537494297153822,2.3531881134226866,model_implied_state_space,4.8178,0.09300527968720473,False,True,30,-1891.801770150115,-2668.894700431683,-1891.801770150115,0.18275916018956195,9.654551178828119e-05,30.0,13,,0.0
joint_indicator_revision_dfm_full_kalman_em,exact,2006:Q1:pre_advance:exact,2006-04-27,pre_advance,A,2006:Q1,4.051828715043071,4.595453933463339,2.1437009897519146,model_implied_state_space,4.8178,-0.7659712849569287,False,True,28,-1858.8111114587116,-2678.976370587542,-1858.8111114587116,0.17562836102024448,9.442452317550727e-05,28.0,13,,0.0
ar,exact,2006:Q1:pre_second:exact,2006-05-24,pre_second,S,2006:Q1,2.270568285238669,,,not_available,5.3086,-3.038031714761331,False,True,0,,,,,,,13,,0.0
no_revision,exact,2006:Q1:pre_second:exact,2006-05-24,pre_second,S,2006:Q1,4.8178,,,not_available,5.3086,-0.4908000000000001,False,True,0,,,,,,,13,,0.0
bridge,exact,2006:Q1:pre_second:exact,2006-05-24,pre_second,S,2006:Q1,2.4034774071399516,,,not_available,5.3086,-2.9051225928600486,False,True,0,,,,,,,13,,0.0
midas_umidas,exact,2006:Q1:pre_second:exact,2006-05-24,pre_second,S,2006:Q1,5.427090905635718,,,not_available,5.3086,0.11849090563571796,False,True,0,,,,,,,13,,0.0
monthly_mixed_frequency_kalman_em,exact,2006:Q1:pre_second:exact,2006-05-24,pre_second,S,2006:Q1,5.056746916864283,0.34156295683532983,0.5844338772139496,model_implied_state_space,5.3086,-0.2518530831357175,False,True,54,-3119.636410782428,-3911.343185530462,-3119.636410782428,0.26440714597629267,8.47214190394558e-05,54.0,13,,0.0
standard_dfm,exact,2006:Q1:pre_second:exact,2006-05-24,pre_second,S,2006:Q1,3.462273629310742,,,not_available,5.3086,-1.8463263706892583,False,True,0,,,,,,,13,,0.0
release_dfm,exact,2006:Q1:pre_second:exact,2006-05-24,pre_second,S,2006:Q1,5.058042305107192,,,not_available,5.3086,-0.2505576948928079,False,True,0,,,,,,,13,,0.0
revision_dfm_kalman_em,exact,2006:Q1:pre_second:exact,2006-05-24,pre_second,S,2006:Q1,5.059373572563623,0.3773616286324897,0.6142976710296806,model_implied_state_space,5.3086,-0.24922642743637713,False,True,32,-1054.2627666508024,-1751.6740061690764,-1054.2627666508024,0.10426835528778611,9.879819231532507e-05,32.0,13,,0.0
indicator_revision_only_dfm_kalman_em,exact,2006:Q1:pre_second:exact,2006-05-24,pre_second,S,2006:Q1,4.822709772519575,0.4016636243167344,0.6337693778629055,model_implied_state_space,5.3086,-0.4858902274804251,False,True,30,-1891.4934620092172,-2669.7644170608546,-1891.4934620092172,0.18280848115068693,9.65872949330757e-05,30.0,13,,0.0
joint_indicator_revision_dfm_full_kalman_em,exact,2006:Q1:pre_second:exact,2006-05-24,pre_second,S,2006:Q1,5.252367312275305,0.3431678710004544,0.5858053183442895,model_implied_state_space,5.3086,-0.056232687724695474,False,True,28,-1858.4739282909632,-2679.9406417112364,-1858.4739282909632,0.17735943594607306,9.537241584838372e-05,28.0,13,,0.0
ar,exact,2006:Q1:pre_third:exact,2006-06-28,pre_third,T,2006:Q1,2.346837837693795,,,not_available,5.638,-3.291162162306205,False,True,0,,,,,,,13,,0.0
no_revision,exact,2006:Q1:pre_third:exact,2006-06-28,pre_third,T,2006:Q1,5.3086,,,not_available,5.638,-0.3293999999999997,False,True,0,,,,,,,13,,0.0
bridge,exact,2006:Q1:pre_third:exact,2006-06-28,pre_third,T,2006:Q1,2.6577374910833713,,,not_available,5.638,-2.9802625089166286,False,True,0,,,,,,,13,,0.0
midas_umidas,exact,2006:Q1:pre_third:exact,2006-06-28,pre_third,T,2006:Q1,6.021006258694476,,,not_available,5.638,0.38300625869447646,False,True,0,,,,,,,13,,0.0
monthly_mixed_frequency_kalman_em,exact,2006:Q1:pre_third:exact,2006-06-28,pre_third,T,2006:Q1,5.475940469655453,0.13637260163533782,0.369286611773752,model_implied_state_space,5.638,-0.16205953034454712,False,True,48,-3134.4999939380896,-3926.8933649357896,-3134.4999939380896,0.2661317880692877,8.486978218366294e-05,48.0,13,,0.0
standard_dfm,exact,2006:Q1:pre_third:exact,2006-06-28,pre_third,T,2006:Q1,3.5049689406413282,,,not_available,5.638,-2.1330310593586717,False,True,0,,,,,,,13,,0.0
release_dfm,exact,2006:Q1:pre_third:exact,2006-06-28,pre_third,T,2006:Q1,5.357868818750799,,,not_available,5.638,-0.28013118124920133,False,True,0,,,,,,,13,,0.0
revision_dfm_kalman_em,exact,2006:Q1:pre_third:exact,2006-06-28,pre_third,T,2006:Q1,5.299246990648909,0.13789905405078068,0.37134761888395174,model_implied_state_space,5.638,-0.3387530093510911,False,True,29,-1054.1171611977077,-1757.265870660624,-1054.1171611977077,0.09888787899512863,9.371339554743689e-05,29.0,13,,0.0
indicator_revision_only_dfm_kalman_em,exact,2006:Q1:pre_third:exact,2006-06-28,pre_third,T,2006:Q1,5.2805908142958735,0.14160995396233364,0.37631098039033306,model_implied_state_space,5.638,-0.3574091857041264,False,True,31,-1892.0842895667458,-2671.9224371033147,-1892.0842895667458,0.18017448171781325,9.516604000084436e-05,31.0,13,,0.0
joint_indicator_revision_dfm_full_kalman_em,exact,2006:Q1:pre_third:exact,2006-06-28,pre_third,T,2006:Q1,5.3192865503394025,0.136551825760361,0.3695291947334622,model_implied_state_space,5.638,-0.31871344966059745,False,True,28,-1858.9608720219112,-2682.063805158099,-1858.9608720219112,0.17495440211314417,9.405463817633214e-05,28.0,13,,0.0
ar,pseudo,2006:Q1:pre_advance:pseudo,2006-04-30,pre_advance,A,2006:Q1,1.9162734650651858,,,not_available,4.8178,-2.9015265349348143,False,True,0,,,,,,,13,,0.0
no_revision,pseudo,2006:Q1:pre_advance:pseudo,2006-04-30,pre_advance,A,2006:Q1,1.9412571709533264,,,not_available,4.8178,-2.8765428290466737,False,True,0,,,,,,,13,,0.0
bridge,pseudo,2006:Q1:pre_advance:pseudo,2006-04-30,pre_advance,A,2006:Q1,2.213341110458663,,,not_available,4.8178,-2.604458889541337,False,True,0,,,,,,,13,,0.0
midas_umidas,pseudo,2006:Q1:pre_advance:pseudo,2006-04-30,pre_advance,A,2006:Q1,25.43589729569944,,,not_available,4.8178,20.618097295699442,False,True,0,,,,,,,13,,0.0
monthly_mixed_frequency_kalman_em,pseudo,2006:Q1:pre_advance:pseudo,2006-04-30,pre_advance,A,2006:Q1,4.687099846059716,3.716693625574573,1.9278728240147411,model_implied_state_space,4.8178,-0.13070015394028367,False,True,50,-3101.210893384204,-3887.7916086825885,-3101.210893384204,0.29941352311152514,9.650685847680241e-05,50.0,13,,0.0
standard_dfm,pseudo,2006:Q1:pre_advance:pseudo,2006-04-30,pre_advance,A,2006:Q1,3.2292499067701845,,,not_available,4.8178,-1.5885500932298156,False,True,0,,,,,,,13,,0.0
release_dfm,pseudo,2006:Q1:pre_advance:pseudo,2006-04-30,pre_advance,A,2006:Q1,3.2292499067701845,,,not_available,4.8178,-1.5885500932298156,False,True,0,,,,,,,13,,0.0
revision_dfm_kalman_em,pseudo,2006:Q1:pre_advance:pseudo,2006-04-30,pre_advance,A,2006:Q1,2.868793508055329,5.0284769090654615,2.242426567151188,model_implied_state_space,4.8178,-1.949006491944671,False,True,29,-1053.8962039562002,-1753.9865766963499,-1053.8962039562002,0.09456905927481785,8.963970272887939e-05,29.0,13,,0.0
indicator_revision_only_dfm_kalman_em,pseudo,2006:Q1:pre_advance:pseudo,2006-04-30,pre_advance,A,2006:Q1,4.910805279687205,5.537494297153822,2.3531881134226866,model_implied_state_space,4.8178,0.09300527968720473,False,True,30,-1891.801770150115,-2668.894700431683,-1891.801770150115,0.18275916018956195,9.654551178828119e-05,30.0,13,,0.0
joint_indicator_revision_dfm_full_kalman_em,pseudo,2006:Q1:pre_advance:pseudo,2006-04-30,pre_advance,A,2006:Q1,4.051828715043071,4.595453933463339,2.1437009897519146,model_implied_state_space,4.8178,-0.7659712849569287,False,True,28,-1858.8111114587116,-2678.976370587542,-1858.8111114587116,0.17562836102024448,9.442452317550727e-05,28.0,13,,0.0
ar,pseudo,2006:Q1:pre_second:pseudo,2006-05-31,pre_second,S,2006:Q1,2.270568285238669,,,not_available,5.3086,-3.038031714761331,False,True,0,,,,,,,13,,0.0
no_revision,pseudo,2006:Q1:pre_second:pseudo,2006-05-31,pre_second,S,2006:Q1,4.8178,,,not_available,5.3086,-0.4908000000000001,False,True,0,,,,,,,13,,0.0
bridge,pseudo,2006:Q1:pre_second:pseudo,2006-05-31,pre_second,S,2006:Q1,2.4034774071399516,,,not_available,5.3086,-2.9051225928600486,False,True,0,,,,,,,13,,0.0
midas_umidas,pseudo,2006:Q1:pre_second:pseudo,2006-05-31,pre_second,S,2006:Q1,5.427090905635718,,,not_available,5.3086,0.11849090563571796,False,True,0,,,,,,,13,,0.0
monthly_mixed_frequency_kalman_em,pseudo,2006:Q1:pre_second:pseudo,2006-05-31,pre_second,S,2006:Q1,5.056746916864283,0.34156295683532983,0.5844338772139496,model_implied_state_space,5.3086,-0.2518530831357175,False,True,54,-3119.636410782428,-3911.343185530462,-3119.636410782428,0.26440714597629267,8.47214190394558e-05,54.0,13,,0.0
standard_dfm,pseudo,2006:Q1:pre_second:pseudo,2006-05-31,pre_second,S,2006:Q1,3.462273629310742,,,not_available,5.3086,-1.8463263706892583,False,True,0,,,,,,,13,,0.0
release_dfm,pseudo,2006:Q1:pre_second:pseudo,2006-05-31,pre_second,S,2006:Q1,5.058042305107192,,,not_available,5.3086,-0.2505576948928079,False,True,0,,,,,,,13,,0.0
revision_dfm_kalman_em,pseudo,2006:Q1:pre_second:pseudo,2006-05-31,pre_second,S,2006:Q1,5.059373572563623,0.3773616286324897,0.6142976710296806,model_implied_state_space,5.3086,-0.24922642743637713,False,True,32,-1054.2627666508024,-1751.6740061690764,-1054.2627666508024,0.10426835528778611,9.879819231532507e-05,32.0,13,,0.0
indicator_revision_only_dfm_kalman_em,pseudo,2006:Q1:pre_second:pseudo,2006-05-31,pre_second,S,2006:Q1,4.822709772519575,0.4016636243167344,0.6337693778629055,model_implied_state_space,5.3086,-0.4858902274804251,False,True,30,-1891.4934620092172,-2669.7644170608546,-1891.4934620092172,0.18280848115068693,9.65872949330757e-05,30.0,13,,0.0
joint_indicator_revision_dfm_full_kalman_em,pseudo,2006:Q1:pre_second:pseudo,2006-05-31,pre_second,S,2006:Q1,5.252367312275305,0.3431678710004544,0.5858053183442895,model_implied_state_space,5.3086,-0.056232687724695474,False,True,28,-1858.4739282909632,-2679.9406417112364,-1858.4739282909632,0.17735943594607306,9.537241584838372e-05,28.0,13,,0.0
ar,pseudo,2006:Q1:pre_third:pseudo,2006-06-30,pre_third,T,2006:Q1,2.346837837693795,,,not_available,5.638,-3.291162162306205,False,True,0,,,,,,,13,,0.0
no_revision,pseudo,2006:Q1:pre_third:pseudo,2006-06-30,pre_third,T,2006:Q1,5.3086,,,not_available,5.638,-0.3293999999999997,False,True,0,,,,,,,13,,0.0
bridge,pseudo,2006:Q1:pre_third:pseudo,2006-06-30,pre_third,T,2006:Q1,2.6577374910833713,,,not_available,5.638,-2.9802625089166286,False,True,0,,,,,,,13,,0.0
midas_umidas,pseudo,2006:Q1:pre_third:pseudo,2006-06-30,pre_third,T,2006:Q1,6.021006258694476,,,not_available,5.638,0.38300625869447646,False,True,0,,,,,,,13,,0.0
monthly_mixed_frequency_kalman_em,pseudo,2006:Q1:pre_third:pseudo,2006-06-30,pre_third,T,2006:Q1,5.475940469655453,0.13637260163533782,0.369286611773752,model_implied_state_space,5.638,-0.16205953034454712,False,True,48,-3134.4999939380896,-3926.8933649357896,-3134.4999939380896,0.2661317880692877,8.486978218366294e-05,48.0,13,,0.0
standard_dfm,pseudo,2006:Q1:pre_third:pseudo,2006-06-30,pre_third,T,2006:Q1,3.5049689406413282,,,not_available,5.638,-2.1330310593586717,False,True,0,,,,,,,13,,0.0
release_dfm,pseudo,2006:Q1:pre_third:pseudo,2006-06-30,pre_third,T,2006:Q1,5.357868818750799,,,not_available,5.638,-0.28013118124920133,False,True,0,,,,,,,13,,0.0
revision_dfm_kalman_em,pseudo,2006:Q1:pre_third:pseudo,2006-06-30,pre_third,T,2006:Q1,5.299246990648909,0.13789905405078068,0.37134761888395174,model_implied_state_space,5.638,-0.3387530093510911,False,True,29,-1054.1171611977077,-1757.265870660624,-1054.1171611977077,0.09888787899512863,9.371339554743689e-05,29.0,13,,0.0
indicator_revision_only_dfm_kalman_em,pseudo,2006:Q1:pre_third:pseudo,2006-06-30,pre_third,T,2006:Q1,5.2805908142958735,0.14160995396233364,0.37631098039033306,model_implied_state_space,5.638,-0.3574091857041264,False,True,31,-1892.0842895667458,-2671.9224371033147,-1892.0842895667458,0.18017448171781325,9.516604000084436e-05,31.0,13,,0.0
joint_indicator_revision_dfm_full_kalman_em,pseudo,2006:Q1:pre_third:pseudo,2006-06-30,pre_third,T,2006:Q1,5.3192865503394025,0.136551825760361,0.3695291947334622,model_implied_state_space,5.638,-0.31871344966059745,False,True,28,-1858.9608720219112,-2682.063805158099,-1858.9608720219112,0.17495440211314417,9.405463817633214e-05,28.0,13,,0.0
ar,exact,2006:Q2:pre_advance:exact,2006-07-27,pre_advance,A,2006:Q2,3.740059135204821,,,not_available,2.4577,1.2823591352048211,False,True,0,,,,,,,13,,0.0
no_revision,exact,2006:Q2:pre_advance:exact,2006-07-27,pre_advance,A,2006:Q2,3.697855652198896,,,not_available,2.4577,1.240155652198896,False,True,0,,,,,,,13,,0.0
bridge,exact,2006:Q2:pre_advance:exact,2006-07-27,pre_advance,A,2006:Q2,1.5213527369938808,,,not_available,2.4577,-0.9363472630061191,False,True,0,,,,,,,13,,0.0
midas_umidas,exact,2006:Q2:pre_advance:exact,2006-07-27,pre_advance,A,2006:Q2,-12.426701283394587,,,not_available,2.4577,-14.884401283394588,False,True,0,,,,,,,13,,0.0
monthly_mixed_frequency_kalman_em,exact,2006:Q2:pre_advance:exact,2006-07-27,pre_advance,A,2006:Q2,4.062978193025929,3.665358717259736,1.914512657900108,model_implied_state_space,2.4577,1.6052781930259288,False,True,49,-3152.750516942523,-3946.9578905829335,-3152.750516942523,0.2736909358009143,8.677515382325587e-05,49.0,13,,0.0
standard_dfm,exact,2006:Q2:pre_advance:exact,2006-07-27,pre_advance,A,2006:Q2,3.4635756404858804,,,not_available,2.4577,1.0058756404858804,False,True,0,,,,,,,13,,0.0
release_dfm,exact,2006:Q2:pre_advance:exact,2006-07-27,pre_advance,A,2006:Q2,3.4635756404858804,,,not_available,2.4577,1.0058756404858804,False,True,0,,,,,,,13,,0.0
revision_dfm_kalman_em,exact,2006:Q2:pre_advance:exact,2006-07-27,pre_advance,A,2006:Q2,3.74263822852323,4.902465568116192,2.2141512071482814,model_implied_state_space,2.4577,1.28493822852323,False,True,31,-1071.3006843054047,-1772.6225087541645,-1071.3006843054047,0.10185917331477867,9.498221906893486e-05,31.0,13,,0.0
indicator_revision_only_dfm_kalman_em,exact,2006:Q2:pre_advance:exact,2006-07-27,pre_advance,A,2006:Q2,4.9601066863567205,5.032518441393953,2.2433275376979513,model_implied_state_space,2.4577,2.5024066863567205,False,True,36,-1928.2090205183472,-2708.328641340759,-1928.2090205183472,0.18867279386540758,9.778844170872387e-05,36.0,13,,0.0
joint_indicator_revision_dfm_full_kalman_em,exact,2006:Q2:pre_advance:exact,2006-07-27,pre_advance,A,2006:Q2,4.243034282720485,4.185034635874451,2.0457357199488038,model_implied_state_space,2.4577,1.785334282720485,False,True,33,-1894.5119872747757,-2718.4678145043054,-1894.5119872747757,0.17228988607871543,9.088532734826081e-05,33.0,13,,0.0
ar,exact,2006:Q2:pre_second:exact,2006-08-29,pre_second,S,2006:Q2,3.932818675395525,,,not_available,2.9012,1.0316186753955252,False,True,0,,,,,,,13,,0.0
no_revision,exact,2006:Q2:pre_second:exact,2006-08-29,pre_second,S,2006:Q2,2.4577,,,not_available,2.9012,-0.4434999999999998,False,True,0,,,,,,,13,,0.0
bridge,exact,2006:Q2:pre_second:exact,2006-08-29,pre_second,S,2006:Q2,1.499435175185744,,,not_available,2.9012,-1.4017648248142558,False,True,0,,,,,,,13,,0.0
midas_umidas,exact,2006:Q2:pre_second:exact,2006-08-29,pre_second,S,2006:Q2,2.814357793218155,,,not_available,2.9012,-0.08684220678184484,False,True,0,,,,,,,13,,0.0
monthly_mixed_frequency_kalman_em,exact,2006:Q2:pre_second:exact,2006-08-29,pre_second,S,2006:Q2,2.7682520252843505,0.33945520678975094,0.5826278458756936,model_implied_state_space,2.9012,-0.13294797471564923,False,True,52,-3172.55086616869,-3971.609014761932,-3172.55086616869,0.3036217416811269,9.566340953489267e-05,52.0,13,,0.0
standard_dfm,exact,2006:Q2:pre_second:exact,2006-08-29,pre_second,S,2006:Q2,3.71184482521998,,,not_available,2.9012,0.8106448252199803,False,True,0,,,,,,,13,,0.0
release_dfm,exact,2006:Q2:pre_second:exact,2006-08-29,pre_second,S,2006:Q2,2.6264704800636514,,,not_available,2.9012,-0.2747295199363484,False,True,0,,,,,,,13,,0.0
revision_dfm_kalman_em,exact,2006:Q2:pre_second:exact,2006-08-29,pre_second,S,2006:Q2,2.4911362697628,0.37718334458057756,0.6141525417846755,model_implied_state_space,2.9012,-0.41006373023719966,False,True,31,-1072.1959687807196,-1773.8825213270802,-1072.1959687807196,0.10531196922829622,9.811967163098099e-05,31.0,13,,0.0
indicator_revision_only_dfm_kalman_em,exact,2006:Q2:pre_second:exact,2006-08-29,pre_second,S,2006:Q2,2.634179399558827,0.39692927308269227,0.630023232176951,model_implied_state_space,2.9012,-0.2670206004411728,False,True,35,-1928.2412746982714,-2709.225556803001,-1928.2412746982714,0.18532898094304073,9.605391601299463e-05,35.0,13,,0.0
joint_indicator_revision_dfm_full_kalman_em,exact,2006:Q2:pre_second:exact,2006-08-29,pre_second,S,2006:Q2,2.598523931683071,0.3361593875568526,0.5797925383763166,model_implied_state_space,2.9012,-0.30267606831692895,False,True,32,-1894.2751779311302,-2719.468246439992,-1894.2751779311302,0.18383721540203624,9.698823025610201e-05,32.0,13,,0.0
ar,exact,2006:Q2:pre_third:exact,2006-09-27,pre_third,T,2006:Q2,4.082856331839703,,,not_available,2.5586,1.5242563318397027,False,True,0,,,,,,,13,,0.0
no_revision,exact,2006:Q2:pre_third:exact,2006-09-27,pre_third,T,2006:Q2,2.9012,,,not_available,2.5586,0.34259999999999957,False,True,0,,,,,,,13,,0.0
bridge,exact,2006:Q2:pre_third:exact,2006-09-27,pre_third,T,2006:Q2,1.3605661913180516,,,not_available,2.5586,-1.1980338086819486,False,True,0,,,,,,,13,,0.0
midas_umidas,exact,2006:Q2:pre_third:exact,2006-09-27,pre_third,T,2006:Q2,2.9254432216728548,,,not_available,2.5586,0.36684322167285455,False,True,0,,,,,,,13,,0.0
monthly_mixed_frequency_kalman_em,exact,2006:Q2:pre_third:exact,2006-09-27,pre_third,T,2006:Q2,3.0538549162717126,0.13503869418413536,0.36747611375997674,model_implied_state_space,2.5586,0.49525491627171236,False,True,48,-3187.4022294114015,-3986.3206673397544,-3187.4022294114015,0.24550039316090988,7.699200851389031e-05,48.0,13,,0.0
standard_dfm,exact,2006:Q2:pre_third:exact,2006-09-27,pre_third,T,2006:Q2,3.8602345747264764,,,not_available,2.5586,1.3016345747264761,False,True,0,,,,,,,13,,0.0
release_dfm,exact,2006:Q2:pre_third:exact,2006-09-27,pre_third,T,2006:Q2,2.9268642784165837,,,not_available,2.5586,0.3682642784165835,False,True,0,,,,,,,13,,0.0
revision_dfm_kalman_em,exact,2006:Q2:pre_third:exact,2006-09-27,pre_third,T,2006:Q2,2.879399014057018,0.13784345689985797,0.3712727527032626,model_implied_state_space,2.5586,0.32079901405701783,False,True,31,-1072.152535976636,-1775.0347987786688,-1072.152535976636,0.10217980298921248,9.520554765509493e-05,31.0,13,,0.0
indicator_revision_only_dfm_kalman_em,exact,2006:Q2:pre_third:exact,2006-09-27,pre_third,T,2006:Q2,2.8872513368864547,0.14132828016296933,0.3759365374141882,model_implied_state_space,2.5586,0.32865133688645454,False,True,35,-1928.154765350072,-2710.3997736959445,-1928.154765350072,0.18925705369770185,9.809399023710996e-05,35.0,13,,0.0
joint_indicator_revision_dfm_full_kalman_em,exact,2006:Q2:pre_third:exact,2006-09-27,pre_third,T,2006:Q2,2.8845138305120432,0.13680132962002112,0.36986663761418265,model_implied_state_space,2.5586,0.32591383051204303,False,True,33,-1893.9067801484994,-2720.6141186798013,-1893.9067801484994,0.1730522129869314,9.131658204144812e-05,33.0,13,,0.0
ar,pseudo,2006:Q2:pre_advance:pseudo,2006-07-31,pre_advance,A,2006:Q2,3.740059135204821,,,not_available,2.4577,1.2823591352048211,False,True,0,,,,,,,13,,0.0
no_revision,pseudo,2006:Q2:pre_advance:pseudo,2006-07-31,pre_advance,A,2006:Q2,3.697855652198896,,,not_available,2.4577,1.240155652198896,False,True,0,,,,,,,13,,0.0
bridge,pseudo,2006:Q2:pre_advance:pseudo,2006-07-31,pre_advance,A,2006:Q2,1.5213527369938808,,,not_available,2.4577,-0.9363472630061191,False,True,0,,,,,,,13,,0.0
midas_umidas,pseudo,2006:Q2:pre_advance:pseudo,2006-07-31,pre_advance,A,2006:Q2,-12.426701283394587,,,not_available,2.4577,-14.884401283394588,False,True,0,,,,,,,13,,0.0
monthly_mixed_frequency_kalman_em,pseudo,2006:Q2:pre_advance:pseudo,2006-07-31,pre_advance,A,2006:Q2,4.062978193025929,3.665358717259736,1.914512657900108,model_implied_state_space,2.4577,1.6052781930259288,False,True,49,-3152.750516942523,-3946.9578905829335,-3152.750516942523,0.2736909358009143,8.677515382325587e-05,49.0,13,,0.0
standard_dfm,pseudo,2006:Q2:pre_advance:pseudo,2006-07-31,pre_advance,A,2006:Q2,3.4635756404858804,,,not_available,2.4577,1.0058756404858804,False,True,0,,,,,,,13,,0.0
release_dfm,pseudo,2006:Q2:pre_advance:pseudo,2006-07-31,pre_advance,A,2006:Q2,3.4635756404858804,,,not_available,2.4577,1.0058756404858804,False,True,0,,,,,,,13,,0.0
revision_dfm_kalman_em,pseudo,2006:Q2:pre_advance:pseudo,2006-07-31,pre_advance,A,2006:Q2,3.74263822852323,4.902465568116192,2.2141512071482814,model_implied_state_space,2.4577,1.28493822852323,False,True,31,-1071.3006843054047,-1772.6225087541645,-1071.3006843054047,0.10185917331477867,9.498221906893486e-05,31.0,13,,0.0
indicator_revision_only_dfm_kalman_em,pseudo,2006:Q2:pre_advance:pseudo,2006-07-31,pre_advance,A,2006:Q2,4.9601066863567205,5.032518441393953,2.2433275376979513,model_implied_state_space,2.4577,2.5024066863567205,False,True,36,-1928.2090205183472,-2708.328641340759,-1928.2090205183472,0.18867279386540758,9.778844170872387e-05,36.0,13,,0.0
joint_indicator_revision_dfm_full_kalman_em,pseudo,2006:Q2:pre_advance:pseudo,2006-07-31,pre_advance,A,2006:Q2,4.243034282720485,4.185034635874451,2.0457357199488038,model_implied_state_space,2.4577,1.785334282720485,False,True,33,-1894.5119872747757,-2718.4678145043054,-1894.5119872747757,0.17228988607871543,9.088532734826081e-05,33.0,13,,0.0
ar,pseudo,2006:Q2:pre_second:pseudo,2006-08-31,pre_second,S,2006:Q2,3.932818675395525,,,not_available,2.9012,1.0316186753955252,False,True,0,,,,,,,13,,0.0
no_revision,pseudo,2006:Q2:pre_second:pseudo,2006-08-31,pre_second,S,2006:Q2,2.4577,,,not_available,2.9012,-0.4434999999999998,False,True,0,,,,,,,13,,0.0
bridge,pseudo,2006:Q2:pre_second:pseudo,2006-08-31,pre_second,S,2006:Q2,1.4822875599996792,,,not_available,2.9012,-1.4189124400003206,False,True,0,,,,,,,13,,0.0
midas_umidas,pseudo,2006:Q2:pre_second:pseudo,2006-08-31,pre_second,S,2006:Q2,2.8146128598585682,,,not_available,2.9012,-0.08658714014143154,False,True,0,,,,,,,13,,0.0
monthly_mixed_frequency_kalman_em,pseudo,2006:Q2:pre_second:pseudo,2006-08-31,pre_second,S,2006:Q2,2.7681612162951996,0.33945590710616635,0.5826284468734482,model_implied_state_space,2.9012,-0.13303878370480016,False,True,52,-3172.5760254004836,-3971.6140538323425,-3172.5760254004836,0.30463304543400227,9.598125393384043e-05,52.0,13,,0.0
standard_dfm,pseudo,2006:Q2:pre_second:pseudo,2006-08-31,pre_second,S,2006:Q2,3.7069991772072948,,,not_available,2.9012,0.805799177207295,False,True,0,,,,,,,13,,0.0
release_dfm,pseudo,2006:Q2:pre_second:pseudo,2006-08-31,pre_second,S,2006:Q2,2.626245533976651,,,not_available,2.9012,-0.27495446602334894,False,True,0,,,,,,,13,,0.0
revision_dfm_kalman_em,pseudo,2006:Q2:pre_second:pseudo,2006-08-31,pre_second,S,2006:Q2,2.490872519574763,0.3771742532531366,0.6141451402177962,model_implied_state_space,2.9012,-0.4103274804252366,False,True,31,-1072.2162911428475,-1773.89662254761,-1072.2162911428475,0.10538746109637032,9.818814172601683e-05,31.0,13,,0.0
indicator_revision_only_dfm_kalman_em,pseudo,2006:Q2:pre_second:pseudo,2006-08-31,pre_second,S,2006:Q2,2.6337935542461604,0.3969534606948454,0.630042427694235,model_implied_state_space,2.9012,-0.26740644575383943,False,True,35,-1928.2489741696772,-2709.243046800831,-1928.2489741696772,0.18466201403748528,9.570788576213166e-05,35.0,13,,0.0
joint_indicator_revision_dfm_full_kalman_em,pseudo,2006:Q2:pre_second:pseudo,2006-08-31,pre_second,S,2006:Q2,2.5988278687256976,0.3361710430169693,0.5798025896949489,model_implied_state_space,2.9012,-0.3023721312743022,False,True,32,-1894.2911901280045,-2719.4857223557347,-1894.2911901280045,0.18324769271976038,9.667642520700251e-05,32.0,13,,0.0
ar,pseudo,2006:Q2:pre_third:pseudo,2006-09-30,pre_third,T,2006:Q2,4.082856331839703,,,not_available,2.5586,1.5242563318397027,False,True,0,,,,,,,13,,0.0
no_revision,pseudo,2006:Q2:pre_third:pseudo,2006-09-30,pre_third,T,2006:Q2,2.9012,,,not_available,2.5586,0.34259999999999957,False,True,0,,,,,,,13,,0.0
bridge,pseudo,2006:Q2:pre_third:pseudo,2006-09-30,pre_third,T,2006:Q2,1.3605661913180516,,,not_available,2.5586,-1.1980338086819486,False,True,0,,,,,,,13,,0.0
midas_umidas,pseudo,2006:Q2:pre_third:pseudo,2006-09-30,pre_third,T,2006:Q2,2.9254432216728548,,,not_available,2.5586,0.36684322167285455,False,True,0,,,,,,,13,,0.0
monthly_mixed_frequency_kalman_em,pseudo,2006:Q2:pre_third:pseudo,2006-09-30,pre_third,T,2006:Q2,3.0538549162717126,0.13503869418413536,0.36747611375997674,model_implied_state_space,2.5586,0.49525491627171236,False,True,48,-3187.4022294114015,-3986.3206673397544,-3187.4022294114015,0.24550039316090988,7.699200851389031e-05,48.0,13,,0.0
standard_dfm,pseudo,2006:Q2:pre_third:pseudo,2006-09-30,pre_third,T,2006:Q2,3.8602345747264764,,,not_available,2.5586,1.3016345747264761,False,True,0,,,,,,,13,,0.0
release_dfm,pseudo,2006:Q2:pre_third:pseudo,2006-09-30,pre_third,T,2006:Q2,2.9268642784165837,,,not_available,2.5586,0.3682642784165835,False,True,0,,,,,,,13,,0.0
revision_dfm_kalman_em,pseudo,2006:Q2:pre_third:pseudo,2006-09-30,pre_third,T,2006:Q2,2.879399014057018,0.13784345689985797,0.3712727527032626,model_implied_state_space,2.5586,0.32079901405701783,False,True,31,-1072.152535976636,-1775.0347987786688,-1072.152535976636,0.10217980298921248,9.520554765509493e-05,31.0,13,,0.0
indicator_revision_only_dfm_kalman_em,pseudo,2006:Q2:pre_third:pseudo,2006-09-30,pre_third,T,2006:Q2,2.8872513368864547,0.14132828016296933,0.3759365374141882,model_implied_state_space,2.5586,0.32865133688645454,False,True,35,-1928.154765350072,-2710.3997736959445,-1928.154765350072,0.18925705369770185,9.809399023710996e-05,35.0,13,,0.0
joint_indicator_revision_dfm_full_kalman_em,pseudo,2006:Q2:pre_third:pseudo,2006-09-30,pre_third,T,2006:Q2,2.8845138305120432,0.13680132962002112,0.36986663761418265,model_implied_state_space,2.5586,0.32591383051204303,False,True,33,-1893.9067801484994,-2720.6141186798013,-1893.9067801484994,0.1730522129869314,9.131658204144812e-05,33.0,13,,0.0
ar,exact,2006:Q3:pre_advance:exact,2006-10-26,pre_advance,A,2006:Q3,2.58335724396098,,,not_available,1.5829,1.0004572439609802,False,True,0,,,,,,,13,,0.0
no_revision,exact,2006:Q3:pre_advance:exact,2006-10-26,pre_advance,A,2006:Q3,2.697548595025026,,,not_available,1.5829,1.114648595025026,False,True,0,,,,,,,13,,0.0
bridge,exact,2006:Q3:pre_advance:exact,2006-10-26,pre_advance,A,2006:Q3,0.5269397185662141,,,not_available,1.5829,-1.0559602814337858,False,True,0,,,,,,,13,,0.0
midas_umidas,exact,2006:Q3:pre_advance:exact,2006-10-26,pre_advance,A,2006:Q3,-2.6317575246025084,,,not_available,1.5829,-4.214657524602508,False,True,0,,,,,,,13,,0.0
monthly_mixed_frequency_kalman_em,exact,2006:Q3:pre_advance:exact,2006-10-26,pre_advance,A,2006:Q3,2.521073536044181,3.69454759206544,1.9221205976903322,model_implied_state_space,1.5829,0.938173536044181,False,True,46,-3203.468299979087,-4007.2434605024205,-3203.468299979087,0.27716528583914624,8.648589688112215e-05,46.0,13,,0.0
standard_dfm,exact,2006:Q3:pre_advance:exact,2006-10-26,pre_advance,A,2006:Q3,3.0602179516245127,,,not_available,1.5829,1.4773179516245127,False,True,0,,,,,,,13,,0.0
release_dfm,exact,2006:Q3:pre_advance:exact,2006-10-26,pre_advance,A,2006:Q3,3.0602179516245127,,,not_available,1.5829,1.4773179516245127,False,True,0,,,,,,,13,,0.0
revision_dfm_kalman_em,exact,2006:Q3:pre_advance:exact,2006-10-26,pre_advance,A,2006:Q3,2.0764102447218677,4.909499763359875,2.215739100923183,model_implied_state_space,1.5829,0.4935102447218678,False,True,30,-1089.7104419370887,-1794.9507311022903,-1089.7104419370887,0.10369599444402411,9.506293587343732e-05,30.0,13,,0.0
indicator_revision_only_dfm_kalman_em,exact,2006:Q3:pre_advance:exact,2006-10-26,pre_advance,A,2006:Q3,2.813469748424277,5.556194404251676,2.3571581203329734,model_implied_state_space,1.5829,1.2305697484242772,False,True,29,-1955.0745699520112,-2744.237041469461,-1955.0745699520112,0.17682865711662998,9.03915811855026e-05,29.0,13,,0.0
joint_indicator_revision_dfm_full_kalman_em,exact,2006:Q3:pre_advance:exact,2006-10-26,pre_advance,A,2006:Q3,2.1363572322173354,4.517483682977949,2.125437292177294,model_implied_state_space,1.5829,0.5534572322173354,False,True,28,-1923.0444797225875,-2754.5519575982253,-1923.0444797225875,0.19035881113677533,9.892701624809454e-05,28.0,13,,0.0
ar,exact,2006:Q3:pre_second:exact,2006-11-28,pre_second,S,2006:Q3,2.8532262466469804,,,not_available,2.2098,0.6434262466469804,False,True,0,,,,,,,13,,0.0
no_revision,exact,2006:Q3:pre_second:exact,2006-11-28,pre_second,S,2006:Q3,1.5829,,,not_available,2.2098,-0.6269,False,True,0,,,,,,,13,,0.0
bridge,exact,2006:Q3:pre_second:exact,2006-11-28,pre_second,S,2006:Q3,0.8757358874923964,,,not_available,2.2098,-1.3340641125076036,False,True,0,,,,,,,13,,0.0
midas_umidas,exact,2006:Q3:pre_second:exact,2006-11-28,pre_second,S,2006:Q3,2.379159096492291,,,not_available,2.2098,0.16935909649229108,False,True,0,,,,,,,13,,0.0
monthly_mixed_frequency_kalman_em,exact,2006:Q3:pre_second:exact,2006-11-28,pre_second,S,2006:Q3,1.6586141025658772,0.3367425526703207,0.5802952288881245,model_implied_state_space,2.2098,-0.5511858974341228,False,True,47,-3223.82402794756,-4026.8186118161957,-3223.82402794756,0.3105578015465653,9.629297422775044e-05,47.0,13,,0.0
standard_dfm,exact,2006:Q3:pre_second:exact,2006-11-28,pre_second,S,2006:Q3,3.2571987903906794,,,not_available,2.2098,1.0473987903906794,False,True,0,,,,,,,13,,0.0
release_dfm,exact,2006:Q3:pre_second:exact,2006-11-28,pre_second,S,2006:Q3,1.7024898218654105,,,not_available,2.2098,-0.5073101781345895,False,True,0,,,,,,,13,,0.0
revision_dfm_kalman_em,exact,2006:Q3:pre_second:exact,2006-11-28,pre_second,S,2006:Q3,1.593137485916156,0.3714065190363275,0.6094313078898453,model_implied_state_space,2.2098,-0.616662514083844,False,True,29,-1089.555293522013,-1799.2821364479903,-1089.555293522013,0.1005271628034734,9.21712981280868e-05,29.0,13,,0.0
indicator_revision_only_dfm_kalman_em,exact,2006:Q3:pre_second:exact,2006-11-28,pre_second,S,2006:Q3,1.4030627053076183,0.38173311364508666,0.6178455418994999,model_implied_state_space,2.2098,-0.8067372946923816,False,True,43,-1721.609963946935,-2747.7086698311323,-1721.609963946935,0.027015194515342955,1.5682465221899002e-05,43.0,13,,0.0
joint_indicator_revision_dfm_full_kalman_em,exact,2006:Q3:pre_second:exact,2006-11-28,pre_second,S,2006:Q3,1.2641737075291368,0.3361833349786372,0.5798131897246191,model_implied_state_space,2.2098,-0.9456262924708632,False,True,47,-1692.4877310260201,-2758.029510715335,-1692.4877310260201,0.03889831319929726,2.2968822884393978e-05,47.0,13,,0.0
ar,exact,2006:Q3:pre_third:exact,2006-12-20,pre_third,T,2006:Q3,2.75074084743836,,,not_available,1.9601,0.7906408474383599,False,True,0,,,,,,,13,,0.0
no_revision,exact,2006:Q3:pre_third:exact,2006-12-20,pre_third,T,2006:Q3,2.2098,,,not_available,1.9601,0.24970000000000003,False,True,0,,,,,,,13,,0.0
bridge,exact,2006:Q3:pre_third:exact,2006-12-20,pre_third,T,2006:Q3,0.39348429457032097,,,not_available,1.9601,-1.566615705429679,False,True,0,,,,,,,13,,0.0
midas_umidas,exact,2006:Q3:pre_third:exact,2006-12-20,pre_third,T,2006:Q3,1.9864144975801745,,,not_available,1.9601,0.026314497580174567,False,True,0,,,,,,,13,,0.0
monthly_mixed_frequency_kalman_em,exact,2006:Q3:pre_third:exact,2006-12-20,pre_third,T,2006:Q3,2.1929190997415766,0.13268173055319257,0.36425503504164847,model_implied_state_space,1.9601,0.23281909974157666,False,True,54,-3253.775326433178,-4050.779621378917,-3253.775326433178,0.252057960973616,7.743651011419394e-05,54.0,13,,0.0
standard_dfm,exact,2006:Q3:pre_third:exact,2006-12-20,pre_third,T,2006:Q3,3.3095218036059553,,,not_available,1.9601,1.3494218036059553,False,True,0,,,,,,,13,,0.0
release_dfm,exact,2006:Q3:pre_third:exact,2006-12-20,pre_third,T,2006:Q3,2.1333595250762545,,,not_available,1.9601,0.17325952507625453,False,True,0,,,,,,,13,,0.0
revision_dfm_kalman_em,exact,2006:Q3:pre_third:exact,2006-12-20,pre_third,T,2006:Q3,2.1716290235452345,0.1374943154403786,0.370802259216929,model_implied_state_space,1.9601,0.2115290235452345,False,True,28,-1091.254739919682,-1800.8340295993428,-1091.254739919682,0.10568285652834675,9.674724049389859e-05,28.0,13,,0.0
indicator_revision_only_dfm_kalman_em,exact,2006:Q3:pre_third:exact,2006-12-20,pre_third,T,2006:Q3,2.1823251908034362,0.14125305782269193,0.37583647750410276,model_implied_state_space,1.9601,0.22222519080343628,False,True,36,-1729.7755047387054,-2747.282597148363,-1729.7755047387054,0.06552378827041139,3.7856618366722625e-05,36.0,13,,0.0
joint_indicator_revision_dfm_full_kalman_em,exact,2006:Q3:pre_third:exact,2006-12-20,pre_third,T,2006:Q3,2.186951524826588,0.13573672149415547,0.3684246483260254,model_implied_state_space,1.9601,0.2268515248265881,False,True,39,-1697.7572389155955,-2757.6639316236196,-1697.7572389155955,0.12770243470254172,7.516838344628683e-05,39.0,13,,0.0
ar,pseudo,2006:Q3:pre_advance:pseudo,2006-10-31,pre_advance,A,2006:Q3,2.58335724396098,,,not_available,1.5829,1.0004572439609802,False,True,0,,,,,,,13,,0.0
no_revision,pseudo,2006:Q3:pre_advance:pseudo,2006-10-31,pre_advance,A,2006:Q3,2.697548595025026,,,not_available,1.5829,1.114648595025026,False,True,0,,,,,,,13,,0.0
bridge,pseudo,2006:Q3:pre_advance:pseudo,2006-10-31,pre_advance,A,2006:Q3,0.5269397185662141,,,not_available,1.5829,-1.0559602814337858,False,True,0,,,,,,,13,,0.0
midas_umidas,pseudo,2006:Q3:pre_advance:pseudo,2006-10-31,pre_advance,A,2006:Q3,-2.6317575246025084,,,not_available,1.5829,-4.214657524602508,False,True,0,,,,,,,13,,0.0
monthly_mixed_frequency_kalman_em,pseudo,2006:Q3:pre_advance:pseudo,2006-10-31,pre_advance,A,2006:Q3,2.521073536044181,3.69454759206544,1.9221205976903322,model_implied_state_space,1.5829,0.938173536044181,False,True,46,-3203.468299979087,-4007.2434605024205,-3203.468299979087,0.27716528583914624,8.648589688112215e-05,46.0,13,,0.0
standard_dfm,pseudo,2006:Q3:pre_advance:pseudo,2006-10-31,pre_advance,A,2006:Q3,3.0602179516245127,,,not_available,1.5829,1.4773179516245127,False,True,0,,,,,,,13,,0.0
release_dfm,pseudo,2006:Q3:pre_advance:pseudo,2006-10-31,pre_advance,A,2006:Q3,3.0602179516245127,,,not_available,1.5829,1.4773179516245127,False,True,0,,,,,,,13,,0.0
revision_dfm_kalman_em,pseudo,2006:Q3:pre_advance:pseudo,2006-10-31,pre_advance,A,2006:Q3,2.0764102447218677,4.909499763359875,2.215739100923183,model_implied_state_space,1.5829,0.4935102447218678,False,True,30,-1089.7104419370887,-1794.9507311022903,-1089.7104419370887,0.10369599444402411,9.506293587343732e-05,30.0,13,,0.0
indicator_revision_only_dfm_kalman_em,pseudo,2006:Q3:pre_advance:pseudo,2006-10-31,pre_advance,A,2006:Q3,2.813469748424277,5.556194404251676,2.3571581203329734,model_implied_state_space,1.5829,1.2305697484242772,False,True,29,-1955.0745699520112,-2744.237041469461,-1955.0745699520112,0.17682865711662998,9.03915811855026e-05,29.0,13,,0.0
joint_indicator_revision_dfm_full_kalman_em,pseudo,2006:Q3:pre_advance:pseudo,2006-10-31,pre_advance,A,2006:Q3,2.1363572322173354,4.517483682977949,2.125437292177294,model_implied_state_space,1.5829,0.5534572322173354,False,True,28,-1923.0444797225875,-2754.5519575982253,-1923.0444797225875,0.19035881113677533,9.892701624809454e-05,28.0,13,,0.0
ar,pseudo,2006:Q3:pre_second:pseudo,2006-11-30,pre_second,S,2006:Q3,2.8532262466469804,,,not_available,2.2098,0.6434262466469804,False,True,0,,,,,,,13,,0.0
no_revision,pseudo,2006:Q3:pre_second:pseudo,2006-11-30,pre_second,S,2006:Q3,1.5829,,,not_available,2.2098,-0.6269,False,True,0,,,,,,,13,,0.0
bridge,pseudo,2006:Q3:pre_second:pseudo,2006-11-30,pre_second,S,2006:Q3,0.897347254249764,,,not_available,2.2098,-1.312452745750236,False,True,0,,,,,,,13,,0.0
midas_umidas,pseudo,2006:Q3:pre_second:pseudo,2006-11-30,pre_second,S,2006:Q3,2.3754578474002144,,,not_available,2.2098,0.1656578474002144,False,True,0,,,,,,,13,,0.0
monthly_mixed_frequency_kalman_em,pseudo,2006:Q3:pre_second:pseudo,2006-11-30,pre_second,S,2006:Q3,1.6587021385753977,0.33673927822750815,0.5802924075218528,model_implied_state_space,2.2098,-0.5510978614246023,False,True,47,-3223.8319608284146,-4026.824384221526,-3223.8319608284146,0.31060392727658837,9.630703791852905e-05,47.0,13,,0.0
standard_dfm,pseudo,2006:Q3:pre_second:pseudo,2006-11-30,pre_second,S,2006:Q3,3.2601675921758497,,,not_available,2.2098,1.0503675921758497,False,True,0,,,,,,,13,,0.0
release_dfm,pseudo,2006:Q3:pre_second:pseudo,2006-11-30,pre_second,S,2006:Q3,1.7026518268415933,,,not_available,2.2098,-0.5071481731584067,False,True,0,,,,,,,13,,0.0
revision_dfm_kalman_em,pseudo,2006:Q3:pre_second:pseudo,2006-11-30,pre_second,S,2006:Q3,1.5932588126432392,0.37140646132866284,0.6094312605443397,model_implied_state_space,2.2098,-0.6165411873567608,False,True,29,-1089.54276882775,-1799.2512165926726,-1089.54276882775,0.100523803246233,9.216927654112829e-05,29.0,13,,0.0
indicator_revision_only_dfm_kalman_em,pseudo,2006:Q3:pre_second:pseudo,2006-11-30,pre_second,S,2006:Q3,1.4030611215514233,0.381737424682562,0.6178490306560026,model_implied_state_space,2.2098,-0.8067388784485767,False,True,43,-1721.6119554127104,-2747.682707450281,-1721.6119554127104,0.02703035916488261,1.5691250104136545e-05,43.0,13,,0.0
joint_indicator_revision_dfm_full_kalman_em,pseudo,2006:Q3:pre_second:pseudo,2006-11-30,pre_second,S,2006:Q3,1.2642155198298035,0.3361911799856084,0.5798199548011507,model_implied_state_space,2.2098,-0.9455844801701965,False,True,47,-1692.4904147899124,-2758.0037067682333,-1692.4904147899124,0.03904025744759565,2.305260019614119e-05,47.0,13,,0.0
ar,pseudo,2006:Q3:pre_third:pseudo,2006-12-31,pre_third,T,2006:Q3,2.75074084743836,,,not_available,1.9601,0.7906408474383599,False,True,0,,,,,,,13,,0.0
no_revision,pseudo,2006:Q3:pre_third:pseudo,2006-12-31,pre_third,T,2006:Q3,2.2098,,,not_available,1.9601,0.24970000000000003,False,True,0,,,,,,,13,,0.0
bridge,pseudo,2006:Q3:pre_third:pseudo,2006-12-31,pre_third,T,2006:Q3,0.39348429457032097,,,not_available,1.9601,-1.566615705429679,False,True,0,,,,,,,13,,0.0
midas_umidas,pseudo,2006:Q3:pre_third:pseudo,2006-12-31,pre_third,T,2006:Q3,1.9864144975801745,,,not_available,1.9601,0.026314497580174567,False,True,0,,,,,,,13,,0.0
monthly_mixed_frequency_kalman_em,pseudo,2006:Q3:pre_third:pseudo,2006-12-31,pre_third,T,2006:Q3,2.193003430449345,0.1326845366166216,0.36425888680527974,model_implied_state_space,1.9601,0.23290343044934514,False,True,54,-3255.190512057586,-4052.2034736607384,-3255.190512057586,0.2524257637273877,7.75157951627644e-05,54.0,13,,0.0
standard_dfm,pseudo,2006:Q3:pre_third:pseudo,2006-12-31,pre_third,T,2006:Q3,3.3095218036059553,,,not_available,1.9601,1.3494218036059553,False,True,0,,,,,,,13,,0.0
release_dfm,pseudo,2006:Q3:pre_third:pseudo,2006-12-31,pre_third,T,2006:Q3,2.1333595250762545,,,not_available,1.9601,0.17325952507625453,False,True,0,,,,,,,13,,0.0
revision_dfm_kalman_em,pseudo,2006:Q3:pre_third:pseudo,2006-12-31,pre_third,T,2006:Q3,2.1716290235452345,0.1374943154403786,0.370802259216929,model_implied_state_space,1.9601,0.2115290235452345,False,True,28,-1091.254739919682,-1800.8340295993428,-1091.254739919682,0.10568285652834675,9.674724049389859e-05,28.0,13,,0.0
indicator_revision_only_dfm_kalman_em,pseudo,2006:Q3:pre_third:pseudo,2006-12-31,pre_third,T,2006:Q3,2.1823251908034362,0.14125305782269193,0.37583647750410276,model_implied_state_space,1.9601,0.22222519080343628,False,True,36,-1729.7755047387054,-2747.282597148363,-1729.7755047387054,0.06552378827041139,3.7856618366722625e-05,36.0,13,,0.0
joint_indicator_revision_dfm_full_kalman_em,pseudo,2006:Q3:pre_third:pseudo,2006-12-31,pre_third,T,2006:Q3,2.186951524826588,0.13573672149415547,0.3684246483260254,model_implied_state_space,1.9601,0.2268515248265881,False,True,39,-1697.7572389155955,-2757.6639316236196,-1697.7572389155955,0.12770243470254172,7.516838344628683e-05,39.0,13,,0.0
ar,exact,2006:Q4:pre_advance:exact,2007-01-30,pre_advance,A,2006:Q4,2.1524610748667694,,,not_available,3.4734,-1.3209389251332304,False,True,0,,,,,,,13,,0.0
no_revision,exact,2006:Q4:pre_advance:exact,2007-01-30,pre_advance,A,2006:Q4,2.0405286021231293,,,not_available,3.4734,-1.4328713978768706,False,True,0,,,,,,,13,,0.0
bridge,exact,2006:Q4:pre_advance:exact,2007-01-30,pre_advance,A,2006:Q4,-0.15545872254795423,,,not_available,3.4734,-3.628858722547954,False,True,0,,,,,,,13,,0.0
midas_umidas,exact,2006:Q4:pre_advance:exact,2007-01-30,pre_advance,A,2006:Q4,-1.168015495745264,,,not_available,3.4734,-4.641415495745264,False,True,0,,,,,,,13,,0.0
monthly_mixed_frequency_kalman_em,exact,2006:Q4:pre_advance:exact,2007-01-30,pre_advance,A,2006:Q4,1.5312305318320931,3.8800782594508774,1.9697914253673858,model_implied_state_space,3.4734,-1.9421694681679067,False,True,51,-3270.3768523172766,-4072.7431838979714,-3270.3768523172766,0.26933819543774007,8.232497640447205e-05,51.0,13,,0.0
standard_dfm,exact,2006:Q4:pre_advance:exact,2007-01-30,pre_advance,A,2006:Q4,2.118964857235358,,,not_available,3.4734,-1.354435142764642,False,True,0,,,,,,,13,,0.0
release_dfm,exact,2006:Q4:pre_advance:exact,2007-01-30,pre_advance,A,2006:Q4,2.118964857235358,,,not_available,3.4734,-1.354435142764642,False,True,0,,,,,,,13,,0.0
revision_dfm_kalman_em,exact,2006:Q4:pre_advance:exact,2007-01-30,pre_advance,A,2006:Q4,0.8061442270626173,4.837843038115505,2.199509726760831,model_implied_state_space,3.4734,-2.6672557729373825,False,True,28,-1110.7342672934083,-1822.4832991576584,-1110.7342672934083,0.10069039915333633,9.056236130792595e-05,28.0,13,,0.0
indicator_revision_only_dfm_kalman_em,exact,2006:Q4:pre_advance:exact,2007-01-30,pre_advance,A,2006:Q4,-0.67074749824353,3.605715742257822,1.8988722290501332,model_implied_state_space,3.4734,-4.14414749824353,False,True,37,-1751.0992137490446,-2787.538787909656,-1751.0992137490446,0.0360538522729712,2.0577094097494604e-05,37.0,13,,0.0
joint_indicator_revision_dfm_full_kalman_em,exact,2006:Q4:pre_advance:exact,2007-01-30,pre_advance,A,2006:Q4,-0.5320693017057176,3.0035457737216236,1.7330740820061974,model_implied_state_space,3.4734,-4.005469301705718,False,True,38,-1722.4159643707862,-2797.9122291358985,-1722.4159643707862,0.04401053900437546,2.553615380982611e-05,38.0,13,,0.0
ar,exact,2006:Q4:pre_second:exact,2007-02-27,pre_second,S,2006:Q4,2.5420474751814193,,,not_available,2.2204,0.3216474751814191,False,True,0,,,,,,,13,,0.0
no_revision,exact,2006:Q4:pre_second:exact,2007-02-27,pre_second,S,2006:Q4,3.4734,,,not_available,2.2204,1.2529999999999997,False,True,0,,,,,,,13,,0.0
