haminh109/Revision-Aware-DFM/outputs/full_state_space_release_revision_dfm/frozen/q2_manuscript_best_v1/runs/exact_pseudo_backtest_max_iter100/run_dir/revision_forecast_results.csv
model_id,timing_mode,forecast_origin,forecast_origin_date,checkpoint_id,target_id,revision_target_id,target_quarter,forecast_value,forecast_variance,forecast_sd,density_source,realized_value,forecast_error,revision_target_flag,converged,n_iter,loglikelihood,llf_initial,llf_final,llf_last_improvement,llf_relative_last_improvement,llf_history_length,n_indicators,initialization_seed,initialization_jitter
ar,exact,2005:Q1:pre_advance:exact,2005-04-27,pre_advance,DELTA_SA,DELTA_SA,2005:Q1,0.3356948084435101,,,not_available,0.3950999999999998,-0.05940519155648971,True,True,0,,,,,,,13,,0.0
no_revision,exact,2005:Q1:pre_advance:exact,2005-04-27,pre_advance,DELTA_SA,DELTA_SA,2005:Q1,0.0,,,not_available,0.3950999999999998,-0.3950999999999998,True,True,0,,,,,,,13,,0.0
bridge,exact,2005:Q1:pre_advance:exact,2005-04-27,pre_advance,DELTA_SA,DELTA_SA,2005:Q1,0.26328560705155324,,,not_available,0.3950999999999998,-0.13181439294844655,True,True,0,,,,,,,13,,0.0
midas_umidas,exact,2005:Q1:pre_advance:exact,2005-04-27,pre_advance,DELTA_SA,DELTA_SA,2005:Q1,-5.913731381635026,,,not_available,0.3950999999999998,-6.308831381635025,True,True,0,,,,,,,13,,0.0
monthly_mixed_frequency_kalman_em,exact,2005:Q1:pre_advance:exact,2005-04-27,pre_advance,DELTA_SA,DELTA_SA,2005:Q1,0.028864653759552272,0.3231920605419054,0.5684998333701651,model_implied_state_space,0.3950999999999998,-0.3662353462404475,True,True,69,-2880.070283328214,-3648.828755686391,-2880.070283328214,0.2660082914085251,9.232115396672413e-05,69.0,13,,0.0
standard_dfm,exact,2005:Q1:pre_advance:exact,2005-04-27,pre_advance,DELTA_SA,DELTA_SA,2005:Q1,0.1341372616141232,,,not_available,0.3950999999999998,-0.2609627383858766,True,True,0,,,,,,,13,,0.0
release_dfm,exact,2005:Q1:pre_advance:exact,2005-04-27,pre_advance,DELTA_SA,DELTA_SA,2005:Q1,0.1341372616141232,,,not_available,0.3950999999999998,-0.2609627383858766,True,True,0,,,,,,,13,,0.0
revision_dfm_kalman_em,exact,2005:Q1:pre_advance:exact,2005-04-27,pre_advance,DELTA_SA,DELTA_SA,2005:Q1,0.05378408714340788,0.39009271442297155,0.6245740263755543,model_implied_state_space,0.3950999999999998,-0.3413159128565919,True,True,31,-973.2114726503162,-1662.4073345730442,-973.2114726503162,0.09045391189783913,9.283971367787622e-05,31.0,13,,0.0
indicator_revision_only_dfm_kalman_em,exact,2005:Q1:pre_advance:exact,2005-04-27,pre_advance,DELTA_SA,DELTA_SA,2005:Q1,0.0,0.4413837941605365,0.664367213339533,model_implied_state_space,0.3950999999999998,-0.3950999999999998,True,True,26,-1739.1501009134845,-2505.9405164391596,-1739.1501009134845,0.16408933230604816,9.428718861556445e-05,26.0,13,,0.0
joint_indicator_revision_dfm_full_kalman_em,exact,2005:Q1:pre_advance:exact,2005-04-27,pre_advance,DELTA_SA,DELTA_SA,2005:Q1,0.18844576184808481,0.37284194957107886,0.6106078525298204,model_implied_state_space,0.3950999999999998,-0.20665423815191497,True,True,29,-1705.067720581706,-2515.777266403571,-1705.067720581706,0.1540410904772216,9.028198674845969e-05,29.0,13,,0.0
ar,exact,2005:Q1:pre_second:exact,2005-05-25,pre_second,DELTA_TS,DELTA_TS,2005:Q1,0.04714135981196321,,,not_available,0.27649999999999997,-0.22935864018803676,True,True,0,,,,,,,13,,0.0
no_revision,exact,2005:Q1:pre_second:exact,2005-05-25,pre_second,DELTA_TS,DELTA_TS,2005:Q1,0.0,,,not_available,0.27649999999999997,-0.27649999999999997,True,True,0,,,,,,,13,,0.0
bridge,exact,2005:Q1:pre_second:exact,2005-05-25,pre_second,DELTA_TS,DELTA_TS,2005:Q1,0.19854853703044162,,,not_available,0.27649999999999997,-0.07795146296955835,True,True,0,,,,,,,13,,0.0
midas_umidas,exact,2005:Q1:pre_second:exact,2005-05-25,pre_second,DELTA_TS,DELTA_TS,2005:Q1,0.6899398300010651,,,not_available,0.27649999999999997,0.4134398300010651,True,True,0,,,,,,,13,,0.0
monthly_mixed_frequency_kalman_em,exact,2005:Q1:pre_second:exact,2005-05-25,pre_second,DELTA_TS,DELTA_TS,2005:Q1,-0.056620041620857986,0.1304465455146523,0.36117384389605556,model_implied_state_space,0.27649999999999997,-0.33312004162085795,True,True,74,-2902.053293019287,-3667.7534928964296,-2902.053293019287,0.25162981625680914,8.667013040127117e-05,74.0,13,,0.0
standard_dfm,exact,2005:Q1:pre_second:exact,2005-05-25,pre_second,DELTA_TS,DELTA_TS,2005:Q1,0.1165898545711248,,,not_available,0.27649999999999997,-0.15991014542887516,True,True,0,,,,,,,13,,0.0
release_dfm,exact,2005:Q1:pre_second:exact,2005-05-25,pre_second,DELTA_TS,DELTA_TS,2005:Q1,0.07710214238409208,,,not_available,0.27649999999999997,-0.1993978576159079,True,True,0,,,,,,,13,,0.0
revision_dfm_kalman_em,exact,2005:Q1:pre_second:exact,2005-05-25,pre_second,DELTA_TS,DELTA_TS,2005:Q1,0.0025187587886681406,0.14179510414712637,0.376556906917303,model_implied_state_space,0.27649999999999997,-0.2739812412113318,True,True,36,-974.4630002613612,-1660.316726913146,-974.4630002613612,0.09522030387927316,9.760596740613012e-05,36.0,13,,0.0
indicator_revision_only_dfm_kalman_em,exact,2005:Q1:pre_second:exact,2005-05-25,pre_second,DELTA_TS,DELTA_TS,2005:Q1,0.0,0.14650506566748023,0.382759801530255,model_implied_state_space,0.27649999999999997,-0.27649999999999997,True,True,26,-1740.2121981324092,-2507.103087629376,-1740.2121981324092,0.16237569119743966,9.324570005688367e-05,26.0,13,,0.0
joint_indicator_revision_dfm_full_kalman_em,exact,2005:Q1:pre_second:exact,2005-05-25,pre_second,DELTA_TS,DELTA_TS,2005:Q1,0.0007843599922998656,0.14138857908824265,0.3760167271388903,model_implied_state_space,0.27649999999999997,-0.2757156400077001,True,True,29,-1705.8591125174491,-2517.044313725102,-1705.8591125174491,0.15636500073537718,9.160139600064725e-05,29.0,13,,0.0
ar,exact,2005:Q1:pre_third:exact,2005-06-28,pre_third,DELTA_MT,DELTA_MT,2005:Q1,0.0043982832074425104,,,not_available,0.7514000000000003,-0.7470017167925578,True,True,0,,,,,,,13,,0.0
no_revision,exact,2005:Q1:pre_third:exact,2005-06-28,pre_third,DELTA_MT,DELTA_MT,2005:Q1,0.0,,,not_available,0.7514000000000003,-0.7514000000000003,True,True,0,,,,,,,13,,0.0
bridge,exact,2005:Q1:pre_third:exact,2005-06-28,pre_third,DELTA_MT,DELTA_MT,2005:Q1,-0.606035104494095,,,not_available,0.7514000000000003,-1.3574351044940953,True,True,0,,,,,,,13,,0.0
midas_umidas,exact,2005:Q1:pre_third:exact,2005-06-28,pre_third,DELTA_MT,DELTA_MT,2005:Q1,1.015187174602488,,,not_available,0.7514000000000003,0.2637871746024878,True,True,0,,,,,,,13,,0.0
monthly_mixed_frequency_kalman_em,exact,2005:Q1:pre_third:exact,2005-06-28,pre_third,DELTA_MT,DELTA_MT,2005:Q1,0.019371161644049728,5.310849089314947,2.304527953684864,model_implied_state_space,0.7514000000000003,-0.7320288383559506,True,True,75,-2920.8624539645266,-3686.9083266151565,-2920.8624539645266,0.2713687103546363,9.286662652096785e-05,75.0,13,,0.0
standard_dfm,exact,2005:Q1:pre_third:exact,2005-06-28,pre_third,DELTA_MT,DELTA_MT,2005:Q1,0.5022596061517688,,,not_available,0.7514000000000003,-0.2491403938482315,True,True,0,,,,,,,13,,0.0
release_dfm,exact,2005:Q1:pre_third:exact,2005-06-28,pre_third,DELTA_MT,DELTA_MT,2005:Q1,0.5581388822051645,,,not_available,0.7514000000000003,-0.1932611177948358,True,True,0,,,,,,,13,,0.0
revision_dfm_kalman_em,exact,2005:Q1:pre_third:exact,2005-06-28,pre_third,DELTA_MT,DELTA_MT,2005:Q1,0.005214125005092551,5.171668248421893,2.2741302180002565,model_implied_state_space,0.7514000000000003,-0.7461858749949077,True,True,31,-973.7325329701816,-1664.875727908764,-973.7325329701816,0.09329712968690274,9.570646038107615e-05,31.0,13,,0.0
indicator_revision_only_dfm_kalman_em,exact,2005:Q1:pre_third:exact,2005-06-28,pre_third,DELTA_MT,DELTA_MT,2005:Q1,0.0,5.1675928054336,2.2732339970697253,model_implied_state_space,0.7514000000000003,-0.7514000000000003,True,True,26,-1739.7754623822784,-2508.0518334168505,-1739.7754623822784,0.16394014590150618,9.416763482027775e-05,26.0,13,,0.0
joint_indicator_revision_dfm_full_kalman_em,exact,2005:Q1:pre_third:exact,2005-06-28,pre_third,DELTA_MT,DELTA_MT,2005:Q1,0.004798865145866138,5.159375741713454,2.271425926970425,model_implied_state_space,0.7514000000000003,-0.7466011348541342,True,True,29,-1705.4207561075596,-2517.964609215461,-1705.4207561075596,0.15657759152827566,9.174948502854321e-05,29.0,13,,0.0
ar,pseudo,2005:Q1:pre_advance:pseudo,2005-04-30,pre_advance,DELTA_SA,DELTA_SA,2005:Q1,0.3356948084435101,,,not_available,0.3950999999999998,-0.05940519155648971,True,True,0,,,,,,,13,,0.0
no_revision,pseudo,2005:Q1:pre_advance:pseudo,2005-04-30,pre_advance,DELTA_SA,DELTA_SA,2005:Q1,0.0,,,not_available,0.3950999999999998,-0.3950999999999998,True,True,0,,,,,,,13,,0.0
bridge,pseudo,2005:Q1:pre_advance:pseudo,2005-04-30,pre_advance,DELTA_SA,DELTA_SA,2005:Q1,0.26328560705155324,,,not_available,0.3950999999999998,-0.13181439294844655,True,True,0,,,,,,,13,,0.0
midas_umidas,pseudo,2005:Q1:pre_advance:pseudo,2005-04-30,pre_advance,DELTA_SA,DELTA_SA,2005:Q1,-5.913731381635026,,,not_available,0.3950999999999998,-6.308831381635025,True,True,0,,,,,,,13,,0.0
monthly_mixed_frequency_kalman_em,pseudo,2005:Q1:pre_advance:pseudo,2005-04-30,pre_advance,DELTA_SA,DELTA_SA,2005:Q1,0.028864653759552272,0.3231920605419054,0.5684998333701651,model_implied_state_space,0.3950999999999998,-0.3662353462404475,True,True,69,-2880.070283328214,-3648.828755686391,-2880.070283328214,0.2660082914085251,9.232115396672413e-05,69.0,13,,0.0
standard_dfm,pseudo,2005:Q1:pre_advance:pseudo,2005-04-30,pre_advance,DELTA_SA,DELTA_SA,2005:Q1,0.1341372616141232,,,not_available,0.3950999999999998,-0.2609627383858766,True,True,0,,,,,,,13,,0.0
release_dfm,pseudo,2005:Q1:pre_advance:pseudo,2005-04-30,pre_advance,DELTA_SA,DELTA_SA,2005:Q1,0.1341372616141232,,,not_available,0.3950999999999998,-0.2609627383858766,True,True,0,,,,,,,13,,0.0
revision_dfm_kalman_em,pseudo,2005:Q1:pre_advance:pseudo,2005-04-30,pre_advance,DELTA_SA,DELTA_SA,2005:Q1,0.05378408714340788,0.39009271442297155,0.6245740263755543,model_implied_state_space,0.3950999999999998,-0.3413159128565919,True,True,31,-973.2114726503162,-1662.4073345730442,-973.2114726503162,0.09045391189783913,9.283971367787622e-05,31.0,13,,0.0
indicator_revision_only_dfm_kalman_em,pseudo,2005:Q1:pre_advance:pseudo,2005-04-30,pre_advance,DELTA_SA,DELTA_SA,2005:Q1,0.0,0.4413837941605365,0.664367213339533,model_implied_state_space,0.3950999999999998,-0.3950999999999998,True,True,26,-1739.1501009134845,-2505.9405164391596,-1739.1501009134845,0.16408933230604816,9.428718861556445e-05,26.0,13,,0.0
joint_indicator_revision_dfm_full_kalman_em,pseudo,2005:Q1:pre_advance:pseudo,2005-04-30,pre_advance,DELTA_SA,DELTA_SA,2005:Q1,0.18844576184808481,0.37284194957107886,0.6106078525298204,model_implied_state_space,0.3950999999999998,-0.20665423815191497,True,True,29,-1705.067720581706,-2515.777266403571,-1705.067720581706,0.1540410904772216,9.028198674845969e-05,29.0,13,,0.0
ar,pseudo,2005:Q1:pre_second:pseudo,2005-05-31,pre_second,DELTA_TS,DELTA_TS,2005:Q1,0.04714135981196321,,,not_available,0.27649999999999997,-0.22935864018803676,True,True,0,,,,,,,13,,0.0
no_revision,pseudo,2005:Q1:pre_second:pseudo,2005-05-31,pre_second,DELTA_TS,DELTA_TS,2005:Q1,0.0,,,not_available,0.27649999999999997,-0.27649999999999997,True,True,0,,,,,,,13,,0.0
bridge,pseudo,2005:Q1:pre_second:pseudo,2005-05-31,pre_second,DELTA_TS,DELTA_TS,2005:Q1,0.19854853703044162,,,not_available,0.27649999999999997,-0.07795146296955835,True,True,0,,,,,,,13,,0.0
midas_umidas,pseudo,2005:Q1:pre_second:pseudo,2005-05-31,pre_second,DELTA_TS,DELTA_TS,2005:Q1,0.6899398300010651,,,not_available,0.27649999999999997,0.4134398300010651,True,True,0,,,,,,,13,,0.0
monthly_mixed_frequency_kalman_em,pseudo,2005:Q1:pre_second:pseudo,2005-05-31,pre_second,DELTA_TS,DELTA_TS,2005:Q1,-0.056620041620857986,0.1304465455146523,0.36117384389605556,model_implied_state_space,0.27649999999999997,-0.33312004162085795,True,True,74,-2902.053293019287,-3667.7534928964296,-2902.053293019287,0.25162981625680914,8.667013040127117e-05,74.0,13,,0.0
standard_dfm,pseudo,2005:Q1:pre_second:pseudo,2005-05-31,pre_second,DELTA_TS,DELTA_TS,2005:Q1,0.1165898545711248,,,not_available,0.27649999999999997,-0.15991014542887516,True,True,0,,,,,,,13,,0.0
release_dfm,pseudo,2005:Q1:pre_second:pseudo,2005-05-31,pre_second,DELTA_TS,DELTA_TS,2005:Q1,0.07710214238409208,,,not_available,0.27649999999999997,-0.1993978576159079,True,True,0,,,,,,,13,,0.0
revision_dfm_kalman_em,pseudo,2005:Q1:pre_second:pseudo,2005-05-31,pre_second,DELTA_TS,DELTA_TS,2005:Q1,0.0025187587886681406,0.14179510414712637,0.376556906917303,model_implied_state_space,0.27649999999999997,-0.2739812412113318,True,True,36,-974.4630002613612,-1660.316726913146,-974.4630002613612,0.09522030387927316,9.760596740613012e-05,36.0,13,,0.0
indicator_revision_only_dfm_kalman_em,pseudo,2005:Q1:pre_second:pseudo,2005-05-31,pre_second,DELTA_TS,DELTA_TS,2005:Q1,0.0,0.14650506566748023,0.382759801530255,model_implied_state_space,0.27649999999999997,-0.27649999999999997,True,True,26,-1740.2121981324092,-2507.103087629376,-1740.2121981324092,0.16237569119743966,9.324570005688367e-05,26.0,13,,0.0
joint_indicator_revision_dfm_full_kalman_em,pseudo,2005:Q1:pre_second:pseudo,2005-05-31,pre_second,DELTA_TS,DELTA_TS,2005:Q1,0.0007843599922998656,0.14138857908824265,0.3760167271388903,model_implied_state_space,0.27649999999999997,-0.2757156400077001,True,True,29,-1705.8591125174491,-2517.044313725102,-1705.8591125174491,0.15636500073537718,9.160139600064725e-05,29.0,13,,0.0
ar,pseudo,2005:Q1:pre_third:pseudo,2005-06-30,pre_third,DELTA_MT,DELTA_MT,2005:Q1,0.0043982832074425104,,,not_available,0.7514000000000003,-0.7470017167925578,True,True,0,,,,,,,13,,0.0
no_revision,pseudo,2005:Q1:pre_third:pseudo,2005-06-30,pre_third,DELTA_MT,DELTA_MT,2005:Q1,0.0,,,not_available,0.7514000000000003,-0.7514000000000003,True,True,0,,,,,,,13,,0.0
bridge,pseudo,2005:Q1:pre_third:pseudo,2005-06-30,pre_third,DELTA_MT,DELTA_MT,2005:Q1,-0.606035104494095,,,not_available,0.7514000000000003,-1.3574351044940953,True,True,0,,,,,,,13,,0.0
midas_umidas,pseudo,2005:Q1:pre_third:pseudo,2005-06-30,pre_third,DELTA_MT,DELTA_MT,2005:Q1,1.015187174602488,,,not_available,0.7514000000000003,0.2637871746024878,True,True,0,,,,,,,13,,0.0
monthly_mixed_frequency_kalman_em,pseudo,2005:Q1:pre_third:pseudo,2005-06-30,pre_third,DELTA_MT,DELTA_MT,2005:Q1,0.019371161644049728,5.310849089314947,2.304527953684864,model_implied_state_space,0.7514000000000003,-0.7320288383559506,True,True,75,-2920.8624539645266,-3686.9083266151565,-2920.8624539645266,0.2713687103546363,9.286662652096785e-05,75.0,13,,0.0
standard_dfm,pseudo,2005:Q1:pre_third:pseudo,2005-06-30,pre_third,DELTA_MT,DELTA_MT,2005:Q1,0.5022596061517688,,,not_available,0.7514000000000003,-0.2491403938482315,True,True,0,,,,,,,13,,0.0
release_dfm,pseudo,2005:Q1:pre_third:pseudo,2005-06-30,pre_third,DELTA_MT,DELTA_MT,2005:Q1,0.5581388822051645,,,not_available,0.7514000000000003,-0.1932611177948358,True,True,0,,,,,,,13,,0.0
revision_dfm_kalman_em,pseudo,2005:Q1:pre_third:pseudo,2005-06-30,pre_third,DELTA_MT,DELTA_MT,2005:Q1,0.005214125005092551,5.171668248421893,2.2741302180002565,model_implied_state_space,0.7514000000000003,-0.7461858749949077,True,True,31,-973.7325329701816,-1664.875727908764,-973.7325329701816,0.09329712968690274,9.570646038107615e-05,31.0,13,,0.0
indicator_revision_only_dfm_kalman_em,pseudo,2005:Q1:pre_third:pseudo,2005-06-30,pre_third,DELTA_MT,DELTA_MT,2005:Q1,0.0,5.1675928054336,2.2732339970697253,model_implied_state_space,0.7514000000000003,-0.7514000000000003,True,True,26,-1739.7754623822784,-2508.0518334168505,-1739.7754623822784,0.16394014590150618,9.416763482027775e-05,26.0,13,,0.0
joint_indicator_revision_dfm_full_kalman_em,pseudo,2005:Q1:pre_third:pseudo,2005-06-30,pre_third,DELTA_MT,DELTA_MT,2005:Q1,0.004798865145866138,5.159375741713454,2.271425926970425,model_implied_state_space,0.7514000000000003,-0.7466011348541342,True,True,29,-1705.4207561075596,-2517.964609215461,-1705.4207561075596,0.15657759152827566,9.174948502854321e-05,29.0,13,,0.0
ar,exact,2005:Q2:pre_advance:exact,2005-07-28,pre_advance,DELTA_SA,DELTA_SA,2005:Q2,0.21833891079913448,,,not_available,-0.12680000000000025,0.3451389107991347,True,True,0,,,,,,,13,,0.0
no_revision,exact,2005:Q2:pre_advance:exact,2005-07-28,pre_advance,DELTA_SA,DELTA_SA,2005:Q2,0.0,,,not_available,-0.12680000000000025,0.12680000000000025,True,True,0,,,,,,,13,,0.0
bridge,exact,2005:Q2:pre_advance:exact,2005-07-28,pre_advance,DELTA_SA,DELTA_SA,2005:Q2,0.22072143379207088,,,not_available,-0.12680000000000025,0.3475214337920711,True,True,0,,,,,,,13,,0.0
midas_umidas,exact,2005:Q2:pre_advance:exact,2005-07-28,pre_advance,DELTA_SA,DELTA_SA,2005:Q2,3.1834937249759,,,not_available,-0.12680000000000025,3.3102937249759004,True,True,0,,,,,,,13,,0.0
monthly_mixed_frequency_kalman_em,exact,2005:Q2:pre_advance:exact,2005-07-28,pre_advance,DELTA_SA,DELTA_SA,2005:Q2,0.18098175082736612,0.32201267219002716,0.5674616041548778,model_implied_state_space,-0.12680000000000025,0.30778175082736636,True,True,72,-2937.971652496614,-3707.8458463480947,-2937.971652496614,0.2860832100036532,9.73317877259501e-05,72.0,13,,0.0
standard_dfm,exact,2005:Q2:pre_advance:exact,2005-07-28,pre_advance,DELTA_SA,DELTA_SA,2005:Q2,0.1285426339127489,,,not_available,-0.12680000000000025,0.25534263391274914,True,True,0,,,,,,,13,,0.0
release_dfm,exact,2005:Q2:pre_advance:exact,2005-07-28,pre_advance,DELTA_SA,DELTA_SA,2005:Q2,0.1285426339127489,,,not_available,-0.12680000000000025,0.25534263391274914,True,True,0,,,,,,,13,,0.0
revision_dfm_kalman_em,exact,2005:Q2:pre_advance:exact,2005-07-28,pre_advance,DELTA_SA,DELTA_SA,2005:Q2,0.05974666196859024,0.3886208059118257,0.6233945828380495,model_implied_state_space,-0.12680000000000025,0.1865466619685905,True,True,30,-992.3474572930251,-1684.7416032737274,-992.3474572930251,0.09767074731962566,9.8315190807055e-05,30.0,13,,0.0
indicator_revision_only_dfm_kalman_em,exact,2005:Q2:pre_advance:exact,2005-07-28,pre_advance,DELTA_SA,DELTA_SA,2005:Q2,0.0,0.43931576202336586,0.6628089936198557,model_implied_state_space,-0.12680000000000025,0.12680000000000025,True,True,27,-1774.7302401015895,-2545.271625802687,-1774.7302401015895,0.16570769259647022,9.330934777023017e-05,27.0,13,,0.0
joint_indicator_revision_dfm_full_kalman_em,exact,2005:Q2:pre_advance:exact,2005-07-28,pre_advance,DELTA_SA,DELTA_SA,2005:Q2,0.22069572239832214,0.3692639608801258,0.6076709314095301,model_implied_state_space,-0.12680000000000025,0.3474957223983224,True,True,29,-1740.7457186322613,-2555.1737123976977,-1740.7457186322613,0.15767194248610394,9.051704206975538e-05,29.0,13,,0.0
ar,exact,2005:Q2:pre_second:exact,2005-08-30,pre_second,DELTA_TS,DELTA_TS,2005:Q2,0.15724034422064648,,,not_available,0.022400000000000198,0.13484034422064628,True,True,0,,,,,,,13,,0.0
no_revision,exact,2005:Q2:pre_second:exact,2005-08-30,pre_second,DELTA_TS,DELTA_TS,2005:Q2,0.0,,,not_available,0.022400000000000198,-0.022400000000000198,True,True,0,,,,,,,13,,0.0
bridge,exact,2005:Q2:pre_second:exact,2005-08-30,pre_second,DELTA_TS,DELTA_TS,2005:Q2,0.4892332547356397,,,not_available,0.022400000000000198,0.4668332547356395,True,True,0,,,,,,,13,,0.0
midas_umidas,exact,2005:Q2:pre_second:exact,2005-08-30,pre_second,DELTA_TS,DELTA_TS,2005:Q2,0.40318921265368024,,,not_available,0.022400000000000198,0.38078921265368004,True,True,0,,,,,,,13,,0.0
monthly_mixed_frequency_kalman_em,exact,2005:Q2:pre_second:exact,2005-08-30,pre_second,DELTA_TS,DELTA_TS,2005:Q2,0.09915325488596993,0.1307814993016182,0.3616372482220522,model_implied_state_space,0.022400000000000198,0.07675325488596973,True,True,72,-2957.105413069139,-3727.8089762326504,-2957.105413069139,0.2756175785625601,9.316500332690984e-05,72.0,13,,0.0
standard_dfm,exact,2005:Q2:pre_second:exact,2005-08-30,pre_second,DELTA_TS,DELTA_TS,2005:Q2,0.101964254442926,,,not_available,0.022400000000000198,0.07956425444292581,True,True,0,,,,,,,13,,0.0
release_dfm,exact,2005:Q2:pre_second:exact,2005-08-30,pre_second,DELTA_TS,DELTA_TS,2005:Q2,0.07100598606757691,,,not_available,0.022400000000000198,0.04860598606757671,True,True,0,,,,,,,13,,0.0
revision_dfm_kalman_em,exact,2005:Q2:pre_second:exact,2005-08-30,pre_second,DELTA_TS,DELTA_TS,2005:Q2,0.003924530229515444,0.14136521555935333,0.37598565871500117,model_implied_state_space,0.022400000000000198,-0.018475469770484754,True,True,35,-995.9265216592298,-1684.3824339511475,-995.9265216592298,0.09587618636817297,9.616252009518111e-05,35.0,13,,0.0
indicator_revision_only_dfm_kalman_em,exact,2005:Q2:pre_second:exact,2005-08-30,pre_second,DELTA_TS,DELTA_TS,2005:Q2,0.0,0.1450958217675733,0.38091445465822543,model_implied_state_space,0.022400000000000198,-0.022400000000000198,True,True,35,-1777.5061322984852,-2545.8484052825343,-1777.5061322984852,0.17079606037532358,9.60242175811617e-05,35.0,13,,0.0
joint_indicator_revision_dfm_full_kalman_em,exact,2005:Q2:pre_second:exact,2005-08-30,pre_second,DELTA_TS,DELTA_TS,2005:Q2,0.011271580615192622,0.14043901199555753,0.37475193394505324,model_implied_state_space,0.022400000000000198,-0.011128419384807575,True,True,37,-1743.8532512589247,-2555.9521119418882,-1743.8532512589247,0.16188224986626665,9.276839309740641e-05,37.0,13,,0.0
ar,exact,2005:Q2:pre_third:exact,2005-09-28,pre_third,DELTA_MT,DELTA_MT,2005:Q2,-0.21676788232750832,,,not_available,-1.3233000000000001,1.1065321176724918,True,True,0,,,,,,,13,,0.0
no_revision,exact,2005:Q2:pre_third:exact,2005-09-28,pre_third,DELTA_MT,DELTA_MT,2005:Q2,0.0,,,not_available,-1.3233000000000001,1.3233000000000001,True,True,0,,,,,,,13,,0.0
bridge,exact,2005:Q2:pre_third:exact,2005-09-28,pre_third,DELTA_MT,DELTA_MT,2005:Q2,-1.596238534192929,,,not_available,-1.3233000000000001,-0.2729385341929289,True,True,0,,,,,,,13,,0.0
midas_umidas,exact,2005:Q2:pre_third:exact,2005-09-28,pre_third,DELTA_MT,DELTA_MT,2005:Q2,1.6483742316279986,,,not_available,-1.3233000000000001,2.9716742316279987,True,True,0,,,,,,,13,,0.0
monthly_mixed_frequency_kalman_em,exact,2005:Q2:pre_third:exact,2005-09-28,pre_third,DELTA_MT,DELTA_MT,2005:Q2,0.04068280713286976,5.280117877384339,2.2978507082454986,model_implied_state_space,-1.3233000000000001,1.36398280713287,True,True,69,-2973.580361950088,-3747.853048052629,-2973.580361950088,0.297373612571846,9.996162498274964e-05,69.0,13,,0.0
standard_dfm,exact,2005:Q2:pre_third:exact,2005-09-28,pre_third,DELTA_MT,DELTA_MT,2005:Q2,0.4774722216427132,,,not_available,-1.3233000000000001,1.8007722216427133,True,True,0,,,,,,,13,,0.0
release_dfm,exact,2005:Q2:pre_third:exact,2005-09-28,pre_third,DELTA_MT,DELTA_MT,2005:Q2,0.39002726740546256,,,not_available,-1.3233000000000001,1.7133272674054627,True,True,0,,,,,,,13,,0.0
revision_dfm_kalman_em,exact,2005:Q2:pre_third:exact,2005-09-28,pre_third,DELTA_MT,DELTA_MT,2005:Q2,-0.00026208801241223156,5.147684728856108,2.2688509710547557,model_implied_state_space,-1.3233000000000001,1.323037911987588,True,True,30,-995.480252404602,-1688.4668116744315,-995.480252404602,0.09813963147030336,9.847657971973276e-05,30.0,13,,0.0
indicator_revision_only_dfm_kalman_em,exact,2005:Q2:pre_third:exact,2005-09-28,pre_third,DELTA_MT,DELTA_MT,2005:Q2,0.0,5.145957340791828,2.268470264471595,model_implied_state_space,-1.3233000000000001,1.3233000000000001,True,True,27,-1777.7287792292739,-2549.8877960218556,-1777.7287792292739,0.1635468399038018,9.193745878098852e-05,27.0,13,,0.0
joint_indicator_revision_dfm_full_kalman_em,exact,2005:Q2:pre_third:exact,2005-09-28,pre_third,DELTA_MT,DELTA_MT,2005:Q2,0.0005163442578788313,5.136266185175459,2.266333202593003,model_implied_state_space,-1.3233000000000001,1.323816344257879,True,True,29,-1743.6707945459302,-2559.8579794868456,-1743.6707945459302,0.1604547153576732,9.19600193002075e-05,29.0,13,,0.0
ar,pseudo,2005:Q2:pre_advance:pseudo,2005-07-31,pre_advance,DELTA_SA,DELTA_SA,2005:Q2,0.21833891079913448,,,not_available,-0.12680000000000025,0.3451389107991347,True,True,0,,,,,,,13,,0.0
no_revision,pseudo,2005:Q2:pre_advance:pseudo,2005-07-31,pre_advance,DELTA_SA,DELTA_SA,2005:Q2,0.0,,,not_available,-0.12680000000000025,0.12680000000000025,True,True,0,,,,,,,13,,0.0
bridge,pseudo,2005:Q2:pre_advance:pseudo,2005-07-31,pre_advance,DELTA_SA,DELTA_SA,2005:Q2,0.22072143379207088,,,not_available,-0.12680000000000025,0.3475214337920711,True,True,0,,,,,,,13,,0.0
midas_umidas,pseudo,2005:Q2:pre_advance:pseudo,2005-07-31,pre_advance,DELTA_SA,DELTA_SA,2005:Q2,3.1834937249759,,,not_available,-0.12680000000000025,3.3102937249759004,True,True,0,,,,,,,13,,0.0
monthly_mixed_frequency_kalman_em,pseudo,2005:Q2:pre_advance:pseudo,2005-07-31,pre_advance,DELTA_SA,DELTA_SA,2005:Q2,0.18098175082736612,0.32201267219002716,0.5674616041548778,model_implied_state_space,-0.12680000000000025,0.30778175082736636,True,True,72,-2937.971652496614,-3707.8458463480947,-2937.971652496614,0.2860832100036532,9.73317877259501e-05,72.0,13,,0.0
standard_dfm,pseudo,2005:Q2:pre_advance:pseudo,2005-07-31,pre_advance,DELTA_SA,DELTA_SA,2005:Q2,0.1285426339127489,,,not_available,-0.12680000000000025,0.25534263391274914,True,True,0,,,,,,,13,,0.0
release_dfm,pseudo,2005:Q2:pre_advance:pseudo,2005-07-31,pre_advance,DELTA_SA,DELTA_SA,2005:Q2,0.1285426339127489,,,not_available,-0.12680000000000025,0.25534263391274914,True,True,0,,,,,,,13,,0.0
revision_dfm_kalman_em,pseudo,2005:Q2:pre_advance:pseudo,2005-07-31,pre_advance,DELTA_SA,DELTA_SA,2005:Q2,0.05974666196859024,0.3886208059118257,0.6233945828380495,model_implied_state_space,-0.12680000000000025,0.1865466619685905,True,True,30,-992.3474572930251,-1684.7416032737274,-992.3474572930251,0.09767074731962566,9.8315190807055e-05,30.0,13,,0.0
indicator_revision_only_dfm_kalman_em,pseudo,2005:Q2:pre_advance:pseudo,2005-07-31,pre_advance,DELTA_SA,DELTA_SA,2005:Q2,0.0,0.43931576202336586,0.6628089936198557,model_implied_state_space,-0.12680000000000025,0.12680000000000025,True,True,27,-1774.7302401015895,-2545.271625802687,-1774.7302401015895,0.16570769259647022,9.330934777023017e-05,27.0,13,,0.0
joint_indicator_revision_dfm_full_kalman_em,pseudo,2005:Q2:pre_advance:pseudo,2005-07-31,pre_advance,DELTA_SA,DELTA_SA,2005:Q2,0.22069572239832214,0.3692639608801258,0.6076709314095301,model_implied_state_space,-0.12680000000000025,0.3474957223983224,True,True,29,-1740.7457186322613,-2555.1737123976977,-1740.7457186322613,0.15767194248610394,9.051704206975538e-05,29.0,13,,0.0
ar,pseudo,2005:Q2:pre_second:pseudo,2005-08-31,pre_second,DELTA_TS,DELTA_TS,2005:Q2,0.15724034422064648,,,not_available,0.022400000000000198,0.13484034422064628,True,True,0,,,,,,,13,,0.0
no_revision,pseudo,2005:Q2:pre_second:pseudo,2005-08-31,pre_second,DELTA_TS,DELTA_TS,2005:Q2,0.0,,,not_available,0.022400000000000198,-0.022400000000000198,True,True,0,,,,,,,13,,0.0
bridge,pseudo,2005:Q2:pre_second:pseudo,2005-08-31,pre_second,DELTA_TS,DELTA_TS,2005:Q2,0.4892332547356397,,,not_available,0.022400000000000198,0.4668332547356395,True,True,0,,,,,,,13,,0.0
midas_umidas,pseudo,2005:Q2:pre_second:pseudo,2005-08-31,pre_second,DELTA_TS,DELTA_TS,2005:Q2,0.40318921265368024,,,not_available,0.022400000000000198,0.38078921265368004,True,True,0,,,,,,,13,,0.0
monthly_mixed_frequency_kalman_em,pseudo,2005:Q2:pre_second:pseudo,2005-08-31,pre_second,DELTA_TS,DELTA_TS,2005:Q2,0.09915325488596993,0.1307814993016182,0.3616372482220522,model_implied_state_space,0.022400000000000198,0.07675325488596973,True,True,72,-2957.105413069139,-3727.8089762326504,-2957.105413069139,0.2756175785625601,9.316500332690984e-05,72.0,13,,0.0
standard_dfm,pseudo,2005:Q2:pre_second:pseudo,2005-08-31,pre_second,DELTA_TS,DELTA_TS,2005:Q2,0.101964254442926,,,not_available,0.022400000000000198,0.07956425444292581,True,True,0,,,,,,,13,,0.0
release_dfm,pseudo,2005:Q2:pre_second:pseudo,2005-08-31,pre_second,DELTA_TS,DELTA_TS,2005:Q2,0.07100598606757691,,,not_available,0.022400000000000198,0.04860598606757671,True,True,0,,,,,,,13,,0.0
revision_dfm_kalman_em,pseudo,2005:Q2:pre_second:pseudo,2005-08-31,pre_second,DELTA_TS,DELTA_TS,2005:Q2,0.003924530229515444,0.14136521555935333,0.37598565871500117,model_implied_state_space,0.022400000000000198,-0.018475469770484754,True,True,35,-995.9265216592298,-1684.3824339511475,-995.9265216592298,0.09587618636817297,9.616252009518111e-05,35.0,13,,0.0
indicator_revision_only_dfm_kalman_em,pseudo,2005:Q2:pre_second:pseudo,2005-08-31,pre_second,DELTA_TS,DELTA_TS,2005:Q2,0.0,0.1450958217675733,0.38091445465822543,model_implied_state_space,0.022400000000000198,-0.022400000000000198,True,True,35,-1777.5061322984852,-2545.8484052825343,-1777.5061322984852,0.17079606037532358,9.60242175811617e-05,35.0,13,,0.0
joint_indicator_revision_dfm_full_kalman_em,pseudo,2005:Q2:pre_second:pseudo,2005-08-31,pre_second,DELTA_TS,DELTA_TS,2005:Q2,0.011271580615192622,0.14043901199555753,0.37475193394505324,model_implied_state_space,0.022400000000000198,-0.011128419384807575,True,True,37,-1743.8532512589247,-2555.9521119418882,-1743.8532512589247,0.16188224986626665,9.276839309740641e-05,37.0,13,,0.0
ar,pseudo,2005:Q2:pre_third:pseudo,2005-09-30,pre_third,DELTA_MT,DELTA_MT,2005:Q2,-0.21676788232750832,,,not_available,-1.3233000000000001,1.1065321176724918,True,True,0,,,,,,,13,,0.0
no_revision,pseudo,2005:Q2:pre_third:pseudo,2005-09-30,pre_third,DELTA_MT,DELTA_MT,2005:Q2,0.0,,,not_available,-1.3233000000000001,1.3233000000000001,True,True,0,,,,,,,13,,0.0
bridge,pseudo,2005:Q2:pre_third:pseudo,2005-09-30,pre_third,DELTA_MT,DELTA_MT,2005:Q2,-1.596238534192929,,,not_available,-1.3233000000000001,-0.2729385341929289,True,True,0,,,,,,,13,,0.0
midas_umidas,pseudo,2005:Q2:pre_third:pseudo,2005-09-30,pre_third,DELTA_MT,DELTA_MT,2005:Q2,1.6483742316279986,,,not_available,-1.3233000000000001,2.9716742316279987,True,True,0,,,,,,,13,,0.0
monthly_mixed_frequency_kalman_em,pseudo,2005:Q2:pre_third:pseudo,2005-09-30,pre_third,DELTA_MT,DELTA_MT,2005:Q2,0.04068280713286976,5.280117877384339,2.2978507082454986,model_implied_state_space,-1.3233000000000001,1.36398280713287,True,True,69,-2973.580361950088,-3747.853048052629,-2973.580361950088,0.297373612571846,9.996162498274964e-05,69.0,13,,0.0
standard_dfm,pseudo,2005:Q2:pre_third:pseudo,2005-09-30,pre_third,DELTA_MT,DELTA_MT,2005:Q2,0.4774722216427132,,,not_available,-1.3233000000000001,1.8007722216427133,True,True,0,,,,,,,13,,0.0
release_dfm,pseudo,2005:Q2:pre_third:pseudo,2005-09-30,pre_third,DELTA_MT,DELTA_MT,2005:Q2,0.39002726740546256,,,not_available,-1.3233000000000001,1.7133272674054627,True,True,0,,,,,,,13,,0.0
revision_dfm_kalman_em,pseudo,2005:Q2:pre_third:pseudo,2005-09-30,pre_third,DELTA_MT,DELTA_MT,2005:Q2,-0.00026208801241223156,5.147684728856108,2.2688509710547557,model_implied_state_space,-1.3233000000000001,1.323037911987588,True,True,30,-995.480252404602,-1688.4668116744315,-995.480252404602,0.09813963147030336,9.847657971973276e-05,30.0,13,,0.0
indicator_revision_only_dfm_kalman_em,pseudo,2005:Q2:pre_third:pseudo,2005-09-30,pre_third,DELTA_MT,DELTA_MT,2005:Q2,0.0,5.145957340791828,2.268470264471595,model_implied_state_space,-1.3233000000000001,1.3233000000000001,True,True,27,-1777.7287792292739,-2549.8877960218556,-1777.7287792292739,0.1635468399038018,9.193745878098852e-05,27.0,13,,0.0
joint_indicator_revision_dfm_full_kalman_em,pseudo,2005:Q2:pre_third:pseudo,2005-09-30,pre_third,DELTA_MT,DELTA_MT,2005:Q2,0.0005163442578788313,5.136266185175459,2.266333202593003,model_implied_state_space,-1.3233000000000001,1.323816344257879,True,True,29,-1743.6707945459302,-2559.8579794868456,-1743.6707945459302,0.1604547153576732,9.19600193002075e-05,29.0,13,,0.0
ar,exact,2005:Q3:pre_advance:exact,2005-10-27,pre_advance,DELTA_SA,DELTA_SA,2005:Q3,-0.031815410366425656,,,not_available,0.47940000000000005,-0.5112154103664257,True,True,0,,,,,,,13,,0.0
no_revision,exact,2005:Q3:pre_advance:exact,2005-10-27,pre_advance,DELTA_SA,DELTA_SA,2005:Q3,0.0,,,not_available,0.47940000000000005,-0.47940000000000005,True,True,0,,,,,,,13,,0.0
bridge,exact,2005:Q3:pre_advance:exact,2005-10-27,pre_advance,DELTA_SA,DELTA_SA,2005:Q3,-0.13722876675774653,,,not_available,0.47940000000000005,-0.6166287667577466,True,True,0,,,,,,,13,,0.0
midas_umidas,exact,2005:Q3:pre_advance:exact,2005-10-27,pre_advance,DELTA_SA,DELTA_SA,2005:Q3,-1.0979260081519797,,,not_available,0.47940000000000005,-1.5773260081519798,True,True,0,,,,,,,13,,0.0
monthly_mixed_frequency_kalman_em,exact,2005:Q3:pre_advance:exact,2005-10-27,pre_advance,DELTA_SA,DELTA_SA,2005:Q3,-0.36988476788657065,0.33411983535795375,0.5780309986133562,model_implied_state_space,0.47940000000000005,-0.8492847678865707,True,True,59,-2989.111764996933,-3762.775135172252,-2989.111764996933,0.27720953300195106,9.27001588632884e-05,59.0,13,,0.0
standard_dfm,exact,2005:Q3:pre_advance:exact,2005-10-27,pre_advance,DELTA_SA,DELTA_SA,2005:Q3,0.10599607607652572,,,not_available,0.47940000000000005,-0.3734039239234743,True,True,0,,,,,,,13,,0.0
release_dfm,exact,2005:Q3:pre_advance:exact,2005-10-27,pre_advance,DELTA_SA,DELTA_SA,2005:Q3,0.10599607607652572,,,not_available,0.47940000000000005,-0.3734039239234743,True,True,0,,,,,,,13,,0.0
revision_dfm_kalman_em,exact,2005:Q3:pre_advance:exact,2005-10-27,pre_advance,DELTA_SA,DELTA_SA,2005:Q3,0.12403947149397476,0.38631248434068866,0.6215404124758813,model_implied_state_space,0.47940000000000005,-0.3553605285060253,True,True,30,-1014.5195729328133,-1709.0092630557303,-1014.5195729328133,0.093192901968564,9.176027035458165e-05,30.0,13,,0.0
indicator_revision_only_dfm_kalman_em,exact,2005:Q3:pre_advance:exact,2005-10-27,pre_advance,DELTA_SA,DELTA_SA,2005:Q3,0.0,0.4326921642631376,0.6577934054573196,model_implied_state_space,0.47940000000000005,-0.47940000000000005,True,True,41,-1823.4151072432817,-2585.241640478143,-1823.4151072432817,0.1793954207751085,9.832070660805815e-05,41.0,13,,0.0
joint_indicator_revision_dfm_full_kalman_em,exact,2005:Q3:pre_advance:exact,2005-10-27,pre_advance,DELTA_SA,DELTA_SA,2005:Q3,0.35295917868890747,0.34856091911893206,0.5903904802068983,model_implied_state_space,0.47940000000000005,-0.12644082131109258,True,True,35,-1790.5511581844517,-2595.3049297346356,-1790.5511581844517,0.16526144949261834,9.223638723274189e-05,35.0,13,,0.0
ar,exact,2005:Q3:pre_second:exact,2005-11-29,pre_second,DELTA_TS,DELTA_TS,2005:Q3,0.04947351053060434,,,not_available,-0.14139999999999997,0.1908735105306043,True,True,0,,,,,,,13,,0.0
no_revision,exact,2005:Q3:pre_second:exact,2005-11-29,pre_second,DELTA_TS,DELTA_TS,2005:Q3,0.0,,,not_available,-0.14139999999999997,0.14139999999999997,True,True,0,,,,,,,13,,0.0
bridge,exact,2005:Q3:pre_second:exact,2005-11-29,pre_second,DELTA_TS,DELTA_TS,2005:Q3,0.5111828037580155,,,not_available,-0.14139999999999997,0.6525828037580155,True,True,0,,,,,,,13,,0.0
midas_umidas,exact,2005:Q3:pre_second:exact,2005-11-29,pre_second,DELTA_TS,DELTA_TS,2005:Q3,0.03808586469438602,,,not_available,-0.14139999999999997,0.179485864694386,True,True,0,,,,,,,13,,0.0
monthly_mixed_frequency_kalman_em,exact,2005:Q3:pre_second:exact,2005-11-29,pre_second,DELTA_TS,DELTA_TS,2005:Q3,-0.15108184871627772,0.1374120691516385,0.37069133946133476,model_implied_state_space,-0.14139999999999997,-0.009681848716277752,True,True,51,-3010.255411828581,-3788.228159781836,-3010.255411828581,0.2626710177833047,8.722212869299418e-05,51.0,13,,0.0
standard_dfm,exact,2005:Q3:pre_second:exact,2005-11-29,pre_second,DELTA_TS,DELTA_TS,2005:Q3,0.08645353041557424,,,not_available,-0.14139999999999997,0.2278535304155742,True,True,0,,,,,,,13,,0.0
release_dfm,exact,2005:Q3:pre_second:exact,2005-11-29,pre_second,DELTA_TS,DELTA_TS,2005:Q3,0.061522575505668975,,,not_available,-0.14139999999999997,0.20292257550566895,True,True,0,,,,,,,13,,0.0
revision_dfm_kalman_em,exact,2005:Q3:pre_second:exact,2005-11-29,pre_second,DELTA_TS,DELTA_TS,2005:Q3,0.006781035962799109,0.14057465421536486,0.3749328662779043,model_implied_state_space,-0.14139999999999997,0.14818103596279908,True,True,34,-1018.7652819412492,-1707.669264833886,-1018.7652819412492,0.09853571189250943,9.661653858772512e-05,34.0,13,,0.0
indicator_revision_only_dfm_kalman_em,exact,2005:Q3:pre_second:exact,2005-11-29,pre_second,DELTA_TS,DELTA_TS,2005:Q3,0.0,0.14470378000517126,0.3803995005322316,model_implied_state_space,-0.14139999999999997,0.14139999999999997,True,True,32,-1832.3161905605486,-2587.652236839675,-1832.3161905605486,0.16569638513578866,9.037252362051684e-05,32.0,13,,0.0
joint_indicator_revision_dfm_full_kalman_em,exact,2005:Q3:pre_second:exact,2005-11-29,pre_second,DELTA_TS,DELTA_TS,2005:Q3,0.007627656726416632,0.1405949007704006,0.3749598655461683,model_implied_state_space,-0.14139999999999997,0.1490276567264166,True,True,35,-1802.7480123805205,-2597.8140124354627,-1802.7480123805205,0.16301215081693954,9.036595962890724e-05,35.0,13,,0.0
ar,exact,2005:Q3:pre_third:exact,2005-12-20,pre_third,DELTA_MT,DELTA_MT,2005:Q3,-0.2619646119143497,,,not_available,-0.9702999999999999,0.7083353880856502,True,True,0,,,,,,,13,,0.0
no_revision,exact,2005:Q3:pre_third:exact,2005-12-20,pre_third,DELTA_MT,DELTA_MT,2005:Q3,0.0,,,not_available,-0.9702999999999999,0.9702999999999999,True,True,0,,,,,,,13,,0.0
bridge,exact,2005:Q3:pre_third:exact,2005-12-20,pre_third,DELTA_MT,DELTA_MT,2005:Q3,-1.4673716639037564,,,not_available,-0.9702999999999999,-0.49707166390375646,True,True,0,,,,,,,13,,0.0
midas_umidas,exact,2005:Q3:pre_third:exact,2005-12-20,pre_third,DELTA_MT,DELTA_MT,2005:Q3,-0.08969426886953791,,,not_available,-0.9702999999999999,0.880605731130462,True,True,0,,,,,,,13,,0.0
monthly_mixed_frequency_kalman_em,exact,2005:Q3:pre_third:exact,2005-12-20,pre_third,DELTA_MT,DELTA_MT,2005:Q3,-0.0162439925511908,5.282409749536747,2.2983493532395696,model_implied_state_space,-0.9702999999999999,0.9540560074488091,True,True,58,-3028.6226125620237,-3810.642134857024,-3028.6226125620237,0.29984317900925817,9.896067750549908e-05,58.0,13,,0.0
standard_dfm,exact,2005:Q3:pre_third:exact,2005-12-20,pre_third,DELTA_MT,DELTA_MT,2005:Q3,0.428969688095588,,,not_available,-0.9702999999999999,1.399269688095588,True,True,0,,,,,,,13,,0.0
release_dfm,exact,2005:Q3:pre_third:exact,2005-12-20,pre_third,DELTA_MT,DELTA_MT,2005:Q3,0.2590102124163609,,,not_available,-0.9702999999999999,1.2293102124163608,True,True,0,,,,,,,13,,0.0
revision_dfm_kalman_em,exact,2005:Q3:pre_third:exact,2005-12-20,pre_third,DELTA_MT,DELTA_MT,2005:Q3,0.008071012175288494,5.148507670332624,2.269032320248573,model_implied_state_space,-0.9702999999999999,0.9783710121752884,True,True,30,-1017.9620908735847,-1712.3079455702755,-1017.9620908735847,0.09478195953101931,9.300948951702044e-05,30.0,13,,0.0
indicator_revision_only_dfm_kalman_em,exact,2005:Q3:pre_third:exact,2005-12-20,pre_third,DELTA_MT,DELTA_MT,2005:Q3,0.0,5.15379236624324,2.270196547932192,model_implied_state_space,-0.9702999999999999,0.9702999999999999,True,True,32,-1832.1112431082668,-2588.73287733138,-1832.1112431082668,0.170317463884885,9.290305839967668e-05,32.0,13,,0.0
joint_indicator_revision_dfm_full_kalman_em,exact,2005:Q3:pre_third:exact,2005-12-20,pre_third,DELTA_MT,DELTA_MT,2005:Q3,0.008198170218423506,5.156707854627355,2.270838579606079,model_implied_state_space,-0.9702999999999999,0.9784981702184234,True,True,35,-1802.2571357918562,-2598.868116579888,-1802.2571357918562,0.16808730948332595,9.32044796369584e-05,35.0,13,,0.0
ar,pseudo,2005:Q3:pre_advance:pseudo,2005-10-31,pre_advance,DELTA_SA,DELTA_SA,2005:Q3,-0.031815410366425656,,,not_available,0.47940000000000005,-0.5112154103664257,True,True,0,,,,,,,13,,0.0
no_revision,pseudo,2005:Q3:pre_advance:pseudo,2005-10-31,pre_advance,DELTA_SA,DELTA_SA,2005:Q3,0.0,,,not_available,0.47940000000000005,-0.47940000000000005,True,True,0,,,,,,,13,,0.0
bridge,pseudo,2005:Q3:pre_advance:pseudo,2005-10-31,pre_advance,DELTA_SA,DELTA_SA,2005:Q3,-0.13722876675774653,,,not_available,0.47940000000000005,-0.6166287667577466,True,True,0,,,,,,,13,,0.0
midas_umidas,pseudo,2005:Q3:pre_advance:pseudo,2005-10-31,pre_advance,DELTA_SA,DELTA_SA,2005:Q3,-1.0979260081519797,,,not_available,0.47940000000000005,-1.5773260081519798,True,True,0,,,,,,,13,,0.0
monthly_mixed_frequency_kalman_em,pseudo,2005:Q3:pre_advance:pseudo,2005-10-31,pre_advance,DELTA_SA,DELTA_SA,2005:Q3,-0.36988476788657065,0.33411983535795375,0.5780309986133562,model_implied_state_space,0.47940000000000005,-0.8492847678865707,True,True,59,-2989.111764996933,-3762.775135172252,-2989.111764996933,0.27720953300195106,9.27001588632884e-05,59.0,13,,0.0
standard_dfm,pseudo,2005:Q3:pre_advance:pseudo,2005-10-31,pre_advance,DELTA_SA,DELTA_SA,2005:Q3,0.10599607607652572,,,not_available,0.47940000000000005,-0.3734039239234743,True,True,0,,,,,,,13,,0.0
release_dfm,pseudo,2005:Q3:pre_advance:pseudo,2005-10-31,pre_advance,DELTA_SA,DELTA_SA,2005:Q3,0.10599607607652572,,,not_available,0.47940000000000005,-0.3734039239234743,True,True,0,,,,,,,13,,0.0
revision_dfm_kalman_em,pseudo,2005:Q3:pre_advance:pseudo,2005-10-31,pre_advance,DELTA_SA,DELTA_SA,2005:Q3,0.12403947149397476,0.38631248434068866,0.6215404124758813,model_implied_state_space,0.47940000000000005,-0.3553605285060253,True,True,30,-1014.5195729328133,-1709.0092630557303,-1014.5195729328133,0.093192901968564,9.176027035458165e-05,30.0,13,,0.0
indicator_revision_only_dfm_kalman_em,pseudo,2005:Q3:pre_advance:pseudo,2005-10-31,pre_advance,DELTA_SA,DELTA_SA,2005:Q3,0.0,0.4326921642631376,0.6577934054573196,model_implied_state_space,0.47940000000000005,-0.47940000000000005,True,True,41,-1823.4151072432817,-2585.241640478143,-1823.4151072432817,0.1793954207751085,9.832070660805815e-05,41.0,13,,0.0
joint_indicator_revision_dfm_full_kalman_em,pseudo,2005:Q3:pre_advance:pseudo,2005-10-31,pre_advance,DELTA_SA,DELTA_SA,2005:Q3,0.35295917868890747,0.34856091911893206,0.5903904802068983,model_implied_state_space,0.47940000000000005,-0.12644082131109258,True,True,35,-1790.5511581844517,-2595.3049297346356,-1790.5511581844517,0.16526144949261834,9.223638723274189e-05,35.0,13,,0.0
ar,pseudo,2005:Q3:pre_second:pseudo,2005-11-30,pre_second,DELTA_TS,DELTA_TS,2005:Q3,0.04947351053060434,,,not_available,-0.14139999999999997,0.1908735105306043,True,True,0,,,,,,,13,,0.0
no_revision,pseudo,2005:Q3:pre_second:pseudo,2005-11-30,pre_second,DELTA_TS,DELTA_TS,2005:Q3,0.0,,,not_available,-0.14139999999999997,0.14139999999999997,True,True,0,,,,,,,13,,0.0
bridge,pseudo,2005:Q3:pre_second:pseudo,2005-11-30,pre_second,DELTA_TS,DELTA_TS,2005:Q3,0.5111828037580155,,,not_available,-0.14139999999999997,0.6525828037580155,True,True,0,,,,,,,13,,0.0
midas_umidas,pseudo,2005:Q3:pre_second:pseudo,2005-11-30,pre_second,DELTA_TS,DELTA_TS,2005:Q3,0.03808586469438602,,,not_available,-0.14139999999999997,0.179485864694386,True,True,0,,,,,,,13,,0.0
monthly_mixed_frequency_kalman_em,pseudo,2005:Q3:pre_second:pseudo,2005-11-30,pre_second,DELTA_TS,DELTA_TS,2005:Q3,-0.15108184871627772,0.1374120691516385,0.37069133946133476,model_implied_state_space,-0.14139999999999997,-0.009681848716277752,True,True,51,-3010.255411828581,-3788.228159781836,-3010.255411828581,0.2626710177833047,8.722212869299418e-05,51.0,13,,0.0
standard_dfm,pseudo,2005:Q3:pre_second:pseudo,2005-11-30,pre_second,DELTA_TS,DELTA_TS,2005:Q3,0.08645353041557424,,,not_available,-0.14139999999999997,0.2278535304155742,True,True,0,,,,,,,13,,0.0
release_dfm,pseudo,2005:Q3:pre_second:pseudo,2005-11-30,pre_second,DELTA_TS,DELTA_TS,2005:Q3,0.061522575505668975,,,not_available,-0.14139999999999997,0.20292257550566895,True,True,0,,,,,,,13,,0.0
revision_dfm_kalman_em,pseudo,2005:Q3:pre_second:pseudo,2005-11-30,pre_second,DELTA_TS,DELTA_TS,2005:Q3,0.006781035962799109,0.14057465421536486,0.3749328662779043,model_implied_state_space,-0.14139999999999997,0.14818103596279908,True,True,34,-1018.7652819412492,-1707.669264833886,-1018.7652819412492,0.09853571189250943,9.661653858772512e-05,34.0,13,,0.0
indicator_revision_only_dfm_kalman_em,pseudo,2005:Q3:pre_second:pseudo,2005-11-30,pre_second,DELTA_TS,DELTA_TS,2005:Q3,0.0,0.14470378000517126,0.3803995005322316,model_implied_state_space,-0.14139999999999997,0.14139999999999997,True,True,32,-1832.3161905605486,-2587.652236839675,-1832.3161905605486,0.16569638513578866,9.037252362051684e-05,32.0,13,,0.0
joint_indicator_revision_dfm_full_kalman_em,pseudo,2005:Q3:pre_second:pseudo,2005-11-30,pre_second,DELTA_TS,DELTA_TS,2005:Q3,0.007627656726416632,0.1405949007704006,0.3749598655461683,model_implied_state_space,-0.14139999999999997,0.1490276567264166,True,True,35,-1802.7480123805205,-2597.8140124354627,-1802.7480123805205,0.16301215081693954,9.036595962890724e-05,35.0,13,,0.0
ar,pseudo,2005:Q3:pre_third:pseudo,2005-12-31,pre_third,DELTA_MT,DELTA_MT,2005:Q3,-0.2619646119143497,,,not_available,-0.9702999999999999,0.7083353880856502,True,True,0,,,,,,,13,,0.0
no_revision,pseudo,2005:Q3:pre_third:pseudo,2005-12-31,pre_third,DELTA_MT,DELTA_MT,2005:Q3,0.0,,,not_available,-0.9702999999999999,0.9702999999999999,True,True,0,,,,,,,13,,0.0
bridge,pseudo,2005:Q3:pre_third:pseudo,2005-12-31,pre_third,DELTA_MT,DELTA_MT,2005:Q3,-1.4673716639037564,,,not_available,-0.9702999999999999,-0.49707166390375646,True,True,0,,,,,,,13,,0.0
midas_umidas,pseudo,2005:Q3:pre_third:pseudo,2005-12-31,pre_third,DELTA_MT,DELTA_MT,2005:Q3,-0.08969426886953791,,,not_available,-0.9702999999999999,0.880605731130462,True,True,0,,,,,,,13,,0.0
monthly_mixed_frequency_kalman_em,pseudo,2005:Q3:pre_third:pseudo,2005-12-31,pre_third,DELTA_MT,DELTA_MT,2005:Q3,-0.0163108229402269,5.282418030758627,2.2983511547974182,model_implied_state_space,-0.9702999999999999,0.953989177059773,True,True,58,-3029.9286067712324,-3811.935850325436,-3029.9286067712324,0.2956652572715939,9.753988182264515e-05,58.0,13,,0.0
standard_dfm,pseudo,2005:Q3:pre_third:pseudo,2005-12-31,pre_third,DELTA_MT,DELTA_MT,2005:Q3,0.428969688095588,,,not_available,-0.9702999999999999,1.399269688095588,True,True,0,,,,,,,13,,0.0
release_dfm,pseudo,2005:Q3:pre_third:pseudo,2005-12-31,pre_third,DELTA_MT,DELTA_MT,2005:Q3,0.2590102124163609,,,not_available,-0.9702999999999999,1.2293102124163608,True,True,0,,,,,,,13,,0.0
revision_dfm_kalman_em,pseudo,2005:Q3:pre_third:pseudo,2005-12-31,pre_third,DELTA_MT,DELTA_MT,2005:Q3,0.008071012175288494,5.148507670332624,2.269032320248573,model_implied_state_space,-0.9702999999999999,0.9783710121752884,True,True,30,-1017.9620908735847,-1712.3079455702755,-1017.9620908735847,0.09478195953101931,9.300948951702044e-05,30.0,13,,0.0
indicator_revision_only_dfm_kalman_em,pseudo,2005:Q3:pre_third:pseudo,2005-12-31,pre_third,DELTA_MT,DELTA_MT,2005:Q3,0.0,5.15379236624324,2.270196547932192,model_implied_state_space,-0.9702999999999999,0.9702999999999999,True,True,32,-1832.1112431082668,-2588.73287733138,-1832.1112431082668,0.170317463884885,9.290305839967668e-05,32.0,13,,0.0
joint_indicator_revision_dfm_full_kalman_em,pseudo,2005:Q3:pre_third:pseudo,2005-12-31,pre_third,DELTA_MT,DELTA_MT,2005:Q3,0.008198170218423506,5.156707854627355,2.270838579606079,model_implied_state_space,-0.9702999999999999,0.9784981702184234,True,True,35,-1802.2571357918562,-2598.868116579888,-1802.2571357918562,0.16808730948332595,9.32044796369584e-05,35.0,13,,0.0
ar,exact,2005:Q4:pre_advance:exact,2006-01-26,pre_advance,DELTA_SA,DELTA_SA,2005:Q4,0.22729953371432554,,,not_available,0.5086999999999999,-0.2814004662856744,True,True,0,,,,,,,13,,0.0
no_revision,exact,2005:Q4:pre_advance:exact,2006-01-26,pre_advance,DELTA_SA,DELTA_SA,2005:Q4,0.0,,,not_available,0.5086999999999999,-0.5086999999999999,True,True,0,,,,,,,13,,0.0
bridge,exact,2005:Q4:pre_advance:exact,2006-01-26,pre_advance,DELTA_SA,DELTA_SA,2005:Q4,0.2213502147226123,,,not_available,0.5086999999999999,-0.28734978527738764,True,True,0,,,,,,,13,,0.0
midas_umidas,exact,2005:Q4:pre_advance:exact,2006-01-26,pre_advance,DELTA_SA,DELTA_SA,2005:Q4,-8.242867609095484,,,not_available,0.5086999999999999,-8.751567609095483,True,True,0,,,,,,,13,,0.0
monthly_mixed_frequency_kalman_em,exact,2005:Q4:pre_advance:exact,2006-01-26,pre_advance,DELTA_SA,DELTA_SA,2005:Q4,0.1449043197983162,0.3417648352236551,0.5846065644719148,model_implied_state_space,0.5086999999999999,-0.36379568020168374,True,True,53,-3047.572901695067,-3827.0347549852104,-3047.572901695067,0.2567833530747521,8.422358071821826e-05,53.0,13,,0.0
standard_dfm,exact,2005:Q4:pre_advance:exact,2006-01-26,pre_advance,DELTA_SA,DELTA_SA,2005:Q4,0.1656285062516374,,,not_available,0.5086999999999999,-0.34307149374836254,True,True,0,,,,,,,13,,0.0
release_dfm,exact,2005:Q4:pre_advance:exact,2006-01-26,pre_advance,DELTA_SA,DELTA_SA,2005:Q4,0.1656285062516374,,,not_available,0.5086999999999999,-0.34307149374836254,True,True,0,,,,,,,13,,0.0
revision_dfm_kalman_em,exact,2005:Q4:pre_advance:exact,2006-01-26,pre_advance,DELTA_SA,DELTA_SA,2005:Q4,0.17823122476866882,0.3889203772024672,0.6236348107686639,model_implied_state_space,0.5086999999999999,-0.3304687752313311,True,True,33,-1035.3569649689098,-1728.2196829045288,-1035.3569649689098,0.10307541830206901,9.944948602510618e-05,33.0,13,,0.0
indicator_revision_only_dfm_kalman_em,exact,2005:Q4:pre_advance:exact,2006-01-26,pre_advance,DELTA_SA,DELTA_SA,2005:Q4,0.0,0.4330974177720126,0.6581013734767711,model_implied_state_space,0.5086999999999999,-0.5086999999999999,True,True,33,-1856.1366268187264,-2629.6880295276055,-1856.1366268187264,0.1841547390527012,9.915074492315013e-05,33.0,13,,0.0
joint_indicator_revision_dfm_full_kalman_em,exact,2005:Q4:pre_advance:exact,2006-01-26,pre_advance,DELTA_SA,DELTA_SA,2005:Q4,0.290845944602939,0.35701039606217755,0.5975034694980252,model_implied_state_space,0.5086999999999999,-0.21785405539706093,True,True,29,-1823.3830117340601,-2639.7272410694154,-1823.3830117340601,0.1766187965770314,9.680078064955613e-05,29.0,13,,0.0
ar,exact,2005:Q4:pre_second:exact,2006-02-27,pre_second,DELTA_TS,DELTA_TS,2005:Q4,-0.0387977753615627,,,not_available,0.0253000000000001,-0.0640977753615628,True,True,0,,,,,,,13,,0.0
no_revision,exact,2005:Q4:pre_second:exact,2006-02-27,pre_second,DELTA_TS,DELTA_TS,2005:Q4,0.0,,,not_available,0.0253000000000001,-0.0253000000000001,True,True,0,,,,,,,13,,0.0
bridge,exact,2005:Q4:pre_second:exact,2006-02-27,pre_second,DELTA_TS,DELTA_TS,2005:Q4,0.007802897965232702,,,not_available,0.0253000000000001,-0.017497102034767398,True,True,0,,,,,,,13,,0.0
midas_umidas,exact,2005:Q4:pre_second:exact,2006-02-27,pre_second,DELTA_TS,DELTA_TS,2005:Q4,1.8522444871319772,,,not_available,0.0253000000000001,1.826944487131977,True,True,0,,,,,,,13,,0.0
monthly_mixed_frequency_kalman_em,exact,2005:Q4:pre_second:exact,2006-02-27,pre_second,DELTA_TS,DELTA_TS,2005:Q4,0.0036927941905251505,0.13514179403023463,0.36761636801186454,model_implied_state_space,0.0253000000000001,-0.02160720580947495,True,True,55,-3067.427102364222,-3852.4301530166954,-3067.427102364222,0.24545368921008048,7.998692748298774e-05,55.0,13,,0.0
standard_dfm,exact,2005:Q4:pre_second:exact,2006-02-27,pre_second,DELTA_TS,DELTA_TS,2005:Q4,0.1376741988741248,,,not_available,0.0253000000000001,0.1123741988741247,True,True,0,,,,,,,13,,0.0
release_dfm,exact,2005:Q4:pre_second:exact,2006-02-27,pre_second,DELTA_TS,DELTA_TS,2005:Q4,0.09356303904053109,,,not_available,0.0253000000000001,0.06826303904053099,True,True,0,,,,,,,13,,0.0
revision_dfm_kalman_em,exact,2005:Q4:pre_second:exact,2006-02-27,pre_second,DELTA_TS,DELTA_TS,2005:Q4,-0.0015465945915367207,0.13987304617958407,0.3739960510213765,model_implied_state_space,0.0253000000000001,-0.02684659459153682,True,True,34,-1037.382774499776,-1729.7311644599981,-1037.382774499776,0.09724315826406382,9.363989350836496e-05,34.0,13,,0.0
indicator_revision_only_dfm_kalman_em,exact,2005:Q4:pre_second:exact,2006-02-27,pre_second,DELTA_TS,DELTA_TS,2005:Q4,0.0,0.14382179089251346,0.37923843541038066,model_implied_state_space,0.0253000000000001,-0.0253000000000001,True,True,31,-1859.9280738502543,-2631.298825420381,-1859.9280738502543,0.17835494386736173,9.583274825552258e-05,31.0,13,,0.0
joint_indicator_revision_dfm_full_kalman_em,exact,2005:Q4:pre_second:exact,2006-02-27,pre_second,DELTA_TS,DELTA_TS,2005:Q4,-0.004063198584694172,0.1395890834183261,0.3736162247792862,model_implied_state_space,0.0253000000000001,-0.029363198584694272,True,True,29,-1826.5956956114367,-2641.4229510222926,-1826.5956956114367,0.17074036687586158,9.34147621462765e-05,29.0,13,,0.0
ar,exact,2005:Q4:pre_third:exact,2006-03-29,pre_third,DELTA_MT,DELTA_MT,2005:Q4,-0.9639054458455378,,,not_available,0.5868,-1.5507054458455378,True,True,0,,,,,,,13,,0.0
no_revision,exact,2005:Q4:pre_third:exact,2006-03-29,pre_third,DELTA_MT,DELTA_MT,2005:Q4,0.0,,,not_available,0.5868,-0.5868,True,True,0,,,,,,,13,,0.0
bridge,exact,2005:Q4:pre_third:exact,2006-03-29,pre_third,DELTA_MT,DELTA_MT,2005:Q4,-1.0844687584344306,,,not_available,0.5868,-1.6712687584344306,True,True,0,,,,,,,13,,0.0
midas_umidas,exact,2005:Q4:pre_third:exact,2006-03-29,pre_third,DELTA_MT,DELTA_MT,2005:Q4,-5.535047782864584,,,not_available,0.5868,-6.1218477828645845,True,True,0,,,,,,,13,,0.0
monthly_mixed_frequency_kalman_em,exact,2005:Q4:pre_third:exact,2006-03-29,pre_third,DELTA_MT,DELTA_MT,2005:Q4,0.07946319124936863,5.246175011640148,2.290453014501749,model_implied_state_space,0.5868,-0.5073368087506314,True,True,56,-3085.014074804009,-3871.567354229314,-3085.014074804009,0.30065169792123925,9.741446500564828e-05,56.0,13,,0.0
standard_dfm,exact,2005:Q4:pre_third:exact,2006-03-29,pre_third,DELTA_MT,DELTA_MT,2005:Q4,0.6263230175262464,,,not_available,0.5868,0.03952301752624643,True,True,0,,,,,,,13,,0.0
release_dfm,exact,2005:Q4:pre_third:exact,2006-03-29,pre_third,DELTA_MT,DELTA_MT,2005:Q4,1.206468868223389,,,not_available,0.5868,0.6196688682233891,True,True,0,,,,,,,13,,0.0
revision_dfm_kalman_em,exact,2005:Q4:pre_third:exact,2006-03-29,pre_third,DELTA_MT,DELTA_MT,2005:Q4,0.004717964854672463,5.118001920765163,2.262300139407935,model_implied_state_space,0.5868,-0.5820820351453275,True,True,29,-1036.9392099476943,-1734.315139020762,-1036.9392099476943,0.09967077880514807,9.601834830636671e-05,29.0,13,,0.0
indicator_revision_only_dfm_kalman_em,exact,2005:Q4:pre_third:exact,2006-03-29,pre_third,DELTA_MT,DELTA_MT,2005:Q4,0.0,5.121324904962888,2.2630344462607916,model_implied_state_space,0.5868,-0.5868,True,True,31,-1859.5316050259937,-2632.4265263400825,-1859.5316050259937,0.1797614438551136,9.660898895681921e-05,31.0,13,,0.0
joint_indicator_revision_dfm_full_kalman_em,exact,2005:Q4:pre_third:exact,2006-03-29,pre_third,DELTA_MT,DELTA_MT,2005:Q4,0.004217929246758789,5.108281909808953,2.260150859966864,model_implied_state_space,0.5868,-0.5825820707532412,True,True,29,-1826.5550298545957,-2642.521270393173,-1826.5550298545957,0.1672981642736886,9.153368742561065e-05,29.0,13,,0.0
ar,pseudo,2005:Q4:pre_advance:pseudo,2006-01-31,pre_advance,DELTA_SA,DELTA_SA,2005:Q4,0.22729953371432554,,,not_available,0.5086999999999999,-0.2814004662856744,True,True,0,,,,,,,13,,0.0
no_revision,pseudo,2005:Q4:pre_advance:pseudo,2006-01-31,pre_advance,DELTA_SA,DELTA_SA,2005:Q4,0.0,,,not_available,0.5086999999999999,-0.5086999999999999,True,True,0,,,,,,,13,,0.0
bridge,pseudo,2005:Q4:pre_advance:pseudo,2006-01-31,pre_advance,DELTA_SA,DELTA_SA,2005:Q4,0.22311809207112177,,,not_available,0.5086999999999999,-0.28558190792887816,True,True,0,,,,,,,13,,0.0
midas_umidas,pseudo,2005:Q4:pre_advance:pseudo,2006-01-31,pre_advance,DELTA_SA,DELTA_SA,2005:Q4,-8.114655237388508,,,not_available,0.5086999999999999,-8.623355237388507,True,True,0,,,,,,,13,,0.0
monthly_mixed_frequency_kalman_em,pseudo,2005:Q4:pre_advance:pseudo,2006-01-31,pre_advance,DELTA_SA,DELTA_SA,2005:Q4,0.14481940766232526,0.3417634403515013,0.5846053714699355,model_implied_state_space,0.5086999999999999,-0.36388059233767467,True,True,53,-3047.5500898107134,-3827.0398730172396,-3047.5500898107134,0.2554818435828565,8.379735525221797e-05,53.0,13,,0.0
standard_dfm,pseudo,2005:Q4:pre_advance:pseudo,2006-01-31,pre_advance,DELTA_SA,DELTA_SA,2005:Q4,0.16559873767091338,,,not_available,0.5086999999999999,-0.34310126232908655,True,True,0,,,,,,,13,,0.0
release_dfm,pseudo,2005:Q4:pre_advance:pseudo,2006-01-31,pre_advance,DELTA_SA,DELTA_SA,2005:Q4,0.16559873767091338,,,not_available,0.5086999999999999,-0.34310126232908655,True,True,0,,,,,,,13,,0.0
revision_dfm_kalman_em,pseudo,2005:Q4:pre_advance:pseudo,2006-01-31,pre_advance,DELTA_SA,DELTA_SA,2005:Q4,0.17820316459545538,0.388918737586744,0.6236334962032941,model_implied_state_space,0.5086999999999999,-0.33049683540454455,True,True,33,-1035.357781961052,-1728.2196191196922,-1035.357781961052,0.10307341162729244,9.944747174289609e-05,33.0,13,,0.0
indicator_revision_only_dfm_kalman_em,pseudo,2005:Q4:pre_advance:pseudo,2006-01-31,pre_advance,DELTA_SA,DELTA_SA,2005:Q4,0.0,0.43309745808384115,0.6581014041041404,model_implied_state_space,0.5086999999999999,-0.5086999999999999,True,True,33,-1856.1349383207173,-2629.6866801344836,-1856.1349383207173,0.18417226487554217,9.916027021198023e-05,33.0,13,,0.0
joint_indicator_revision_dfm_full_kalman_em,pseudo,2005:Q4:pre_advance:pseudo,2006-01-31,pre_advance,DELTA_SA,DELTA_SA,2005:Q4,0.29084083617292045,0.3570139913529342,0.5975064780844925,model_implied_state_space,0.5086999999999999,-0.21785916382707948,True,True,29,-1823.381780363242,-2639.725894862193,-1823.381780363242,0.1765810087074442,9.678013729013676e-05,29.0,13,,0.0
ar,pseudo,2005:Q4:pre_second:pseudo,2006-02-28,pre_second,DELTA_TS,DELTA_TS,2005:Q4,-0.0387977753615627,,,not_available,0.0253000000000001,-0.0640977753615628,True,True,0,,,,,,,13,,0.0
no_revision,pseudo,2005:Q4:pre_second:pseudo,2006-02-28,pre_second,DELTA_TS,DELTA_TS,2005:Q4,0.0,,,not_available,0.0253000000000001,-0.0253000000000001,True,True,0,,,,,,,13,,0.0
bridge,pseudo,2005:Q4:pre_second:pseudo,2006-02-28,pre_second,DELTA_TS,DELTA_TS,2005:Q4,0.007802897965232702,,,not_available,0.0253000000000001,-0.017497102034767398,True,True,0,,,,,,,13,,0.0
midas_umidas,pseudo,2005:Q4:pre_second:pseudo,2006-02-28,pre_second,DELTA_TS,DELTA_TS,2005:Q4,1.8522444871319772,,,not_available,0.0253000000000001,1.826944487131977,True,True,0,,,,,,,13,,0.0
monthly_mixed_frequency_kalman_em,pseudo,2005:Q4:pre_second:pseudo,2006-02-28,pre_second,DELTA_TS,DELTA_TS,2005:Q4,0.0036927941905251505,0.13514179403023463,0.36761636801186454,model_implied_state_space,0.0253000000000001,-0.02160720580947495,True,True,55,-3067.427102364222,-3852.4301530166954,-3067.427102364222,0.24545368921008048,7.998692748298774e-05,55.0,13,,0.0
standard_dfm,pseudo,2005:Q4:pre_second:pseudo,2006-02-28,pre_second,DELTA_TS,DELTA_TS,2005:Q4,0.1376741988741248,,,not_available,0.0253000000000001,0.1123741988741247,True,True,0,,,,,,,13,,0.0
release_dfm,pseudo,2005:Q4:pre_second:pseudo,2006-02-28,pre_second,DELTA_TS,DELTA_TS,2005:Q4,0.09356303904053109,,,not_available,0.0253000000000001,0.06826303904053099,True,True,0,,,,,,,13,,0.0
revision_dfm_kalman_em,pseudo,2005:Q4:pre_second:pseudo,2006-02-28,pre_second,DELTA_TS,DELTA_TS,2005:Q4,-0.0015465945915367207,0.13987304617958407,0.3739960510213765,model_implied_state_space,0.0253000000000001,-0.02684659459153682,True,True,34,-1037.382774499776,-1729.7311644599981,-1037.382774499776,0.09724315826406382,9.363989350836496e-05,34.0,13,,0.0
indicator_revision_only_dfm_kalman_em,pseudo,2005:Q4:pre_second:pseudo,2006-02-28,pre_second,DELTA_TS,DELTA_TS,2005:Q4,0.0,0.14382179089251346,0.37923843541038066,model_implied_state_space,0.0253000000000001,-0.0253000000000001,True,True,31,-1859.9280738502543,-2631.298825420381,-1859.9280738502543,0.17835494386736173,9.583274825552258e-05,31.0,13,,0.0
joint_indicator_revision_dfm_full_kalman_em,pseudo,2005:Q4:pre_second:pseudo,2006-02-28,pre_second,DELTA_TS,DELTA_TS,2005:Q4,-0.004063198584694172,0.1395890834183261,0.3736162247792862,model_implied_state_space,0.0253000000000001,-0.029363198584694272,True,True,29,-1826.5956956114367,-2641.4229510222926,-1826.5956956114367,0.17074036687586158,9.34147621462765e-05,29.0,13,,0.0
ar,pseudo,2005:Q4:pre_third:pseudo,2006-03-31,pre_third,DELTA_MT,DELTA_MT,2005:Q4,-0.9639054458455378,,,not_available,0.5868,-1.5507054458455378,True,True,0,,,,,,,13,,0.0
no_revision,pseudo,2005:Q4:pre_third:pseudo,2006-03-31,pre_third,DELTA_MT,DELTA_MT,2005:Q4,0.0,,,not_available,0.5868,-0.5868,True,True,0,,,,,,,13,,0.0
bridge,pseudo,2005:Q4:pre_third:pseudo,2006-03-31,pre_third,DELTA_MT,DELTA_MT,2005:Q4,-1.0056694401854855,,,not_available,0.5868,-1.5924694401854855,True,True,0,,,,,,,13,,0.0
midas_umidas,pseudo,2005:Q4:pre_third:pseudo,2006-03-31,pre_third,DELTA_MT,DELTA_MT,2005:Q4,-5.857911386524158,,,not_available,0.5868,-6.444711386524158,True,True,0,,,,,,,13,,0.0
monthly_mixed_frequency_kalman_em,pseudo,2005:Q4:pre_third:pseudo,2006-03-31,pre_third,DELTA_MT,DELTA_MT,2005:Q4,0.07773411517531037,5.24545653951763,2.2902961685156855,model_implied_state_space,0.5868,-0.5090658848246896,True,True,56,-3084.3098043477958,-3871.844562911713,-3084.3098043477958,0.24164617910855668,7.831539450340131e-05,56.0,13,,0.0
standard_dfm,pseudo,2005:Q4:pre_third:pseudo,2006-03-31,pre_third,DELTA_MT,DELTA_MT,2005:Q4,0.6223541561076278,,,not_available,0.5868,0.0355541561076278,True,True,0,,,,,,,13,,0.0
release_dfm,pseudo,2005:Q4:pre_third:pseudo,2006-03-31,pre_third,DELTA_MT,DELTA_MT,2005:Q4,1.2044343125842445,,,not_available,0.5868,0.6176343125842445,True,True,0,,,,,,,13,,0.0
revision_dfm_kalman_em,pseudo,2005:Q4:pre_third:pseudo,2006-03-31,pre_third,DELTA_MT,DELTA_MT,2005:Q4,0.004715643066276254,5.117981583133657,2.262295644502207,model_implied_state_space,0.5868,-0.5820843569337237,True,True,29,-1036.9655819050877,-1734.406416497379,-1036.9655819050877,0.09940362244606149,9.575857372315241e-05,29.0,13,,0.0
indicator_revision_only_dfm_kalman_em,pseudo,2005:Q4:pre_third:pseudo,2006-03-31,pre_third,DELTA_MT,DELTA_MT,2005:Q4,0.0,5.121324447151175,2.2630343451108237,model_implied_state_space,0.5868,-0.5868,True,True,31,-1859.5657947961693,-2632.5782972447423,-1859.5657947961693,0.1796490429098867,9.654681327029657e-05,31.0,13,,0.0
joint_indicator_revision_dfm_full_kalman_em,pseudo,2005:Q4:pre_third:pseudo,2006-03-31,pre_third,DELTA_MT,DELTA_MT,2005:Q4,0.004224887025781721,5.108273459877824,2.2601489906370826,model_implied_state_space,0.5868,-0.5825751129742183,True,True,29,-1826.5846494126158,-2642.6721893451054,-1826.5846494126158,0.16714208545431575,9.144681801532909e-05,29.0,13,,0.0
ar,exact,2006:Q1:pre_advance:exact,2006-04-27,pre_advance,DELTA_SA,DELTA_SA,2006:Q1,0.35429482017348324,,,not_available,0.4908000000000001,-0.1365051798265169,True,True,0,,,,,,,13,,0.0
no_revision,exact,2006:Q1:pre_advance:exact,2006-04-27,pre_advance,DELTA_SA,DELTA_SA,2006:Q1,0.0,,,not_available,0.4908000000000001,-0.4908000000000001,True,True,0,,,,,,,13,,0.0
bridge,exact,2006:Q1:pre_advance:exact,2006-04-27,pre_advance,DELTA_SA,DELTA_SA,2006:Q1,0.23181052375819755,,,not_available,0.4908000000000001,-0.2589894762418026,True,True,0,,,,,,,13,,0.0
midas_umidas,exact,2006:Q1:pre_advance:exact,2006-04-27,pre_advance,DELTA_SA,DELTA_SA,2006:Q1,-24.506359124291485,,,not_available,0.4908000000000001,-24.997159124291485,True,True,0,,,,,,,13,,0.0
monthly_mixed_frequency_kalman_em,exact,2006:Q1:pre_advance:exact,2006-04-27,pre_advance,DELTA_SA,DELTA_SA,2006:Q1,0.23498537823497578,0.3403006151344936,0.5833529078820929,model_implied_state_space,0.4908000000000001,-0.25581462176502434,True,True,50,-3101.210893384204,-3887.7916086825885,-3101.210893384204,0.29941352311152514,9.650685847680241e-05,50.0,13,,0.0
standard_dfm,exact,2006:Q1:pre_advance:exact,2006-04-27,pre_advance,DELTA_SA,DELTA_SA,2006:Q1,0.15176793142866707,,,not_available,0.4908000000000001,-0.33903206857133306,True,True,0,,,,,,,13,,0.0
release_dfm,exact,2006:Q1:pre_advance:exact,2006-04-27,pre_advance,DELTA_SA,DELTA_SA,2006:Q1,0.15176793142866707,,,not_available,0.4908000000000001,-0.33903206857133306,True,True,0,,,,,,,13,,0.0
revision_dfm_kalman_em,exact,2006:Q1:pre_advance:exact,2006-04-27,pre_advance,DELTA_SA,DELTA_SA,2006:Q1,0.1095329093931352,0.384170445177741,0.6198148474970094,model_implied_state_space,0.4908000000000001,-0.3812670906068649,True,True,29,-1053.8962039562002,-1753.9865766963499,-1053.8962039562002,0.09456905927481785,8.963970272887939e-05,29.0,13,,0.0
indicator_revision_only_dfm_kalman_em,exact,2006:Q1:pre_advance:exact,2006-04-27,pre_advance,DELTA_SA,DELTA_SA,2006:Q1,0.0,0.43303566052956377,0.6580544510369668,model_implied_state_space,0.4908000000000001,-0.4908000000000001,True,True,30,-1891.801770150115,-2668.894700431683,-1891.801770150115,0.18275916018956195,9.654551178828119e-05,30.0,13,,0.0
joint_indicator_revision_dfm_full_kalman_em,exact,2006:Q1:pre_advance:exact,2006-04-27,pre_advance,DELTA_SA,DELTA_SA,2006:Q1,0.41325258370956863,0.3573294833979048,0.5977704270017921,model_implied_state_space,0.4908000000000001,-0.07754741629043149,True,True,28,-1858.8111114587116,-2678.976370587542,-1858.8111114587116,0.17562836102024448,9.442452317550727e-05,28.0,13,,0.0
ar,exact,2006:Q1:pre_second:exact,2006-05-24,pre_second,DELTA_TS,DELTA_TS,2006:Q1,0.07626955245512601,,,not_available,0.3293999999999997,-0.2531304475448737,True,True,0,,,,,,,13,,0.0
no_revision,exact,2006:Q1:pre_second:exact,2006-05-24,pre_second,DELTA_TS,DELTA_TS,2006:Q1,0.0,,,not_available,0.3293999999999997,-0.3293999999999997,True,True,0,,,,,,,13,,0.0
bridge,exact,2006:Q1:pre_second:exact,2006-05-24,pre_second,DELTA_TS,DELTA_TS,2006:Q1,0.3714240401271942,,,not_available,0.3293999999999997,0.04202404012719452,True,True,0,,,,,,,13,,0.0
midas_umidas,exact,2006:Q1:pre_second:exact,2006-05-24,pre_second,DELTA_TS,DELTA_TS,2006:Q1,0.7670528894966688,,,not_available,0.3293999999999997,0.43765288949666914,True,True,0,,,,,,,13,,0.0
monthly_mixed_frequency_kalman_em,exact,2006:Q1:pre_second:exact,2006-05-24,pre_second,DELTA_TS,DELTA_TS,2006:Q1,0.16518161565590006,0.1343071096795042,0.366479344137571,model_implied_state_space,0.3293999999999997,-0.16421838434409963,True,True,54,-3119.636410782428,-3911.343185530462,-3119.636410782428,0.26440714597629267,8.47214190394558e-05,54.0,13,,0.0
standard_dfm,exact,2006:Q1:pre_second:exact,2006-05-24,pre_second,DELTA_TS,DELTA_TS,2006:Q1,0.11031236145158241,,,not_available,0.3293999999999997,-0.21908763854841729,True,True,0,,,,,,,13,,0.0
release_dfm,exact,2006:Q1:pre_second:exact,2006-05-24,pre_second,DELTA_TS,DELTA_TS,2006:Q1,0.0886419394730904,,,not_available,0.3293999999999997,-0.2407580605269093,True,True,0,,,,,,,13,,0.0
revision_dfm_kalman_em,exact,2006:Q1:pre_second:exact,2006-05-24,pre_second,DELTA_TS,DELTA_TS,2006:Q1,0.008880403349936117,0.13911837471574884,0.3729857567196753,model_implied_state_space,0.3293999999999997,-0.3205195966500636,True,True,32,-1054.2627666508024,-1751.6740061690764,-1054.2627666508024,0.10426835528778611,9.879819231532507e-05,32.0,13,,0.0
indicator_revision_only_dfm_kalman_em,exact,2006:Q1:pre_second:exact,2006-05-24,pre_second,DELTA_TS,DELTA_TS,2006:Q1,0.0,0.1430426535135707,0.37820980092214784,model_implied_state_space,0.3293999999999997,-0.3293999999999997,True,True,30,-1891.4934620092172,-2669.7644170608546,-1891.4934620092172,0.18280848115068693,9.65872949330757e-05,30.0,13,,0.0
joint_indicator_revision_dfm_full_kalman_em,exact,2006:Q1:pre_second:exact,2006-05-24,pre_second,DELTA_TS,DELTA_TS,2006:Q1,0.014239349081004882,0.13870943264749136,0.37243715261435906,model_implied_state_space,0.3293999999999997,-0.3151606509189948,True,True,28,-1858.4739282909632,-2679.9406417112364,-1858.4739282909632,0.17735943594607306,9.537241584838372e-05,28.0,13,,0.0
ar,exact,2006:Q1:pre_third:exact,2006-06-28,pre_third,DELTA_MT,DELTA_MT,2006:Q1,0.5709751952695403,,,not_available,-0.1468999999999996,0.7178751952695399,True,True,0,,,,,,,13,,0.0
no_revision,exact,2006:Q1:pre_third:exact,2006-06-28,pre_third,DELTA_MT,DELTA_MT,2006:Q1,0.0,,,not_available,-0.1468999999999996,0.1468999999999996,True,True,0,,,,,,,13,,0.0
bridge,exact,2006:Q1:pre_third:exact,2006-06-28,pre_third,DELTA_MT,DELTA_MT,2006:Q1,0.3945877838613119,,,not_available,-0.1468999999999996,0.5414877838613115,True,True,0,,,,,,,13,,0.0
midas_umidas,exact,2006:Q1:pre_third:exact,2006-06-28,pre_third,DELTA_MT,DELTA_MT,2006:Q1,-0.1411127321285326,,,not_available,-0.1468999999999996,0.0057872678714669945,True,True,0,,,,,,,13,,0.0
monthly_mixed_frequency_kalman_em,exact,2006:Q1:pre_third:exact,2006-06-28,pre_third,DELTA_MT,DELTA_MT,2006:Q1,0.17746643358931724,5.1957377975096035,2.2794161088992952,model_implied_state_space,-0.1468999999999996,0.3243664335893168,True,True,48,-3134.4999939380896,-3926.8933649357896,-3134.4999939380896,0.2661317880692877,8.486978218366294e-05,48.0,13,,0.0
standard_dfm,exact,2006:Q1:pre_third:exact,2006-06-28,pre_third,DELTA_MT,DELTA_MT,2006:Q1,0.5645540751537119,,,not_available,-0.1468999999999996,0.7114540751537115,True,True,0,,,,,,,13,,0.0
release_dfm,exact,2006:Q1:pre_third:exact,2006-06-28,pre_third,DELTA_MT,DELTA_MT,2006:Q1,0.22837718674333285,,,not_available,-0.1468999999999996,0.37527718674333244,True,True,0,,,,,,,13,,0.0
revision_dfm_kalman_em,exact,2006:Q1:pre_third:exact,2006-06-28,pre_third,DELTA_MT,DELTA_MT,2006:Q1,0.008644150132537831,5.084730861925115,2.2549347799714994,model_implied_state_space,-0.1468999999999996,0.15554415013253742,True,True,29,-1054.1171611977077,-1757.265870660624,-1054.1171611977077,0.09888787899512863,9.371339554743689e-05,29.0,13,,0.0
indicator_revision_only_dfm_kalman_em,exact,2006:Q1:pre_third:exact,2006-06-28,pre_third,DELTA_MT,DELTA_MT,2006:Q1,0.0,5.08784064338535,2.255624224773566,model_implied_state_space,-0.1468999999999996,0.1468999999999996,True,True,31,-1892.0842895667458,-2671.9224371033147,-1892.0842895667458,0.18017448171781325,9.516604000084436e-05,31.0,13,,0.0
joint_indicator_revision_dfm_full_kalman_em,exact,2006:Q1:pre_third:exact,2006-06-28,pre_third,DELTA_MT,DELTA_MT,2006:Q1,0.010244248243933107,5.074644745599275,2.252697215694838,model_implied_state_space,-0.1468999999999996,0.1571442482439327,True,True,28,-1858.9608720219112,-2682.063805158099,-1858.9608720219112,0.17495440211314417,9.405463817633214e-05,28.0,13,,0.0
ar,pseudo,2006:Q1:pre_advance:pseudo,2006-04-30,pre_advance,DELTA_SA,DELTA_SA,2006:Q1,0.35429482017348324,,,not_available,0.4908000000000001,-0.1365051798265169,True,True,0,,,,,,,13,,0.0
no_revision,pseudo,2006:Q1:pre_advance:pseudo,2006-04-30,pre_advance,DELTA_SA,DELTA_SA,2006:Q1,0.0,,,not_available,0.4908000000000001,-0.4908000000000001,True,True,0,,,,,,,13,,0.0
bridge,pseudo,2006:Q1:pre_advance:pseudo,2006-04-30,pre_advance,DELTA_SA,DELTA_SA,2006:Q1,0.23181052375819755,,,not_available,0.4908000000000001,-0.2589894762418026,True,True,0,,,,,,,13,,0.0
midas_umidas,pseudo,2006:Q1:pre_advance:pseudo,2006-04-30,pre_advance,DELTA_SA,DELTA_SA,2006:Q1,-24.506359124291485,,,not_available,0.4908000000000001,-24.997159124291485,True,True,0,,,,,,,13,,0.0
monthly_mixed_frequency_kalman_em,pseudo,2006:Q1:pre_advance:pseudo,2006-04-30,pre_advance,DELTA_SA,DELTA_SA,2006:Q1,0.23498537823497578,0.3403006151344936,0.5833529078820929,model_implied_state_space,0.4908000000000001,-0.25581462176502434,True,True,50,-3101.210893384204,-3887.7916086825885,-3101.210893384204,0.29941352311152514,9.650685847680241e-05,50.0,13,,0.0
standard_dfm,pseudo,2006:Q1:pre_advance:pseudo,2006-04-30,pre_advance,DELTA_SA,DELTA_SA,2006:Q1,0.15176793142866707,,,not_available,0.4908000000000001,-0.33903206857133306,True,True,0,,,,,,,13,,0.0
release_dfm,pseudo,2006:Q1:pre_advance:pseudo,2006-04-30,pre_advance,DELTA_SA,DELTA_SA,2006:Q1,0.15176793142866707,,,not_available,0.4908000000000001,-0.33903206857133306,True,True,0,,,,,,,13,,0.0
revision_dfm_kalman_em,pseudo,2006:Q1:pre_advance:pseudo,2006-04-30,pre_advance,DELTA_SA,DELTA_SA,2006:Q1,0.1095329093931352,0.384170445177741,0.6198148474970094,model_implied_state_space,0.4908000000000001,-0.3812670906068649,True,True,29,-1053.8962039562002,-1753.9865766963499,-1053.8962039562002,0.09456905927481785,8.963970272887939e-05,29.0,13,,0.0
indicator_revision_only_dfm_kalman_em,pseudo,2006:Q1:pre_advance:pseudo,2006-04-30,pre_advance,DELTA_SA,DELTA_SA,2006:Q1,0.0,0.43303566052956377,0.6580544510369668,model_implied_state_space,0.4908000000000001,-0.4908000000000001,True,True,30,-1891.801770150115,-2668.894700431683,-1891.801770150115,0.18275916018956195,9.654551178828119e-05,30.0,13,,0.0
joint_indicator_revision_dfm_full_kalman_em,pseudo,2006:Q1:pre_advance:pseudo,2006-04-30,pre_advance,DELTA_SA,DELTA_SA,2006:Q1,0.41325258370956863,0.3573294833979048,0.5977704270017921,model_implied_state_space,0.4908000000000001,-0.07754741629043149,True,True,28,-1858.8111114587116,-2678.976370587542,-1858.8111114587116,0.17562836102024448,9.442452317550727e-05,28.0,13,,0.0
ar,pseudo,2006:Q1:pre_second:pseudo,2006-05-31,pre_second,DELTA_TS,DELTA_TS,2006:Q1,0.07626955245512601,,,not_available,0.3293999999999997,-0.2531304475448737,True,True,0,,,,,,,13,,0.0
no_revision,pseudo,2006:Q1:pre_second:pseudo,2006-05-31,pre_second,DELTA_TS,DELTA_TS,2006:Q1,0.0,,,not_available,0.3293999999999997,-0.3293999999999997,True,True,0,,,,,,,13,,0.0
bridge,pseudo,2006:Q1:pre_second:pseudo,2006-05-31,pre_second,DELTA_TS,DELTA_TS,2006:Q1,0.3714240401271942,,,not_available,0.3293999999999997,0.04202404012719452,True,True,0,,,,,,,13,,0.0
midas_umidas,pseudo,2006:Q1:pre_second:pseudo,2006-05-31,pre_second,DELTA_TS,DELTA_TS,2006:Q1,0.7670528894966688,,,not_available,0.3293999999999997,0.43765288949666914,True,True,0,,,,,,,13,,0.0
monthly_mixed_frequency_kalman_em,pseudo,2006:Q1:pre_second:pseudo,2006-05-31,pre_second,DELTA_TS,DELTA_TS,2006:Q1,0.16518161565590006,0.1343071096795042,0.366479344137571,model_implied_state_space,0.3293999999999997,-0.16421838434409963,True,True,54,-3119.636410782428,-3911.343185530462,-3119.636410782428,0.26440714597629267,8.47214190394558e-05,54.0,13,,0.0
standard_dfm,pseudo,2006:Q1:pre_second:pseudo,2006-05-31,pre_second,DELTA_TS,DELTA_TS,2006:Q1,0.11031236145158241,,,not_available,0.3293999999999997,-0.21908763854841729,True,True,0,,,,,,,13,,0.0
release_dfm,pseudo,2006:Q1:pre_second:pseudo,2006-05-31,pre_second,DELTA_TS,DELTA_TS,2006:Q1,0.0886419394730904,,,not_available,0.3293999999999997,-0.2407580605269093,True,True,0,,,,,,,13,,0.0
revision_dfm_kalman_em,pseudo,2006:Q1:pre_second:pseudo,2006-05-31,pre_second,DELTA_TS,DELTA_TS,2006:Q1,0.008880403349936117,0.13911837471574884,0.3729857567196753,model_implied_state_space,0.3293999999999997,-0.3205195966500636,True,True,32,-1054.2627666508024,-1751.6740061690764,-1054.2627666508024,0.10426835528778611,9.879819231532507e-05,32.0,13,,0.0
indicator_revision_only_dfm_kalman_em,pseudo,2006:Q1:pre_second:pseudo,2006-05-31,pre_second,DELTA_TS,DELTA_TS,2006:Q1,0.0,0.1430426535135707,0.37820980092214784,model_implied_state_space,0.3293999999999997,-0.3293999999999997,True,True,30,-1891.4934620092172,-2669.7644170608546,-1891.4934620092172,0.18280848115068693,9.65872949330757e-05,30.0,13,,0.0
joint_indicator_revision_dfm_full_kalman_em,pseudo,2006:Q1:pre_second:pseudo,2006-05-31,pre_second,DELTA_TS,DELTA_TS,2006:Q1,0.014239349081004882,0.13870943264749136,0.37243715261435906,model_implied_state_space,0.3293999999999997,-0.3151606509189948,True,True,28,-1858.4739282909632,-2679.9406417112364,-1858.4739282909632,0.17735943594607306,9.537241584838372e-05,28.0,13,,0.0
ar,pseudo,2006:Q1:pre_third:pseudo,2006-06-30,pre_third,DELTA_MT,DELTA_MT,2006:Q1,0.5709751952695403,,,not_available,-0.1468999999999996,0.7178751952695399,True,True,0,,,,,,,13,,0.0
no_revision,pseudo,2006:Q1:pre_third:pseudo,2006-06-30,pre_third,DELTA_MT,DELTA_MT,2006:Q1,0.0,,,not_available,-0.1468999999999996,0.1468999999999996,True,True,0,,,,,,,13,,0.0
bridge,pseudo,2006:Q1:pre_third:pseudo,2006-06-30,pre_third,DELTA_MT,DELTA_MT,2006:Q1,0.3945877838613119,,,not_available,-0.1468999999999996,0.5414877838613115,True,True,0,,,,,,,13,,0.0
midas_umidas,pseudo,2006:Q1:pre_third:pseudo,2006-06-30,pre_third,DELTA_MT,DELTA_MT,2006:Q1,-0.1411127321285326,,,not_available,-0.1468999999999996,0.0057872678714669945,True,True,0,,,,,,,13,,0.0
monthly_mixed_frequency_kalman_em,pseudo,2006:Q1:pre_third:pseudo,2006-06-30,pre_third,DELTA_MT,DELTA_MT,2006:Q1,0.17746643358931724,5.1957377975096035,2.2794161088992952,model_implied_state_space,-0.1468999999999996,0.3243664335893168,True,True,48,-3134.4999939380896,-3926.8933649357896,-3134.4999939380896,0.2661317880692877,8.486978218366294e-05,48.0,13,,0.0
standard_dfm,pseudo,2006:Q1:pre_third:pseudo,2006-06-30,pre_third,DELTA_MT,DELTA_MT,2006:Q1,0.5645540751537119,,,not_available,-0.1468999999999996,0.7114540751537115,True,True,0,,,,,,,13,,0.0
release_dfm,pseudo,2006:Q1:pre_third:pseudo,2006-06-30,pre_third,DELTA_MT,DELTA_MT,2006:Q1,0.22837718674333285,,,not_available,-0.1468999999999996,0.37527718674333244,True,True,0,,,,,,,13,,0.0
revision_dfm_kalman_em,pseudo,2006:Q1:pre_third:pseudo,2006-06-30,pre_third,DELTA_MT,DELTA_MT,2006:Q1,0.008644150132537831,5.084730861925115,2.2549347799714994,model_implied_state_space,-0.1468999999999996,0.15554415013253742,True,True,29,-1054.1171611977077,-1757.265870660624,-1054.1171611977077,0.09888787899512863,9.371339554743689e-05,29.0,13,,0.0
indicator_revision_only_dfm_kalman_em,pseudo,2006:Q1:pre_third:pseudo,2006-06-30,pre_third,DELTA_MT,DELTA_MT,2006:Q1,0.0,5.08784064338535,2.255624224773566,model_implied_state_space,-0.1468999999999996,0.1468999999999996,True,True,31,-1892.0842895667458,-2671.9224371033147,-1892.0842895667458,0.18017448171781325,9.516604000084436e-05,31.0,13,,0.0
joint_indicator_revision_dfm_full_kalman_em,pseudo,2006:Q1:pre_third:pseudo,2006-06-30,pre_third,DELTA_MT,DELTA_MT,2006:Q1,0.010244248243933107,5.074644745599275,2.252697215694838,model_implied_state_space,-0.1468999999999996,0.1571442482439327,True,True,28,-1858.9608720219112,-2682.063805158099,-1858.9608720219112,0.17495440211314417,9.405463817633214e-05,28.0,13,,0.0
ar,exact,2006:Q2:pre_advance:exact,2006-07-27,pre_advance,DELTA_SA,DELTA_SA,2006:Q2,0.19275954019070385,,,not_available,0.4434999999999998,-0.25074045980929593,True,True,0,,,,,,,13,,0.0
no_revision,exact,2006:Q2:pre_advance:exact,2006-07-27,pre_advance,DELTA_SA,DELTA_SA,2006:Q2,0.0,,,not_available,0.4434999999999998,-0.4434999999999998,True,True,0,,,,,,,13,,0.0
bridge,exact,2006:Q2:pre_advance:exact,2006-07-27,pre_advance,DELTA_SA,DELTA_SA,2006:Q2,-0.003709582394132216,,,not_available,0.4434999999999998,-0.447209582394132,True,True,0,,,,,,,13,,0.0
midas_umidas,exact,2006:Q2:pre_advance:exact,2006-07-27,pre_advance,DELTA_SA,DELTA_SA,2006:Q2,7.631526192583875,,,not_available,0.4434999999999998,7.188026192583875,True,True,0,,,,,,,13,,0.0
monthly_mixed_frequency_kalman_em,exact,2006:Q2:pre_advance:exact,2006-07-27,pre_advance,DELTA_SA,DELTA_SA,2006:Q2,0.26394087143790657,0.3381723981132039,0.5815259221334883,model_implied_state_space,0.4434999999999998,-0.17955912856209322,True,True,49,-3152.750516942523,-3946.9578905829335,-3152.750516942523,0.2736909358009143,8.677515382325587e-05,49.0,13,,0.0
standard_dfm,exact,2006:Q2:pre_advance:exact,2006-07-27,pre_advance,DELTA_SA,DELTA_SA,2006:Q2,0.18041479596781063,,,not_available,0.4434999999999998,-0.26308520403218916,True,True,0,,,,,,,13,,0.0
release_dfm,exact,2006:Q2:pre_advance:exact,2006-07-27,pre_advance,DELTA_SA,DELTA_SA,2006:Q2,0.18041479596781063,,,not_available,0.4434999999999998,-0.26308520403218916,True,True,0,,,,,,,13,,0.0
revision_dfm_kalman_em,exact,2006:Q2:pre_advance:exact,2006-07-27,pre_advance,DELTA_SA,DELTA_SA,2006:Q2,0.09299897285525205,0.3882161942628102,0.6230699754143271,model_implied_state_space,0.4434999999999998,-0.35050102714474773,True,True,31,-1071.3006843054047,-1772.6225087541645,-1071.3006843054047,0.10185917331477867,9.498221906893486e-05,31.0,13,,0.0
indicator_revision_only_dfm_kalman_em,exact,2006:Q2:pre_advance:exact,2006-07-27,pre_advance,DELTA_SA,DELTA_SA,2006:Q2,0.0,0.4303403947868514,0.656003349676548,model_implied_state_space,0.4434999999999998,-0.4434999999999998,True,True,36,-1928.2090205183472,-2708.328641340759,-1928.2090205183472,0.18867279386540758,9.778844170872387e-05,36.0,13,,0.0
joint_indicator_revision_dfm_full_kalman_em,exact,2006:Q2:pre_advance:exact,2006-07-27,pre_advance,DELTA_SA,DELTA_SA,2006:Q2,0.28398403287361074,0.3468226804917727,0.5889165310056873,model_implied_state_space,0.4434999999999998,-0.15951596712638905,True,True,33,-1894.5119872747757,-2718.4678145043054,-1894.5119872747757,0.17228988607871543,9.088532734826081e-05,33.0,13,,0.0
ar,exact,2006:Q2:pre_second:exact,2006-08-29,pre_second,DELTA_TS,DELTA_TS,2006:Q2,0.15003765644417788,,,not_available,-0.34259999999999957,0.49263765644417745,True,True,0,,,,,,,13,,0.0
no_revision,exact,2006:Q2:pre_second:exact,2006-08-29,pre_second,DELTA_TS,DELTA_TS,2006:Q2,0.0,,,not_available,-0.34259999999999957,0.34259999999999957,True,True,0,,,,,,,13,,0.0
bridge,exact,2006:Q2:pre_second:exact,2006-08-29,pre_second,DELTA_TS,DELTA_TS,2006:Q2,-0.096196720902747,,,not_available,-0.34259999999999957,0.24640327909725257,True,True,0,,,,,,,13,,0.0
midas_umidas,exact,2006:Q2:pre_second:exact,2006-08-29,pre_second,DELTA_TS,DELTA_TS,2006:Q2,-0.06269428375168484,,,not_available,-0.34259999999999957,0.27990571624831473,True,True,0,,,,,,,13,,0.0
monthly_mixed_frequency_kalman_em,exact,2006:Q2:pre_second:exact,2006-08-29,pre_second,DELTA_TS,DELTA_TS,2006:Q2,0.15266634303278792,0.13390545578098512,0.36593094400581255,model_implied_state_space,-0.34259999999999957,0.4952663430327875,True,True,52,-3172.55086616869,-3971.609014761932,-3172.55086616869,0.3036217416811269,9.566340953489267e-05,52.0,13,,0.0
standard_dfm,exact,2006:Q2:pre_second:exact,2006-08-29,pre_second,DELTA_TS,DELTA_TS,2006:Q2,0.11872079344451558,,,not_available,-0.34259999999999957,0.46132079344451515,True,True,0,,,,,,,13,,0.0
release_dfm,exact,2006:Q2:pre_second:exact,2006-08-29,pre_second,DELTA_TS,DELTA_TS,2006:Q2,0.09286842184072608,,,not_available,-0.34259999999999957,0.43546842184072565,True,True,0,,,,,,,13,,0.0
revision_dfm_kalman_em,exact,2006:Q2:pre_second:exact,2006-08-29,pre_second,DELTA_TS,DELTA_TS,2006:Q2,-2.493439652528906e-05,0.13897322632199594,0.37279112961817634,model_implied_state_space,-0.34259999999999957,0.3425750656034743,True,True,31,-1072.1959687807196,-1773.8825213270802,-1072.1959687807196,0.10531196922829622,9.811967163098099e-05,31.0,13,,0.0
indicator_revision_only_dfm_kalman_em,exact,2006:Q2:pre_second:exact,2006-08-29,pre_second,DELTA_TS,DELTA_TS,2006:Q2,0.0,0.14243048468593944,0.3773996352488161,model_implied_state_space,-0.34259999999999957,0.34259999999999957,True,True,35,-1928.2412746982714,-2709.225556803001,-1928.2412746982714,0.18532898094304073,9.605391601299463e-05,35.0,13,,0.0
joint_indicator_revision_dfm_full_kalman_em,exact,2006:Q2:pre_second:exact,2006-08-29,pre_second,DELTA_TS,DELTA_TS,2006:Q2,0.0031707398927784958,0.13847984237541666,0.3721287981000888,model_implied_state_space,-0.34259999999999957,0.34577073989277807,True,True,32,-1894.2751779311302,-2719.468246439992,-1894.2751779311302,0.18383721540203624,9.698823025610201e-05,32.0,13,,0.0
ar,exact,2006:Q2:pre_third:exact,2006-09-27,pre_third,DELTA_MT,DELTA_MT,2006:Q2,-0.7530053928517897,,,not_available,-1.5175000000000003,0.7644946071482106,True,True,0,,,,,,,13,,0.0
no_revision,exact,2006:Q2:pre_third:exact,2006-09-27,pre_third,DELTA_MT,DELTA_MT,2006:Q2,0.0,,,not_available,-1.5175000000000003,1.5175000000000003,True,True,0,,,,,,,13,,0.0
bridge,exact,2006:Q2:pre_third:exact,2006-09-27,pre_third,DELTA_MT,DELTA_MT,2006:Q2,0.1749384661451463,,,not_available,-1.5175000000000003,1.6924384661451466,True,True,0,,,,,,,13,,0.0
midas_umidas,exact,2006:Q2:pre_third:exact,2006-09-27,pre_third,DELTA_MT,DELTA_MT,2006:Q2,4.606872873914138,,,not_available,-1.5175000000000003,6.124372873914138,True,True,0,,,,,,,13,,0.0
monthly_mixed_frequency_kalman_em,exact,2006:Q2:pre_third:exact,2006-09-27,pre_third,DELTA_MT,DELTA_MT,2006:Q2,0.15042417854128587,5.1628386578050645,2.272188077119732,model_implied_state_space,-1.5175000000000003,1.6679241785412862,True,True,48,-3187.4022294114015,-3986.3206673397544,-3187.4022294114015,0.24550039316090988,7.699200851389031e-05,48.0,13,,0.0
standard_dfm,exact,2006:Q2:pre_third:exact,2006-09-27,pre_third,DELTA_MT,DELTA_MT,2006:Q2,0.5696031372961983,,,not_available,-1.5175000000000003,2.0871031372961983,True,True,0,,,,,,,13,,0.0
release_dfm,exact,2006:Q2:pre_third:exact,2006-09-27,pre_third,DELTA_MT,DELTA_MT,2006:Q2,0.8282862250748071,,,not_available,-1.5175000000000003,2.345786225074807,True,True,0,,,,,,,13,,0.0
revision_dfm_kalman_em,exact,2006:Q2:pre_third:exact,2006-09-27,pre_third,DELTA_MT,DELTA_MT,2006:Q2,0.0050270987306348935,5.0570230249104275,2.2487825650583533,model_implied_state_space,-1.5175000000000003,1.5225270987306352,True,True,31,-1072.152535976636,-1775.0347987786688,-1072.152535976636,0.10217980298921248,9.520554765509493e-05,31.0,13,,0.0
indicator_revision_only_dfm_kalman_em,exact,2006:Q2:pre_third:exact,2006-09-27,pre_third,DELTA_MT,DELTA_MT,2006:Q2,0.0,5.0605184002574495,2.2495596014014496,model_implied_state_space,-1.5175000000000003,1.5175000000000003,True,True,35,-1928.154765350072,-2710.3997736959445,-1928.154765350072,0.18925705369770185,9.809399023710996e-05,35.0,13,,0.0
joint_indicator_revision_dfm_full_kalman_em,exact,2006:Q2:pre_third:exact,2006-09-27,pre_third,DELTA_MT,DELTA_MT,2006:Q2,0.005903647504927001,5.047996874430448,2.2467747716294237,model_implied_state_space,-1.5175000000000003,1.5234036475049273,True,True,33,-1893.9067801484994,-2720.6141186798013,-1893.9067801484994,0.1730522129869314,9.131658204144812e-05,33.0,13,,0.0
ar,pseudo,2006:Q2:pre_advance:pseudo,2006-07-31,pre_advance,DELTA_SA,DELTA_SA,2006:Q2,0.19275954019070385,,,not_available,0.4434999999999998,-0.25074045980929593,True,True,0,,,,,,,13,,0.0
no_revision,pseudo,2006:Q2:pre_advance:pseudo,2006-07-31,pre_advance,DELTA_SA,DELTA_SA,2006:Q2,0.0,,,not_available,0.4434999999999998,-0.4434999999999998,True,True,0,,,,,,,13,,0.0
bridge,pseudo,2006:Q2:pre_advance:pseudo,2006-07-31,pre_advance,DELTA_SA,DELTA_SA,2006:Q2,-0.003709582394132216,,,not_available,0.4434999999999998,-0.447209582394132,True,True,0,,,,,,,13,,0.0
midas_umidas,pseudo,2006:Q2:pre_advance:pseudo,2006-07-31,pre_advance,DELTA_SA,DELTA_SA,2006:Q2,7.631526192583875,,,not_available,0.4434999999999998,7.188026192583875,True,True,0,,,,,,,13,,0.0
monthly_mixed_frequency_kalman_em,pseudo,2006:Q2:pre_advance:pseudo,2006-07-31,pre_advance,DELTA_SA,DELTA_SA,2006:Q2,0.26394087143790657,0.3381723981132039,0.5815259221334883,model_implied_state_space,0.4434999999999998,-0.17955912856209322,True,True,49,-3152.750516942523,-3946.9578905829335,-3152.750516942523,0.2736909358009143,8.677515382325587e-05,49.0,13,,0.0
standard_dfm,pseudo,2006:Q2:pre_advance:pseudo,2006-07-31,pre_advance,DELTA_SA,DELTA_SA,2006:Q2,0.18041479596781063,,,not_available,0.4434999999999998,-0.26308520403218916,True,True,0,,,,,,,13,,0.0
release_dfm,pseudo,2006:Q2:pre_advance:pseudo,2006-07-31,pre_advance,DELTA_SA,DELTA_SA,2006:Q2,0.18041479596781063,,,not_available,0.4434999999999998,-0.26308520403218916,True,True,0,,,,,,,13,,0.0
revision_dfm_kalman_em,pseudo,2006:Q2:pre_advance:pseudo,2006-07-31,pre_advance,DELTA_SA,DELTA_SA,2006:Q2,0.09299897285525205,0.3882161942628102,0.6230699754143271,model_implied_state_space,0.4434999999999998,-0.35050102714474773,True,True,31,-1071.3006843054047,-1772.6225087541645,-1071.3006843054047,0.10185917331477867,9.498221906893486e-05,31.0,13,,0.0
indicator_revision_only_dfm_kalman_em,pseudo,2006:Q2:pre_advance:pseudo,2006-07-31,pre_advance,DELTA_SA,DELTA_SA,2006:Q2,0.0,0.4303403947868514,0.656003349676548,model_implied_state_space,0.4434999999999998,-0.4434999999999998,True,True,36,-1928.2090205183472,-2708.328641340759,-1928.2090205183472,0.18867279386540758,9.778844170872387e-05,36.0,13,,0.0
joint_indicator_revision_dfm_full_kalman_em,pseudo,2006:Q2:pre_advance:pseudo,2006-07-31,pre_advance,DELTA_SA,DELTA_SA,2006:Q2,0.28398403287361074,0.3468226804917727,0.5889165310056873,model_implied_state_space,0.4434999999999998,-0.15951596712638905,True,True,33,-1894.5119872747757,-2718.4678145043054,-1894.5119872747757,0.17228988607871543,9.088532734826081e-05,33.0,13,,0.0
ar,pseudo,2006:Q2:pre_second:pseudo,2006-08-31,pre_second,DELTA_TS,DELTA_TS,2006:Q2,0.15003765644417788,,,not_available,-0.34259999999999957,0.49263765644417745,True,True,0,,,,,,,13,,0.0
no_revision,pseudo,2006:Q2:pre_second:pseudo,2006-08-31,pre_second,DELTA_TS,DELTA_TS,2006:Q2,0.0,,,not_available,-0.34259999999999957,0.34259999999999957,True,True,0,,,,,,,13,,0.0
bridge,pseudo,2006:Q2:pre_second:pseudo,2006-08-31,pre_second,DELTA_TS,DELTA_TS,2006:Q2,-0.09696653829506885,,,not_available,-0.34259999999999957,0.24563346170493072,True,True,0,,,,,,,13,,0.0
midas_umidas,pseudo,2006:Q2:pre_second:pseudo,2006-08-31,pre_second,DELTA_TS,DELTA_TS,2006:Q2,-0.06380263575451295,,,not_available,-0.34259999999999957,0.2787973642454866,True,True,0,,,,,,,13,,0.0
monthly_mixed_frequency_kalman_em,pseudo,2006:Q2:pre_second:pseudo,2006-08-31,pre_second,DELTA_TS,DELTA_TS,2006:Q2,0.1526243007004675,0.13390792018806497,0.36593431130199444,model_implied_state_space,-0.34259999999999957,0.4952243007004671,True,True,52,-3172.5760254004836,-3971.6140538323425,-3172.5760254004836,0.30463304543400227,9.598125393384043e-05,52.0,13,,0.0
standard_dfm,pseudo,2006:Q2:pre_second:pseudo,2006-08-31,pre_second,DELTA_TS,DELTA_TS,2006:Q2,0.11851880070235143,,,not_available,-0.34259999999999957,0.461118800702351,True,True,0,,,,,,,13,,0.0
release_dfm,pseudo,2006:Q2:pre_second:pseudo,2006-08-31,pre_second,DELTA_TS,DELTA_TS,2006:Q2,0.09264349943882921,,,not_available,-0.34259999999999957,0.4352434994388288,True,True,0,,,,,,,13,,0.0
revision_dfm_kalman_em,pseudo,2006:Q2:pre_second:pseudo,2006-08-31,pre_second,DELTA_TS,DELTA_TS,2006:Q2,-2.7094980069364283e-05,0.13897307523262248,0.3727909269719724,model_implied_state_space,-0.34259999999999957,0.3425729050199302,True,True,31,-1072.2162911428475,-1773.89662254761,-1072.2162911428475,0.10538746109637032,9.818814172601683e-05,31.0,13,,0.0
indicator_revision_only_dfm_kalman_em,pseudo,2006:Q2:pre_second:pseudo,2006-08-31,pre_second,DELTA_TS,DELTA_TS,2006:Q2,0.0,0.14243015268426984,0.3773991953943064,model_implied_state_space,-0.34259999999999957,0.34259999999999957,True,True,35,-1928.2489741696772,-2709.243046800831,-1928.2489741696772,0.18466201403748528,9.570788576213166e-05,35.0,13,,0.0
joint_indicator_revision_dfm_full_kalman_em,pseudo,2006:Q2:pre_second:pseudo,2006-08-31,pre_second,DELTA_TS,DELTA_TS,2006:Q2,0.003183863572466805,0.13847834855398977,0.3721267909651088,model_implied_state_space,-0.34259999999999957,0.3457838635724664,True,True,32,-1894.2911901280045,-2719.4857223557347,-1894.2911901280045,0.18324769271976038,9.667642520700251e-05,32.0,13,,0.0
ar,pseudo,2006:Q2:pre_third:pseudo,2006-09-30,pre_third,DELTA_MT,DELTA_MT,2006:Q2,-0.7530053928517897,,,not_available,-1.5175000000000003,0.7644946071482106,True,True,0,,,,,,,13,,0.0
no_revision,pseudo,2006:Q2:pre_third:pseudo,2006-09-30,pre_third,DELTA_MT,DELTA_MT,2006:Q2,0.0,,,not_available,-1.5175000000000003,1.5175000000000003,True,True,0,,,,,,,13,,0.0
bridge,pseudo,2006:Q2:pre_third:pseudo,2006-09-30,pre_third,DELTA_MT,DELTA_MT,2006:Q2,0.1749384661451463,,,not_available,-1.5175000000000003,1.6924384661451466,True,True,0,,,,,,,13,,0.0
midas_umidas,pseudo,2006:Q2:pre_third:pseudo,2006-09-30,pre_third,DELTA_MT,DELTA_MT,2006:Q2,4.606872873914138,,,not_available,-1.5175000000000003,6.124372873914138,True,True,0,,,,,,,13,,0.0
monthly_mixed_frequency_kalman_em,pseudo,2006:Q2:pre_third:pseudo,2006-09-30,pre_third,DELTA_MT,DELTA_MT,2006:Q2,0.15042417854128587,5.1628386578050645,2.272188077119732,model_implied_state_space,-1.5175000000000003,1.6679241785412862,True,True,48,-3187.4022294114015,-3986.3206673397544,-3187.4022294114015,0.24550039316090988,7.699200851389031e-05,48.0,13,,0.0
standard_dfm,pseudo,2006:Q2:pre_third:pseudo,2006-09-30,pre_third,DELTA_MT,DELTA_MT,2006:Q2,0.5696031372961983,,,not_available,-1.5175000000000003,2.0871031372961983,True,True,0,,,,,,,13,,0.0
release_dfm,pseudo,2006:Q2:pre_third:pseudo,2006-09-30,pre_third,DELTA_MT,DELTA_MT,2006:Q2,0.8282862250748071,,,not_available,-1.5175000000000003,2.345786225074807,True,True,0,,,,,,,13,,0.0
revision_dfm_kalman_em,pseudo,2006:Q2:pre_third:pseudo,2006-09-30,pre_third,DELTA_MT,DELTA_MT,2006:Q2,0.0050270987306348935,5.0570230249104275,2.2487825650583533,model_implied_state_space,-1.5175000000000003,1.5225270987306352,True,True,31,-1072.152535976636,-1775.0347987786688,-1072.152535976636,0.10217980298921248,9.520554765509493e-05,31.0,13,,0.0
indicator_revision_only_dfm_kalman_em,pseudo,2006:Q2:pre_third:pseudo,2006-09-30,pre_third,DELTA_MT,DELTA_MT,2006:Q2,0.0,5.0605184002574495,2.2495596014014496,model_implied_state_space,-1.5175000000000003,1.5175000000000003,True,True,35,-1928.154765350072,-2710.3997736959445,-1928.154765350072,0.18925705369770185,9.809399023710996e-05,35.0,13,,0.0
joint_indicator_revision_dfm_full_kalman_em,pseudo,2006:Q2:pre_third:pseudo,2006-09-30,pre_third,DELTA_MT,DELTA_MT,2006:Q2,0.005903647504927001,5.047996874430448,2.2467747716294237,model_implied_state_space,-1.5175000000000003,1.5234036475049273,True,True,33,-1893.9067801484994,-2720.6141186798013,-1893.9067801484994,0.1730522129869314,9.131658204144812e-05,33.0,13,,0.0
ar,exact,2006:Q3:pre_advance:exact,2006-10-26,pre_advance,DELTA_SA,DELTA_SA,2006:Q3,0.2698690026860002,,,not_available,0.6269,-0.3570309973139998,True,True,0,,,,,,,13,,0.0
no_revision,exact,2006:Q3:pre_advance:exact,2006-10-26,pre_advance,DELTA_SA,DELTA_SA,2006:Q3,0.0,,,not_available,0.6269,-0.6269,True,True,0,,,,,,,13,,0.0
bridge,exact,2006:Q3:pre_advance:exact,2006-10-26,pre_advance,DELTA_SA,DELTA_SA,2006:Q3,0.18899295657589388,,,not_available,0.6269,-0.43790704342410613,True,True,0,,,,,,,13,,0.0
midas_umidas,exact,2006:Q3:pre_advance:exact,2006-10-26,pre_advance,DELTA_SA,DELTA_SA,2006:Q3,-1.1119282496410436,,,not_available,0.6269,-1.7388282496410437,True,True,0,,,,,,,13,,0.0
monthly_mixed_frequency_kalman_em,exact,2006:Q3:pre_advance:exact,2006-10-26,pre_advance,DELTA_SA,DELTA_SA,2006:Q3,0.08855927814467979,0.3366287749346215,0.5801971862518996,model_implied_state_space,0.6269,-0.5383407218553202,True,True,46,-3203.468299979087,-4007.2434605024205,-3203.468299979087,0.27716528583914624,8.648589688112215e-05,46.0,13,,0.0
standard_dfm,exact,2006:Q3:pre_advance:exact,2006-10-26,pre_advance,DELTA_SA,DELTA_SA,2006:Q3,0.1471347337242923,,,not_available,0.6269,-0.4797652662757077,True,True,0,,,,,,,13,,0.0
release_dfm,exact,2006:Q3:pre_advance:exact,2006-10-26,pre_advance,DELTA_SA,DELTA_SA,2006:Q3,0.1471347337242923,,,not_available,0.6269,-0.4797652662757077,True,True,0,,,,,,,13,,0.0
revision_dfm_kalman_em,exact,2006:Q3:pre_advance:exact,2006-10-26,pre_advance,DELTA_SA,DELTA_SA,2006:Q3,0.0704639567512686,0.3868213608831148,0.6219496449738635,model_implied_state_space,0.6269,-0.5564360432487314,True,True,30,-1089.7104419370887,-1794.9507311022903,-1089.7104419370887,0.10369599444402411,9.506293587343732e-05,30.0,13,,0.0
indicator_revision_only_dfm_kalman_em,exact,2006:Q3:pre_advance:exact,2006-10-26,pre_advance,DELTA_SA,DELTA_SA,2006:Q3,0.0,0.430692802329391,0.656271896647564,model_implied_state_space,0.6269,-0.6269,True,True,29,-1955.0745699520112,-2744.237041469461,-1955.0745699520112,0.17682865711662998,9.03915811855026e-05,29.0,13,,0.0
joint_indicator_revision_dfm_full_kalman_em,exact,2006:Q3:pre_advance:exact,2006-10-26,pre_advance,DELTA_SA,DELTA_SA,2006:Q3,0.283920478521678,0.3636489608524123,0.6030331341248276,model_implied_state_space,0.6269,-0.342979521478322,True,True,28,-1923.0444797225875,-2754.5519575982253,-1923.0444797225875,0.19035881113677533,9.892701624809454e-05,28.0,13,,0.0
ar,exact,2006:Q3:pre_second:exact,2006-11-28,pre_second,DELTA_TS,DELTA_TS,2006:Q3,-0.10248539920862054,,,not_available,-0.24970000000000003,0.1472146007913795,True,True,0,,,,,,,13,,0.0
no_revision,exact,2006:Q3:pre_second:exact,2006-11-28,pre_second,DELTA_TS,DELTA_TS,2006:Q3,0.0,,,not_available,-0.24970000000000003,0.24970000000000003,True,True,0,,,,,,,13,,0.0
bridge,exact,2006:Q3:pre_second:exact,2006-11-28,pre_second,DELTA_TS,DELTA_TS,2006:Q3,-0.4618669505312958,,,not_available,-0.24970000000000003,-0.21216695053129575,True,True,0,,,,,,,13,,0.0
midas_umidas,exact,2006:Q3:pre_second:exact,2006-11-28,pre_second,DELTA_TS,DELTA_TS,2006:Q3,-0.10992479614772499,,,not_available,-0.24970000000000003,0.13977520385227504,True,True,0,,,,,,,13,,0.0
monthly_mixed_frequency_kalman_em,exact,2006:Q3:pre_second:exact,2006-11-28,pre_second,DELTA_TS,DELTA_TS,2006:Q3,-0.006038251069002465,0.1381494582940589,0.37168462208444797,model_implied_state_space,-0.24970000000000003,0.24366174893099757,True,True,47,-3223.82402794756,-4026.8186118161957,-3223.82402794756,0.3105578015465653,9.629297422775044e-05,47.0,13,,0.0
standard_dfm,exact,2006:Q3:pre_second:exact,2006-11-28,pre_second,DELTA_TS,DELTA_TS,2006:Q3,0.09276208638106231,,,not_available,-0.24970000000000003,0.34246208638106235,True,True,0,,,,,,,13,,0.0
release_dfm,exact,2006:Q3:pre_second:exact,2006-11-28,pre_second,DELTA_TS,DELTA_TS,2006:Q3,0.06272920805043714,,,not_available,-0.24970000000000003,0.31242920805043717,True,True,0,,,,,,,13,,0.0
revision_dfm_kalman_em,exact,2006:Q3:pre_second:exact,2006-11-28,pre_second,DELTA_TS,DELTA_TS,2006:Q3,-0.00020029714802061171,0.13899106630893177,0.3728150564407663,model_implied_state_space,-0.24970000000000003,0.24949970285197942,True,True,29,-1089.555293522013,-1799.2821364479903,-1089.555293522013,0.1005271628034734,9.21712981280868e-05,29.0,13,,0.0
indicator_revision_only_dfm_kalman_em,exact,2006:Q3:pre_second:exact,2006-11-28,pre_second,DELTA_TS,DELTA_TS,2006:Q3,0.0,0.14215985630712968,0.3770409212633686,model_implied_state_space,-0.24970000000000003,0.24970000000000003,True,True,43,-1721.609963946935,-2747.7086698311323,-1721.609963946935,0.027015194515342955,1.5682465221899002e-05,43.0,13,,0.0
joint_indicator_revision_dfm_full_kalman_em,exact,2006:Q3:pre_second:exact,2006-11-28,pre_second,DELTA_TS,DELTA_TS,2006:Q3,-0.00827763748841659,0.13898130673597497,0.37280196718361747,model_implied_state_space,-0.24970000000000003,0.24142236251158344,True,True,47,-1692.4877310260201,-2758.029510715335,-1692.4877310260201,0.03889831319929726,2.2968822884393978e-05,47.0,13,,0.0
ar,exact,2006:Q3:pre_third:exact,2006-12-20,pre_third,DELTA_MT,DELTA_MT,2006:Q3,1.4979411796540587,,,not_available,-1.3611,2.8590411796540587,True,True,0,,,,,,,13,,0.0
no_revision,exact,2006:Q3:pre_third:exact,2006-12-20,pre_third,DELTA_MT,DELTA_MT,2006:Q3,0.0,,,not_available,-1.3611,1.3611,True,True,0,,,,,,,13,,0.0
bridge,exact,2006:Q3:pre_third:exact,2006-12-20,pre_third,DELTA_MT,DELTA_MT,2006:Q3,0.26333301939350684,,,not_available,-1.3611,1.6244330193935068,True,True,0,,,,,,,13,,0.0
midas_umidas,exact,2006:Q3:pre_third:exact,2006-12-20,pre_third,DELTA_MT,DELTA_MT,2006:Q3,3.9863548879368516,,,not_available,-1.3611,5.347454887936852,True,True,0,,,,,,,13,,0.0
monthly_mixed_frequency_kalman_em,exact,2006:Q3:pre_third:exact,2006-12-20,pre_third,DELTA_MT,DELTA_MT,2006:Q3,0.08314254291325618,5.154244935982479,2.270296222078185,model_implied_state_space,-1.3611,1.4442425429132562,True,True,54,-3253.775326433178,-4050.779621378917,-3253.775326433178,0.252057960973616,7.743651011419394e-05,54.0,13,,0.0
standard_dfm,exact,2006:Q3:pre_third:exact,2006-12-20,pre_third,DELTA_MT,DELTA_MT,2006:Q3,0.5085069225899592,,,not_available,-1.3611,1.8696069225899592,True,True,0,,,,,,,13,,0.0
release_dfm,exact,2006:Q3:pre_third:exact,2006-12-20,pre_third,DELTA_MT,DELTA_MT,2006:Q3,0.7488237535075744,,,not_available,-1.3611,2.1099237535075743,True,True,0,,,,,,,13,,0.0
revision_dfm_kalman_em,exact,2006:Q3:pre_third:exact,2006-12-20,pre_third,DELTA_MT,DELTA_MT,2006:Q3,0.007309173170446215,5.029311910241242,2.2426127419243036,model_implied_state_space,-1.3611,1.3684091731704462,True,True,28,-1091.254739919682,-1800.8340295993428,-1091.254739919682,0.10568285652834675,9.674724049389859e-05,28.0,13,,0.0
indicator_revision_only_dfm_kalman_em,exact,2006:Q3:pre_third:exact,2006-12-20,pre_third,DELTA_MT,DELTA_MT,2006:Q3,0.0,5.03497760461089,2.2438755769005754,model_implied_state_space,-1.3611,1.3611,True,True,36,-1729.7755047387054,-2747.282597148363,-1729.7755047387054,0.06552378827041139,3.7856618366722625e-05,36.0,13,,0.0
