haminh109/Revision-Aware-DFM/outputs/full_state_space_release_revision_dfm/frozen/q2_manuscript_best_v1/initialization_audit/seed_1/forecast_results.csv
model_id,timing_mode,forecast_origin,forecast_origin_date,checkpoint_id,target_id,target_quarter,forecast_value,forecast_variance,forecast_sd,density_source,realized_value,forecast_error,revision_target_flag,converged,n_iter,loglikelihood,llf_initial,llf_final,llf_last_improvement,llf_relative_last_improvement,llf_history_length,n_indicators,initialization_seed,initialization_jitter
ar,exact,2019:Q1:pre_advance:exact,2019-04-25,pre_advance,A,2019:Q1,2.544004133182678,,,not_available,3.1705,-0.6264958668173222,False,True,0,,,,,,,14,1,0.02
no_revision,exact,2019:Q1:pre_advance:exact,2019-04-25,pre_advance,A,2019:Q1,2.494294354572081,,,not_available,3.1705,-0.676205645427919,False,True,0,,,,,,,14,1,0.02
bridge,exact,2019:Q1:pre_advance:exact,2019-04-25,pre_advance,A,2019:Q1,2.463317526102582,,,not_available,3.1705,-0.7071824738974182,False,True,0,,,,,,,14,1,0.02
midas_umidas,exact,2019:Q1:pre_advance:exact,2019-04-25,pre_advance,A,2019:Q1,4.853686202530027,,,not_available,3.1705,1.683186202530027,False,True,0,,,,,,,14,1,0.02
monthly_mixed_frequency_kalman_em,exact,2019:Q1:pre_advance:exact,2019-04-25,pre_advance,A,2019:Q1,1.6706465197439566,3.1904042636923116,1.7861702784707598,model_implied_state_space,3.1705,-1.4998534802560435,False,True,54,-6285.22325928218,-7334.434583170255,-6285.22325928218,0.6243558635778754,9.931143584166545e-05,54.0,14,1,0.02
standard_dfm,exact,2019:Q1:pre_advance:exact,2019-04-25,pre_advance,A,2019:Q1,1.8414926723620524,,,not_available,3.1705,-1.3290073276379477,False,True,0,,,,,,,14,1,0.02
release_dfm,exact,2019:Q1:pre_advance:exact,2019-04-25,pre_advance,A,2019:Q1,1.8414926723620524,,,not_available,3.1705,-1.3290073276379477,False,True,0,,,,,,,14,1,0.02
revision_dfm_kalman_em,exact,2019:Q1:pre_advance:exact,2019-04-25,pre_advance,A,2019:Q1,1.466028441817234,3.225490906046573,1.7959651739514808,model_implied_state_space,3.1705,-1.704471558182766,False,True,21,-1989.6473372830972,-2960.956351916893,-1989.6473372830972,0.17921086993965218,9.001832435171849e-05,21.0,14,1,0.02
indicator_revision_only_dfm_kalman_em,exact,2019:Q1:pre_advance:exact,2019-04-25,pre_advance,A,2019:Q1,1.4746876350209905,3.7130838263350583,1.9269363835723945,model_implied_state_space,3.1705,-1.6958123649790096,False,True,25,-3681.8485663185447,-4853.745260936312,-3681.8485663185447,0.337493714053835,9.163091642751492e-05,25.0,14,1,0.02
joint_indicator_revision_dfm_full_kalman_em,exact,2019:Q1:pre_advance:exact,2019-04-25,pre_advance,A,2019:Q1,1.5327631290633426,2.652746470356913,1.6287254128173088,model_implied_state_space,3.1705,-1.6377368709366575,False,True,26,-3646.4753530512185,-4868.636514122485,-3646.4753530512185,0.34131569033752385,9.356711735605748e-05,26.0,14,1,0.02
ar,exact,2019:Q1:pre_second:exact,2019-05-29,pre_second,S,2019:Q1,3.0088930533858775,,,not_available,3.0658,-0.05690694661412232,False,True,0,,,,,,,14,1,0.02
no_revision,exact,2019:Q1:pre_second:exact,2019-05-29,pre_second,S,2019:Q1,3.1705,,,not_available,3.0658,0.10470000000000024,False,True,0,,,,,,,14,1,0.02
bridge,exact,2019:Q1:pre_second:exact,2019-05-29,pre_second,S,2019:Q1,1.421798536985786,,,not_available,3.0658,-1.644001463014214,False,True,0,,,,,,,14,1,0.02
midas_umidas,exact,2019:Q1:pre_second:exact,2019-05-29,pre_second,S,2019:Q1,3.776783996287483,,,not_available,3.0658,0.7109839962874833,False,True,0,,,,,,,14,1,0.02
monthly_mixed_frequency_kalman_em,exact,2019:Q1:pre_second:exact,2019-05-29,pre_second,S,2019:Q1,3.3924495359859783,0.35099787842523383,0.5924507392393344,model_implied_state_space,3.0658,0.32664953598597846,False,True,50,-6312.701696013429,-7328.980019682591,-6312.701696013429,0.6195132228340299,9.811240231615679e-05,50.0,14,1,0.02
standard_dfm,exact,2019:Q1:pre_second:exact,2019-05-29,pre_second,S,2019:Q1,1.741965267784774,,,not_available,3.0658,-1.323834732215226,False,True,0,,,,,,,14,1,0.02
release_dfm,exact,2019:Q1:pre_second:exact,2019-05-29,pre_second,S,2019:Q1,3.258302538296523,,,not_available,3.0658,0.19250253829652308,False,True,0,,,,,,,14,1,0.02
revision_dfm_kalman_em,exact,2019:Q1:pre_second:exact,2019-05-29,pre_second,S,2019:Q1,3.337785178400771,0.4017436208806248,0.6338324864509746,model_implied_state_space,3.0658,0.27198517840077097,False,True,21,-1990.4742029021602,-2962.0697015271653,-1990.4742029021602,0.18340546773083588,9.208684613262792e-05,21.0,14,1,0.02
indicator_revision_only_dfm_kalman_em,exact,2019:Q1:pre_second:exact,2019-05-29,pre_second,S,2019:Q1,2.966211904979171,0.39289546033208145,0.626813736553437,model_implied_state_space,3.0658,-0.09958809502082877,False,True,25,-3683.048964163974,-4854.952847441515,-3683.048964163974,0.3384161321710053,9.18513981403888e-05,25.0,14,1,0.02
joint_indicator_revision_dfm_full_kalman_em,exact,2019:Q1:pre_second:exact,2019-05-29,pre_second,S,2019:Q1,3.282747558570359,0.39022313673053766,0.6246784266568981,model_implied_state_space,3.0658,0.21694755857035908,False,True,26,-3647.644655152537,-4869.9531601477465,-3647.644655152537,0.3420790589166245,9.374631475347027e-05,26.0,14,1,0.02
ar,exact,2019:Q1:pre_third:exact,2019-06-26,pre_third,T,2019:Q1,2.445392866771208,,,not_available,3.1268,-0.6814071332287917,False,True,0,,,,,,,14,1,0.02
no_revision,exact,2019:Q1:pre_third:exact,2019-06-26,pre_third,T,2019:Q1,3.0658,,,not_available,3.1268,-0.06099999999999994,False,True,0,,,,,,,14,1,0.02
bridge,exact,2019:Q1:pre_third:exact,2019-06-26,pre_third,T,2019:Q1,2.2734338386671746,,,not_available,3.1268,-0.8533661613328252,False,True,0,,,,,,,14,1,0.02
midas_umidas,exact,2019:Q1:pre_third:exact,2019-06-26,pre_third,T,2019:Q1,4.146205141121396,,,not_available,3.1268,1.0194051411213958,False,True,0,,,,,,,14,1,0.02
monthly_mixed_frequency_kalman_em,exact,2019:Q1:pre_third:exact,2019-06-26,pre_third,T,2019:Q1,3.3103944704163646,0.14291941677752384,0.3780468446866391,model_implied_state_space,3.1268,0.18359447041636479,False,True,52,-6328.886922084899,-7349.5487198973715,-6328.886922084899,0.6279233508239486,9.918993417678798e-05,52.0,14,1,0.02
standard_dfm,exact,2019:Q1:pre_third:exact,2019-06-26,pre_third,T,2019:Q1,1.7778168513068795,,,not_available,3.1268,-1.3489831486931203,False,True,0,,,,,,,14,1,0.02
release_dfm,exact,2019:Q1:pre_third:exact,2019-06-26,pre_third,T,2019:Q1,3.178066193022631,,,not_available,3.1268,0.051266193022631246,False,True,0,,,,,,,14,1,0.02
revision_dfm_kalman_em,exact,2019:Q1:pre_third:exact,2019-06-26,pre_third,T,2019:Q1,3.0906450172853135,0.1477427935935806,0.38437324776001336,model_implied_state_space,3.1268,-0.03615498271468631,False,True,22,-1989.5106838353981,-2978.7789078415194,-1989.5106838353981,0.19622076590508186,9.856838565814929e-05,22.0,14,1,0.02
indicator_revision_only_dfm_kalman_em,exact,2019:Q1:pre_third:exact,2019-06-26,pre_third,T,2019:Q1,3.058780823281687,0.15213493133676165,0.3900447811941106,model_implied_state_space,3.1268,-0.06801917671831292,False,True,25,-3681.74978444027,-4855.5261889359,-3681.74978444027,0.3399873669900444,9.231036658202755e-05,25.0,14,1,0.02
joint_indicator_revision_dfm_full_kalman_em,exact,2019:Q1:pre_third:exact,2019-06-26,pre_third,T,2019:Q1,3.0841624993084333,0.14738164467389922,0.3839031709609849,model_implied_state_space,3.1268,-0.042637500691566466,False,True,26,-3646.3984787082245,-4870.4958776656695,-3646.3984787082245,0.34462991589998637,9.447757301910872e-05,26.0,14,1,0.02
ar,pseudo,2019:Q1:pre_advance:pseudo,2019-04-30,pre_advance,A,2019:Q1,2.544004133182678,,,not_available,3.1705,-0.6264958668173222,False,True,0,,,,,,,14,1,0.02
no_revision,pseudo,2019:Q1:pre_advance:pseudo,2019-04-30,pre_advance,A,2019:Q1,2.494294354572081,,,not_available,3.1705,-0.676205645427919,False,True,0,,,,,,,14,1,0.02
bridge,pseudo,2019:Q1:pre_advance:pseudo,2019-04-30,pre_advance,A,2019:Q1,2.4633884141498354,,,not_available,3.1705,-0.7071115858501646,False,True,0,,,,,,,14,1,0.02
midas_umidas,pseudo,2019:Q1:pre_advance:pseudo,2019-04-30,pre_advance,A,2019:Q1,4.923193803822225,,,not_available,3.1705,1.752693803822225,False,True,0,,,,,,,14,1,0.02
monthly_mixed_frequency_kalman_em,pseudo,2019:Q1:pre_advance:pseudo,2019-04-30,pre_advance,A,2019:Q1,1.6594276342989491,3.188071753329054,1.785517222915829,model_implied_state_space,3.1705,-1.511072365701051,False,True,54,-6287.947680874189,-7337.221342752908,-6287.947680874189,0.6241217620436146,9.923120072848489e-05,54.0,14,1,0.02
standard_dfm,pseudo,2019:Q1:pre_advance:pseudo,2019-04-30,pre_advance,A,2019:Q1,1.8406746253161013,,,not_available,3.1705,-1.3298253746838988,False,True,0,,,,,,,14,1,0.02
release_dfm,pseudo,2019:Q1:pre_advance:pseudo,2019-04-30,pre_advance,A,2019:Q1,1.8406746253161013,,,not_available,3.1705,-1.3298253746838988,False,True,0,,,,,,,14,1,0.02
revision_dfm_kalman_em,pseudo,2019:Q1:pre_advance:pseudo,2019-04-30,pre_advance,A,2019:Q1,1.465536056213319,3.225477532700177,1.7959614507834452,model_implied_state_space,3.1705,-1.704963943786681,False,True,21,-1989.6463136109435,-2960.9565237141464,-1989.6463136109435,0.1792094428717519,9.001765388101646e-05,21.0,14,1,0.02
indicator_revision_only_dfm_kalman_em,pseudo,2019:Q1:pre_advance:pseudo,2019-04-30,pre_advance,A,2019:Q1,1.4742779613081705,3.713066095866565,1.9269317828783055,model_implied_state_space,3.1705,-1.6962220386918296,False,True,25,-3681.8487049760797,-4853.744277662049,-3681.8487049760797,0.3374909495992142,9.163016248609557e-05,25.0,14,1,0.02
joint_indicator_revision_dfm_full_kalman_em,pseudo,2019:Q1:pre_advance:pseudo,2019-04-30,pre_advance,A,2019:Q1,1.5322961582611017,2.6527386336899403,1.6287230070487555,model_implied_state_space,3.1705,-1.6382038417388984,False,True,26,-3646.4753704376926,-4868.635528992132,-3646.4753704376926,0.34131510100769447,9.356695536834245e-05,26.0,14,1,0.02
ar,pseudo,2019:Q1:pre_second:pseudo,2019-05-31,pre_second,S,2019:Q1,3.0088930533858775,,,not_available,3.0658,-0.05690694661412232,False,True,0,,,,,,,14,1,0.02
no_revision,pseudo,2019:Q1:pre_second:pseudo,2019-05-31,pre_second,S,2019:Q1,3.1705,,,not_available,3.0658,0.10470000000000024,False,True,0,,,,,,,14,1,0.02
bridge,pseudo,2019:Q1:pre_second:pseudo,2019-05-31,pre_second,S,2019:Q1,1.4218172198520036,,,not_available,3.0658,-1.6439827801479963,False,True,0,,,,,,,14,1,0.02
midas_umidas,pseudo,2019:Q1:pre_second:pseudo,2019-05-31,pre_second,S,2019:Q1,3.7955827815763,,,not_available,3.0658,0.7297827815763003,False,True,0,,,,,,,14,1,0.02
monthly_mixed_frequency_kalman_em,pseudo,2019:Q1:pre_second:pseudo,2019-05-31,pre_second,S,2019:Q1,3.3919479549178164,0.35098859636512447,0.5924429055741359,model_implied_state_space,3.0658,0.32614795491781656,False,True,50,-6314.183496918036,-7330.413930259353,-6314.183496918036,0.6163609765144429,9.759032749335954e-05,50.0,14,1,0.02
standard_dfm,pseudo,2019:Q1:pre_second:pseudo,2019-05-31,pre_second,S,2019:Q1,1.7397240301912387,,,not_available,3.0658,-1.3260759698087612,False,True,0,,,,,,,14,1,0.02
release_dfm,pseudo,2019:Q1:pre_second:pseudo,2019-05-31,pre_second,S,2019:Q1,3.2581766904090235,,,not_available,3.0658,0.1923766904090236,False,True,0,,,,,,,14,1,0.02
revision_dfm_kalman_em,pseudo,2019:Q1:pre_second:pseudo,2019-05-31,pre_second,S,2019:Q1,3.3373729250502757,0.4017424974905496,0.633831600261891,model_implied_state_space,3.0658,0.27157292505027586,False,True,21,-1990.4828257948109,-2962.0649414968143,-1990.4828257948109,0.18336614719396493,9.206670672818468e-05,21.0,14,1,0.02
indicator_revision_only_dfm_kalman_em,pseudo,2019:Q1:pre_second:pseudo,2019-05-31,pre_second,S,2019:Q1,2.9667033158083873,0.39289047148597644,0.6268097570124259,model_implied_state_space,3.0658,-0.09909668419161255,False,True,25,-3683.051835542384,-4854.935388383638,-3683.051835542384,0.3384864291961094,9.187040449476035e-05,25.0,14,1,0.02
joint_indicator_revision_dfm_full_kalman_em,pseudo,2019:Q1:pre_second:pseudo,2019-05-31,pre_second,S,2019:Q1,3.282319983971403,0.3902222910914735,0.6246777497970242,model_implied_state_space,3.0658,0.21651998397140293,False,True,26,-3647.648020806844,-4869.935719428076,-3647.648020806844,0.3421567760497055,9.376752454739452e-05,26.0,14,1,0.02
ar,pseudo,2019:Q1:pre_third:pseudo,2019-06-30,pre_third,T,2019:Q1,2.445392866771208,,,not_available,3.1268,-0.6814071332287917,False,True,0,,,,,,,14,1,0.02
no_revision,pseudo,2019:Q1:pre_third:pseudo,2019-06-30,pre_third,T,2019:Q1,3.0658,,,not_available,3.1268,-0.06099999999999994,False,True,0,,,,,,,14,1,0.02
bridge,pseudo,2019:Q1:pre_third:pseudo,2019-06-30,pre_third,T,2019:Q1,2.2684052100145555,,,not_available,3.1268,-0.8583947899854443,False,True,0,,,,,,,14,1,0.02
midas_umidas,pseudo,2019:Q1:pre_third:pseudo,2019-06-30,pre_third,T,2019:Q1,4.13209857753133,,,not_available,3.1268,1.0052985775313306,False,True,0,,,,,,,14,1,0.02
monthly_mixed_frequency_kalman_em,pseudo,2019:Q1:pre_third:pseudo,2019-06-30,pre_third,T,2019:Q1,3.310186438213462,0.14291480612390647,0.37804074664499654,model_implied_state_space,3.1268,0.183386438213462,False,True,52,-6330.262917367987,-7350.951155117272,-6330.262917367987,0.6282721687175581,9.922346261347043e-05,52.0,14,1,0.02
standard_dfm,pseudo,2019:Q1:pre_third:pseudo,2019-06-30,pre_third,T,2019:Q1,1.7705413071187412,,,not_available,3.1268,-1.3562586928812586,False,True,0,,,,,,,14,1,0.02
release_dfm,pseudo,2019:Q1:pre_third:pseudo,2019-06-30,pre_third,T,2019:Q1,3.177975883912608,,,not_available,3.1268,0.05117588391260819,False,True,0,,,,,,,14,1,0.02
revision_dfm_kalman_em,pseudo,2019:Q1:pre_third:pseudo,2019-06-30,pre_third,T,2019:Q1,3.0906442252434583,0.14774263292553313,0.38437303875991763,model_implied_state_space,3.1268,-0.036155774756541526,False,True,22,-1989.4962299515878,-2978.778049783424,-1989.4962299515878,0.19620236331161323,9.855985793016607e-05,22.0,14,1,0.02
indicator_revision_only_dfm_kalman_em,pseudo,2019:Q1:pre_third:pseudo,2019-06-30,pre_third,T,2019:Q1,3.0587570178873817,0.15213489241638903,0.39004473130192263,model_implied_state_space,3.1268,-0.06804298211261806,False,True,25,-3681.756137916943,-4855.536995970616,-3681.756137916943,0.3400225617401702,9.231976221223024e-05,25.0,14,1,0.02
joint_indicator_revision_dfm_full_kalman_em,pseudo,2019:Q1:pre_third:pseudo,2019-06-30,pre_third,T,2019:Q1,3.0841659397013443,0.14738158797718973,0.3839030971185173,model_implied_state_space,3.1268,-0.04263406029865546,False,True,26,-3646.405081726795,-4870.506666239166,-3646.405081726795,0.3446662977412416,9.448737483373085e-05,26.0,14,1,0.02
ar,exact,2019:Q2:pre_advance:exact,2019-07-25,pre_advance,A,2019:Q2,2.835856491574643,,,not_available,2.055,0.7808564915746428,False,True,0,,,,,,,14,1,0.02
no_revision,exact,2019:Q2:pre_advance:exact,2019-07-25,pre_advance,A,2019:Q2,2.8870145085411787,,,not_available,2.055,0.8320145085411785,False,True,0,,,,,,,14,1,0.02
bridge,exact,2019:Q2:pre_advance:exact,2019-07-25,pre_advance,A,2019:Q2,2.0272387884123937,,,not_available,2.055,-0.02776121158760647,False,True,0,,,,,,,14,1,0.02
midas_umidas,exact,2019:Q2:pre_advance:exact,2019-07-25,pre_advance,A,2019:Q2,1.095853544431865,,,not_available,2.055,-0.9591464555681353,False,True,0,,,,,,,14,1,0.02
monthly_mixed_frequency_kalman_em,exact,2019:Q2:pre_advance:exact,2019-07-25,pre_advance,A,2019:Q2,1.9529338367558156,3.214129048734322,1.792799221534392,model_implied_state_space,2.055,-0.1020661632441846,False,True,50,-6350.581332858644,-7371.17664482267,-6350.581332858644,0.6185725957329851,9.737927095175985e-05,50.0,14,1,0.02
standard_dfm,exact,2019:Q2:pre_advance:exact,2019-07-25,pre_advance,A,2019:Q2,2.2075222586847105,,,not_available,2.055,0.15252225868471037,False,True,0,,,,,,,14,1,0.02
release_dfm,exact,2019:Q2:pre_advance:exact,2019-07-25,pre_advance,A,2019:Q2,2.2075222586847105,,,not_available,2.055,0.15252225868471037,False,True,0,,,,,,,14,1,0.02
revision_dfm_kalman_em,exact,2019:Q2:pre_advance:exact,2019-07-25,pre_advance,A,2019:Q2,2.0081448214768627,3.272120142300629,1.808900257698204,model_implied_state_space,2.055,-0.046855178523137475,False,True,21,-2007.8804899873292,-2983.5774904892764,-2007.8804899873292,0.1818822601244392,9.053091762451116e-05,21.0,14,1,0.02
indicator_revision_only_dfm_kalman_em,exact,2019:Q2:pre_advance:exact,2019-07-25,pre_advance,A,2019:Q2,2.5656514229952756,3.738192055988236,1.9334404712812432,model_implied_state_space,2.055,0.5106514229952754,False,True,25,-3718.3624375692534,-4894.705309949214,-3718.3624375692534,0.34175181739738036,9.187607400945839e-05,25.0,14,1,0.02
joint_indicator_revision_dfm_full_kalman_em,exact,2019:Q2:pre_advance:exact,2019-07-25,pre_advance,A,2019:Q2,2.544503097665591,2.67897207296819,1.6367565710783598,model_implied_state_space,2.055,0.48950309766559075,False,True,26,-3683.1275658056147,-4909.672272036665,-3683.1275658056147,0.34473554961596165,9.356442969842935e-05,26.0,14,1,0.02
ar,exact,2019:Q2:pre_second:exact,2019-08-28,pre_second,S,2019:Q2,2.809602293515929,,,not_available,2.0379,0.7717022935159288,False,True,0,,,,,,,14,1,0.02
no_revision,exact,2019:Q2:pre_second:exact,2019-08-28,pre_second,S,2019:Q2,2.055,,,not_available,2.0379,0.017100000000000115,False,True,0,,,,,,,14,1,0.02
bridge,exact,2019:Q2:pre_second:exact,2019-08-28,pre_second,S,2019:Q2,1.7903441270878622,,,not_available,2.0379,-0.24755587291213788,False,True,0,,,,,,,14,1,0.02
midas_umidas,exact,2019:Q2:pre_second:exact,2019-08-28,pre_second,S,2019:Q2,2.1500769988566333,,,not_available,2.0379,0.11217699885663324,False,True,0,,,,,,,14,1,0.02
monthly_mixed_frequency_kalman_em,exact,2019:Q2:pre_second:exact,2019-08-28,pre_second,S,2019:Q2,2.0583690569770954,0.348651806292067,0.5904674472755183,model_implied_state_space,2.0379,0.020469056977095335,False,True,52,-6368.1541381053285,-7418.865479658013,-6368.1541381053285,0.635894770505729,9.982978516147965e-05,52.0,14,1,0.02
standard_dfm,exact,2019:Q2:pre_second:exact,2019-08-28,pre_second,S,2019:Q2,2.249521942147944,,,not_available,2.0379,0.21162194214794416,False,True,0,,,,,,,14,1,0.02
release_dfm,exact,2019:Q2:pre_second:exact,2019-08-28,pre_second,S,2019:Q2,2.130270211283246,,,not_available,2.0379,0.09237021128324585,False,True,0,,,,,,,14,1,0.02
revision_dfm_kalman_em,exact,2019:Q2:pre_second:exact,2019-08-28,pre_second,S,2019:Q2,2.105270074292208,0.4001359052480978,0.6325629654414632,model_implied_state_space,2.0379,0.06737007429220787,False,True,21,-2009.1009526111743,-2984.70576867346,-2009.1009526111743,0.18424291335009002,9.16501368861831e-05,21.0,14,1,0.02
indicator_revision_only_dfm_kalman_em,exact,2019:Q2:pre_second:exact,2019-08-28,pre_second,S,2019:Q2,2.103402950800042,0.3909301399526956,0.6252440643082472,model_implied_state_space,2.0379,0.06550295080004176,False,True,25,-3719.7006370256095,-4896.004054127525,-3719.7006370256095,0.3416484044000754,9.181524373905199e-05,25.0,14,1,0.02
joint_indicator_revision_dfm_full_kalman_em,exact,2019:Q2:pre_second:exact,2019-08-28,pre_second,S,2019:Q2,2.0997680039287023,0.3885509078836477,0.6233385178886731,model_implied_state_space,2.0379,0.061868003928702286,False,True,26,-3684.3085339845743,-4911.083098046496,-3684.3085339845743,0.34427028488426004,9.340822458519628e-05,26.0,14,1,0.02
ar,exact,2019:Q2:pre_third:exact,2019-09-25,pre_third,T,2019:Q2,2.86498901665629,,,not_available,2.0143,0.8506890166562902,False,True,0,,,,,,,14,1,0.02
no_revision,exact,2019:Q2:pre_third:exact,2019-09-25,pre_third,T,2019:Q2,2.0379,,,not_available,2.0143,0.023600000000000065,False,True,0,,,,,,,14,1,0.02
bridge,exact,2019:Q2:pre_third:exact,2019-09-25,pre_third,T,2019:Q2,2.0335288624287204,,,not_available,2.0143,0.01922886242872046,False,True,0,,,,,,,14,1,0.02
midas_umidas,exact,2019:Q2:pre_third:exact,2019-09-25,pre_third,T,2019:Q2,1.7094667106387418,,,not_available,2.0143,-0.3048332893612582,False,True,0,,,,,,,14,1,0.02
monthly_mixed_frequency_kalman_em,exact,2019:Q2:pre_third:exact,2019-09-25,pre_third,T,2019:Q2,2.0327701108691314,0.14315155390113643,0.3783537417564896,model_implied_state_space,2.0143,0.018470110869131418,False,True,54,-6383.975003426527,-7438.317659323553,-6383.975003426527,0.6276238260634273,9.828732896482518e-05,54.0,14,1,0.02
standard_dfm,exact,2019:Q2:pre_third:exact,2019-09-25,pre_third,T,2019:Q2,2.3153784836701568,,,not_available,2.0143,0.30107848367015677,False,True,0,,,,,,,14,1,0.02
release_dfm,exact,2019:Q2:pre_third:exact,2019-09-25,pre_third,T,2019:Q2,2.1127219183232313,,,not_available,2.0143,0.09842191832323133,False,True,0,,,,,,,14,1,0.02
revision_dfm_kalman_em,exact,2019:Q2:pre_third:exact,2019-09-25,pre_third,T,2019:Q2,2.045649078588214,0.14706081771819163,0.38348509451892865,model_implied_state_space,2.0143,0.03134907858821423,False,True,22,-2009.0693848047392,-3001.815601631787,-2009.0693848047392,0.19885275596311658,9.891851855770665e-05,22.0,14,1,0.02
indicator_revision_only_dfm_kalman_em,exact,2019:Q2:pre_third:exact,2019-09-25,pre_third,T,2019:Q2,2.042355548705206,0.15144918569828003,0.3891647282299361,model_implied_state_space,2.0143,0.02805554870520588,False,True,25,-3719.2356889440853,-4897.02971379242,-3719.2356889440853,0.3424119606215754,9.203192389330935e-05,25.0,14,1,0.02
joint_indicator_revision_dfm_full_kalman_em,exact,2019:Q2:pre_third:exact,2019-09-25,pre_third,T,2019:Q2,2.042112053891234,0.1467039024240663,0.38301945436761603,model_implied_state_space,2.0143,0.02781205389123409,False,True,26,-3683.828050008315,-4912.0790598288695,-3683.828050008315,0.3451021436103474,9.36461135913866e-05,26.0,14,1,0.02
ar,pseudo,2019:Q2:pre_advance:pseudo,2019-07-31,pre_advance,A,2019:Q2,2.835856491574643,,,not_available,2.055,0.7808564915746428,False,True,0,,,,,,,14,1,0.02
no_revision,pseudo,2019:Q2:pre_advance:pseudo,2019-07-31,pre_advance,A,2019:Q2,2.8870145085411787,,,not_available,2.055,0.8320145085411785,False,True,0,,,,,,,14,1,0.02
bridge,pseudo,2019:Q2:pre_advance:pseudo,2019-07-31,pre_advance,A,2019:Q2,2.0262506423041557,,,not_available,2.055,-0.028749357695844413,False,True,0,,,,,,,14,1,0.02
midas_umidas,pseudo,2019:Q2:pre_advance:pseudo,2019-07-31,pre_advance,A,2019:Q2,1.2162629624178303,,,not_available,2.055,-0.8387370375821699,False,True,0,,,,,,,14,1,0.02
monthly_mixed_frequency_kalman_em,pseudo,2019:Q2:pre_advance:pseudo,2019-07-31,pre_advance,A,2019:Q2,1.9854003780147371,3.2156528952706047,1.793224162025095,model_implied_state_space,2.055,-0.06959962198526304,False,True,49,-6352.49700138712,-7372.402001919866,-6352.49700138712,0.6272247180922932,9.871143461681316e-05,49.0,14,1,0.02
standard_dfm,pseudo,2019:Q2:pre_advance:pseudo,2019-07-31,pre_advance,A,2019:Q2,2.258550549919068,,,not_available,2.055,0.20355054991906796,False,True,0,,,,,,,14,1,0.02
release_dfm,pseudo,2019:Q2:pre_advance:pseudo,2019-07-31,pre_advance,A,2019:Q2,2.258550549919068,,,not_available,2.055,0.20355054991906796,False,True,0,,,,,,,14,1,0.02
revision_dfm_kalman_em,pseudo,2019:Q2:pre_advance:pseudo,2019-07-31,pre_advance,A,2019:Q2,2.0327562848533254,3.2714027974296984,1.8087019647884774,model_implied_state_space,2.055,-0.02224371514667478,False,True,21,-2007.6187227681082,-2983.2616303945697,-2007.6187227681082,0.18180986019501688,9.050667661718404e-05,21.0,14,1,0.02
indicator_revision_only_dfm_kalman_em,pseudo,2019:Q2:pre_advance:pseudo,2019-07-31,pre_advance,A,2019:Q2,2.579374743326103,3.736767062310485,1.933071923729297,model_implied_state_space,2.055,0.5243747433261028,False,True,25,-3717.823722531104,-4894.458442724955,-3717.823722531104,0.34114113033274407,9.17251971446348e-05,25.0,14,1,0.02
joint_indicator_revision_dfm_full_kalman_em,pseudo,2019:Q2:pre_advance:pseudo,2019-07-31,pre_advance,A,2019:Q2,2.5637832191575316,2.6769997382215975,1.6361539469810282,model_implied_state_space,2.055,0.5087832191575314,False,True,26,-3682.586595096315,-4909.425269961734,-3682.586595096315,0.3439975815476828,9.33778671703013e-05,26.0,14,1,0.02
ar,pseudo,2019:Q2:pre_second:pseudo,2019-08-31,pre_second,S,2019:Q2,2.809602293515929,,,not_available,2.0379,0.7717022935159288,False,True,0,,,,,,,14,1,0.02
no_revision,pseudo,2019:Q2:pre_second:pseudo,2019-08-31,pre_second,S,2019:Q2,2.055,,,not_available,2.0379,0.017100000000000115,False,True,0,,,,,,,14,1,0.02
bridge,pseudo,2019:Q2:pre_second:pseudo,2019-08-31,pre_second,S,2019:Q2,1.7904080390729669,,,not_available,2.0379,-0.24749196092703318,False,True,0,,,,,,,14,1,0.02
midas_umidas,pseudo,2019:Q2:pre_second:pseudo,2019-08-31,pre_second,S,2019:Q2,2.146409259715819,,,not_available,2.0379,0.10850925971581882,False,True,0,,,,,,,14,1,0.02
monthly_mixed_frequency_kalman_em,pseudo,2019:Q2:pre_second:pseudo,2019-08-31,pre_second,S,2019:Q2,2.0577822748534356,0.34864346061422136,0.5904603802239583,model_implied_state_space,2.0379,0.019882274853435522,False,True,52,-6369.468280958436,-7420.230284323025,-6369.468280958436,0.6364165223421878,9.989107895116457e-05,52.0,14,1,0.02
standard_dfm,pseudo,2019:Q2:pre_second:pseudo,2019-08-31,pre_second,S,2019:Q2,2.248397659127057,,,not_available,2.0379,0.2104976591270571,False,True,0,,,,,,,14,1,0.02
release_dfm,pseudo,2019:Q2:pre_second:pseudo,2019-08-31,pre_second,S,2019:Q2,2.1302045363490407,,,not_available,2.0379,0.09230453634904068,False,True,0,,,,,,,14,1,0.02
revision_dfm_kalman_em,pseudo,2019:Q2:pre_second:pseudo,2019-08-31,pre_second,S,2019:Q2,2.1052706355921917,0.40013584193541774,0.6325629153968937,model_implied_state_space,2.0379,0.0673706355921917,False,True,21,-2009.106633780727,-2984.7079603078028,-2009.106633780727,0.18424839136946503,9.165260261758076e-05,21.0,14,1,0.02
indicator_revision_only_dfm_kalman_em,pseudo,2019:Q2:pre_second:pseudo,2019-08-31,pre_second,S,2019:Q2,2.1033136544830002,0.390929361976646,0.6252434421700447,model_implied_state_space,2.0379,0.06541365448300018,False,True,25,-3719.707408820343,-4896.008580756069,-3719.707408820343,0.3416438506146733,9.18138529696195e-05,25.0,14,1,0.02
joint_indicator_revision_dfm_full_kalman_em,pseudo,2019:Q2:pre_second:pseudo,2019-08-31,pre_second,S,2019:Q2,2.099785054845464,0.3885511567624908,0.6233387175224164,model_implied_state_space,2.0379,0.061885054845463916,False,True,26,-3684.3151266737227,-4911.087637274708,-3684.3151266737227,0.34426568433718785,9.340680938965687e-05,26.0,14,1,0.02
ar,pseudo,2019:Q2:pre_third:pseudo,2019-09-30,pre_third,T,2019:Q2,2.86498901665629,,,not_available,2.0143,0.8506890166562902,False,True,0,,,,,,,14,1,0.02
no_revision,pseudo,2019:Q2:pre_third:pseudo,2019-09-30,pre_third,T,2019:Q2,2.0379,,,not_available,2.0143,0.023600000000000065,False,True,0,,,,,,,14,1,0.02
bridge,pseudo,2019:Q2:pre_third:pseudo,2019-09-30,pre_third,T,2019:Q2,2.0315149833894925,,,not_available,2.0143,0.017214983389492566,False,True,0,,,,,,,14,1,0.02
midas_umidas,pseudo,2019:Q2:pre_third:pseudo,2019-09-30,pre_third,T,2019:Q2,1.7001949812298822,,,not_available,2.0143,-0.31410501877011776,False,True,0,,,,,,,14,1,0.02
monthly_mixed_frequency_kalman_em,pseudo,2019:Q2:pre_third:pseudo,2019-09-30,pre_third,T,2019:Q2,2.0330119011251235,0.14313265104427197,0.3783287605301399,model_implied_state_space,2.0143,0.018711901125123553,False,True,54,-6386.717266298226,-7441.16270349829,-6386.717266298226,0.6266257989755104,9.808892720235168e-05,54.0,14,1,0.02
standard_dfm,pseudo,2019:Q2:pre_third:pseudo,2019-09-30,pre_third,T,2019:Q2,2.3122326767126324,,,not_available,2.0143,0.29793267671263246,False,True,0,,,,,,,14,1,0.02
release_dfm,pseudo,2019:Q2:pre_third:pseudo,2019-09-30,pre_third,T,2019:Q2,2.112680858792247,,,not_available,2.0143,0.09838085879224723,False,True,0,,,,,,,14,1,0.02
revision_dfm_kalman_em,pseudo,2019:Q2:pre_third:pseudo,2019-09-30,pre_third,T,2019:Q2,2.0456475087978334,0.1470607693142102,0.3834850314082809,model_implied_state_space,2.0143,0.031347508797833434,False,True,22,-2009.0588514366466,-3001.8115449156685,-2009.0588514366466,0.19884176067739645,9.891356782280869e-05,22.0,14,1,0.02
indicator_revision_only_dfm_kalman_em,pseudo,2019:Q2:pre_third:pseudo,2019-09-30,pre_third,T,2019:Q2,2.04234431897486,0.15144919621747535,0.3891647417450293,model_implied_state_space,2.0143,0.028044318974859817,False,True,25,-3719.230969348381,-4897.027387354061,-3719.230969348381,0.34242037911008083,9.20343031145425e-05,25.0,14,1,0.02
joint_indicator_revision_dfm_full_kalman_em,pseudo,2019:Q2:pre_third:pseudo,2019-09-30,pre_third,T,2019:Q2,2.042113418023986,0.14670390807924596,0.383019461749982,model_implied_state_space,2.0143,0.02781341802398618,False,True,26,-3683.823225344635,-4912.076739497095,-3683.823225344635,0.3451109914230983,9.364863689408052e-05,26.0,14,1,0.02
ar,exact,2019:Q3:pre_advance:exact,2019-10-29,pre_advance,A,2019:Q3,2.279256097331871,,,not_available,1.9188,0.3604560973318711,False,True,0,,,,,,,14,1,0.02
no_revision,exact,2019:Q3:pre_advance:exact,2019-10-29,pre_advance,A,2019:Q3,2.317127933697079,,,not_available,1.9188,0.39832793369707886,False,True,0,,,,,,,14,1,0.02
bridge,exact,2019:Q3:pre_advance:exact,2019-10-29,pre_advance,A,2019:Q3,2.5989815132209673,,,not_available,1.9188,0.6801815132209672,False,True,0,,,,,,,14,1,0.02
midas_umidas,exact,2019:Q3:pre_advance:exact,2019-10-29,pre_advance,A,2019:Q3,2.7556857521246303,,,not_available,1.9188,0.8368857521246302,False,True,0,,,,,,,14,1,0.02
monthly_mixed_frequency_kalman_em,exact,2019:Q3:pre_advance:exact,2019-10-29,pre_advance,A,2019:Q3,2.539287744378626,3.0673289327178286,1.751379151616756,model_implied_state_space,1.9188,0.6204877443786261,False,True,88,-6364.134759274062,-7462.623169084342,-6364.134759274062,0.6169100469369369,9.691079372606745e-05,88.0,14,1,0.02
standard_dfm,exact,2019:Q3:pre_advance:exact,2019-10-29,pre_advance,A,2019:Q3,2.3386766974748623,,,not_available,1.9188,0.4198766974748622,False,True,0,,,,,,,14,1,0.02
release_dfm,exact,2019:Q3:pre_advance:exact,2019-10-29,pre_advance,A,2019:Q3,2.3386766974748623,,,not_available,1.9188,0.4198766974748622,False,True,0,,,,,,,14,1,0.02
revision_dfm_kalman_em,exact,2019:Q3:pre_advance:exact,2019-10-29,pre_advance,A,2019:Q3,2.4723407484445614,3.2498826643127496,1.8027430943738905,model_implied_state_space,1.9188,0.5535407484445614,False,True,21,-2026.297769017357,-3006.382166080248,-2026.297769017357,0.18219739200571894,8.986396661091939e-05,21.0,14,1,0.02
indicator_revision_only_dfm_kalman_em,exact,2019:Q3:pre_advance:exact,2019-10-29,pre_advance,A,2019:Q3,2.565798874277093,3.700478692130773,1.9236628322371812,model_implied_state_space,1.9188,0.6469988742770929,False,True,25,-3753.0481554677112,-4922.551043471899,-3753.0481554677112,0.3415787003727928,9.098115128116327e-05,25.0,14,1,0.02
joint_indicator_revision_dfm_full_kalman_em,exact,2019:Q3:pre_advance:exact,2019-10-29,pre_advance,A,2019:Q3,2.4604853739747834,2.638826453589405,1.6244465068414549,model_implied_state_space,1.9188,0.5416853739747833,False,True,26,-3717.825097112969,-4937.8040622300205,-3717.825097112969,0.34799229847794777,9.356711562274102e-05,26.0,14,1,0.02
ar,exact,2019:Q3:pre_second:exact,2019-11-26,pre_second,S,2019:Q3,2.3385524286308836,,,not_available,2.1238,0.2147524286308835,False,True,0,,,,,,,14,1,0.02
no_revision,exact,2019:Q3:pre_second:exact,2019-11-26,pre_second,S,2019:Q3,1.9188,,,not_available,2.1238,-0.20500000000000007,False,True,0,,,,,,,14,1,0.02
bridge,exact,2019:Q3:pre_second:exact,2019-11-26,pre_second,S,2019:Q3,2.759703662352096,,,not_available,2.1238,0.6359036623520957,False,True,0,,,,,,,14,1,0.02
midas_umidas,exact,2019:Q3:pre_second:exact,2019-11-26,pre_second,S,2019:Q3,1.8640393070936114,,,not_available,2.1238,-0.2597606929063887,False,True,0,,,,,,,14,1,0.02
monthly_mixed_frequency_kalman_em,exact,2019:Q3:pre_second:exact,2019-11-26,pre_second,S,2019:Q3,1.6805457182703787,0.34079438783074206,0.5837759740095014,model_implied_state_space,2.1238,-0.44325428172962145,False,True,86,-6380.071972056759,-7481.016055452483,-6380.071972056759,0.6095312175175422,9.551263522079682e-05,86.0,14,1,0.02
standard_dfm,exact,2019:Q3:pre_second:exact,2019-11-26,pre_second,S,2019:Q3,2.4213444454816266,,,not_available,2.1238,0.2975444454816265,False,True,0,,,,,,,14,1,0.02
release_dfm,exact,2019:Q3:pre_second:exact,2019-11-26,pre_second,S,2019:Q3,1.9988734990510797,,,not_available,2.1238,-0.12492650094892044,False,True,0,,,,,,,14,1,0.02
revision_dfm_kalman_em,exact,2019:Q3:pre_second:exact,2019-11-26,pre_second,S,2019:Q3,2.034581871859635,0.39820796190708824,0.6310372111905036,model_implied_state_space,2.1238,-0.08921812814036523,False,True,21,-2027.1964453498138,-3007.649620000193,-2027.1964453498138,0.18414089052907912,9.078221896729407e-05,21.0,14,1,0.02
indicator_revision_only_dfm_kalman_em,exact,2019:Q3:pre_second:exact,2019-11-26,pre_second,S,2019:Q3,1.9880853316694806,0.38914651477883205,0.6238160905097208,model_implied_state_space,2.1238,-0.13571466833051948,False,True,25,-3754.103875015258,-4936.9008324717215,-3754.103875015258,0.3435584415824451,9.148269218781316e-05,25.0,14,1,0.02
joint_indicator_revision_dfm_full_kalman_em,exact,2019:Q3:pre_second:exact,2019-11-26,pre_second,S,2019:Q3,2.0430180969677973,0.38677520396171305,0.621912537228277,model_implied_state_space,2.1238,-0.08078190303220278,False,True,26,-3718.514579760779,-4952.040938871991,-3718.514579760779,0.3453849251131942,9.284890517171895e-05,26.0,14,1,0.02
ar,exact,2019:Q3:pre_third:exact,2019-12-19,pre_third,T,2019:Q3,2.3786343473599274,,,not_available,2.1024,0.2762343473599276,False,True,0,,,,,,,14,1,0.02
no_revision,exact,2019:Q3:pre_third:exact,2019-12-19,pre_third,T,2019:Q3,2.1238,,,not_available,2.1024,0.021400000000000308,False,True,0,,,,,,,14,1,0.02
bridge,exact,2019:Q3:pre_third:exact,2019-12-19,pre_third,T,2019:Q3,2.7361020837181926,,,not_available,2.1024,0.6337020837181928,False,True,0,,,,,,,14,1,0.02
midas_umidas,exact,2019:Q3:pre_third:exact,2019-12-19,pre_third,T,2019:Q3,3.214676894078797,,,not_available,2.1024,1.1122768940787973,False,True,0,,,,,,,14,1,0.02
monthly_mixed_frequency_kalman_em,exact,2019:Q3:pre_third:exact,2019-12-19,pre_third,T,2019:Q3,1.9273133671702225,0.13462476869731857,0.3669124809778465,model_implied_state_space,2.1024,-0.17508663282977732,False,True,84,-6397.344570870017,-7475.925544386487,-6397.344570870017,0.5613095619301021,8.771961526213476e-05,84.0,14,1,0.02
standard_dfm,exact,2019:Q3:pre_third:exact,2019-12-19,pre_third,T,2019:Q3,2.4553317270171258,,,not_available,2.1024,0.35293172701712594,False,True,0,,,,,,,14,1,0.02
release_dfm,exact,2019:Q3:pre_third:exact,2019-12-19,pre_third,T,2019:Q3,2.1495184018457247,,,not_available,2.1024,0.04711840184572491,False,True,0,,,,,,,14,1,0.02
revision_dfm_kalman_em,exact,2019:Q3:pre_third:exact,2019-12-19,pre_third,T,2019:Q3,2.121738608564403,0.14638913427181735,0.38260833011294637,model_implied_state_space,2.1024,0.01933860856440317,False,True,22,-2026.73535237462,-3024.8011814690353,-2026.73535237462,0.19879068384670973,9.80262029352195e-05,22.0,14,1,0.02
indicator_revision_only_dfm_kalman_em,exact,2019:Q3:pre_third:exact,2019-12-19,pre_third,T,2019:Q3,2.11449163184918,0.15074522093062734,0.3882592187323146,model_implied_state_space,2.1024,0.012091631849180384,False,True,25,-3753.551500955891,-4924.782279589234,-3753.551500955891,0.34474594250832524,9.181237505379558e-05,25.0,14,1,0.02
joint_indicator_revision_dfm_full_kalman_em,exact,2019:Q3:pre_third:exact,2019-12-19,pre_third,T,2019:Q3,2.1216446907731825,0.1459708579741195,0.38206132750400096,model_implied_state_space,2.1024,0.019244690773182693,False,True,26,-3718.1378979138194,-4940.116254299061,-3718.1378979138194,0.35137695915591394,9.446914164523672e-05,26.0,14,1,0.02
ar,pseudo,2019:Q3:pre_advance:pseudo,2019-10-31,pre_advance,A,2019:Q3,2.279256097331871,,,not_available,1.9188,0.3604560973318711,False,True,0,,,,,,,14,1,0.02
no_revision,pseudo,2019:Q3:pre_advance:pseudo,2019-10-31,pre_advance,A,2019:Q3,2.317127933697079,,,not_available,1.9188,0.39832793369707886,False,True,0,,,,,,,14,1,0.02
bridge,pseudo,2019:Q3:pre_advance:pseudo,2019-10-31,pre_advance,A,2019:Q3,2.5967493981997967,,,not_available,1.9188,0.6779493981997966,False,True,0,,,,,,,14,1,0.02
midas_umidas,pseudo,2019:Q3:pre_advance:pseudo,2019-10-31,pre_advance,A,2019:Q3,2.6690577042540142,,,not_available,1.9188,0.7502577042540142,False,True,0,,,,,,,14,1,0.02
monthly_mixed_frequency_kalman_em,pseudo,2019:Q3:pre_advance:pseudo,2019-10-31,pre_advance,A,2019:Q3,2.585880304249913,3.179203707597051,1.7830321667308897,model_implied_state_space,1.9188,0.6670803042499132,False,True,56,-6405.025629257409,-7464.052371991779,-6405.025629257409,0.6391214492350628,9.975884084844128e-05,56.0,14,1,0.02
standard_dfm,pseudo,2019:Q3:pre_advance:pseudo,2019-10-31,pre_advance,A,2019:Q3,2.3597547953357836,,,not_available,1.9188,0.4409547953357835,False,True,0,,,,,,,14,1,0.02
release_dfm,pseudo,2019:Q3:pre_advance:pseudo,2019-10-31,pre_advance,A,2019:Q3,2.3597547953357836,,,not_available,1.9188,0.4409547953357835,False,True,0,,,,,,,14,1,0.02
revision_dfm_kalman_em,pseudo,2019:Q3:pre_advance:pseudo,2019-10-31,pre_advance,A,2019:Q3,2.4849507803995654,3.2497386880126413,1.8027031613697917,model_implied_state_space,1.9188,0.5661507803995653,False,True,21,-2026.3015100800656,-3006.385895650506,-2026.3015100800656,0.18218074503761272,8.985559087948697e-05,21.0,14,1,0.02
indicator_revision_only_dfm_kalman_em,pseudo,2019:Q3:pre_advance:pseudo,2019-10-31,pre_advance,A,2019:Q3,2.575758305142067,3.700373288147048,1.9236354353533436,model_implied_state_space,1.9188,0.6569583051420671,False,True,25,-3753.015754417137,-4922.511054220378,-3753.015754417137,0.34145324601149696,9.094852384172313e-05,25.0,14,1,0.02
joint_indicator_revision_dfm_full_kalman_em,pseudo,2019:Q3:pre_advance:pseudo,2019-10-31,pre_advance,A,2019:Q3,2.4708196237416677,2.638769175242718,1.6244288766340982,model_implied_state_space,1.9188,0.5520196237416677,False,True,26,-3717.7937746309262,-4937.764034693838,-3717.7937746309262,0.3478732335420318,9.353589254708292e-05,26.0,14,1,0.02
ar,pseudo,2019:Q3:pre_second:pseudo,2019-11-30,pre_second,S,2019:Q3,2.3385524286308836,,,not_available,2.1238,0.2147524286308835,False,True,0,,,,,,,14,1,0.02
no_revision,pseudo,2019:Q3:pre_second:pseudo,2019-11-30,pre_second,S,2019:Q3,1.9188,,,not_available,2.1238,-0.20500000000000007,False,True,0,,,,,,,14,1,0.02
bridge,pseudo,2019:Q3:pre_second:pseudo,2019-11-30,pre_second,S,2019:Q3,2.755757569281757,,,not_available,2.1238,0.6319575692817567,False,True,0,,,,,,,14,1,0.02
midas_umidas,pseudo,2019:Q3:pre_second:pseudo,2019-11-30,pre_second,S,2019:Q3,1.8794035051159255,,,not_available,2.1238,-0.24439649488407467,False,True,0,,,,,,,14,1,0.02
monthly_mixed_frequency_kalman_em,pseudo,2019:Q3:pre_second:pseudo,2019-11-30,pre_second,S,2019:Q3,1.6809960704656808,0.3407958181701062,0.5837771990837824,model_implied_state_space,2.1238,-0.44280392953431935,False,True,86,-6382.861424006063,-7483.761482383472,-6382.861424006063,0.603163747941835,9.447366175368237e-05,86.0,14,1,0.02
standard_dfm,pseudo,2019:Q3:pre_second:pseudo,2019-11-30,pre_second,S,2019:Q3,2.415863334629673,,,not_available,2.1238,0.29206333462967304,False,True,0,,,,,,,14,1,0.02
release_dfm,pseudo,2019:Q3:pre_second:pseudo,2019-11-30,pre_second,S,2019:Q3,1.9985507776579652,,,not_available,2.1238,-0.12524922234203495,False,True,0,,,,,,,14,1,0.02
revision_dfm_kalman_em,pseudo,2019:Q3:pre_second:pseudo,2019-11-30,pre_second,S,2019:Q3,2.0342450469707267,0.39821302025685296,0.6310412191425002,model_implied_state_space,2.1238,-0.08955495302927341,False,True,21,-2027.079621200423,-3007.6125318223717,-2027.079621200423,0.18414083551101612,9.078742072785392e-05,21.0,14,1,0.02
indicator_revision_only_dfm_kalman_em,pseudo,2019:Q3:pre_second:pseudo,2019-11-30,pre_second,S,2019:Q3,1.9883476879756883,0.3891437890698436,0.6238139058003145,model_implied_state_space,2.1238,-0.13545231202431185,False,True,25,-3754.0769809672624,-4936.9041522451125,-3754.0769809672624,0.3437263300866107,9.152804888642664e-05,25.0,14,1,0.02
joint_indicator_revision_dfm_full_kalman_em,pseudo,2019:Q3:pre_second:pseudo,2019-11-30,pre_second,S,2019:Q3,2.042701672310076,0.3867833634807234,0.6219190972150023,model_implied_state_space,2.1238,-0.08109832768992398,False,True,26,-3718.4878129064127,-4952.044276494655,-3718.4878129064127,0.34556036435606075,9.289673210609889e-05,26.0,14,1,0.02
ar,pseudo,2019:Q3:pre_third:pseudo,2019-12-31,pre_third,T,2019:Q3,2.3786343473599274,,,not_available,2.1024,0.2762343473599276,False,True,0,,,,,,,14,1,0.02
no_revision,pseudo,2019:Q3:pre_third:pseudo,2019-12-31,pre_third,T,2019:Q3,2.1238,,,not_available,2.1024,0.021400000000000308,False,True,0,,,,,,,14,1,0.02
bridge,pseudo,2019:Q3:pre_third:pseudo,2019-12-31,pre_third,T,2019:Q3,2.7336186979777626,,,not_available,2.1024,0.6312186979777628,False,True,0,,,,,,,14,1,0.02
midas_umidas,pseudo,2019:Q3:pre_third:pseudo,2019-12-31,pre_third,T,2019:Q3,3.204672467793214,,,not_available,2.1024,1.102272467793214,False,True,0,,,,,,,14,1,0.02
monthly_mixed_frequency_kalman_em,pseudo,2019:Q3:pre_third:pseudo,2019-12-31,pre_third,T,2019:Q3,1.926586040179088,0.13462632467763821,0.3669146013415632,model_implied_state_space,2.1024,-0.17581395982091186,False,True,85,-6400.655898089368,-7478.681402652314,-6400.655898089368,0.5302225945315513,8.281899097224487e-05,85.0,14,1,0.02
standard_dfm,pseudo,2019:Q3:pre_third:pseudo,2019-12-31,pre_third,T,2019:Q3,2.451380048869966,,,not_available,2.1024,0.34898004886996636,False,True,0,,,,,,,14,1,0.02
release_dfm,pseudo,2019:Q3:pre_third:pseudo,2019-12-31,pre_third,T,2019:Q3,2.149466156677759,,,not_available,2.1024,0.04706615667775926,False,True,0,,,,,,,14,1,0.02
revision_dfm_kalman_em,pseudo,2019:Q3:pre_third:pseudo,2019-12-31,pre_third,T,2019:Q3,2.1217370695261937,0.14638911287675055,0.38260830215345637,model_implied_state_space,2.1024,0.01933706952619385,False,True,22,-2026.7335214745465,-3024.799428017286,-2026.7335214745465,0.19878505846236294,9.80235177584451e-05,22.0,14,1,0.02
indicator_revision_only_dfm_kalman_em,pseudo,2019:Q3:pre_third:pseudo,2019-12-31,pre_third,T,2019:Q3,2.1144782650913374,0.15074522293435205,0.3882592213127102,model_implied_state_space,2.1024,0.012078265091337581,False,True,25,-3753.5534219458204,-4924.784441204168,-3753.5534219458204,0.34476451386581175,9.181727353062367e-05,25.0,14,1,0.02
joint_indicator_revision_dfm_full_kalman_em,pseudo,2019:Q3:pre_third:pseudo,2019-12-31,pre_third,T,2019:Q3,2.121646302490069,0.1459708577735553,0.38206132724152453,model_implied_state_space,2.1024,0.01924630249006931,False,True,26,-3718.139730720325,-4940.1184211998725,-3718.139730720325,0.35139070206378165,9.447278958133514e-05,26.0,14,1,0.02
ar,exact,2019:Q4:pre_advance:exact,2020-01-29,pre_advance,A,2019:Q4,2.2100311607376257,,,not_available,2.0808,0.12923116073762575,False,True,0,,,,,,,14,1,0.02
no_revision,exact,2019:Q4:pre_advance:exact,2020-01-29,pre_advance,A,2019:Q4,2.1968709062412755,,,not_available,2.0808,0.11607090624127547,False,True,0,,,,,,,14,1,0.02
bridge,exact,2019:Q4:pre_advance:exact,2020-01-29,pre_advance,A,2019:Q4,2.510353588287196,,,not_available,2.0808,0.42955358828719614,False,True,0,,,,,,,14,1,0.02
midas_umidas,exact,2019:Q4:pre_advance:exact,2020-01-29,pre_advance,A,2019:Q4,0.14334577927015535,,,not_available,2.0808,-1.9374542207298446,False,True,0,,,,,,,14,1,0.02
monthly_mixed_frequency_kalman_em,exact,2019:Q4:pre_advance:exact,2020-01-29,pre_advance,A,2019:Q4,2.321376306824769,3.1804824465352883,1.783390716173909,model_implied_state_space,2.0808,0.24057630682476905,False,True,50,-6469.2853342069075,-7498.543314628145,-6469.2853342069075,0.6272767151895096,9.693790550203759e-05,50.0,14,1,0.02
standard_dfm,exact,2019:Q4:pre_advance:exact,2020-01-29,pre_advance,A,2019:Q4,1.9184646342382905,,,not_available,2.0808,-0.16233536576170948,False,True,0,,,,,,,14,1,0.02
release_dfm,exact,2019:Q4:pre_advance:exact,2020-01-29,pre_advance,A,2019:Q4,1.9184646342382905,,,not_available,2.0808,-0.16233536576170948,False,True,0,,,,,,,14,1,0.02
revision_dfm_kalman_em,exact,2019:Q4:pre_advance:exact,2020-01-29,pre_advance,A,2019:Q4,1.4359905931966495,3.1831773609749807,1.7841461153658298,model_implied_state_space,2.0808,-0.6448094068033505,False,True,22,-2045.476467579701,-3046.2443745344117,-2045.476467579701,0.19856301836853163,9.701736494557639e-05,22.0,14,1,0.02
indicator_revision_only_dfm_kalman_em,exact,2019:Q4:pre_advance:exact,2020-01-29,pre_advance,A,2019:Q4,1.6303455802099251,3.6948735501998877,1.9222053871009435,model_implied_state_space,2.0808,-0.45045441979007483,False,True,25,-3791.058412817539,-4978.396320895826,-3791.058412817539,0.35440897515081815,9.345210867188438e-05,25.0,14,1,0.02
joint_indicator_revision_dfm_full_kalman_em,exact,2019:Q4:pre_advance:exact,2020-01-29,pre_advance,A,2019:Q4,1.5796247141628936,2.639999547171535,1.6248075415788588,model_implied_state_space,2.0808,-0.5011752858371064,False,True,26,-3755.4882576584073,-4993.4953809910685,-3755.4882576584073,0.35392464797087086,9.420801588039867e-05,26.0,14,1,0.02
ar,exact,2019:Q4:pre_second:exact,2020-02-26,pre_second,S,2019:Q4,2.3765756189143223,,,not_available,2.0956,0.2809756189143222,False,True,0,,,,,,,14,1,0.02
no_revision,exact,2019:Q4:pre_second:exact,2020-02-26,pre_second,S,2019:Q4,2.0808,,,not_available,2.0956,-0.014800000000000146,False,True,0,,,,,,,14,1,0.02
bridge,exact,2019:Q4:pre_second:exact,2020-02-26,pre_second,S,2019:Q4,2.8435719314230106,,,not_available,2.0956,0.7479719314230104,False,True,0,,,,,,,14,1,0.02
midas_umidas,exact,2019:Q4:pre_second:exact,2020-02-26,pre_second,S,2019:Q4,2.407347471050032,,,not_available,2.0956,0.31174747105003187,False,True,0,,,,,,,14,1,0.02
monthly_mixed_frequency_kalman_em,exact,2019:Q4:pre_second:exact,2020-02-26,pre_second,S,2019:Q4,1.8308919516610667,0.3409102591919393,0.5838752085779454,model_implied_state_space,2.0956,-0.26470804833893347,False,True,87,-6438.970241778739,-7517.704691580865,-6438.970241778739,0.5797461170295719,9.00150015323434e-05,87.0,14,1,0.02
standard_dfm,exact,2019:Q4:pre_second:exact,2020-02-26,pre_second,S,2019:Q4,2.072184393236813,,,not_available,2.0956,-0.023415606763187213,False,True,0,,,,,,,14,1,0.02
release_dfm,exact,2019:Q4:pre_second:exact,2020-02-26,pre_second,S,2019:Q4,2.146839918234161,,,not_available,2.0956,0.051239918234160964,False,True,0,,,,,,,14,1,0.02
revision_dfm_kalman_em,exact,2019:Q4:pre_second:exact,2020-02-26,pre_second,S,2019:Q4,2.2031663289003016,0.3964726757882183,0.6296607624651692,model_implied_state_space,2.0956,0.10756632890030149,False,True,21,-2045.6671278142567,-3031.186062542757,-2045.6671278142567,0.18546900771161745,9.061180467982142e-05,21.0,14,1,0.02
indicator_revision_only_dfm_kalman_em,exact,2019:Q4:pre_second:exact,2020-02-26,pre_second,S,2019:Q4,2.0459309446379903,0.38741156351653366,0.6224239419531784,model_implied_state_space,2.0956,-0.04966905536200983,False,True,25,-3791.488617318764,-4979.391617042892,-3791.488617318764,0.3535031363521739,9.32027026502637e-05,25.0,14,1,0.02
joint_indicator_revision_dfm_full_kalman_em,exact,2019:Q4:pre_second:exact,2020-02-26,pre_second,S,2019:Q4,2.161958296586832,0.3853106218654193,0.6207339380647874,model_implied_state_space,2.0956,0.06635829658683168,False,True,26,-3755.7819518622373,-4994.600152893374,-3755.7819518622373,0.3529641979207554,9.394504211493262e-05,26.0,14,1,0.02
ar,exact,2019:Q4:pre_third:exact,2020-03-25,pre_third,T,2019:Q4,2.41550164741769,,,not_available,2.1275,0.2880016474176901,False,True,0,,,,,,,14,1,0.02
no_revision,exact,2019:Q4:pre_third:exact,2020-03-25,pre_third,T,2019:Q4,2.0956,,,not_available,2.1275,-0.03189999999999982,False,True,0,,,,,,,14,1,0.02
bridge,exact,2019:Q4:pre_third:exact,2020-03-25,pre_third,T,2019:Q4,2.864398639107203,,,not_available,2.1275,0.7368986391072032,False,True,0,,,,,,,14,1,0.02
midas_umidas,exact,2019:Q4:pre_third:exact,2020-03-25,pre_third,T,2019:Q4,2.010628492430776,,,not_available,2.1275,-0.11687150756922415,False,True,0,,,,,,,14,1,0.02
monthly_mixed_frequency_kalman_em,exact,2019:Q4:pre_third:exact,2020-03-25,pre_third,T,2019:Q4,1.9491936121009557,0.14080023833339672,0.3752335783660582,model_implied_state_space,2.1275,-0.1783063878990443,False,True,53,-6506.291415830412,-7539.787496723451,-6506.291415830412,0.6501470142229664,9.990056117510461e-05,53.0,14,1,0.02
standard_dfm,exact,2019:Q4:pre_third:exact,2020-03-25,pre_third,T,2019:Q4,2.132247901709427,,,not_available,2.1275,0.0047479017094271825,False,True,0,,,,,,,14,1,0.02
release_dfm,exact,2019:Q4:pre_third:exact,2020-03-25,pre_third,T,2019:Q4,2.161040249378947,,,not_available,2.1275,0.03354024937894717,False,True,0,,,,,,,14,1,0.02
revision_dfm_kalman_em,exact,2019:Q4:pre_third:exact,2020-03-25,pre_third,T,2019:Q4,2.1067241059385884,0.145710100753295,0.38171992449084313,model_implied_state_space,2.1275,-0.02077589406141156,False,True,22,-2045.706329182478,-3048.5500277406545,-2045.706329182478,0.20057061947181865,9.798717249486287e-05,22.0,14,1,0.02
indicator_revision_only_dfm_kalman_em,exact,2019:Q4:pre_third:exact,2020-03-25,pre_third,T,2019:Q4,2.092264216865283,0.15004531672314458,0.3873568338407683,model_implied_state_space,2.1275,-0.03523578313471676,False,True,25,-3791.2192398610005,-4967.271610239644,-3791.2192398610005,0.35448483610025505,9.346814639142354e-05,25.0,14,1,0.02
joint_indicator_revision_dfm_full_kalman_em,exact,2019:Q4:pre_third:exact,2020-03-25,pre_third,T,2019:Q4,2.103061766594799,0.1452997849192382,0.3811820889276386,model_implied_state_space,2.1275,-0.024438233405200904,False,True,26,-3755.6925445404286,-4982.675837886473,-3755.6925445404286,0.3586364681436862,9.545690246556903e-05,26.0,14,1,0.02
ar,pseudo,2019:Q4:pre_advance:pseudo,2020-01-31,pre_advance,A,2019:Q4,2.2100311607376257,,,not_available,2.0808,0.12923116073762575,False,True,0,,,,,,,14,1,0.02
no_revision,pseudo,2019:Q4:pre_advance:pseudo,2020-01-31,pre_advance,A,2019:Q4,2.1968709062412755,,,not_available,2.0808,0.11607090624127547,False,True,0,,,,,,,14,1,0.02
bridge,pseudo,2019:Q4:pre_advance:pseudo,2020-01-31,pre_advance,A,2019:Q4,2.5104803906747097,,,not_available,2.0808,0.42968039067470976,False,True,0,,,,,,,14,1,0.02
midas_umidas,pseudo,2019:Q4:pre_advance:pseudo,2020-01-31,pre_advance,A,2019:Q4,0.1263758571926259,,,not_available,2.0808,-1.954424142807374,False,True,0,,,,,,,14,1,0.02
monthly_mixed_frequency_kalman_em,pseudo,2019:Q4:pre_advance:pseudo,2020-01-31,pre_advance,A,2019:Q4,2.312207659190274,3.1802250645765655,1.7833185538698815,model_implied_state_space,2.0808,0.23140765919027384,False,True,50,-6470.62796759433,-7499.925111035035,-6470.62796759433,0.6268550275635789,9.685264946191373e-05,50.0,14,1,0.02
standard_dfm,pseudo,2019:Q4:pre_advance:pseudo,2020-01-31,pre_advance,A,2019:Q4,1.9173075948074958,,,not_available,2.0808,-0.1634924051925042,False,True,0,,,,,,,14,1,0.02
release_dfm,pseudo,2019:Q4:pre_advance:pseudo,2020-01-31,pre_advance,A,2019:Q4,1.9173075948074958,,,not_available,2.0808,-0.1634924051925042,False,True,0,,,,,,,14,1,0.02
revision_dfm_kalman_em,pseudo,2019:Q4:pre_advance:pseudo,2020-01-31,pre_advance,A,2019:Q4,1.435247986756949,3.183167182474315,1.7841432628783807,model_implied_state_space,2.0808,-0.645552013243051,False,True,22,-2045.4737701730883,-3046.242961307977,-2045.4737701730883,0.19855788473046232,9.701498476743612e-05,22.0,14,1,0.02
indicator_revision_only_dfm_kalman_em,pseudo,2019:Q4:pre_advance:pseudo,2020-01-31,pre_advance,A,2019:Q4,1.6297514566956999,3.694856321867585,1.9222009056983573,model_implied_state_space,2.0808,-0.4510485433043001,False,True,25,-3791.064801328318,-4978.402497462967,-3791.064801328318,0.3544763368936401,9.346971179617885e-05,25.0,14,1,0.02
joint_indicator_revision_dfm_full_kalman_em,pseudo,2019:Q4:pre_advance:pseudo,2020-01-31,pre_advance,A,2019:Q4,1.5792799589712012,2.6400042552083147,1.6248089903765042,model_implied_state_space,2.0808,-0.5015200410287988,False,True,26,-3755.4948448922123,-4993.501557790422,-3755.4948448922123,0.3539861845538326,9.422422899363112e-05,26.0,14,1,0.02
ar,pseudo,2019:Q4:pre_second:pseudo,2020-02-29,pre_second,S,2019:Q4,2.3765756189143223,,,not_available,2.0956,0.2809756189143222,False,True,0,,,,,,,14,1,0.02
no_revision,pseudo,2019:Q4:pre_second:pseudo,2020-02-29,pre_second,S,2019:Q4,2.0808,,,not_available,2.0956,-0.014800000000000146,False,True,0,,,,,,,14,1,0.02
bridge,pseudo,2019:Q4:pre_second:pseudo,2020-02-29,pre_second,S,2019:Q4,2.8529123584527927,,,not_available,2.0956,0.7573123584527925,False,True,0,,,,,,,14,1,0.02
midas_umidas,pseudo,2019:Q4:pre_second:pseudo,2020-02-29,pre_second,S,2019:Q4,2.4205851823166946,,,not_available,2.0956,0.3249851823166945,False,True,0,,,,,,,14,1,0.02
monthly_mixed_frequency_kalman_em,pseudo,2019:Q4:pre_second:pseudo,2020-02-29,pre_second,S,2019:Q4,1.9220105592565297,0.3477306015605787,0.5896868673801196,model_implied_state_space,2.0956,-0.17358944074347038,False,True,53,-6488.448639322011,-7520.511986458246,-6488.448639322011,0.6459187049040338,9.952377413440994e-05,53.0,14,1,0.02
standard_dfm,pseudo,2019:Q4:pre_second:pseudo,2020-02-29,pre_second,S,2019:Q4,2.0812869841245267,,,not_available,2.0956,-0.0143130158754734,False,True,0,,,,,,,14,1,0.02
release_dfm,pseudo,2019:Q4:pre_second:pseudo,2020-02-29,pre_second,S,2019:Q4,2.1473853057521275,,,not_available,2.0956,0.051785305752127364,False,True,0,,,,,,,14,1,0.02
revision_dfm_kalman_em,pseudo,2019:Q4:pre_second:pseudo,2020-02-29,pre_second,S,2019:Q4,2.2031555398400715,0.3964738528041008,0.6296616971073441,model_implied_state_space,2.0956,0.10755553984007138,False,True,21,-2045.6569814203588,-3031.173799644684,-2045.6569814203588,0.18547053287352355,9.061299891280607e-05,21.0,14,1,0.02
indicator_revision_only_dfm_kalman_em,pseudo,2019:Q4:pre_second:pseudo,2020-02-29,pre_second,S,2019:Q4,2.047123795481922,0.3874091446165631,0.6224219988211881,model_implied_state_space,2.0956,-0.04847620451807799,False,True,25,-3791.5262574868852,-4979.422277798663,-3791.5262574868852,0.35359824395982287,9.322685068063895e-05,25.0,14,1,0.02
joint_indicator_revision_dfm_full_kalman_em,pseudo,2019:Q4:pre_second:pseudo,2020-02-29,pre_second,S,2019:Q4,2.161852095403013,0.3853139188762456,0.6207365937950216,model_implied_state_space,2.0956,0.06625209540301302,False,True,26,-3755.8183573208526,-4994.630886048019,-3755.8183573208526,0.35304747172358475,9.396629370521774e-05,26.0,14,1,0.02
ar,pseudo,2019:Q4:pre_third:pseudo,2020-03-31,pre_third,T,2019:Q4,2.41550164741769,,,not_available,2.1275,0.2880016474176901,False,True,0,,,,,,,14,1,0.02
no_revision,pseudo,2019:Q4:pre_third:pseudo,2020-03-31,pre_third,T,2019:Q4,2.0956,,,not_available,2.1275,-0.03189999999999982,False,True,0,,,,,,,14,1,0.02
bridge,pseudo,2019:Q4:pre_third:pseudo,2020-03-31,pre_third,T,2019:Q4,2.8646820537455304,,,not_available,2.1275,0.7371820537455305,False,True,0,,,,,,,14,1,0.02
midas_umidas,pseudo,2019:Q4:pre_third:pseudo,2020-03-31,pre_third,T,2019:Q4,2.0064379187967267,,,not_available,2.1275,-0.12106208120327322,False,True,0,,,,,,,14,1,0.02
monthly_mixed_frequency_kalman_em,pseudo,2019:Q4:pre_third:pseudo,2020-03-31,pre_third,T,2019:Q4,1.8967459996732918,0.13417929717566401,0.3663049237666128,model_implied_state_space,2.1275,-0.23075400032670812,False,True,87,-6459.905496539938,-7541.2159128546655,-6459.905496539938,0.5675317894992986,8.783319020462265e-05,87.0,14,1,0.02
standard_dfm,pseudo,2019:Q4:pre_third:pseudo,2020-03-31,pre_third,T,2019:Q4,2.132690978022118,,,not_available,2.1275,0.005190978022118209,False,True,0,,,,,,,14,1,0.02
release_dfm,pseudo,2019:Q4:pre_third:pseudo,2020-03-31,pre_third,T,2019:Q4,2.1610461765746436,,,not_available,2.1275,0.03354617657464365,False,True,0,,,,,,,14,1,0.02
revision_dfm_kalman_em,pseudo,2019:Q4:pre_third:pseudo,2020-03-31,pre_third,T,2019:Q4,2.1067242528518317,0.14571010157349434,0.3817199255651902,model_implied_state_space,2.1275,-0.02077574714816821,False,True,22,-2045.7069656668834,-3048.5504246030696,-2045.7069656668834,0.20057198610629712,9.798780961854072e-05,22.0,14,1,0.02
indicator_revision_only_dfm_kalman_em,pseudo,2019:Q4:pre_third:pseudo,2020-03-31,pre_third,T,2019:Q4,2.0922657500817614,0.15004531773532803,0.3873568351472942,model_implied_state_space,2.1275,-0.035234249918238536,False,True,25,-3791.2194361484385,-4967.271755973021,-3791.2194361484385,0.35447946562862853,9.346672563696987e-05,25.0,14,1,0.02
joint_indicator_revision_dfm_full_kalman_em,pseudo,2019:Q4:pre_third:pseudo,2020-03-31,pre_third,T,2019:Q4,2.103061376662375,0.14529977907031258,0.3811820812555498,model_implied_state_space,2.1275,-0.02443862333762503,False,True,26,-3755.692707103207,-4982.675983768298,-3755.692707103207,0.3586315488478249,9.545558911007423e-05,26.0,14,1,0.02
ar,exact,2020:Q1:pre_advance:exact,2020-04-28,pre_advance,A,2020:Q1,2.2897072387924506,,,not_available,-4.7832,7.0729072387924505,False,True,0,,,,,,,14,1,0.02
no_revision,exact,2020:Q1:pre_advance:exact,2020-04-28,pre_advance,A,2020:Q1,2.323386808382237,,,not_available,-4.7832,7.106586808382237,False,True,0,,,,,,,14,1,0.02
bridge,exact,2020:Q1:pre_advance:exact,2020-04-28,pre_advance,A,2020:Q1,1.6139523635539974,,,not_available,-4.7832,6.397152363553998,False,True,0,,,,,,,14,1,0.02
midas_umidas,exact,2020:Q1:pre_advance:exact,2020-04-28,pre_advance,A,2020:Q1,6.983423304700622,,,not_available,-4.7832,11.766623304700623,False,True,0,,,,,,,14,1,0.02
monthly_mixed_frequency_kalman_em,exact,2020:Q1:pre_advance:exact,2020-04-28,pre_advance,A,2020:Q1,-0.435795227697092,2.8147618221056883,1.6777251926658574,model_implied_state_space,-4.7832,4.347404772302908,False,True,40,-6365.157784502217,-7570.539615772524,-6365.157784502217,0.5121276228919669,8.04388526436147e-05,40.0,14,1,0.02
standard_dfm,exact,2020:Q1:pre_advance:exact,2020-04-28,pre_advance,A,2020:Q1,0.6240466118451982,,,not_available,-4.7832,5.407246611845198,False,True,0,,,,,,,14,1,0.02
release_dfm,exact,2020:Q1:pre_advance:exact,2020-04-28,pre_advance,A,2020:Q1,0.6240466118451982,,,not_available,-4.7832,5.407246611845198,False,True,0,,,,,,,14,1,0.02
revision_dfm_kalman_em,exact,2020:Q1:pre_advance:exact,2020-04-28,pre_advance,A,2020:Q1,-0.9148085350347785,3.1387772065001163,1.7716594499226188,model_implied_state_space,-4.7832,3.8683914649652213,False,True,21,-2059.9190806614383,-3052.481811245196,-2059.9190806614383,0.18798139433874894,9.120409017048035e-05,21.0,14,1,0.02
indicator_revision_only_dfm_kalman_em,exact,2020:Q1:pre_advance:exact,2020-04-28,pre_advance,A,2020:Q1,-0.6654842091325657,3.6373307222459634,1.9071787336917227,model_implied_state_space,-4.7832,4.117715790867434,False,True,25,-3819.1968930405533,-5004.205753105809,-3819.1968930405533,0.36401650053085177,9.527828744250448e-05,25.0,14,1,0.02
joint_indicator_revision_dfm_full_kalman_em,exact,2020:Q1:pre_advance:exact,2020-04-28,pre_advance,A,2020:Q1,-0.5751216260737242,2.586340187970108,1.608210243708859,model_implied_state_space,-4.7832,4.208078373926275,False,True,26,-3783.5065810607493,-5019.5959821616625,-3783.5065810607493,0.37067308728319404,9.793529945441565e-05,26.0,14,1,0.02
ar,exact,2020:Q1:pre_second:exact,2020-05-27,pre_second,S,2020:Q1,2.362411208093053,,,not_available,-5.0477,7.410111208093053,False,True,0,,,,,,,14,1,0.02
no_revision,exact,2020:Q1:pre_second:exact,2020-05-27,pre_second,S,2020:Q1,-4.7832,,,not_available,-5.0477,0.26449999999999996,False,True,0,,,,,,,14,1,0.02
bridge,exact,2020:Q1:pre_second:exact,2020-05-27,pre_second,S,2020:Q1,1.5192628497722622,,,not_available,-5.0477,6.566962849772262,False,True,0,,,,,,,14,1,0.02
midas_umidas,exact,2020:Q1:pre_second:exact,2020-05-27,pre_second,S,2020:Q1,-5.0219408204296805,,,not_available,-5.0477,0.025759179570319368,False,True,0,,,,,,,14,1,0.02
monthly_mixed_frequency_kalman_em,exact,2020:Q1:pre_second:exact,2020-05-27,pre_second,S,2020:Q1,-4.457447833958721,0.3389045054750804,0.5821550527781069,model_implied_state_space,-5.0477,0.590252166041279,False,True,38,-5904.76722749727,-7387.481874880861,-5904.76722749727,0.5293239996499324,8.962028828636753e-05,38.0,14,1,0.02
standard_dfm,exact,2020:Q1:pre_second:exact,2020-05-27,pre_second,S,2020:Q1,0.4106136891548773,,,not_available,-5.0477,5.458313689154878,False,True,0,,,,,,,14,1,0.02
release_dfm,exact,2020:Q1:pre_second:exact,2020-05-27,pre_second,S,2020:Q1,-5.062017677057046,,,not_available,-5.0477,-0.014317677057046119,False,True,0,,,,,,,14,1,0.02
revision_dfm_kalman_em,exact,2020:Q1:pre_second:exact,2020-05-27,pre_second,S,2020:Q1,-5.093220212348245,0.39589471861458114,0.6292016517894571,model_implied_state_space,-5.0477,-0.04552021234824544,False,True,20,-2059.2155904471892,-3053.706984276602,-2059.2155904471892,0.20149403117375186,9.779283655317012e-05,20.0,14,1,0.02
indicator_revision_only_dfm_kalman_em,exact,2020:Q1:pre_second:exact,2020-05-27,pre_second,S,2020:Q1,-4.357178206440299,0.38732137752032253,0.6223514903334951,model_implied_state_space,-5.0477,0.690521793559701,False,True,25,-3817.738548458216,-5005.358848261837,-3817.738548458216,0.3579554271846064,9.372777745218965e-05,25.0,14,1,0.02
joint_indicator_revision_dfm_full_kalman_em,exact,2020:Q1:pre_second:exact,2020-05-27,pre_second,S,2020:Q1,-4.980360853567626,0.3833136096146361,0.6191232588222123,model_implied_state_space,-5.0477,0.06733914643237426,False,True,26,-3782.6666964782157,-5020.384300436641,-3782.6666964782157,0.36613772738155603,9.675860211144847e-05,26.0,14,1,0.02
ar,exact,2020:Q1:pre_third:exact,2020-06-24,pre_third,T,2020:Q1,2.4250162204474304,,,not_available,-4.9937,7.41871622044743,False,True,0,,,,,,,14,1,0.02
no_revision,exact,2020:Q1:pre_third:exact,2020-06-24,pre_third,T,2020:Q1,-5.0477,,,not_available,-4.9937,-0.05400000000000027,False,True,0,,,,,,,14,1,0.02
bridge,exact,2020:Q1:pre_third:exact,2020-06-24,pre_third,T,2020:Q1,1.2725491109883,,,not_available,-4.9937,6.2662491109883,False,True,0,,,,,,,14,1,0.02
midas_umidas,exact,2020:Q1:pre_third:exact,2020-06-24,pre_third,T,2020:Q1,-4.6542372064798965,,,not_available,-4.9937,0.3394627935201031,False,True,0,,,,,,,14,1,0.02
monthly_mixed_frequency_kalman_em,exact,2020:Q1:pre_third:exact,2020-06-24,pre_third,T,2020:Q1,-5.349545992541492,0.15257514584676934,0.39060868634321144,model_implied_state_space,-4.9937,-0.3558459925414921,False,True,30,-5842.564757670993,-7569.414509506856,-5842.564757670993,0.568459167846413,9.727005644027727e-05,30.0,14,1,0.02
standard_dfm,exact,2020:Q1:pre_third:exact,2020-06-24,pre_third,T,2020:Q1,0.40658589299139214,,,not_available,-4.9937,5.400285892991391,False,True,0,,,,,,,14,1,0.02
release_dfm,exact,2020:Q1:pre_third:exact,2020-06-24,pre_third,T,2020:Q1,-5.096306401636982,,,not_available,-4.9937,-0.10260640163698209,False,True,0,,,,,,,14,1,0.02
revision_dfm_kalman_em,exact,2020:Q1:pre_third:exact,2020-06-24,pre_third,T,2020:Q1,-5.065816653391568,0.14491939136354184,0.3806827962537076,model_implied_state_space,-4.9937,-0.0721166533915687,False,True,20,-2056.899842234065,-3055.2393940443058,-2056.899842234065,0.20486615090294436,9.954117012040001e-05,20.0,14,1,0.02
indicator_revision_only_dfm_kalman_em,exact,2020:Q1:pre_third:exact,2020-06-24,pre_third,T,2020:Q1,-5.001414479742051,0.1493295985001778,0.38643188080200863,model_implied_state_space,-4.9937,-0.007714479742051417,False,True,25,-3815.3436035875666,-5020.250324368543,-3815.3436035875666,0.3477190086568953,9.110482857187592e-05,25.0,14,1,0.02
joint_indicator_revision_dfm_full_kalman_em,exact,2020:Q1:pre_third:exact,2020-06-24,pre_third,T,2020:Q1,-5.057361347321848,0.14464826204272463,0.38032652029897235,model_implied_state_space,-4.9937,-0.06366134732184836,False,True,26,-3779.4533944590503,-5035.0670223173665,-3779.4533944590503,0.35810146114044983,9.471550261812074e-05,26.0,14,1,0.02
ar,pseudo,2020:Q1:pre_advance:pseudo,2020-04-30,pre_advance,A,2020:Q1,2.2897072387924506,,,not_available,-4.7832,7.0729072387924505,False,True,0,,,,,,,14,1,0.02
no_revision,pseudo,2020:Q1:pre_advance:pseudo,2020-04-30,pre_advance,A,2020:Q1,2.323386808382237,,,not_available,-4.7832,7.106586808382237,False,True,0,,,,,,,14,1,0.02
bridge,pseudo,2020:Q1:pre_advance:pseudo,2020-04-30,pre_advance,A,2020:Q1,1.6186201510230136,,,not_available,-4.7832,6.4018201510230135,False,True,0,,,,,,,14,1,0.02
midas_umidas,pseudo,2020:Q1:pre_advance:pseudo,2020-04-30,pre_advance,A,2020:Q1,6.412402070448358,,,not_available,-4.7832,11.19560207044836,False,True,0,,,,,,,14,1,0.02
monthly_mixed_frequency_kalman_em,pseudo,2020:Q1:pre_advance:pseudo,2020-04-30,pre_advance,A,2020:Q1,-0.43496932211960404,2.812883517601773,1.6771653220841924,model_implied_state_space,-4.7832,4.348230677880396,False,True,40,-6365.75857504451,-7568.960720705711,-6365.75857504451,0.5585125763955148,8.771552738929141e-05,40.0,14,1,0.02
standard_dfm,pseudo,2020:Q1:pre_advance:pseudo,2020-04-30,pre_advance,A,2020:Q1,0.5327006664243215,,,not_available,-4.7832,5.315900666424321,False,True,0,,,,,,,14,1,0.02
release_dfm,pseudo,2020:Q1:pre_advance:pseudo,2020-04-30,pre_advance,A,2020:Q1,0.5327006664243215,,,not_available,-4.7832,5.315900666424321,False,True,0,,,,,,,14,1,0.02
revision_dfm_kalman_em,pseudo,2020:Q1:pre_advance:pseudo,2020-04-30,pre_advance,A,2020:Q1,-0.9649714482584426,3.1360952964221966,1.770902396074441,model_implied_state_space,-4.7832,3.8182285517415573,False,True,21,-2059.088326221227,-3052.090779029537,-2059.088326221227,0.18771605883239317,9.11120912829973e-05,21.0,14,1,0.02
indicator_revision_only_dfm_kalman_em,pseudo,2020:Q1:pre_advance:pseudo,2020-04-30,pre_advance,A,2020:Q1,-0.7102129869192448,3.635870298102102,1.906795819720114,model_implied_state_space,-4.7832,4.0729870130807555,False,True,25,-3818.1758031594413,-5003.5268326828445,-3818.1758031594413,0.3621143325003686,9.480579596867756e-05,25.0,14,1,0.02
joint_indicator_revision_dfm_full_kalman_em,pseudo,2020:Q1:pre_advance:pseudo,2020-04-30,pre_advance,A,2020:Q1,-0.6211075822429755,2.5845941959533283,1.6076673150727823,model_implied_state_space,-4.7832,4.162092417757025,False,True,26,-3782.473356154798,-5018.916741120674,-3782.473356154798,0.36928325599001255,9.759477102555105e-05,26.0,14,1,0.02
ar,pseudo,2020:Q1:pre_second:pseudo,2020-05-31,pre_second,S,2020:Q1,2.362411208093053,,,not_available,-5.0477,7.410111208093053,False,True,0,,,,,,,14,1,0.02
no_revision,pseudo,2020:Q1:pre_second:pseudo,2020-05-31,pre_second,S,2020:Q1,-4.7832,,,not_available,-5.0477,0.26449999999999996,False,True,0,,,,,,,14,1,0.02
bridge,pseudo,2020:Q1:pre_second:pseudo,2020-05-31,pre_second,S,2020:Q1,1.51011815047926,,,not_available,-5.0477,6.55781815047926,False,True,0,,,,,,,14,1,0.02
midas_umidas,pseudo,2020:Q1:pre_second:pseudo,2020-05-31,pre_second,S,2020:Q1,-5.297727048454643,,,not_available,-5.0477,-0.2500270484546432,False,True,0,,,,,,,14,1,0.02
monthly_mixed_frequency_kalman_em,pseudo,2020:Q1:pre_second:pseudo,2020-05-31,pre_second,S,2020:Q1,-4.534396625304282,0.33888374801190985,0.5821372243826277,model_implied_state_space,-5.0477,0.5133033746957176,False,True,44,-5864.340540144614,-7345.674777637329,-5864.340540144614,0.547686764674836,9.3368087404456e-05,44.0,14,1,0.02
standard_dfm,pseudo,2020:Q1:pre_second:pseudo,2020-05-31,pre_second,S,2020:Q1,0.400962282321097,,,not_available,-5.0477,5.448662282321097,False,True,0,,,,,,,14,1,0.02
release_dfm,pseudo,2020:Q1:pre_second:pseudo,2020-05-31,pre_second,S,2020:Q1,-5.062788567388224,,,not_available,-5.0477,-0.01508856738822395,False,True,0,,,,,,,14,1,0.02
revision_dfm_kalman_em,pseudo,2020:Q1:pre_second:pseudo,2020-05-31,pre_second,S,2020:Q1,-5.092608676439545,0.39584482948818295,0.6291620057570092,model_implied_state_space,-5.0477,-0.04490867643954477,False,True,20,-2060.1535555438313,-3054.096057583945,-2060.1535555438313,0.2022971133574174,9.813788972760162e-05,20.0,14,1,0.02
indicator_revision_only_dfm_kalman_em,pseudo,2020:Q1:pre_second:pseudo,2020-05-31,pre_second,S,2020:Q1,-4.358870872375038,0.3872574776426614,0.6223001507654176,model_implied_state_space,-5.0477,0.6888291276249623,False,True,25,-3818.5435627106617,-5005.710113382972,-3818.5435627106617,0.35558758727438544,9.308821340130173e-05,25.0,14,1,0.02
joint_indicator_revision_dfm_full_kalman_em,pseudo,2020:Q1:pre_second:pseudo,2020-05-31,pre_second,S,2020:Q1,-4.979529367892788,0.3832620578745274,0.619081624565394,model_implied_state_space,-5.0477,0.06817063210721219,False,True,26,-3783.460660482166,-5020.735650599257,-3783.460660482166,0.3636429544631028,9.607921671104103e-05,26.0,14,1,0.02
ar,pseudo,2020:Q1:pre_third:pseudo,2020-06-30,pre_third,T,2020:Q1,2.4250162204474304,,,not_available,-4.9937,7.41871622044743,False,True,0,,,,,,,14,1,0.02
no_revision,pseudo,2020:Q1:pre_third:pseudo,2020-06-30,pre_third,T,2020:Q1,-5.0477,,,not_available,-4.9937,-0.05400000000000027,False,True,0,,,,,,,14,1,0.02
bridge,pseudo,2020:Q1:pre_third:pseudo,2020-06-30,pre_third,T,2020:Q1,1.2646961124291711,,,not_available,-4.9937,6.258396112429171,False,True,0,,,,,,,14,1,0.02
midas_umidas,pseudo,2020:Q1:pre_third:pseudo,2020-06-30,pre_third,T,2020:Q1,-4.652482852347865,,,not_available,-4.9937,0.3412171476521344,False,True,0,,,,,,,14,1,0.02
monthly_mixed_frequency_kalman_em,pseudo,2020:Q1:pre_third:pseudo,2020-06-30,pre_third,T,2020:Q1,-5.348879665225306,0.1525827713012122,0.39061844721058964,model_implied_state_space,-4.9937,-0.35517966522530653,False,True,30,-5848.09797214537,-7570.982370400096,-5848.09797214537,0.5808403497094332,9.929440031284142e-05,30.0,14,1,0.02
standard_dfm,pseudo,2020:Q1:pre_third:pseudo,2020-06-30,pre_third,T,2020:Q1,0.3938563920230176,,,not_available,-4.9937,5.387556392023017,False,True,0,,,,,,,14,1,0.02
release_dfm,pseudo,2020:Q1:pre_third:pseudo,2020-06-30,pre_third,T,2020:Q1,-5.096460939848946,,,not_available,-4.9937,-0.10276093984894619,False,True,0,,,,,,,14,1,0.02
revision_dfm_kalman_em,pseudo,2020:Q1:pre_third:pseudo,2020-06-30,pre_third,T,2020:Q1,-5.065820011611246,0.1449194218602359,0.38068283630896194,model_implied_state_space,-4.9937,-0.07212001161124615,False,True,20,-2056.8050972137657,-3055.1987922069134,-2056.8050972137657,0.20482699136982774,9.952672674741254e-05,20.0,14,1,0.02
indicator_revision_only_dfm_kalman_em,pseudo,2020:Q1:pre_third:pseudo,2020-06-30,pre_third,T,2020:Q1,-5.001452330816559,0.14932978811848574,0.3864321261469933,model_implied_state_space,-4.9937,-0.007752330816559017,False,True,25,-3815.2858131534144,-5020.232957605215,-3815.2858131534144,0.3478183994020583,9.113224715272097e-05,25.0,14,1,0.02
joint_indicator_revision_dfm_full_kalman_em,pseudo,2020:Q1:pre_third:pseudo,2020-06-30,pre_third,T,2020:Q1,-5.057357177012541,0.1446482509711999,0.3803265057436832,model_implied_state_space,-4.9937,-0.06365717701254159,False,True,26,-3779.3941763545527,-5035.049649856849,-3779.3941763545527,0.3581961741010673,9.474203513135602e-05,26.0,14,1,0.02
ar,exact,2020:Q2:pre_advance:exact,2020-07-29,pre_advance,A,2020:Q2,-1.1573964624978355,,,not_available,-32.9038,31.74640353750216,False,True,0,,,,,,,14,1,0.02
no_revision,exact,2020:Q2:pre_advance:exact,2020-07-29,pre_advance,A,2020:Q2,-1.1484712531706052,,,not_available,-32.9038,31.75532874682939,False,True,0,,,,,,,14,1,0.02
bridge,exact,2020:Q2:pre_advance:exact,2020-07-29,pre_advance,A,2020:Q2,-11.104287028089175,,,not_available,-32.9038,21.799512971910822,False,True,0,,,,,,,14,1,0.02
midas_umidas,exact,2020:Q2:pre_advance:exact,2020-07-29,pre_advance,A,2020:Q2,30.848015896470223,,,not_available,-32.9038,63.75181589647022,False,True,0,,,,,,,14,1,0.02
monthly_mixed_frequency_kalman_em,exact,2020:Q2:pre_advance:exact,2020-07-29,pre_advance,A,2020:Q2,-17.29279099840882,2.7860907616824515,1.6691586987708662,model_implied_state_space,-32.9038,15.611009001591178,False,True,30,-5800.950420662696,-7576.408237289621,-5800.950420662696,0.543709375088838,9.370270144250838e-05,30.0,14,1,0.02
standard_dfm,exact,2020:Q2:pre_advance:exact,2020-07-29,pre_advance,A,2020:Q2,-15.718307815729272,,,not_available,-32.9038,17.185492184270725,False,True,0,,,,,,,14,1,0.02
release_dfm,exact,2020:Q2:pre_advance:exact,2020-07-29,pre_advance,A,2020:Q2,-15.718307815729272,,,not_available,-32.9038,17.185492184270725,False,True,0,,,,,,,14,1,0.02
revision_dfm_kalman_em,exact,2020:Q2:pre_advance:exact,2020-07-29,pre_advance,A,2020:Q2,-20.55389193629872,2.1396722632690777,1.4627618614350997,model_implied_state_space,-32.9038,12.349908063701278,False,True,29,-1891.8445054192732,-3080.8355834170593,-1891.8445054192732,0.17548484974167877,9.27010019142697e-05,29.0,14,1,0.02
indicator_revision_only_dfm_kalman_em,exact,2020:Q2:pre_advance:exact,2020-07-29,pre_advance,A,2020:Q2,-25.58037400703587,2.8232510058262696,1.6802532564545947,model_implied_state_space,-32.9038,7.323425992964125,False,True,36,-3399.241944191726,-5004.986631498734,-3399.241944191726,0.28469331787846386,8.372036105765096e-05,36.0,14,1,0.02
joint_indicator_revision_dfm_full_kalman_em,exact,2020:Q2:pre_advance:exact,2020-07-29,pre_advance,A,2020:Q2,-26.245393156703805,1.8714271200015933,1.3680011403509842,model_implied_state_space,-32.9038,6.658406843296191,False,True,37,-3358.067376843012,-5020.0117931285295,-3358.067376843012,0.30927411258380744,9.206294640877274e-05,37.0,14,1,0.02
ar,exact,2020:Q2:pre_second:exact,2020-08-26,pre_second,S,2020:Q2,-0.9346260921233107,,,not_available,-31.7041,30.76947390787669,False,True,0,,,,,,,14,1,0.02
no_revision,exact,2020:Q2:pre_second:exact,2020-08-26,pre_second,S,2020:Q2,-32.9038,,,not_available,-31.7041,-1.1996999999999964,False,True,0,,,,,,,14,1,0.02
bridge,exact,2020:Q2:pre_second:exact,2020-08-26,pre_second,S,2020:Q2,-11.728274633025507,,,not_available,-31.7041,19.975825366974494,False,True,0,,,,,,,14,1,0.02
midas_umidas,exact,2020:Q2:pre_second:exact,2020-08-26,pre_second,S,2020:Q2,-3.540074893379682,,,not_available,-31.7041,28.16402510662032,False,True,0,,,,,,,14,1,0.02
monthly_mixed_frequency_kalman_em,exact,2020:Q2:pre_second:exact,2020-08-26,pre_second,S,2020:Q2,-33.66595335826234,0.3429319133219236,0.5856038877278084,model_implied_state_space,-31.7041,-1.961853358262342,False,True,30,-5790.936824378299,-7593.671304928383,-5790.936824378299,0.5359329527009322,9.252230871913056e-05,30.0,14,1,0.02
standard_dfm,exact,2020:Q2:pre_second:exact,2020-08-26,pre_second,S,2020:Q2,-17.217326420438106,,,not_available,-31.7041,14.486773579561895,False,True,0,,,,,,,14,1,0.02
release_dfm,exact,2020:Q2:pre_second:exact,2020-08-26,pre_second,S,2020:Q2,-35.1656335115921,,,not_available,-31.7041,-3.4615335115920978,False,True,0,,,,,,,14,1,0.02
revision_dfm_kalman_em,exact,2020:Q2:pre_second:exact,2020-08-26,pre_second,S,2020:Q2,-34.70289973384284,0.38747104778839614,0.6224717244890696,model_implied_state_space,-31.7041,-2.9987997338428407,False,True,24,-1847.8199834852524,-3092.2696242769625,-1847.8199834852524,0.18011123713722554,9.741007458643077e-05,24.0,14,1,0.02
indicator_revision_only_dfm_kalman_em,exact,2020:Q2:pre_second:exact,2020-08-26,pre_second,S,2020:Q2,-32.78069558505635,0.3659776439472138,0.6049608615003237,model_implied_state_space,-31.7041,-1.0765955850563493,False,True,41,-3346.398701062516,-5007.3431499408,-3346.398701062516,0.3176039602935816,9.48718264498872e-05,41.0,14,1,0.02
joint_indicator_revision_dfm_full_kalman_em,exact,2020:Q2:pre_second:exact,2020-08-26,pre_second,S,2020:Q2,-33.216950384554536,0.348272825292705,0.5901464439380322,model_implied_state_space,-31.7041,-1.512850384554536,False,True,44,-3306.7009781381967,-5016.1604148621045,-3306.7009781381967,0.3087009305331776,9.331923436816636e-05,44.0,14,1,0.02
ar,exact,2020:Q2:pre_third:exact,2020-09-29,pre_third,T,2020:Q2,-0.7119618796649088,,,not_available,-31.3827,30.67073812033509,False,True,0,,,,,,,14,1,0.02
no_revision,exact,2020:Q2:pre_third:exact,2020-09-29,pre_third,T,2020:Q2,-31.7041,,,not_available,-31.3827,-0.3214000000000006,False,True,0,,,,,,,14,1,0.02
bridge,exact,2020:Q2:pre_third:exact,2020-09-29,pre_third,T,2020:Q2,-11.706443047869818,,,not_available,-31.3827,19.67625695213018,False,True,0,,,,,,,14,1,0.02
midas_umidas,exact,2020:Q2:pre_third:exact,2020-09-29,pre_third,T,2020:Q2,-62.55032037882182,,,not_available,-31.3827,-31.167620378821823,False,True,0,,,,,,,14,1,0.02
monthly_mixed_frequency_kalman_em,exact,2020:Q2:pre_third:exact,2020-09-29,pre_third,T,2020:Q2,-31.98292276889753,0.14698826089382985,0.3833904809640295,model_implied_state_space,-31.3827,-0.600222768897531,False,True,30,-5763.283163787264,-7611.521640025797,-5763.283163787264,0.5381468727000538,9.335013935383299e-05,30.0,14,1,0.02
standard_dfm,exact,2020:Q2:pre_third:exact,2020-09-29,pre_third,T,2020:Q2,-17.276938736761693,,,not_available,-31.3827,14.105761263238307,False,True,0,,,,,,,14,1,0.02
release_dfm,exact,2020:Q2:pre_third:exact,2020-09-29,pre_third,T,2020:Q2,-32.88490959470745,,,not_available,-31.3827,-1.5022095947074519,False,True,0,,,,,,,14,1,0.02
revision_dfm_kalman_em,exact,2020:Q2:pre_third:exact,2020-09-29,pre_third,T,2020:Q2,-31.829155918904803,0.14441048729015935,0.3800137988154632,model_implied_state_space,-31.3827,-0.4464559189048032,False,True,24,-1808.7746615042768,-3096.919438502148,-1808.7746615042768,0.16719441171085236,9.237557060982906e-05,24.0,14,1,0.02
indicator_revision_only_dfm_kalman_em,exact,2020:Q2:pre_third:exact,2020-09-29,pre_third,T,2020:Q2,-31.75568008927003,0.1480639467087459,0.38479078303507463,model_implied_state_space,-31.3827,-0.3729800892700297,False,True,38,-3301.9388812561447,-5023.22720103023,-3301.9388812561447,0.3177014381126355,9.617825020831612e-05,38.0,14,1,0.02
joint_indicator_revision_dfm_full_kalman_em,exact,2020:Q2:pre_third:exact,2020-09-29,pre_third,T,2020:Q2,-31.72212984631402,0.14413288630652688,0.37964837192661166,model_implied_state_space,-31.3827,-0.33942984631401885,False,True,40,-3261.8338144547415,-5031.850508004844,-3261.8338144547415,0.2871933519063532,8.80118607980751e-05,40.0,14,1,0.02
ar,pseudo,2020:Q2:pre_advance:pseudo,2020-07-31,pre_advance,A,2020:Q2,-1.1573964624978355,,,not_available,-32.9038,31.74640353750216,False,True,0,,,,,,,14,1,0.02
no_revision,pseudo,2020:Q2:pre_advance:pseudo,2020-07-31,pre_advance,A,2020:Q2,-1.1484712531706052,,,not_available,-32.9038,31.75532874682939,False,True,0,,,,,,,14,1,0.02
bridge,pseudo,2020:Q2:pre_advance:pseudo,2020-07-31,pre_advance,A,2020:Q2,-10.908992164679558,,,not_available,-32.9038,21.994807835320437,False,True,0,,,,,,,14,1,0.02
midas_umidas,pseudo,2020:Q2:pre_advance:pseudo,2020-07-31,pre_advance,A,2020:Q2,33.13857262025131,,,not_available,-32.9038,66.04237262025131,False,True,0,,,,,,,14,1,0.02
monthly_mixed_frequency_kalman_em,pseudo,2020:Q2:pre_advance:pseudo,2020-07-31,pre_advance,A,2020:Q2,-17.306620998822268,2.789537862087015,1.6701909657542202,model_implied_state_space,-32.9038,15.597179001177729,False,True,30,-5805.174913630151,-7577.424273802538,-5805.174913630151,0.5482355668964374,9.441393240389759e-05,30.0,14,1,0.02
standard_dfm,pseudo,2020:Q2:pre_advance:pseudo,2020-07-31,pre_advance,A,2020:Q2,-15.575879759710256,,,not_available,-32.9038,17.327920240289743,False,True,0,,,,,,,14,1,0.02
release_dfm,pseudo,2020:Q2:pre_advance:pseudo,2020-07-31,pre_advance,A,2020:Q2,-15.575879759710256,,,not_available,-32.9038,17.327920240289743,False,True,0,,,,,,,14,1,0.02
revision_dfm_kalman_em,pseudo,2020:Q2:pre_advance:pseudo,2020-07-31,pre_advance,A,2020:Q2,-20.435538747532597,2.1451488100667646,1.464632653625736,model_implied_state_space,-32.9038,12.4682612524674,False,True,29,-1897.2621604196192,-3083.3040611548386,-1897.2621604196192,0.16859548232991983,8.880781235016376e-05,29.0,14,1,0.02
indicator_revision_only_dfm_kalman_em,pseudo,2020:Q2:pre_advance:pseudo,2020-07-31,pre_advance,A,2020:Q2,-25.748646035674405,2.820634658236581,1.6794745184838562,model_implied_state_space,-32.9038,7.155153964325592,False,True,36,-3409.5146855200437,-5008.738914775296,-3409.5146855200437,0.34030460602116364,9.977105652579678e-05,36.0,14,1,0.02
joint_indicator_revision_dfm_full_kalman_em,pseudo,2020:Q2:pre_advance:pseudo,2020-07-31,pre_advance,A,2020:Q2,-26.31824023083901,1.8695526973236691,1.3673158732800805,model_implied_state_space,-32.9038,6.585559769160987,False,True,38,-3367.9970001613815,-5023.755595534122,-3367.9970001613815,0.29397967660725044,8.725268264642028e-05,38.0,14,1,0.02
ar,pseudo,2020:Q2:pre_second:pseudo,2020-08-31,pre_second,S,2020:Q2,-0.9346260921233107,,,not_available,-31.7041,30.76947390787669,False,True,0,,,,,,,14,1,0.02
no_revision,pseudo,2020:Q2:pre_second:pseudo,2020-08-31,pre_second,S,2020:Q2,-32.9038,,,not_available,-31.7041,-1.1996999999999964,False,True,0,,,,,,,14,1,0.02
bridge,pseudo,2020:Q2:pre_second:pseudo,2020-08-31,pre_second,S,2020:Q2,-11.717629878838661,,,not_available,-31.7041,19.98647012116134,False,True,0,,,,,,,14,1,0.02
midas_umidas,pseudo,2020:Q2:pre_second:pseudo,2020-08-31,pre_second,S,2020:Q2,-3.5709717284978524,,,not_available,-31.7041,28.133128271502148,False,True,0,,,,,,,14,1,0.02
monthly_mixed_frequency_kalman_em,pseudo,2020:Q2:pre_second:pseudo,2020-08-31,pre_second,S,2020:Q2,-33.665856850705055,0.34295872981940945,0.5856267837278358,model_implied_state_space,-31.7041,-1.9617568507050542,False,True,30,-5794.179609483348,-7595.112622176762,-5794.179609483348,0.5378628933985965,9.280350465013715e-05,30.0,14,1,0.02
standard_dfm,pseudo,2020:Q2:pre_second:pseudo,2020-08-31,pre_second,S,2020:Q2,-17.193668211540995,,,not_available,-31.7041,14.510431788459005,False,True,0,,,,,,,14,1,0.02
release_dfm,pseudo,2020:Q2:pre_second:pseudo,2020-08-31,pre_second,S,2020:Q2,-35.16420465364802,,,not_available,-31.7041,-3.4601046536480204,False,True,0,,,,,,,14,1,0.02
revision_dfm_kalman_em,pseudo,2020:Q2:pre_second:pseudo,2020-08-31,pre_second,S,2020:Q2,-34.703237584749544,0.38747939105419804,0.6224784261757174,model_implied_state_space,-31.7041,-2.999137584749544,False,True,24,-1848.682344325339,-3092.5044557548194,-1848.682344325339,0.17971129801412644,9.714848600079459e-05,24.0,14,1,0.02
indicator_revision_only_dfm_kalman_em,pseudo,2020:Q2:pre_second:pseudo,2020-08-31,pre_second,S,2020:Q2,-32.78141126936728,0.3659794330247612,0.6049623401706599,model_implied_state_space,-31.7041,-1.0773112693672822,False,True,41,-3347.4175928156897,-5007.383419199728,-3347.4175928156897,0.3309750092525974,9.883543137058216e-05,41.0,14,1,0.02
joint_indicator_revision_dfm_full_kalman_em,pseudo,2020:Q2:pre_second:pseudo,2020-08-31,pre_second,S,2020:Q2,-33.21303669529517,0.3481576979472894,0.5900488945395029,model_implied_state_space,-31.7041,-1.5089366952951728,False,True,44,-3307.7313568486675,-5016.2008884936195,-3307.7313568486675,0.32098151820400744,9.700103999032624e-05,44.0,14,1,0.02
ar,pseudo,2020:Q2:pre_third:pseudo,2020-09-30,pre_third,T,2020:Q2,-0.7119618796649088,,,not_available,-31.3827,30.67073812033509,False,True,0,,,,,,,14,1,0.02
no_revision,pseudo,2020:Q2:pre_third:pseudo,2020-09-30,pre_third,T,2020:Q2,-31.7041,,,not_available,-31.3827,-0.3214000000000006,False,True,0,,,,,,,14,1,0.02
bridge,pseudo,2020:Q2:pre_third:pseudo,2020-09-30,pre_third,T,2020:Q2,-11.706443047869818,,,not_available,-31.3827,19.67625695213018,False,True,0,,,,,,,14,1,0.02
midas_umidas,pseudo,2020:Q2:pre_third:pseudo,2020-09-30,pre_third,T,2020:Q2,-62.55032037882182,,,not_available,-31.3827,-31.167620378821823,False,True,0,,,,,,,14,1,0.02
monthly_mixed_frequency_kalman_em,pseudo,2020:Q2:pre_third:pseudo,2020-09-30,pre_third,T,2020:Q2,-31.98292276889753,0.14698826089382985,0.3833904809640295,model_implied_state_space,-31.3827,-0.600222768897531,False,True,30,-5763.283163787264,-7611.521640025797,-5763.283163787264,0.5381468727000538,9.335013935383299e-05,30.0,14,1,0.02
standard_dfm,pseudo,2020:Q2:pre_third:pseudo,2020-09-30,pre_third,T,2020:Q2,-17.276938736761693,,,not_available,-31.3827,14.105761263238307,False,True,0,,,,,,,14,1,0.02
release_dfm,pseudo,2020:Q2:pre_third:pseudo,2020-09-30,pre_third,T,2020:Q2,-32.88490959470745,,,not_available,-31.3827,-1.5022095947074519,False,True,0,,,,,,,14,1,0.02
revision_dfm_kalman_em,pseudo,2020:Q2:pre_third:pseudo,2020-09-30,pre_third,T,2020:Q2,-31.829155918904803,0.14441048729015935,0.3800137988154632,model_implied_state_space,-31.3827,-0.4464559189048032,False,True,24,-1808.7746615042768,-3096.919438502148,-1808.7746615042768,0.16719441171085236,9.237557060982906e-05,24.0,14,1,0.02
indicator_revision_only_dfm_kalman_em,pseudo,2020:Q2:pre_third:pseudo,2020-09-30,pre_third,T,2020:Q2,-31.75568008927003,0.1480639467087459,0.38479078303507463,model_implied_state_space,-31.3827,-0.3729800892700297,False,True,38,-3301.9388812561447,-5023.22720103023,-3301.9388812561447,0.3177014381126355,9.617825020831612e-05,38.0,14,1,0.02
joint_indicator_revision_dfm_full_kalman_em,pseudo,2020:Q2:pre_third:pseudo,2020-09-30,pre_third,T,2020:Q2,-31.72212984631402,0.14413288630652688,0.37964837192661166,model_implied_state_space,-31.3827,-0.33942984631401885,False,True,40,-3261.8338144547415,-5031.850508004844,-3261.8338144547415,0.2871933519063532,8.80118607980751e-05,40.0,14,1,0.02
ar,exact,2020:Q3:pre_advance:exact,2020-10-28,pre_advance,A,2020:Q3,-19.53626137751003,,,not_available,33.0826,-52.61886137751003,False,True,0,,,,,,,14,1,0.02
no_revision,exact,2020:Q3:pre_advance:exact,2020-10-28,pre_advance,A,2020:Q3,-20.080777742191426,,,not_available,33.0826,-53.16337774219143,False,True,0,,,,,,,14,1,0.02
bridge,exact,2020:Q3:pre_advance:exact,2020-10-28,pre_advance,A,2020:Q3,-0.47142845367528485,,,not_available,33.0826,-33.554028453675286,False,True,0,,,,,,,14,1,0.02
midas_umidas,exact,2020:Q3:pre_advance:exact,2020-10-28,pre_advance,A,2020:Q3,-29.778597368800916,,,not_available,33.0826,-62.861197368800916,False,True,0,,,,,,,14,1,0.02
monthly_mixed_frequency_kalman_em,exact,2020:Q3:pre_advance:exact,2020-10-28,pre_advance,A,2020:Q3,10.815794329781165,3.639724791901018,1.907806277351298,model_implied_state_space,33.0826,-22.266805670218837,False,True,30,-5768.034541426863,-7659.023192441736,-5768.034541426863,0.5548614852687024,9.617001254693144e-05,30.0,14,1,0.02
standard_dfm,exact,2020:Q3:pre_advance:exact,2020-10-28,pre_advance,A,2020:Q3,18.88190202791502,,,not_available,33.0826,-14.200697972084978,False,True,0,,,,,,,14,1,0.02
release_dfm,exact,2020:Q3:pre_advance:exact,2020-10-28,pre_advance,A,2020:Q3,18.88190202791502,,,not_available,33.0826,-14.200697972084978,False,True,0,,,,,,,14,1,0.02
revision_dfm_kalman_em,exact,2020:Q3:pre_advance:exact,2020-10-28,pre_advance,A,2020:Q3,11.153250797859542,2.660679647095171,1.6311589889079392,model_implied_state_space,33.0826,-21.929349202140457,False,True,38,-1757.3443199908932,-3171.3433679597624,-1757.3443199908932,0.1307702306187366,7.436569977358264e-05,38.0,14,1,0.02
indicator_revision_only_dfm_kalman_em,exact,2020:Q3:pre_advance:exact,2020-10-28,pre_advance,A,2020:Q3,9.794685914982997,2.996728005781087,1.731106006511758,model_implied_state_space,33.0826,-23.287914085017,False,True,39,-3199.4533870761206,-5116.649815801015,-3199.4533870761206,0.29275895499404214,9.146584628620411e-05,39.0,14,1,0.02
joint_indicator_revision_dfm_full_kalman_em,exact,2020:Q3:pre_advance:exact,2020-10-28,pre_advance,A,2020:Q3,7.4902479135275435,2.281257054184303,1.5103830819313036,model_implied_state_space,33.0826,-25.592352086472456,False,True,39,-3168.999253449028,-5127.7290978856445,-3168.999253449028,0.3151718242570496,9.941342781162199e-05,39.0,14,1,0.02
ar,exact,2020:Q3:pre_second:exact,2020-11-24,pre_second,S,2020:Q3,-16.980873036800336,,,not_available,33.0683,-50.04917303680034,False,True,0,,,,,,,14,1,0.02
no_revision,exact,2020:Q3:pre_second:exact,2020-11-24,pre_second,S,2020:Q3,33.0826,,,not_available,33.0683,0.014299999999998647,False,True,0,,,,,,,14,1,0.02
bridge,exact,2020:Q3:pre_second:exact,2020-11-24,pre_second,S,2020:Q3,2.7510477231713444,,,not_available,33.0683,-30.317252276828658,False,True,0,,,,,,,14,1,0.02
midas_umidas,exact,2020:Q3:pre_second:exact,2020-11-24,pre_second,S,2020:Q3,8.800212665578378,,,not_available,33.0683,-24.268087334421622,False,True,0,,,,,,,14,1,0.02
monthly_mixed_frequency_kalman_em,exact,2020:Q3:pre_second:exact,2020-11-24,pre_second,S,2020:Q3,33.550250756515915,0.35793197322276527,0.5982741622557047,model_implied_state_space,33.0683,0.48195075651591424,False,True,37,-5751.403105536458,-7656.96332378251,-5751.403105536458,0.5543315071199686,9.635592009608843e-05,37.0,14,1,0.02
standard_dfm,exact,2020:Q3:pre_second:exact,2020-11-24,pre_second,S,2020:Q3,19.833129890307784,,,not_available,33.0683,-13.235170109692216,False,True,0,,,,,,,14,1,0.02
release_dfm,exact,2020:Q3:pre_second:exact,2020-11-24,pre_second,S,2020:Q3,33.5551410655814,,,not_available,33.0683,0.4868410655814017,False,True,0,,,,,,,14,1,0.02
revision_dfm_kalman_em,exact,2020:Q3:pre_second:exact,2020-11-24,pre_second,S,2020:Q3,34.55727944004615,0.40024460366810793,0.632648878658698,model_implied_state_space,33.0683,1.4889794400461511,False,True,26,-1735.1074335771732,-3184.275241282571,-1735.1074335771732,0.15797771551069673,9.098707748435719e-05,26.0,14,1,0.02
indicator_revision_only_dfm_kalman_em,exact,2020:Q3:pre_second:exact,2020-11-24,pre_second,S,2020:Q3,32.83061289263236,0.36863539656876293,0.6071535197697226,model_implied_state_space,33.0683,-0.2376871073676412,False,True,39,-3169.641234947149,-5135.214381633735,-3169.641234947149,0.27014222381194486,8.519387383603312e-05,39.0,14,1,0.02
joint_indicator_revision_dfm_full_kalman_em,exact,2020:Q3:pre_second:exact,2020-11-24,pre_second,S,2020:Q3,34.00321520659104,0.3467982884732188,0.588895821409202,model_implied_state_space,33.0683,0.934915206591036,False,True,40,-3135.616491341895,-5146.56777244994,-3135.616491341895,0.2837681326573147,9.046131823931417e-05,40.0,14,1,0.02
ar,exact,2020:Q3:pre_third:exact,2020-12-21,pre_third,T,2020:Q3,-15.911115669469648,,,not_available,33.441,-49.352115669469654,False,True,0,,,,,,,14,1,0.02
no_revision,exact,2020:Q3:pre_third:exact,2020-12-21,pre_third,T,2020:Q3,33.0683,,,not_available,33.441,-0.3727000000000018,False,True,0,,,,,,,14,1,0.02
bridge,exact,2020:Q3:pre_third:exact,2020-12-21,pre_third,T,2020:Q3,4.160750997856098,,,not_available,33.441,-29.280249002143904,False,True,0,,,,,,,14,1,0.02
midas_umidas,exact,2020:Q3:pre_third:exact,2020-12-21,pre_third,T,2020:Q3,74.0258756987586,,,not_available,33.441,40.584875698758594,False,True,0,,,,,,,14,1,0.02
monthly_mixed_frequency_kalman_em,exact,2020:Q3:pre_third:exact,2020-12-21,pre_third,T,2020:Q3,33.53328153227935,0.14540948018133482,0.3813259500497374,model_implied_state_space,33.441,0.09228153227934399,False,True,33,-5738.80839494275,-7680.297825146089,-5738.80839494275,0.5482886126919766,9.551472894753632e-05,33.0,14,1,0.02
standard_dfm,exact,2020:Q3:pre_third:exact,2020-12-21,pre_third,T,2020:Q3,20.128692846342442,,,not_available,33.441,-13.31230715365756,False,True,0,,,,,,,14,1,0.02
release_dfm,exact,2020:Q3:pre_third:exact,2020-12-21,pre_third,T,2020:Q3,33.381430367698066,,,not_available,33.441,-0.05956963230193679,False,True,0,,,,,,,14,1,0.02
revision_dfm_kalman_em,exact,2020:Q3:pre_third:exact,2020-12-21,pre_third,T,2020:Q3,33.127618068372094,0.14526283544708965,0.3811336188885594,model_implied_state_space,33.441,-0.3133819316279087,False,True,25,-1705.8396034882608,-3201.8210724751007,-1705.8396034882608,0.14852191392151326,8.700817053810502e-05,25.0,14,1,0.02
indicator_revision_only_dfm_kalman_em,exact,2020:Q3:pre_third:exact,2020-12-21,pre_third,T,2020:Q3,33.05762640755014,0.14757302947600226,0.38415235190742003,model_implied_state_space,33.441,-0.383373592449864,False,True,39,-3140.963132838466,-5133.801734557694,-3140.963132838466,0.24833959896341185,7.903338178915551e-05,39.0,14,1,0.02
joint_indicator_revision_dfm_full_kalman_em,exact,2020:Q3:pre_third:exact,2020-12-21,pre_third,T,2020:Q3,33.08720359644618,0.1437493087458932,0.37914286060256125,model_implied_state_space,33.441,-0.35379640355382236,False,True,40,-3107.493818496691,-5142.624122929152,-3107.493818496691,0.26487479732486463,8.520275243499374e-05,40.0,14,1,0.02
ar,pseudo,2020:Q3:pre_advance:pseudo,2020-10-31,pre_advance,A,2020:Q3,-19.53626137751003,,,not_available,33.0826,-52.61886137751003,False,True,0,,,,,,,14,1,0.02
no_revision,pseudo,2020:Q3:pre_advance:pseudo,2020-10-31,pre_advance,A,2020:Q3,-20.080777742191426,,,not_available,33.0826,-53.16337774219143,False,True,0,,,,,,,14,1,0.02
bridge,pseudo,2020:Q3:pre_advance:pseudo,2020-10-31,pre_advance,A,2020:Q3,-0.16082314518756657,,,not_available,33.0826,-33.24342314518756,False,True,0,,,,,,,14,1,0.02
midas_umidas,pseudo,2020:Q3:pre_advance:pseudo,2020-10-31,pre_advance,A,2020:Q3,-29.6874130831427,,,not_available,33.0826,-62.7700130831427,False,True,0,,,,,,,14,1,0.02
monthly_mixed_frequency_kalman_em,pseudo,2020:Q3:pre_advance:pseudo,2020-10-31,pre_advance,A,2020:Q3,10.809311286514113,3.642176955793251,1.9084488349948632,model_implied_state_space,33.0826,-22.273288713485886,False,True,30,-5768.210513924089,-7659.314173156125,-5768.210513924089,0.5545354391269939,9.611057545370856e-05,30.0,14,1,0.02
standard_dfm,pseudo,2020:Q3:pre_advance:pseudo,2020-10-31,pre_advance,A,2020:Q3,19.28951008955901,,,not_available,33.0826,-13.79308991044099,False,True,0,,,,,,,14,1,0.02
release_dfm,pseudo,2020:Q3:pre_advance:pseudo,2020-10-31,pre_advance,A,2020:Q3,19.28951008955901,,,not_available,33.0826,-13.79308991044099,False,True,0,,,,,,,14,1,0.02
revision_dfm_kalman_em,pseudo,2020:Q3:pre_advance:pseudo,2020-10-31,pre_advance,A,2020:Q3,10.839000831143474,2.758157082929574,1.6607700271047687,model_implied_state_space,33.0826,-22.243599168856527,False,True,26,-1759.3120050955065,-3169.6839052799787,-1759.3120050955065,0.17369907909005633,9.866543004477001e-05,26.0,14,1,0.02
indicator_revision_only_dfm_kalman_em,pseudo,2020:Q3:pre_advance:pseudo,2020-10-31,pre_advance,A,2020:Q3,9.750332484430276,2.993920959406841,1.7302950498128467,model_implied_state_space,33.0826,-23.332267515569725,False,True,39,-3194.079570447404,-5113.8198241349755,-3194.079570447404,0.2876395636585585,9.001768646726604e-05,39.0,14,1,0.02
joint_indicator_revision_dfm_full_kalman_em,pseudo,2020:Q3:pre_advance:pseudo,2020-10-31,pre_advance,A,2020:Q3,7.418318099453675,2.2823838093995725,1.5107560390081427,model_implied_state_space,33.0826,-25.664281900546325,False,True,39,-3163.6251974799834,-5124.897556069366,-3163.6251974799834,0.30922279652395446,9.77027500294742e-05,39.0,14,1,0.02
ar,pseudo,2020:Q3:pre_second:pseudo,2020-11-30,pre_second,S,2020:Q3,-16.980873036800336,,,not_available,33.0683,-50.04917303680034,False,True,0,,,,,,,14,1,0.02
no_revision,pseudo,2020:Q3:pre_second:pseudo,2020-11-30,pre_second,S,2020:Q3,33.0826,,,not_available,33.0683,0.014299999999998647,False,True,0,,,,,,,14,1,0.02
bridge,pseudo,2020:Q3:pre_second:pseudo,2020-11-30,pre_second,S,2020:Q3,2.6749579371403445,,,not_available,33.0683,-30.393342062859656,False,True,0,,,,,,,14,1,0.02
midas_umidas,pseudo,2020:Q3:pre_second:pseudo,2020-11-30,pre_second,S,2020:Q3,8.75957808006508,,,not_available,33.0683,-24.30872191993492,False,True,0,,,,,,,14,1,0.02
monthly_mixed_frequency_kalman_em,pseudo,2020:Q3:pre_second:pseudo,2020-11-30,pre_second,S,2020:Q3,33.549794256355,0.35792817807266797,0.5982709904990112,model_implied_state_space,33.0683,0.4814942563549991,False,True,37,-5754.894766050502,-7659.926374435473,-5754.894766050502,0.5539771611884134,9.623592355298789e-05,37.0,14,1,0.02
standard_dfm,pseudo,2020:Q3:pre_second:pseudo,2020-11-30,pre_second,S,2020:Q3,19.937054667069408,,,not_available,33.0683,-13.131245332930593,False,True,0,,,,,,,14,1,0.02
release_dfm,pseudo,2020:Q3:pre_second:pseudo,2020-11-30,pre_second,S,2020:Q3,33.55458278971348,,,not_available,33.0683,0.4862827897134778,False,True,0,,,,,,,14,1,0.02
revision_dfm_kalman_em,pseudo,2020:Q3:pre_second:pseudo,2020-11-30,pre_second,S,2020:Q3,34.55980227399442,0.4002061176934882,0.6326184613916102,model_implied_state_space,33.0683,1.4915022739944206,False,True,26,-1736.137544073891,-3184.5597492468432,-1736.137544073891,0.15735152721003942,9.05727217690328e-05,26.0,14,1,0.02
indicator_revision_only_dfm_kalman_em,pseudo,2020:Q3:pre_second:pseudo,2020-11-30,pre_second,S,2020:Q3,32.83116063752595,0.3686310362774873,0.6071499289940561,model_implied_state_space,33.0683,-0.23713936247405343,False,True,39,-3171.29178004498,-5135.173226522867,-3171.29178004498,0.30525569996962076,9.621634784700744e-05,39.0,14,1,0.02
joint_indicator_revision_dfm_full_kalman_em,pseudo,2020:Q3:pre_second:pseudo,2020-11-30,pre_second,S,2020:Q3,34.01995581669959,0.34662314217893203,0.5887470952615664,model_implied_state_space,33.0683,0.9516558166995921,False,True,41,-3137.020568345521,-5146.524285599638,-3137.020568345521,0.24666095116526776,7.859781629257452e-05,41.0,14,1,0.02
ar,pseudo,2020:Q3:pre_third:pseudo,2020-12-31,pre_third,T,2020:Q3,-15.911115669469648,,,not_available,33.441,-49.352115669469654,False,True,0,,,,,,,14,1,0.02
no_revision,pseudo,2020:Q3:pre_third:pseudo,2020-12-31,pre_third,T,2020:Q3,33.0683,,,not_available,33.441,-0.3727000000000018,False,True,0,,,,,,,14,1,0.02
bridge,pseudo,2020:Q3:pre_third:pseudo,2020-12-31,pre_third,T,2020:Q3,4.14745085722406,,,not_available,33.441,-29.293549142775944,False,True,0,,,,,,,14,1,0.02
midas_umidas,pseudo,2020:Q3:pre_third:pseudo,2020-12-31,pre_third,T,2020:Q3,74.01504204633113,,,not_available,33.441,40.57404204633113,False,True,0,,,,,,,14,1,0.02
monthly_mixed_frequency_kalman_em,pseudo,2020:Q3:pre_third:pseudo,2020-12-31,pre_third,T,2020:Q3,33.533204972727944,0.14540422258922267,0.38131905615799305,model_implied_state_space,33.441,0.09220497272794148,False,True,33,-5741.948543437359,-7683.204442651881,-5741.948543437359,0.5491872741831685,9.56189590267552e-05,33.0,14,1,0.02
standard_dfm,pseudo,2020:Q3:pre_third:pseudo,2020-12-31,pre_third,T,2020:Q3,20.115730575511265,,,not_available,33.441,-13.325269424488738,False,True,0,,,,,,,14,1,0.02
release_dfm,pseudo,2020:Q3:pre_third:pseudo,2020-12-31,pre_third,T,2020:Q3,33.381575730604204,,,not_available,33.441,-0.059424269395798035,False,True,0,,,,,,,14,1,0.02
revision_dfm_kalman_em,pseudo,2020:Q3:pre_third:pseudo,2020-12-31,pre_third,T,2020:Q3,33.12762129980818,0.1452628101642453,0.3811335857206044,model_implied_state_space,33.441,-0.31337870019181935,False,True,25,-1705.9700580804647,-3201.863256549005,-1705.9700580804647,0.14851281944515904,8.699619462687369e-05,25.0,14,1,0.02
indicator_revision_only_dfm_kalman_em,pseudo,2020:Q3:pre_third:pseudo,2020-12-31,pre_third,T,2020:Q3,33.05762713292158,0.14757300287709338,0.3841523172871581,model_implied_state_space,33.441,-0.3833728670784211,False,True,39,-3141.04786551666,-5133.840411944958,-3141.04786551666,0.24814539709086603,7.896945298247305e-05,39.0,14,1,0.02
joint_indicator_revision_dfm_full_kalman_em,pseudo,2020:Q3:pre_third:pseudo,2020-12-31,pre_third,T,2020:Q3,33.087202003740416,0.14374932083527642,0.3791428765456057,model_implied_state_space,33.441,-0.35379799625958697,False,True,40,-3107.578522715594,-5142.662869134082,-3107.578522715594,0.26471954056023606,8.515049487285291e-05,40.0,14,1,0.02
ar,exact,2020:Q4:pre_advance:exact,2021-01-27,pre_advance,A,2020:Q4,3.457490434452062,,,not_available,4.0124,-0.5549095655479386,False,True,0,,,,,,,14,1,0.02
no_revision,exact,2020:Q4:pre_advance:exact,2021-01-27,pre_advance,A,2020:Q4,-2.3881056978927964,,,not_available,4.0124,-6.400505697892797,False,True,0,,,,,,,14,1,0.02
bridge,exact,2020:Q4:pre_advance:exact,2021-01-27,pre_advance,A,2020:Q4,9.066557621801813,,,not_available,4.0124,5.054157621801813,False,True,0,,,,,,,14,1,0.02
midas_umidas,exact,2020:Q4:pre_advance:exact,2021-01-27,pre_advance,A,2020:Q4,0.8259064302255368,,,not_available,4.0124,-3.1864935697744636,False,True,0,,,,,,,14,1,0.02
monthly_mixed_frequency_kalman_em,exact,2020:Q4:pre_advance:exact,2021-01-27,pre_advance,A,2020:Q4,1.6030423056758234,3.5461121443761545,1.8831123557494265,model_implied_state_space,4.0124,-2.409357694324177,False,True,32,-5735.998194739421,-7705.548388301524,-5735.998194739421,0.5496989707180546,9.580729972130939e-05,32.0,14,1,0.02
standard_dfm,exact,2020:Q4:pre_advance:exact,2021-01-27,pre_advance,A,2020:Q4,7.1854299729367686,,,not_available,4.0124,3.173029972936768,False,True,0,,,,,,,14,1,0.02
release_dfm,exact,2020:Q4:pre_advance:exact,2021-01-27,pre_advance,A,2020:Q4,7.1854299729367686,,,not_available,4.0124,3.173029972936768,False,True,0,,,,,,,14,1,0.02
revision_dfm_kalman_em,exact,2020:Q4:pre_advance:exact,2021-01-27,pre_advance,A,2020:Q4,2.6302478036781465,2.580126703447487,1.6062772809971158,model_implied_state_space,4.0124,-1.382152196321854,False,True,29,-1693.652960630089,-3208.034941254873,-1693.652960630089,0.15386243024113355,9.078464173474507e-05,29.0,14,1,0.02
