haminh109/Revision-Aware-DFM/outputs/full_state_space_release_revision_dfm/frozen/q2_manuscript_best_v1/initialization_audit/seed_1/revision_forecast_results.csv
model_id,timing_mode,forecast_origin,forecast_origin_date,checkpoint_id,target_id,revision_target_id,target_quarter,forecast_value,forecast_variance,forecast_sd,density_source,realized_value,forecast_error,revision_target_flag,converged,n_iter,loglikelihood,llf_initial,llf_final,llf_last_improvement,llf_relative_last_improvement,llf_history_length,n_indicators,initialization_seed,initialization_jitter
ar,exact,2019:Q1:pre_advance:exact,2019-04-25,pre_advance,DELTA_SA,DELTA_SA,2019:Q1,0.4648889202031996,,,not_available,-0.10470000000000024,0.5695889202031998,True,True,0,,,,,,,14,1,0.02
no_revision,exact,2019:Q1:pre_advance:exact,2019-04-25,pre_advance,DELTA_SA,DELTA_SA,2019:Q1,0.0,,,not_available,-0.10470000000000024,0.10470000000000024,True,True,0,,,,,,,14,1,0.02
bridge,exact,2019:Q1:pre_advance:exact,2019-04-25,pre_advance,DELTA_SA,DELTA_SA,2019:Q1,-0.8963490410084507,,,not_available,-0.10470000000000024,-0.7916490410084505,True,True,0,,,,,,,14,1,0.02
midas_umidas,exact,2019:Q1:pre_advance:exact,2019-04-25,pre_advance,DELTA_SA,DELTA_SA,2019:Q1,-0.277062365539126,,,not_available,-0.10470000000000024,-0.17236236553912576,True,True,0,,,,,,,14,1,0.02
monthly_mixed_frequency_kalman_em,exact,2019:Q1:pre_advance:exact,2019-04-25,pre_advance,DELTA_SA,DELTA_SA,2019:Q1,0.0722382020011556,0.3496579782164604,0.5913188464918571,model_implied_state_space,-0.10470000000000024,0.17693820200115584,True,True,54,-6285.22325928218,-7334.434583170255,-6285.22325928218,0.6243558635778754,9.931143584166545e-05,54.0,14,1,0.02
standard_dfm,exact,2019:Q1:pre_advance:exact,2019-04-25,pre_advance,DELTA_SA,DELTA_SA,2019:Q1,0.03229029921893689,,,not_available,-0.10470000000000024,0.13699029921893713,True,True,0,,,,,,,14,1,0.02
release_dfm,exact,2019:Q1:pre_advance:exact,2019-04-25,pre_advance,DELTA_SA,DELTA_SA,2019:Q1,0.03229029921893689,,,not_available,-0.10470000000000024,0.13699029921893713,True,True,0,,,,,,,14,1,0.02
revision_dfm_kalman_em,exact,2019:Q1:pre_advance:exact,2019-04-25,pre_advance,DELTA_SA,DELTA_SA,2019:Q1,0.07799149429313523,0.4114609043100872,0.6414521839623646,model_implied_state_space,-0.10470000000000024,0.18269149429313547,True,True,21,-1989.6473372830972,-2960.956351916893,-1989.6473372830972,0.17921086993965218,9.001832435171849e-05,21.0,14,1,0.02
indicator_revision_only_dfm_kalman_em,exact,2019:Q1:pre_advance:exact,2019-04-25,pre_advance,DELTA_SA,DELTA_SA,2019:Q1,0.0,0.4384021507913163,0.6621194384635722,model_implied_state_space,-0.10470000000000024,0.10470000000000024,True,True,25,-3681.8485663185447,-4853.745260936312,-3681.8485663185447,0.337493714053835,9.163091642751492e-05,25.0,14,1,0.02
joint_indicator_revision_dfm_full_kalman_em,exact,2019:Q1:pre_advance:exact,2019-04-25,pre_advance,DELTA_SA,DELTA_SA,2019:Q1,0.03746320545963355,0.3957660314344329,0.6290993812065252,model_implied_state_space,-0.10470000000000024,0.1421632054596338,True,True,26,-3646.4753530512185,-4868.636514122485,-3646.4753530512185,0.34131569033752385,9.356711735605748e-05,26.0,14,1,0.02
ar,exact,2019:Q1:pre_second:exact,2019-05-29,pre_second,DELTA_TS,DELTA_TS,2019:Q1,-0.5635001866146694,,,not_available,0.06099999999999994,-0.6245001866146693,True,True,0,,,,,,,14,1,0.02
no_revision,exact,2019:Q1:pre_second:exact,2019-05-29,pre_second,DELTA_TS,DELTA_TS,2019:Q1,0.0,,,not_available,0.06099999999999994,-0.06099999999999994,True,True,0,,,,,,,14,1,0.02
bridge,exact,2019:Q1:pre_second:exact,2019-05-29,pre_second,DELTA_TS,DELTA_TS,2019:Q1,0.8923743808409088,,,not_available,0.06099999999999994,0.8313743808409089,True,True,0,,,,,,,14,1,0.02
midas_umidas,exact,2019:Q1:pre_second:exact,2019-05-29,pre_second,DELTA_TS,DELTA_TS,2019:Q1,0.1692563726873546,,,not_available,0.06099999999999994,0.10825637268735466,True,True,0,,,,,,,14,1,0.02
monthly_mixed_frequency_kalman_em,exact,2019:Q1:pre_second:exact,2019-05-29,pre_second,DELTA_TS,DELTA_TS,2019:Q1,0.22826322812823108,0.1448815061963019,0.38063303350642325,model_implied_state_space,0.06099999999999994,0.16726322812823113,True,True,50,-6312.701696013429,-7328.980019682591,-6312.701696013429,0.6195132228340299,9.811240231615679e-05,50.0,14,1,0.02
standard_dfm,exact,2019:Q1:pre_second:exact,2019-05-29,pre_second,DELTA_TS,DELTA_TS,2019:Q1,0.05165552868850387,,,not_available,0.06099999999999994,-0.009344471311496072,True,True,0,,,,,,,14,1,0.02
release_dfm,exact,2019:Q1:pre_second:exact,2019-05-29,pre_second,DELTA_TS,DELTA_TS,2019:Q1,0.04575425000561806,,,not_available,0.06099999999999994,-0.015245749994381885,True,True,0,,,,,,,14,1,0.02
revision_dfm_kalman_em,exact,2019:Q1:pre_second:exact,2019-05-29,pre_second,DELTA_TS,DELTA_TS,2019:Q1,0.00831359055599279,0.14952147487660372,0.38668006785533143,model_implied_state_space,0.06099999999999994,-0.052686409444007154,True,True,21,-1990.4742029021602,-2962.0697015271653,-1990.4742029021602,0.18340546773083588,9.208684613262792e-05,21.0,14,1,0.02
indicator_revision_only_dfm_kalman_em,exact,2019:Q1:pre_second:exact,2019-05-29,pre_second,DELTA_TS,DELTA_TS,2019:Q1,0.0,0.15397014216977067,0.3923902931645617,model_implied_state_space,0.06099999999999994,-0.06099999999999994,True,True,25,-3683.048964163974,-4854.952847441515,-3683.048964163974,0.3384161321710053,9.18513981403888e-05,25.0,14,1,0.02
joint_indicator_revision_dfm_full_kalman_em,exact,2019:Q1:pre_second:exact,2019-05-29,pre_second,DELTA_TS,DELTA_TS,2019:Q1,0.006201409127762236,0.148655785314599,0.3855590555473947,model_implied_state_space,0.06099999999999994,-0.05479859087223771,True,True,26,-3647.644655152537,-4869.9531601477465,-3647.644655152537,0.3420790589166245,9.374631475347027e-05,26.0,14,1,0.02
ar,exact,2019:Q1:pre_third:exact,2019-06-26,pre_third,DELTA_MT,DELTA_MT,2019:Q1,0.29507328704170277,,,not_available,-0.6073999999999997,0.9024732870417025,True,True,0,,,,,,,14,1,0.02
no_revision,exact,2019:Q1:pre_third:exact,2019-06-26,pre_third,DELTA_MT,DELTA_MT,2019:Q1,0.0,,,not_available,-0.6073999999999997,0.6073999999999997,True,True,0,,,,,,,14,1,0.02
bridge,exact,2019:Q1:pre_third:exact,2019-06-26,pre_third,DELTA_MT,DELTA_MT,2019:Q1,-0.2460835305255178,,,not_available,-0.6073999999999997,0.3613164694744819,True,True,0,,,,,,,14,1,0.02
midas_umidas,exact,2019:Q1:pre_third:exact,2019-06-26,pre_third,DELTA_MT,DELTA_MT,2019:Q1,-0.12965189226681062,,,not_available,-0.6073999999999997,0.4777481077331891,True,True,0,,,,,,,14,1,0.02
monthly_mixed_frequency_kalman_em,exact,2019:Q1:pre_third:exact,2019-06-26,pre_third,DELTA_MT,DELTA_MT,2019:Q1,0.14522074281064423,4.4784901265845125,2.1162443447259376,model_implied_state_space,-0.6073999999999997,0.752620742810644,True,True,52,-6328.886922084899,-7349.5487198973715,-6328.886922084899,0.6279233508239486,9.918993417678798e-05,52.0,14,1,0.02
standard_dfm,exact,2019:Q1:pre_third:exact,2019-06-26,pre_third,DELTA_MT,DELTA_MT,2019:Q1,0.2069325298377389,,,not_available,-0.6073999999999997,0.8143325298377386,True,True,0,,,,,,,14,1,0.02
release_dfm,exact,2019:Q1:pre_third:exact,2019-06-26,pre_third,DELTA_MT,DELTA_MT,2019:Q1,-0.05832211075326654,,,not_available,-0.6073999999999997,0.5490778892467332,True,True,0,,,,,,,14,1,0.02
revision_dfm_kalman_em,exact,2019:Q1:pre_third:exact,2019-06-26,pre_third,DELTA_MT,DELTA_MT,2019:Q1,0.0024320143277876127,4.362208176585896,2.08858999724357,model_implied_state_space,-0.6073999999999997,0.6098320143277873,True,True,22,-1989.5106838353981,-2978.7789078415194,-1989.5106838353981,0.19622076590508186,9.856838565814929e-05,22.0,14,1,0.02
indicator_revision_only_dfm_kalman_em,exact,2019:Q1:pre_third:exact,2019-06-26,pre_third,DELTA_MT,DELTA_MT,2019:Q1,0.0,4.36086515237323,2.0882684579271005,model_implied_state_space,-0.6073999999999997,0.6073999999999997,True,True,25,-3681.74978444027,-4855.5261889359,-3681.74978444027,0.3399873669900444,9.231036658202755e-05,25.0,14,1,0.02
joint_indicator_revision_dfm_full_kalman_em,exact,2019:Q1:pre_third:exact,2019-06-26,pre_third,DELTA_MT,DELTA_MT,2019:Q1,0.001456837171360359,4.372183934892216,2.090976789658894,model_implied_state_space,-0.6073999999999997,0.6088568371713601,True,True,26,-3646.3984787082245,-4870.4958776656695,-3646.3984787082245,0.34462991589998637,9.447757301910872e-05,26.0,14,1,0.02
ar,pseudo,2019:Q1:pre_advance:pseudo,2019-04-30,pre_advance,DELTA_SA,DELTA_SA,2019:Q1,0.4648889202031996,,,not_available,-0.10470000000000024,0.5695889202031998,True,True,0,,,,,,,14,1,0.02
no_revision,pseudo,2019:Q1:pre_advance:pseudo,2019-04-30,pre_advance,DELTA_SA,DELTA_SA,2019:Q1,0.0,,,not_available,-0.10470000000000024,0.10470000000000024,True,True,0,,,,,,,14,1,0.02
bridge,pseudo,2019:Q1:pre_advance:pseudo,2019-04-30,pre_advance,DELTA_SA,DELTA_SA,2019:Q1,-0.8963928945664441,,,not_available,-0.10470000000000024,-0.7916928945664439,True,True,0,,,,,,,14,1,0.02
midas_umidas,pseudo,2019:Q1:pre_advance:pseudo,2019-04-30,pre_advance,DELTA_SA,DELTA_SA,2019:Q1,-0.3550490427156605,,,not_available,-0.10470000000000024,-0.2503490427156603,True,True,0,,,,,,,14,1,0.02
monthly_mixed_frequency_kalman_em,pseudo,2019:Q1:pre_advance:pseudo,2019-04-30,pre_advance,DELTA_SA,DELTA_SA,2019:Q1,0.07017223175006237,0.3495530576467809,0.5912301224115538,model_implied_state_space,-0.10470000000000024,0.1748722317500626,True,True,54,-6287.947680874189,-7337.221342752908,-6287.947680874189,0.6241217620436146,9.923120072848489e-05,54.0,14,1,0.02
standard_dfm,pseudo,2019:Q1:pre_advance:pseudo,2019-04-30,pre_advance,DELTA_SA,DELTA_SA,2019:Q1,0.032216263021888736,,,not_available,-0.10470000000000024,0.13691626302188897,True,True,0,,,,,,,14,1,0.02
release_dfm,pseudo,2019:Q1:pre_advance:pseudo,2019-04-30,pre_advance,DELTA_SA,DELTA_SA,2019:Q1,0.032216263021888736,,,not_available,-0.10470000000000024,0.13691626302188897,True,True,0,,,,,,,14,1,0.02
revision_dfm_kalman_em,pseudo,2019:Q1:pre_advance:pseudo,2019-04-30,pre_advance,DELTA_SA,DELTA_SA,2019:Q1,0.07795667501492787,0.41146105609293304,0.6414523022742479,model_implied_state_space,-0.10470000000000024,0.1826566750149281,True,True,21,-1989.6463136109435,-2960.9565237141464,-1989.6463136109435,0.1792094428717519,9.001765388101646e-05,21.0,14,1,0.02
indicator_revision_only_dfm_kalman_em,pseudo,2019:Q1:pre_advance:pseudo,2019-04-30,pre_advance,DELTA_SA,DELTA_SA,2019:Q1,0.0,0.43840222188992684,0.6621194921537402,model_implied_state_space,-0.10470000000000024,0.10470000000000024,True,True,25,-3681.8487049760797,-4853.744277662049,-3681.8487049760797,0.3374909495992142,9.163016248609557e-05,25.0,14,1,0.02
joint_indicator_revision_dfm_full_kalman_em,pseudo,2019:Q1:pre_advance:pseudo,2019-04-30,pre_advance,DELTA_SA,DELTA_SA,2019:Q1,0.037540230011672726,0.39576555954426507,0.62909900615425,model_implied_state_space,-0.10470000000000024,0.14224023001167296,True,True,26,-3646.4753704376926,-4868.635528992132,-3646.4753704376926,0.34131510100769447,9.356695536834245e-05,26.0,14,1,0.02
ar,pseudo,2019:Q1:pre_second:pseudo,2019-05-31,pre_second,DELTA_TS,DELTA_TS,2019:Q1,-0.5635001866146694,,,not_available,0.06099999999999994,-0.6245001866146693,True,True,0,,,,,,,14,1,0.02
no_revision,pseudo,2019:Q1:pre_second:pseudo,2019-05-31,pre_second,DELTA_TS,DELTA_TS,2019:Q1,0.0,,,not_available,0.06099999999999994,-0.06099999999999994,True,True,0,,,,,,,14,1,0.02
bridge,pseudo,2019:Q1:pre_second:pseudo,2019-05-31,pre_second,DELTA_TS,DELTA_TS,2019:Q1,0.8891871677354084,,,not_available,0.06099999999999994,0.8281871677354085,True,True,0,,,,,,,14,1,0.02
midas_umidas,pseudo,2019:Q1:pre_second:pseudo,2019-05-31,pre_second,DELTA_TS,DELTA_TS,2019:Q1,0.15850275294399863,,,not_available,0.06099999999999994,0.09750275294399868,True,True,0,,,,,,,14,1,0.02
monthly_mixed_frequency_kalman_em,pseudo,2019:Q1:pre_second:pseudo,2019-05-31,pre_second,DELTA_TS,DELTA_TS,2019:Q1,0.22777825448362732,0.14489493338300918,0.38065067106601713,model_implied_state_space,0.06099999999999994,0.16677825448362738,True,True,50,-6314.183496918036,-7330.413930259353,-6314.183496918036,0.6163609765144429,9.759032749335954e-05,50.0,14,1,0.02
standard_dfm,pseudo,2019:Q1:pre_second:pseudo,2019-05-31,pre_second,DELTA_TS,DELTA_TS,2019:Q1,0.05169863222872828,,,not_available,0.06099999999999994,-0.009301367771271662,True,True,0,,,,,,,14,1,0.02
release_dfm,pseudo,2019:Q1:pre_second:pseudo,2019-05-31,pre_second,DELTA_TS,DELTA_TS,2019:Q1,0.045647170481801336,,,not_available,0.06099999999999994,-0.015352829518198607,True,True,0,,,,,,,14,1,0.02
revision_dfm_kalman_em,pseudo,2019:Q1:pre_second:pseudo,2019-05-31,pre_second,DELTA_TS,DELTA_TS,2019:Q1,0.008295605488338964,0.14952169528001846,0.3866803528497646,model_implied_state_space,0.06099999999999994,-0.05270439451166098,True,True,21,-1990.4828257948109,-2962.0649414968143,-1990.4828257948109,0.18336614719396493,9.206670672818468e-05,21.0,14,1,0.02
indicator_revision_only_dfm_kalman_em,pseudo,2019:Q1:pre_second:pseudo,2019-05-31,pre_second,DELTA_TS,DELTA_TS,2019:Q1,0.0,0.15396959698549895,0.39238959846751664,model_implied_state_space,0.06099999999999994,-0.06099999999999994,True,True,25,-3683.051835542384,-4854.935388383638,-3683.051835542384,0.3384864291961094,9.187040449476035e-05,25.0,14,1,0.02
joint_indicator_revision_dfm_full_kalman_em,pseudo,2019:Q1:pre_second:pseudo,2019-05-31,pre_second,DELTA_TS,DELTA_TS,2019:Q1,0.006181281848619324,0.14865604127205567,0.3855593874775398,model_implied_state_space,0.06099999999999994,-0.05481871815138062,True,True,26,-3647.648020806844,-4869.935719428076,-3647.648020806844,0.3421567760497055,9.376752454739452e-05,26.0,14,1,0.02
ar,pseudo,2019:Q1:pre_third:pseudo,2019-06-30,pre_third,DELTA_MT,DELTA_MT,2019:Q1,0.29507328704170277,,,not_available,-0.6073999999999997,0.9024732870417025,True,True,0,,,,,,,14,1,0.02
no_revision,pseudo,2019:Q1:pre_third:pseudo,2019-06-30,pre_third,DELTA_MT,DELTA_MT,2019:Q1,0.0,,,not_available,-0.6073999999999997,0.6073999999999997,True,True,0,,,,,,,14,1,0.02
bridge,pseudo,2019:Q1:pre_third:pseudo,2019-06-30,pre_third,DELTA_MT,DELTA_MT,2019:Q1,-0.24458762674535617,,,not_available,-0.6073999999999997,0.36281237325464355,True,True,0,,,,,,,14,1,0.02
midas_umidas,pseudo,2019:Q1:pre_third:pseudo,2019-06-30,pre_third,DELTA_MT,DELTA_MT,2019:Q1,-0.10219946807304581,,,not_available,-0.6073999999999997,0.5052005319269539,True,True,0,,,,,,,14,1,0.02
monthly_mixed_frequency_kalman_em,pseudo,2019:Q1:pre_third:pseudo,2019-06-30,pre_third,DELTA_MT,DELTA_MT,2019:Q1,0.14510499833795176,4.478492055124484,2.1162448003774244,model_implied_state_space,-0.6073999999999997,0.7525049983379515,True,True,52,-6330.262917367987,-7350.951155117272,-6330.262917367987,0.6282721687175581,9.922346261347043e-05,52.0,14,1,0.02
standard_dfm,pseudo,2019:Q1:pre_third:pseudo,2019-06-30,pre_third,DELTA_MT,DELTA_MT,2019:Q1,0.20610842776374927,,,not_available,-0.6073999999999997,0.813508427763749,True,True,0,,,,,,,14,1,0.02
release_dfm,pseudo,2019:Q1:pre_third:pseudo,2019-06-30,pre_third,DELTA_MT,DELTA_MT,2019:Q1,-0.06045295100080228,,,not_available,-0.6073999999999997,0.5469470489991974,True,True,0,,,,,,,14,1,0.02
revision_dfm_kalman_em,pseudo,2019:Q1:pre_third:pseudo,2019-06-30,pre_third,DELTA_MT,DELTA_MT,2019:Q1,0.0024351643616684626,4.362207161327242,2.0885897541947394,model_implied_state_space,-0.6073999999999997,0.6098351643616682,True,True,22,-1989.4962299515878,-2978.778049783424,-1989.4962299515878,0.19620236331161323,9.855985793016607e-05,22.0,14,1,0.02
indicator_revision_only_dfm_kalman_em,pseudo,2019:Q1:pre_third:pseudo,2019-06-30,pre_third,DELTA_MT,DELTA_MT,2019:Q1,0.0,4.360865401046435,2.0882685174676254,model_implied_state_space,-0.6073999999999997,0.6073999999999997,True,True,25,-3681.756137916943,-4855.536995970616,-3681.756137916943,0.3400225617401702,9.231976221223024e-05,25.0,14,1,0.02
joint_indicator_revision_dfm_full_kalman_em,pseudo,2019:Q1:pre_third:pseudo,2019-06-30,pre_third,DELTA_MT,DELTA_MT,2019:Q1,0.001459634536019827,4.372183211623477,2.090976616708919,model_implied_state_space,-0.6073999999999997,0.6088596345360195,True,True,26,-3646.405081726795,-4870.506666239166,-3646.405081726795,0.3446662977412416,9.448737483373085e-05,26.0,14,1,0.02
ar,exact,2019:Q2:pre_advance:exact,2019-07-25,pre_advance,DELTA_SA,DELTA_SA,2019:Q2,-0.026254198058714096,,,not_available,-0.017100000000000115,-0.00915419805871398,True,True,0,,,,,,,14,1,0.02
no_revision,exact,2019:Q2:pre_advance:exact,2019-07-25,pre_advance,DELTA_SA,DELTA_SA,2019:Q2,0.0,,,not_available,-0.017100000000000115,0.017100000000000115,True,True,0,,,,,,,14,1,0.02
bridge,exact,2019:Q2:pre_advance:exact,2019-07-25,pre_advance,DELTA_SA,DELTA_SA,2019:Q2,-0.08652409669299166,,,not_available,-0.017100000000000115,-0.06942409669299154,True,True,0,,,,,,,14,1,0.02
midas_umidas,exact,2019:Q2:pre_advance:exact,2019-07-25,pre_advance,DELTA_SA,DELTA_SA,2019:Q2,0.6439951021716461,,,not_available,-0.017100000000000115,0.6610951021716462,True,True,0,,,,,,,14,1,0.02
monthly_mixed_frequency_kalman_em,exact,2019:Q2:pre_advance:exact,2019-07-25,pre_advance,DELTA_SA,DELTA_SA,2019:Q2,-0.03954711119215437,0.350678416996292,0.5921810677455773,model_implied_state_space,-0.017100000000000115,-0.022447111192154257,True,True,50,-6350.581332858644,-7371.17664482267,-6350.581332858644,0.6185725957329851,9.737927095175985e-05,50.0,14,1,0.02
standard_dfm,exact,2019:Q2:pre_advance:exact,2019-07-25,pre_advance,DELTA_SA,DELTA_SA,2019:Q2,0.06429942451968351,,,not_available,-0.017100000000000115,0.08139942451968363,True,True,0,,,,,,,14,1,0.02
release_dfm,exact,2019:Q2:pre_advance:exact,2019-07-25,pre_advance,DELTA_SA,DELTA_SA,2019:Q2,0.06429942451968351,,,not_available,-0.017100000000000115,0.08139942451968363,True,True,0,,,,,,,14,1,0.02
revision_dfm_kalman_em,exact,2019:Q2:pre_advance:exact,2019-07-25,pre_advance,DELTA_SA,DELTA_SA,2019:Q2,0.050625692728690996,0.4100485394657598,0.6403503255763675,model_implied_state_space,-0.017100000000000115,0.06772569272869111,True,True,21,-2007.8804899873292,-2983.5774904892764,-2007.8804899873292,0.1818822601244392,9.053091762451116e-05,21.0,14,1,0.02
indicator_revision_only_dfm_kalman_em,exact,2019:Q2:pre_advance:exact,2019-07-25,pre_advance,DELTA_SA,DELTA_SA,2019:Q2,0.0,0.4364405047512383,0.6606364391639613,model_implied_state_space,-0.017100000000000115,0.017100000000000115,True,True,25,-3718.3624375692534,-4894.705309949214,-3718.3624375692534,0.34175181739738036,9.187607400945839e-05,25.0,14,1,0.02
joint_indicator_revision_dfm_full_kalman_em,exact,2019:Q2:pre_advance:exact,2019-07-25,pre_advance,DELTA_SA,DELTA_SA,2019:Q2,0.07108156374870456,0.3938866476406977,0.6276038939017967,model_implied_state_space,-0.017100000000000115,0.08818156374870467,True,True,26,-3683.1275658056147,-4909.672272036665,-3683.1275658056147,0.34473554961596165,9.356442969842935e-05,26.0,14,1,0.02
ar,exact,2019:Q2:pre_second:exact,2019-08-28,pre_second,DELTA_TS,DELTA_TS,2019:Q2,0.055386723140361305,,,not_available,-0.023600000000000065,0.07898672314036137,True,True,0,,,,,,,14,1,0.02
no_revision,exact,2019:Q2:pre_second:exact,2019-08-28,pre_second,DELTA_TS,DELTA_TS,2019:Q2,0.0,,,not_available,-0.023600000000000065,0.023600000000000065,True,True,0,,,,,,,14,1,0.02
bridge,exact,2019:Q2:pre_second:exact,2019-08-28,pre_second,DELTA_TS,DELTA_TS,2019:Q2,0.23410885204244902,,,not_available,-0.023600000000000065,0.2577088520424491,True,True,0,,,,,,,14,1,0.02
midas_umidas,exact,2019:Q2:pre_second:exact,2019-08-28,pre_second,DELTA_TS,DELTA_TS,2019:Q2,-0.29173799287155333,,,not_available,-0.023600000000000065,-0.26813799287155327,True,True,0,,,,,,,14,1,0.02
monthly_mixed_frequency_kalman_em,exact,2019:Q2:pre_second:exact,2019-08-28,pre_second,DELTA_TS,DELTA_TS,2019:Q2,0.01683106127437206,0.14467528830341836,0.3803620489788885,model_implied_state_space,-0.023600000000000065,0.040431061274372126,True,True,52,-6368.1541381053285,-7418.865479658013,-6368.1541381053285,0.635894770505729,9.982978516147965e-05,52.0,14,1,0.02
standard_dfm,exact,2019:Q2:pre_second:exact,2019-08-28,pre_second,DELTA_TS,DELTA_TS,2019:Q2,0.05877272252036114,,,not_available,-0.023600000000000065,0.08237272252036121,True,True,0,,,,,,,14,1,0.02
release_dfm,exact,2019:Q2:pre_second:exact,2019-08-28,pre_second,DELTA_TS,DELTA_TS,2019:Q2,0.040997546223894066,,,not_available,-0.023600000000000065,0.06459754622389413,True,True,0,,,,,,,14,1,0.02
revision_dfm_kalman_em,exact,2019:Q2:pre_second:exact,2019-08-28,pre_second,DELTA_TS,DELTA_TS,2019:Q2,0.001988411455324357,0.14884064326579138,0.38579870822203566,model_implied_state_space,-0.023600000000000065,0.025588411455324422,True,True,21,-2009.1009526111743,-2984.70576867346,-2009.1009526111743,0.18424291335009002,9.16501368861831e-05,21.0,14,1,0.02
indicator_revision_only_dfm_kalman_em,exact,2019:Q2:pre_second:exact,2019-08-28,pre_second,DELTA_TS,DELTA_TS,2019:Q2,0.0,0.15327868659056143,0.3915082203358717,model_implied_state_space,-0.023600000000000065,0.023600000000000065,True,True,25,-3719.7006370256095,-4896.004054127525,-3719.7006370256095,0.3416484044000754,9.181524373905199e-05,25.0,14,1,0.02
joint_indicator_revision_dfm_full_kalman_em,exact,2019:Q2:pre_second:exact,2019-08-28,pre_second,DELTA_TS,DELTA_TS,2019:Q2,0.0007733393255735521,0.14798863264436912,0.38469290693274955,model_implied_state_space,-0.023600000000000065,0.024373339325573617,True,True,26,-3684.3085339845743,-4911.083098046496,-3684.3085339845743,0.34427028488426004,9.340822458519628e-05,26.0,14,1,0.02
ar,exact,2019:Q2:pre_third:exact,2019-09-25,pre_third,DELTA_MT,DELTA_MT,2019:Q2,-0.46237987223397825,,,not_available,1.3697,-1.8320798722339782,True,True,0,,,,,,,14,1,0.02
no_revision,exact,2019:Q2:pre_third:exact,2019-09-25,pre_third,DELTA_MT,DELTA_MT,2019:Q2,0.0,,,not_available,1.3697,-1.3697,True,True,0,,,,,,,14,1,0.02
bridge,exact,2019:Q2:pre_third:exact,2019-09-25,pre_third,DELTA_MT,DELTA_MT,2019:Q2,-1.1014609870404506,,,not_available,1.3697,-2.4711609870404505,True,True,0,,,,,,,14,1,0.02
midas_umidas,exact,2019:Q2:pre_third:exact,2019-09-25,pre_third,DELTA_MT,DELTA_MT,2019:Q2,-2.7795466199430354,,,not_available,1.3697,-4.149246619943035,True,True,0,,,,,,,14,1,0.02
monthly_mixed_frequency_kalman_em,exact,2019:Q2:pre_third:exact,2019-09-25,pre_third,DELTA_MT,DELTA_MT,2019:Q2,-0.00410915759849706,4.457429140538674,2.1112624518374483,model_implied_state_space,1.3697,-1.373809157598497,True,True,54,-6383.975003426527,-7438.317659323553,-6383.975003426527,0.6276238260634273,9.828732896482518e-05,54.0,14,1,0.02
standard_dfm,exact,2019:Q2:pre_third:exact,2019-09-25,pre_third,DELTA_MT,DELTA_MT,2019:Q2,0.2538501440217149,,,not_available,1.3697,-1.115849855978285,True,True,0,,,,,,,14,1,0.02
release_dfm,exact,2019:Q2:pre_third:exact,2019-09-25,pre_third,DELTA_MT,DELTA_MT,2019:Q2,0.29477225106409,,,not_available,1.3697,-1.07492774893591,True,True,0,,,,,,,14,1,0.02
revision_dfm_kalman_em,exact,2019:Q2:pre_third:exact,2019-09-25,pre_third,DELTA_MT,DELTA_MT,2019:Q2,0.0006456492956470328,4.3408800520664865,2.083477874148532,model_implied_state_space,1.3697,-1.3690543507043529,True,True,22,-2009.0693848047392,-3001.815601631787,-2009.0693848047392,0.19885275596311658,9.891851855770665e-05,22.0,14,1,0.02
indicator_revision_only_dfm_kalman_em,exact,2019:Q2:pre_third:exact,2019-09-25,pre_third,DELTA_MT,DELTA_MT,2019:Q2,0.0,4.339534439979649,2.083154924622662,model_implied_state_space,1.3697,-1.3697,True,True,25,-3719.2356889440853,-4897.02971379242,-3719.2356889440853,0.3424119606215754,9.203192389330935e-05,25.0,14,1,0.02
joint_indicator_revision_dfm_full_kalman_em,exact,2019:Q2:pre_third:exact,2019-09-25,pre_third,DELTA_MT,DELTA_MT,2019:Q2,-0.0002505189200263658,4.350766889689566,2.0858492010904253,model_implied_state_space,1.3697,-1.3699505189200263,True,True,26,-3683.828050008315,-4912.0790598288695,-3683.828050008315,0.3451021436103474,9.36461135913866e-05,26.0,14,1,0.02
ar,pseudo,2019:Q2:pre_advance:pseudo,2019-07-31,pre_advance,DELTA_SA,DELTA_SA,2019:Q2,-0.026254198058714096,,,not_available,-0.017100000000000115,-0.00915419805871398,True,True,0,,,,,,,14,1,0.02
no_revision,pseudo,2019:Q2:pre_advance:pseudo,2019-07-31,pre_advance,DELTA_SA,DELTA_SA,2019:Q2,0.0,,,not_available,-0.017100000000000115,0.017100000000000115,True,True,0,,,,,,,14,1,0.02
bridge,pseudo,2019:Q2:pre_advance:pseudo,2019-07-31,pre_advance,DELTA_SA,DELTA_SA,2019:Q2,-0.08882651376427209,,,not_available,-0.017100000000000115,-0.07172651376427197,True,True,0,,,,,,,14,1,0.02
midas_umidas,pseudo,2019:Q2:pre_advance:pseudo,2019-07-31,pre_advance,DELTA_SA,DELTA_SA,2019:Q2,0.0825776765362578,,,not_available,-0.017100000000000115,0.09967767653625792,True,True,0,,,,,,,14,1,0.02
monthly_mixed_frequency_kalman_em,pseudo,2019:Q2:pre_advance:pseudo,2019-07-31,pre_advance,DELTA_SA,DELTA_SA,2019:Q2,-0.032333698315883064,0.3504926899935672,0.5920242309175927,model_implied_state_space,-0.017100000000000115,-0.015233698315882949,True,True,49,-6352.49700138712,-7372.402001919866,-6352.49700138712,0.6272247180922932,9.871143461681316e-05,49.0,14,1,0.02
standard_dfm,pseudo,2019:Q2:pre_advance:pseudo,2019-07-31,pre_advance,DELTA_SA,DELTA_SA,2019:Q2,0.06890437481270517,,,not_available,-0.017100000000000115,0.08600437481270529,True,True,0,,,,,,,14,1,0.02
release_dfm,pseudo,2019:Q2:pre_advance:pseudo,2019-07-31,pre_advance,DELTA_SA,DELTA_SA,2019:Q2,0.06890437481270517,,,not_available,-0.017100000000000115,0.08600437481270529,True,True,0,,,,,,,14,1,0.02
revision_dfm_kalman_em,pseudo,2019:Q2:pre_advance:pseudo,2019-07-31,pre_advance,DELTA_SA,DELTA_SA,2019:Q2,0.05344145247949639,0.40998720292262014,0.6403024308267307,model_implied_state_space,-0.017100000000000115,0.0705414524794965,True,True,21,-2007.6187227681082,-2983.2616303945697,-2007.6187227681082,0.18180986019501688,9.050667661718404e-05,21.0,14,1,0.02
indicator_revision_only_dfm_kalman_em,pseudo,2019:Q2:pre_advance:pseudo,2019-07-31,pre_advance,DELTA_SA,DELTA_SA,2019:Q2,0.0,0.4364400872413716,0.6606361231732425,model_implied_state_space,-0.017100000000000115,0.017100000000000115,True,True,25,-3717.823722531104,-4894.458442724955,-3717.823722531104,0.34114113033274407,9.17251971446348e-05,25.0,14,1,0.02
joint_indicator_revision_dfm_full_kalman_em,pseudo,2019:Q2:pre_advance:pseudo,2019-07-31,pre_advance,DELTA_SA,DELTA_SA,2019:Q2,0.06612264612621521,0.39387896101097564,0.6275977700812644,model_implied_state_space,-0.017100000000000115,0.08322264612621533,True,True,26,-3682.586595096315,-4909.425269961734,-3682.586595096315,0.3439975815476828,9.33778671703013e-05,26.0,14,1,0.02
ar,pseudo,2019:Q2:pre_second:pseudo,2019-08-31,pre_second,DELTA_TS,DELTA_TS,2019:Q2,0.055386723140361305,,,not_available,-0.023600000000000065,0.07898672314036137,True,True,0,,,,,,,14,1,0.02
no_revision,pseudo,2019:Q2:pre_second:pseudo,2019-08-31,pre_second,DELTA_TS,DELTA_TS,2019:Q2,0.0,,,not_available,-0.023600000000000065,0.023600000000000065,True,True,0,,,,,,,14,1,0.02
bridge,pseudo,2019:Q2:pre_second:pseudo,2019-08-31,pre_second,DELTA_TS,DELTA_TS,2019:Q2,0.23350068936004886,,,not_available,-0.023600000000000065,0.25710068936004893,True,True,0,,,,,,,14,1,0.02
midas_umidas,pseudo,2019:Q2:pre_second:pseudo,2019-08-31,pre_second,DELTA_TS,DELTA_TS,2019:Q2,-0.2911198224050162,,,not_available,-0.023600000000000065,-0.26751982240501615,True,True,0,,,,,,,14,1,0.02
monthly_mixed_frequency_kalman_em,pseudo,2019:Q2:pre_second:pseudo,2019-08-31,pre_second,DELTA_TS,DELTA_TS,2019:Q2,0.016644376134210326,0.14466854149366493,0.3803531799441999,model_implied_state_space,-0.023600000000000065,0.04024437613421039,True,True,52,-6369.468280958436,-7420.230284323025,-6369.468280958436,0.6364165223421878,9.989107895116457e-05,52.0,14,1,0.02
standard_dfm,pseudo,2019:Q2:pre_second:pseudo,2019-08-31,pre_second,DELTA_TS,DELTA_TS,2019:Q2,0.058756074050508644,,,not_available,-0.023600000000000065,0.08235607405050871,True,True,0,,,,,,,14,1,0.02
release_dfm,pseudo,2019:Q2:pre_second:pseudo,2019-08-31,pre_second,DELTA_TS,DELTA_TS,2019:Q2,0.04099531098372022,,,not_available,-0.023600000000000065,0.06459531098372029,True,True,0,,,,,,,14,1,0.02
revision_dfm_kalman_em,pseudo,2019:Q2:pre_second:pseudo,2019-08-31,pre_second,DELTA_TS,DELTA_TS,2019:Q2,0.0019896551779532423,0.1488406492683998,0.3857987160014919,model_implied_state_space,-0.023600000000000065,0.025589655177953308,True,True,21,-2009.106633780727,-2984.7079603078028,-2009.106633780727,0.18424839136946503,9.165260261758076e-05,21.0,14,1,0.02
indicator_revision_only_dfm_kalman_em,pseudo,2019:Q2:pre_second:pseudo,2019-08-31,pre_second,DELTA_TS,DELTA_TS,2019:Q2,0.0,0.15327871974351615,0.3915082626759187,model_implied_state_space,-0.023600000000000065,0.023600000000000065,True,True,25,-3719.707408820343,-4896.008580756069,-3719.707408820343,0.3416438506146733,9.18138529696195e-05,25.0,14,1,0.02
joint_indicator_revision_dfm_full_kalman_em,pseudo,2019:Q2:pre_second:pseudo,2019-08-31,pre_second,DELTA_TS,DELTA_TS,2019:Q2,0.0007750313722696411,0.14798865282481477,0.3846929331620413,model_implied_state_space,-0.023600000000000065,0.024375031372269707,True,True,26,-3684.3151266737227,-4911.087637274708,-3684.3151266737227,0.34426568433718785,9.340680938965687e-05,26.0,14,1,0.02
ar,pseudo,2019:Q2:pre_third:pseudo,2019-09-30,pre_third,DELTA_MT,DELTA_MT,2019:Q2,-0.46237987223397825,,,not_available,1.3697,-1.8320798722339782,True,True,0,,,,,,,14,1,0.02
no_revision,pseudo,2019:Q2:pre_third:pseudo,2019-09-30,pre_third,DELTA_MT,DELTA_MT,2019:Q2,0.0,,,not_available,1.3697,-1.3697,True,True,0,,,,,,,14,1,0.02
bridge,pseudo,2019:Q2:pre_third:pseudo,2019-09-30,pre_third,DELTA_MT,DELTA_MT,2019:Q2,-1.101354405618797,,,not_available,1.3697,-2.471054405618797,True,True,0,,,,,,,14,1,0.02
midas_umidas,pseudo,2019:Q2:pre_third:pseudo,2019-09-30,pre_third,DELTA_MT,DELTA_MT,2019:Q2,-2.7666666149646053,,,not_available,1.3697,-4.136366614964605,True,True,0,,,,,,,14,1,0.02
monthly_mixed_frequency_kalman_em,pseudo,2019:Q2:pre_third:pseudo,2019-09-30,pre_third,DELTA_MT,DELTA_MT,2019:Q2,-0.003925680525870057,4.45743928540231,2.1112648543947086,model_implied_state_space,1.3697,-1.37362568052587,True,True,54,-6386.717266298226,-7441.16270349829,-6386.717266298226,0.6266257989755104,9.808892720235168e-05,54.0,14,1,0.02
standard_dfm,pseudo,2019:Q2:pre_third:pseudo,2019-09-30,pre_third,DELTA_MT,DELTA_MT,2019:Q2,0.25346771696324044,,,not_available,1.3697,-1.1162322830367595,True,True,0,,,,,,,14,1,0.02
release_dfm,pseudo,2019:Q2:pre_third:pseudo,2019-09-30,pre_third,DELTA_MT,DELTA_MT,2019:Q2,0.29384601405375,,,not_available,1.3697,-1.07585398594625,True,True,0,,,,,,,14,1,0.02
revision_dfm_kalman_em,pseudo,2019:Q2:pre_third:pseudo,2019-09-30,pre_third,DELTA_MT,DELTA_MT,2019:Q2,0.0006470459925993488,4.340880104053773,2.0834778866246153,model_implied_state_space,1.3697,-1.3690529540074006,True,True,22,-2009.0588514366466,-3001.8115449156685,-2009.0588514366466,0.19884176067739645,9.891356782280869e-05,22.0,14,1,0.02
indicator_revision_only_dfm_kalman_em,pseudo,2019:Q2:pre_third:pseudo,2019-09-30,pre_third,DELTA_MT,DELTA_MT,2019:Q2,0.0,4.339534321281735,2.0831548961327226,model_implied_state_space,1.3697,-1.3697,True,True,25,-3719.230969348381,-4897.027387354061,-3719.230969348381,0.34242037911008083,9.20343031145425e-05,25.0,14,1,0.02
joint_indicator_revision_dfm_full_kalman_em,pseudo,2019:Q2:pre_third:pseudo,2019-09-30,pre_third,DELTA_MT,DELTA_MT,2019:Q2,-0.0002492034939680643,4.350766677797157,2.085849150297585,model_implied_state_space,1.3697,-1.369949203493968,True,True,26,-3683.823225344635,-4912.076739497095,-3683.823225344635,0.3451109914230983,9.364863689408052e-05,26.0,14,1,0.02
ar,exact,2019:Q3:pre_advance:exact,2019-10-29,pre_advance,DELTA_SA,DELTA_SA,2019:Q3,0.05929633129901246,,,not_available,0.20500000000000007,-0.1457036687009876,True,True,0,,,,,,,14,1,0.02
no_revision,exact,2019:Q3:pre_advance:exact,2019-10-29,pre_advance,DELTA_SA,DELTA_SA,2019:Q3,0.0,,,not_available,0.20500000000000007,-0.20500000000000007,True,True,0,,,,,,,14,1,0.02
bridge,exact,2019:Q3:pre_advance:exact,2019-10-29,pre_advance,DELTA_SA,DELTA_SA,2019:Q3,0.12826412666737008,,,not_available,0.20500000000000007,-0.07673587333262999,True,True,0,,,,,,,14,1,0.02
midas_umidas,exact,2019:Q3:pre_advance:exact,2019-10-29,pre_advance,DELTA_SA,DELTA_SA,2019:Q3,-0.8415004723431267,,,not_available,0.20500000000000007,-1.0465004723431268,True,True,0,,,,,,,14,1,0.02
monthly_mixed_frequency_kalman_em,exact,2019:Q3:pre_advance:exact,2019-10-29,pre_advance,DELTA_SA,DELTA_SA,2019:Q3,-0.15387602072336293,0.3444452894331924,0.586894615270231,model_implied_state_space,0.20500000000000007,-0.358876020723363,True,True,88,-6364.134759274062,-7462.623169084342,-6364.134759274062,0.6169100469369369,9.691079372606745e-05,88.0,14,1,0.02
standard_dfm,exact,2019:Q3:pre_advance:exact,2019-10-29,pre_advance,DELTA_SA,DELTA_SA,2019:Q3,0.07588607489593979,,,not_available,0.20500000000000007,-0.12911392510406028,True,True,0,,,,,,,14,1,0.02
release_dfm,exact,2019:Q3:pre_advance:exact,2019-10-29,pre_advance,DELTA_SA,DELTA_SA,2019:Q3,0.07588607489593979,,,not_available,0.20500000000000007,-0.12911392510406028,True,True,0,,,,,,,14,1,0.02
revision_dfm_kalman_em,exact,2019:Q3:pre_advance:exact,2019-10-29,pre_advance,DELTA_SA,DELTA_SA,2019:Q3,0.14566817367814178,0.4079041566639834,0.6386737482189035,model_implied_state_space,0.20500000000000007,-0.059331826321858294,True,True,21,-2026.297769017357,-3006.382166080248,-2026.297769017357,0.18219739200571894,8.986396661091939e-05,21.0,14,1,0.02
indicator_revision_only_dfm_kalman_em,exact,2019:Q3:pre_advance:exact,2019-10-29,pre_advance,DELTA_SA,DELTA_SA,2019:Q3,0.0,0.434389168519683,0.6590820650872568,model_implied_state_space,0.20500000000000007,-0.20500000000000007,True,True,25,-3753.0481554677112,-4922.551043471899,-3753.0481554677112,0.3415787003727928,9.098115128116327e-05,25.0,14,1,0.02
joint_indicator_revision_dfm_full_kalman_em,exact,2019:Q3:pre_advance:exact,2019-10-29,pre_advance,DELTA_SA,DELTA_SA,2019:Q3,0.14555226453521053,0.39126656379193747,0.6255130404651349,model_implied_state_space,0.20500000000000007,-0.05944773546478954,True,True,26,-3717.825097112969,-4937.8040622300205,-3717.825097112969,0.34799229847794777,9.356711562274102e-05,26.0,14,1,0.02
ar,exact,2019:Q3:pre_second:exact,2019-11-26,pre_second,DELTA_TS,DELTA_TS,2019:Q3,0.040081918729043764,,,not_available,-0.021400000000000308,0.06148191872904407,True,True,0,,,,,,,14,1,0.02
no_revision,exact,2019:Q3:pre_second:exact,2019-11-26,pre_second,DELTA_TS,DELTA_TS,2019:Q3,0.0,,,not_available,-0.021400000000000308,0.021400000000000308,True,True,0,,,,,,,14,1,0.02
bridge,exact,2019:Q3:pre_second:exact,2019-11-26,pre_second,DELTA_TS,DELTA_TS,2019:Q3,0.0008234501869393007,,,not_available,-0.021400000000000308,0.02222345018693961,True,True,0,,,,,,,14,1,0.02
midas_umidas,exact,2019:Q3:pre_second:exact,2019-11-26,pre_second,DELTA_TS,DELTA_TS,2019:Q3,0.36563147681554975,,,not_available,-0.021400000000000308,0.38703147681555006,True,True,0,,,,,,,14,1,0.02
monthly_mixed_frequency_kalman_em,exact,2019:Q3:pre_second:exact,2019-11-26,pre_second,DELTA_TS,DELTA_TS,2019:Q3,-0.1870544448725615,0.13618451899718864,0.36903186718383635,model_implied_state_space,-0.021400000000000308,-0.1656544448725612,True,True,86,-6380.071972056759,-7481.016055452483,-6380.071972056759,0.6095312175175422,9.551263522079682e-05,86.0,14,1,0.02
standard_dfm,exact,2019:Q3:pre_second:exact,2019-11-26,pre_second,DELTA_TS,DELTA_TS,2019:Q3,0.060954373232045,,,not_available,-0.021400000000000308,0.08235437323204531,True,True,0,,,,,,,14,1,0.02
release_dfm,exact,2019:Q3:pre_second:exact,2019-11-26,pre_second,DELTA_TS,DELTA_TS,2019:Q3,0.04036250402543873,,,not_available,-0.021400000000000308,0.061762504025439036,True,True,0,,,,,,,14,1,0.02
revision_dfm_kalman_em,exact,2019:Q3:pre_second:exact,2019-11-26,pre_second,DELTA_TS,DELTA_TS,2019:Q3,0.0027988905493328,0.14816364241521696,0.384920306576851,model_implied_state_space,-0.021400000000000308,0.024198890549333107,True,True,21,-2027.1964453498138,-3007.649620000193,-2027.1964453498138,0.18414089052907912,9.078221896729407e-05,21.0,14,1,0.02
indicator_revision_only_dfm_kalman_em,exact,2019:Q3:pre_second:exact,2019-11-26,pre_second,DELTA_TS,DELTA_TS,2019:Q3,0.0,0.1525763844914585,0.3906102718714121,model_implied_state_space,-0.021400000000000308,0.021400000000000308,True,True,25,-3754.103875015258,-4936.9008324717215,-3754.103875015258,0.3435584415824451,9.148269218781316e-05,25.0,14,1,0.02
joint_indicator_revision_dfm_full_kalman_em,exact,2019:Q3:pre_second:exact,2019-11-26,pre_second,DELTA_TS,DELTA_TS,2019:Q3,0.0031435358558189463,0.14730231057920395,0.3837998313954866,model_implied_state_space,-0.021400000000000308,0.024543535855819254,True,True,26,-3718.514579760779,-4952.040938871991,-3718.514579760779,0.3453849251131942,9.284890517171895e-05,26.0,14,1,0.02
ar,exact,2019:Q3:pre_third:exact,2019-12-19,pre_third,DELTA_MT,DELTA_MT,2019:Q3,0.5233605281748179,,,not_available,2.6594,-2.1360394718251823,True,True,0,,,,,,,14,1,0.02
no_revision,exact,2019:Q3:pre_third:exact,2019-12-19,pre_third,DELTA_MT,DELTA_MT,2019:Q3,0.0,,,not_available,2.6594,-2.6594,True,True,0,,,,,,,14,1,0.02
bridge,exact,2019:Q3:pre_third:exact,2019-12-19,pre_third,DELTA_MT,DELTA_MT,2019:Q3,-0.5005867649503339,,,not_available,2.6594,-3.159986764950334,True,True,0,,,,,,,14,1,0.02
midas_umidas,exact,2019:Q3:pre_third:exact,2019-12-19,pre_third,DELTA_MT,DELTA_MT,2019:Q3,-3.418106266556611,,,not_available,2.6594,-6.077506266556611,True,True,0,,,,,,,14,1,0.02
monthly_mixed_frequency_kalman_em,exact,2019:Q3:pre_third:exact,2019-12-19,pre_third,DELTA_MT,DELTA_MT,2019:Q3,-0.09403960276818202,4.43398933542303,2.105703999954179,model_implied_state_space,2.6594,-2.7534396027681822,True,True,84,-6397.344570870017,-7475.925544386487,-6397.344570870017,0.5613095619301021,8.771961526213476e-05,84.0,14,1,0.02
standard_dfm,exact,2019:Q3:pre_third:exact,2019-12-19,pre_third,DELTA_MT,DELTA_MT,2019:Q3,0.27145584172888215,,,not_available,2.6594,-2.387944158271118,True,True,0,,,,,,,14,1,0.02
release_dfm,exact,2019:Q3:pre_third:exact,2019-12-19,pre_third,DELTA_MT,DELTA_MT,2019:Q3,0.3141445144366579,,,not_available,2.6594,-2.3452554855633423,True,True,0,,,,,,,14,1,0.02
revision_dfm_kalman_em,exact,2019:Q3:pre_third:exact,2019-12-19,pre_third,DELTA_MT,DELTA_MT,2019:Q3,0.0029554298470726437,4.320469591413685,2.0785739321500416,model_implied_state_space,2.6594,-2.6564445701529276,True,True,22,-2026.73535237462,-3024.8011814690353,-2026.73535237462,0.19879068384670973,9.80262029352195e-05,22.0,14,1,0.02
indicator_revision_only_dfm_kalman_em,exact,2019:Q3:pre_third:exact,2019-12-19,pre_third,DELTA_MT,DELTA_MT,2019:Q3,0.0,4.319055352110438,2.07823370969447,model_implied_state_space,2.6594,-2.6594,True,True,25,-3753.551500955891,-4924.782279589234,-3753.551500955891,0.34474594250832524,9.181237505379558e-05,25.0,14,1,0.02
joint_indicator_revision_dfm_full_kalman_em,exact,2019:Q3:pre_third:exact,2019-12-19,pre_third,DELTA_MT,DELTA_MT,2019:Q3,0.0029953221303178346,4.329695863059221,2.0807921239420386,model_implied_state_space,2.6594,-2.6564046778696824,True,True,26,-3718.1378979138194,-4940.116254299061,-3718.1378979138194,0.35137695915591394,9.446914164523672e-05,26.0,14,1,0.02
ar,pseudo,2019:Q3:pre_advance:pseudo,2019-10-31,pre_advance,DELTA_SA,DELTA_SA,2019:Q3,0.05929633129901246,,,not_available,0.20500000000000007,-0.1457036687009876,True,True,0,,,,,,,14,1,0.02
no_revision,pseudo,2019:Q3:pre_advance:pseudo,2019-10-31,pre_advance,DELTA_SA,DELTA_SA,2019:Q3,0.0,,,not_available,0.20500000000000007,-0.20500000000000007,True,True,0,,,,,,,14,1,0.02
bridge,pseudo,2019:Q3:pre_advance:pseudo,2019-10-31,pre_advance,DELTA_SA,DELTA_SA,2019:Q3,0.1296675890855088,,,not_available,0.20500000000000007,-0.07533241091449128,True,True,0,,,,,,,14,1,0.02
midas_umidas,pseudo,2019:Q3:pre_advance:pseudo,2019-10-31,pre_advance,DELTA_SA,DELTA_SA,2019:Q3,-0.8759867655145306,,,not_available,0.20500000000000007,-1.0809867655145307,True,True,0,,,,,,,14,1,0.02
monthly_mixed_frequency_kalman_em,pseudo,2019:Q3:pre_advance:pseudo,2019-10-31,pre_advance,DELTA_SA,DELTA_SA,2019:Q3,-0.13300595179307928,0.34711205551882784,0.5891621640251755,model_implied_state_space,0.20500000000000007,-0.33800595179307935,True,True,56,-6405.025629257409,-7464.052371991779,-6405.025629257409,0.6391214492350628,9.975884084844128e-05,56.0,14,1,0.02
standard_dfm,pseudo,2019:Q3:pre_advance:pseudo,2019-10-31,pre_advance,DELTA_SA,DELTA_SA,2019:Q3,0.07779904361249201,,,not_available,0.20500000000000007,-0.12720095638750806,True,True,0,,,,,,,14,1,0.02
release_dfm,pseudo,2019:Q3:pre_advance:pseudo,2019-10-31,pre_advance,DELTA_SA,DELTA_SA,2019:Q3,0.07779904361249201,,,not_available,0.20500000000000007,-0.12720095638750806,True,True,0,,,,,,,14,1,0.02
revision_dfm_kalman_em,pseudo,2019:Q3:pre_advance:pseudo,2019-10-31,pre_advance,DELTA_SA,DELTA_SA,2019:Q3,0.1465946782312968,0.40790031628780454,0.6386707416876121,model_implied_state_space,0.20500000000000007,-0.05840532176870328,True,True,21,-2026.3015100800656,-3006.385895650506,-2026.3015100800656,0.18218074503761272,8.985559087948697e-05,21.0,14,1,0.02
indicator_revision_only_dfm_kalman_em,pseudo,2019:Q3:pre_advance:pseudo,2019-10-31,pre_advance,DELTA_SA,DELTA_SA,2019:Q3,0.0,0.434389180335363,0.6590820740509963,model_implied_state_space,0.20500000000000007,-0.20500000000000007,True,True,25,-3753.015754417137,-4922.511054220378,-3753.015754417137,0.34145324601149696,9.094852384172313e-05,25.0,14,1,0.02
joint_indicator_revision_dfm_full_kalman_em,pseudo,2019:Q3:pre_advance:pseudo,2019-10-31,pre_advance,DELTA_SA,DELTA_SA,2019:Q3,0.14508557574471403,0.39126077782453095,0.6255084154705922,model_implied_state_space,0.20500000000000007,-0.059914424255286036,True,True,26,-3717.7937746309262,-4937.764034693838,-3717.7937746309262,0.3478732335420318,9.353589254708292e-05,26.0,14,1,0.02
ar,pseudo,2019:Q3:pre_second:pseudo,2019-11-30,pre_second,DELTA_TS,DELTA_TS,2019:Q3,0.040081918729043764,,,not_available,-0.021400000000000308,0.06148191872904407,True,True,0,,,,,,,14,1,0.02
no_revision,pseudo,2019:Q3:pre_second:pseudo,2019-11-30,pre_second,DELTA_TS,DELTA_TS,2019:Q3,0.0,,,not_available,-0.021400000000000308,0.021400000000000308,True,True,0,,,,,,,14,1,0.02
bridge,pseudo,2019:Q3:pre_second:pseudo,2019-11-30,pre_second,DELTA_TS,DELTA_TS,2019:Q3,-0.0012805936584112665,,,not_available,-0.021400000000000308,0.02011940634158904,True,True,0,,,,,,,14,1,0.02
midas_umidas,pseudo,2019:Q3:pre_second:pseudo,2019-11-30,pre_second,DELTA_TS,DELTA_TS,2019:Q3,0.3635531020191416,,,not_available,-0.021400000000000308,0.3849531020191419,True,True,0,,,,,,,14,1,0.02
monthly_mixed_frequency_kalman_em,pseudo,2019:Q3:pre_second:pseudo,2019-11-30,pre_second,DELTA_TS,DELTA_TS,2019:Q3,-0.1866202995772639,0.13619107243272266,0.3690407463041482,model_implied_state_space,-0.021400000000000308,-0.16522029957726359,True,True,86,-6382.861424006063,-7483.761482383472,-6382.861424006063,0.603163747941835,9.447366175368237e-05,86.0,14,1,0.02
standard_dfm,pseudo,2019:Q3:pre_second:pseudo,2019-11-30,pre_second,DELTA_TS,DELTA_TS,2019:Q3,0.060865098210171276,,,not_available,-0.021400000000000308,0.08226509821017158,True,True,0,,,,,,,14,1,0.02
release_dfm,pseudo,2019:Q3:pre_second:pseudo,2019-11-30,pre_second,DELTA_TS,DELTA_TS,2019:Q3,0.040349504607029685,,,not_available,-0.021400000000000308,0.06174950460702999,True,True,0,,,,,,,14,1,0.02
revision_dfm_kalman_em,pseudo,2019:Q3:pre_second:pseudo,2019-11-30,pre_second,DELTA_TS,DELTA_TS,2019:Q3,0.0027896378701322,0.1481629959366796,0.38491946681959277,model_implied_state_space,-0.021400000000000308,0.024189637870132508,True,True,21,-2027.079621200423,-3007.6125318223717,-2027.079621200423,0.18414083551101612,9.078742072785392e-05,21.0,14,1,0.02
indicator_revision_only_dfm_kalman_em,pseudo,2019:Q3:pre_second:pseudo,2019-11-30,pre_second,DELTA_TS,DELTA_TS,2019:Q3,0.0,0.15257653034774687,0.3906104585744561,model_implied_state_space,-0.021400000000000308,0.021400000000000308,True,True,25,-3754.0769809672624,-4936.9041522451125,-3754.0769809672624,0.3437263300866107,9.152804888642664e-05,25.0,14,1,0.02
joint_indicator_revision_dfm_full_kalman_em,pseudo,2019:Q3:pre_second:pseudo,2019-11-30,pre_second,DELTA_TS,DELTA_TS,2019:Q3,0.0031297965879293344,0.14730239103199871,0.3837999362063505,model_implied_state_space,-0.021400000000000308,0.024529796587929642,True,True,26,-3718.4878129064127,-4952.044276494655,-3718.4878129064127,0.34556036435606075,9.289673210609889e-05,26.0,14,1,0.02
ar,pseudo,2019:Q3:pre_third:pseudo,2019-12-31,pre_third,DELTA_MT,DELTA_MT,2019:Q3,0.5233605281748179,,,not_available,2.6594,-2.1360394718251823,True,True,0,,,,,,,14,1,0.02
no_revision,pseudo,2019:Q3:pre_third:pseudo,2019-12-31,pre_third,DELTA_MT,DELTA_MT,2019:Q3,0.0,,,not_available,2.6594,-2.6594,True,True,0,,,,,,,14,1,0.02
bridge,pseudo,2019:Q3:pre_third:pseudo,2019-12-31,pre_third,DELTA_MT,DELTA_MT,2019:Q3,-0.5005279317503972,,,not_available,2.6594,-3.1599279317503974,True,True,0,,,,,,,14,1,0.02
midas_umidas,pseudo,2019:Q3:pre_third:pseudo,2019-12-31,pre_third,DELTA_MT,DELTA_MT,2019:Q3,-3.4287036456544917,,,not_available,2.6594,-6.088103645654492,True,True,0,,,,,,,14,1,0.02
monthly_mixed_frequency_kalman_em,pseudo,2019:Q3:pre_third:pseudo,2019-12-31,pre_third,DELTA_MT,DELTA_MT,2019:Q3,-0.09442725915027861,4.4340044050499685,2.1057075782382437,model_implied_state_space,2.6594,-2.753827259150279,True,True,85,-6400.655898089368,-7478.681402652314,-6400.655898089368,0.5302225945315513,8.281899097224487e-05,85.0,14,1,0.02
standard_dfm,pseudo,2019:Q3:pre_third:pseudo,2019-12-31,pre_third,DELTA_MT,DELTA_MT,2019:Q3,0.27097951517942986,,,not_available,2.6594,-2.3884204848205703,True,True,0,,,,,,,14,1,0.02
release_dfm,pseudo,2019:Q3:pre_third:pseudo,2019-12-31,pre_third,DELTA_MT,DELTA_MT,2019:Q3,0.31298521039985117,,,not_available,2.6594,-2.346414789600149,True,True,0,,,,,,,14,1,0.02
revision_dfm_kalman_em,pseudo,2019:Q3:pre_third:pseudo,2019-12-31,pre_third,DELTA_MT,DELTA_MT,2019:Q3,0.0029570920713370974,4.320469632137478,2.078573941946131,model_implied_state_space,2.6594,-2.656442907928663,True,True,22,-2026.7335214745465,-3024.799428017286,-2026.7335214745465,0.19878505846236294,9.80235177584451e-05,22.0,14,1,0.02
indicator_revision_only_dfm_kalman_em,pseudo,2019:Q3:pre_third:pseudo,2019-12-31,pre_third,DELTA_MT,DELTA_MT,2019:Q3,0.0,4.319055246948584,2.078233684393693,model_implied_state_space,2.6594,-2.6594,True,True,25,-3753.5534219458204,-4924.784441204168,-3753.5534219458204,0.34476451386581175,9.181727353062367e-05,25.0,14,1,0.02
joint_indicator_revision_dfm_full_kalman_em,pseudo,2019:Q3:pre_third:pseudo,2019-12-31,pre_third,DELTA_MT,DELTA_MT,2019:Q3,0.0029969242891545456,4.32969554857061,2.080792048372593,model_implied_state_space,2.6594,-2.6564030757108457,True,True,26,-3718.139730720325,-4940.1184211998725,-3718.139730720325,0.35139070206378165,9.447278958133514e-05,26.0,14,1,0.02
ar,exact,2019:Q4:pre_advance:exact,2020-01-29,pre_advance,DELTA_SA,DELTA_SA,2019:Q4,0.1665444581766966,,,not_available,0.014800000000000146,0.15174445817669646,True,True,0,,,,,,,14,1,0.02
no_revision,exact,2019:Q4:pre_advance:exact,2020-01-29,pre_advance,DELTA_SA,DELTA_SA,2019:Q4,0.0,,,not_available,0.014800000000000146,-0.014800000000000146,True,True,0,,,,,,,14,1,0.02
bridge,exact,2019:Q4:pre_advance:exact,2020-01-29,pre_advance,DELTA_SA,DELTA_SA,2019:Q4,0.2746654258404977,,,not_available,0.014800000000000146,0.25986542584049754,True,True,0,,,,,,,14,1,0.02
midas_umidas,exact,2019:Q4:pre_advance:exact,2020-01-29,pre_advance,DELTA_SA,DELTA_SA,2019:Q4,0.9147253380832268,,,not_available,0.014800000000000146,0.8999253380832266,True,True,0,,,,,,,14,1,0.02
monthly_mixed_frequency_kalman_em,exact,2019:Q4:pre_advance:exact,2020-01-29,pre_advance,DELTA_SA,DELTA_SA,2019:Q4,-0.1365828619100684,0.3479927672484875,0.5899091177872127,model_implied_state_space,0.014800000000000146,-0.15138286191006856,True,True,50,-6469.2853342069075,-7498.543314628145,-6469.2853342069075,0.6272767151895096,9.693790550203759e-05,50.0,14,1,0.02
standard_dfm,exact,2019:Q4:pre_advance:exact,2020-01-29,pre_advance,DELTA_SA,DELTA_SA,2019:Q4,0.03862515144349943,,,not_available,0.014800000000000146,0.02382515144349928,True,True,0,,,,,,,14,1,0.02
release_dfm,exact,2019:Q4:pre_advance:exact,2020-01-29,pre_advance,DELTA_SA,DELTA_SA,2019:Q4,0.03862515144349943,,,not_available,0.014800000000000146,0.02382515144349928,True,True,0,,,,,,,14,1,0.02
revision_dfm_kalman_em,exact,2019:Q4:pre_advance:exact,2020-01-29,pre_advance,DELTA_SA,DELTA_SA,2019:Q4,0.07914442516948839,0.40461037749403594,0.636089913057923,model_implied_state_space,0.014800000000000146,0.06434442516948824,True,True,22,-2045.476467579701,-3046.2443745344117,-2045.476467579701,0.19856301836853163,9.701736494557639e-05,22.0,14,1,0.02
indicator_revision_only_dfm_kalman_em,exact,2019:Q4:pre_advance:exact,2020-01-29,pre_advance,DELTA_SA,DELTA_SA,2019:Q4,0.0,0.4325667634088095,0.6576980792193402,model_implied_state_space,0.014800000000000146,-0.014800000000000146,True,True,25,-3791.058412817539,-4978.396320895826,-3791.058412817539,0.35440897515081815,9.345210867188438e-05,25.0,14,1,0.02
joint_indicator_revision_dfm_full_kalman_em,exact,2019:Q4:pre_advance:exact,2020-01-29,pre_advance,DELTA_SA,DELTA_SA,2019:Q4,0.05369984513403847,0.390779966919359,0.6251239612423756,model_implied_state_space,0.014800000000000146,0.038899845134038324,True,True,26,-3755.4882576584073,-4993.4953809910685,-3755.4882576584073,0.35392464797087086,9.420801588039867e-05,26.0,14,1,0.02
ar,exact,2019:Q4:pre_second:exact,2020-02-26,pre_second,DELTA_TS,DELTA_TS,2019:Q4,0.03892602850336768,,,not_available,0.03189999999999982,0.007026028503367865,True,True,0,,,,,,,14,1,0.02
no_revision,exact,2019:Q4:pre_second:exact,2020-02-26,pre_second,DELTA_TS,DELTA_TS,2019:Q4,0.0,,,not_available,0.03189999999999982,-0.03189999999999982,True,True,0,,,,,,,14,1,0.02
bridge,exact,2019:Q4:pre_second:exact,2020-02-26,pre_second,DELTA_TS,DELTA_TS,2019:Q4,0.03400117091687571,,,not_available,0.03189999999999982,0.002101170916875894,True,True,0,,,,,,,14,1,0.02
midas_umidas,exact,2019:Q4:pre_second:exact,2020-02-26,pre_second,DELTA_TS,DELTA_TS,2019:Q4,0.6241503795066428,,,not_available,0.03189999999999982,0.5922503795066429,True,True,0,,,,,,,14,1,0.02
monthly_mixed_frequency_kalman_em,exact,2019:Q4:pre_second:exact,2020-02-26,pre_second,DELTA_TS,DELTA_TS,2019:Q4,-0.1668650907342064,0.13520033461446979,0.36769598123241676,model_implied_state_space,0.03189999999999982,-0.19876509073420623,True,True,87,-6438.970241778739,-7517.704691580865,-6438.970241778739,0.5797461170295719,9.00150015323434e-05,87.0,14,1,0.02
standard_dfm,exact,2019:Q4:pre_second:exact,2020-02-26,pre_second,DELTA_TS,DELTA_TS,2019:Q4,0.05548674693901656,,,not_available,0.03189999999999982,0.023586746939016745,True,True,0,,,,,,,14,1,0.02
release_dfm,exact,2019:Q4:pre_second:exact,2020-02-26,pre_second,DELTA_TS,DELTA_TS,2019:Q4,0.040042636480916105,,,not_available,0.03189999999999982,0.008142636480916288,True,True,0,,,,,,,14,1,0.02
revision_dfm_kalman_em,exact,2019:Q4:pre_second:exact,2020-02-26,pre_second,DELTA_TS,DELTA_TS,2019:Q4,0.00447045095190024,0.14747116459293563,0.3840197450560786,model_implied_state_space,0.03189999999999982,-0.027429549048099577,True,True,21,-2045.6671278142567,-3031.186062542757,-2045.6671278142567,0.18546900771161745,9.061180467982142e-05,21.0,14,1,0.02
indicator_revision_only_dfm_kalman_em,exact,2019:Q4:pre_second:exact,2020-02-26,pre_second,DELTA_TS,DELTA_TS,2019:Q4,0.0,0.1518703124284757,0.38970541749952065,model_implied_state_space,0.03189999999999982,-0.03189999999999982,True,True,25,-3791.488617318764,-4979.391617042892,-3791.488617318764,0.3535031363521739,9.32027026502637e-05,25.0,14,1,0.02
joint_indicator_revision_dfm_full_kalman_em,exact,2019:Q4:pre_second:exact,2020-02-26,pre_second,DELTA_TS,DELTA_TS,2019:Q4,0.003138922386372922,0.14662731948999708,0.3829194686745466,model_implied_state_space,0.03189999999999982,-0.028761077613626895,True,True,26,-3755.7819518622373,-4994.600152893374,-3755.7819518622373,0.3529641979207554,9.394504211493262e-05,26.0,14,1,0.02
ar,exact,2019:Q4:pre_third:exact,2020-03-25,pre_third,DELTA_MT,DELTA_MT,2019:Q4,0.28493109658739835,,,not_available,0.6275,-0.3425689034126016,True,True,0,,,,,,,14,1,0.02
no_revision,exact,2019:Q4:pre_third:exact,2020-03-25,pre_third,DELTA_MT,DELTA_MT,2019:Q4,0.0,,,not_available,0.6275,-0.6275,True,True,0,,,,,,,14,1,0.02
bridge,exact,2019:Q4:pre_third:exact,2020-03-25,pre_third,DELTA_MT,DELTA_MT,2019:Q4,-0.3429265046088039,,,not_available,0.6275,-0.9704265046088039,True,True,0,,,,,,,14,1,0.02
midas_umidas,exact,2019:Q4:pre_third:exact,2020-03-25,pre_third,DELTA_MT,DELTA_MT,2019:Q4,4.4102217841675255,,,not_available,0.6275,3.7827217841675256,True,True,0,,,,,,,14,1,0.02
monthly_mixed_frequency_kalman_em,exact,2019:Q4:pre_third:exact,2020-03-25,pre_third,DELTA_MT,DELTA_MT,2019:Q4,-0.08747126955077422,4.41549729289404,2.1013084716181107,model_implied_state_space,0.6275,-0.7149712695507742,True,True,53,-6506.291415830412,-7539.787496723451,-6506.291415830412,0.6501470142229664,9.990056117510461e-05,53.0,14,1,0.02
standard_dfm,exact,2019:Q4:pre_third:exact,2020-03-25,pre_third,DELTA_MT,DELTA_MT,2019:Q4,0.2285591696432827,,,not_available,0.6275,-0.39894083035671724,True,True,0,,,,,,,14,1,0.02
release_dfm,exact,2019:Q4:pre_third:exact,2020-03-25,pre_third,DELTA_MT,DELTA_MT,2019:Q4,0.22708393626803725,,,not_available,0.6275,-0.4004160637319627,True,True,0,,,,,,,14,1,0.02
revision_dfm_kalman_em,exact,2019:Q4:pre_third:exact,2020-03-25,pre_third,DELTA_MT,DELTA_MT,2019:Q4,0.0016848093893520044,4.300051281569743,2.0736565003803653,model_implied_state_space,0.6275,-0.6258151906106479,True,True,22,-2045.706329182478,-3048.5500277406545,-2045.706329182478,0.20057061947181865,9.798717249486287e-05,22.0,14,1,0.02
indicator_revision_only_dfm_kalman_em,exact,2019:Q4:pre_third:exact,2020-03-25,pre_third,DELTA_MT,DELTA_MT,2019:Q4,0.0,4.298579576251268,2.0733016124653134,model_implied_state_space,0.6275,-0.6275,True,True,25,-3791.2192398610005,-4967.271610239644,-3791.2192398610005,0.35448483610025505,9.346814639142354e-05,25.0,14,1,0.02
joint_indicator_revision_dfm_full_kalman_em,exact,2019:Q4:pre_third:exact,2020-03-25,pre_third,DELTA_MT,DELTA_MT,2019:Q4,0.0013384583489126634,4.309132107741349,2.075844914183463,model_implied_state_space,0.6275,-0.6261615416510873,True,True,26,-3755.6925445404286,-4982.675837886473,-3755.6925445404286,0.3586364681436862,9.545690246556903e-05,26.0,14,1,0.02
ar,pseudo,2019:Q4:pre_advance:pseudo,2020-01-31,pre_advance,DELTA_SA,DELTA_SA,2019:Q4,0.1665444581766966,,,not_available,0.014800000000000146,0.15174445817669646,True,True,0,,,,,,,14,1,0.02
no_revision,pseudo,2019:Q4:pre_advance:pseudo,2020-01-31,pre_advance,DELTA_SA,DELTA_SA,2019:Q4,0.0,,,not_available,0.014800000000000146,-0.014800000000000146,True,True,0,,,,,,,14,1,0.02
bridge,pseudo,2019:Q4:pre_advance:pseudo,2020-01-31,pre_advance,DELTA_SA,DELTA_SA,2019:Q4,0.2745872631544426,,,not_available,0.014800000000000146,0.25978726315444245,True,True,0,,,,,,,14,1,0.02
midas_umidas,pseudo,2019:Q4:pre_advance:pseudo,2020-01-31,pre_advance,DELTA_SA,DELTA_SA,2019:Q4,0.9118186832048545,,,not_available,0.014800000000000146,0.8970186832048543,True,True,0,,,,,,,14,1,0.02
monthly_mixed_frequency_kalman_em,pseudo,2019:Q4:pre_advance:pseudo,2020-01-31,pre_advance,DELTA_SA,DELTA_SA,2019:Q4,-0.13749565285170195,0.3479340147202432,0.5898593177362236,model_implied_state_space,0.014800000000000146,-0.1522956528517021,True,True,50,-6470.62796759433,-7499.925111035035,-6470.62796759433,0.6268550275635789,9.685264946191373e-05,50.0,14,1,0.02
standard_dfm,pseudo,2019:Q4:pre_advance:pseudo,2020-01-31,pre_advance,DELTA_SA,DELTA_SA,2019:Q4,0.03852049043193739,,,not_available,0.014800000000000146,0.023720490431937247,True,True,0,,,,,,,14,1,0.02
release_dfm,pseudo,2019:Q4:pre_advance:pseudo,2020-01-31,pre_advance,DELTA_SA,DELTA_SA,2019:Q4,0.03852049043193739,,,not_available,0.014800000000000146,0.023720490431937247,True,True,0,,,,,,,14,1,0.02
revision_dfm_kalman_em,pseudo,2019:Q4:pre_advance:pseudo,2020-01-31,pre_advance,DELTA_SA,DELTA_SA,2019:Q4,0.07908966774945014,0.40461058528562344,0.6360900763929771,model_implied_state_space,0.014800000000000146,0.06428966774945,True,True,22,-2045.4737701730883,-3046.242961307977,-2045.4737701730883,0.19855788473046232,9.701498476743612e-05,22.0,14,1,0.02
indicator_revision_only_dfm_kalman_em,pseudo,2019:Q4:pre_advance:pseudo,2020-01-31,pre_advance,DELTA_SA,DELTA_SA,2019:Q4,0.0,0.4325667042068586,0.6576980342124026,model_implied_state_space,0.014800000000000146,-0.014800000000000146,True,True,25,-3791.064801328318,-4978.402497462967,-3791.064801328318,0.3544763368936401,9.346971179617885e-05,25.0,14,1,0.02
joint_indicator_revision_dfm_full_kalman_em,pseudo,2019:Q4:pre_advance:pseudo,2020-01-31,pre_advance,DELTA_SA,DELTA_SA,2019:Q4,0.053456872246536724,0.39077906879187996,0.6251232428824575,model_implied_state_space,0.014800000000000146,0.03865687224653658,True,True,26,-3755.4948448922123,-4993.501557790422,-3755.4948448922123,0.3539861845538326,9.422422899363112e-05,26.0,14,1,0.02
ar,pseudo,2019:Q4:pre_second:pseudo,2020-02-29,pre_second,DELTA_TS,DELTA_TS,2019:Q4,0.03892602850336768,,,not_available,0.03189999999999982,0.007026028503367865,True,True,0,,,,,,,14,1,0.02
no_revision,pseudo,2019:Q4:pre_second:pseudo,2020-02-29,pre_second,DELTA_TS,DELTA_TS,2019:Q4,0.0,,,not_available,0.03189999999999982,-0.03189999999999982,True,True,0,,,,,,,14,1,0.02
bridge,pseudo,2019:Q4:pre_second:pseudo,2020-02-29,pre_second,DELTA_TS,DELTA_TS,2019:Q4,0.03696695036035447,,,not_available,0.03189999999999982,0.0050669503603546495,True,True,0,,,,,,,14,1,0.02
midas_umidas,pseudo,2019:Q4:pre_second:pseudo,2020-02-29,pre_second,DELTA_TS,DELTA_TS,2019:Q4,0.6400989146419032,,,not_available,0.03189999999999982,0.6081989146419033,True,True,0,,,,,,,14,1,0.02
monthly_mixed_frequency_kalman_em,pseudo,2019:Q4:pre_second:pseudo,2020-02-29,pre_second,DELTA_TS,DELTA_TS,2019:Q4,-0.11786730351220331,0.14151371210691366,0.37618308322798577,model_implied_state_space,0.03189999999999982,-0.14976730351220313,True,True,53,-6488.448639322011,-7520.511986458246,-6488.448639322011,0.6459187049040338,9.952377413440994e-05,53.0,14,1,0.02
standard_dfm,pseudo,2019:Q4:pre_second:pseudo,2020-02-29,pre_second,DELTA_TS,DELTA_TS,2019:Q4,0.05561877310770136,,,not_available,0.03189999999999982,0.02371877310770154,True,True,0,,,,,,,14,1,0.02
release_dfm,pseudo,2019:Q4:pre_second:pseudo,2020-02-29,pre_second,DELTA_TS,DELTA_TS,2019:Q4,0.04006162345805109,,,not_available,0.03189999999999982,0.00816162345805127,True,True,0,,,,,,,14,1,0.02
revision_dfm_kalman_em,pseudo,2019:Q4:pre_second:pseudo,2020-02-29,pre_second,DELTA_TS,DELTA_TS,2019:Q4,0.004453046313316555,0.14747099248597884,0.38401952096993563,model_implied_state_space,0.03189999999999982,-0.027446953686683262,True,True,21,-2045.6569814203588,-3031.173799644684,-2045.6569814203588,0.18547053287352355,9.061299891280607e-05,21.0,14,1,0.02
indicator_revision_only_dfm_kalman_em,pseudo,2019:Q4:pre_second:pseudo,2020-02-29,pre_second,DELTA_TS,DELTA_TS,2019:Q4,0.0,0.1518703646837477,0.3897054845440948,model_implied_state_space,0.03189999999999982,-0.03189999999999982,True,True,25,-3791.5262574868852,-4979.422277798663,-3791.5262574868852,0.35359824395982287,9.322685068063895e-05,25.0,14,1,0.02
joint_indicator_revision_dfm_full_kalman_em,pseudo,2019:Q4:pre_second:pseudo,2020-02-29,pre_second,DELTA_TS,DELTA_TS,2019:Q4,0.003120221411474944,0.1466273150410652,0.38291946286532,model_implied_state_space,0.03189999999999982,-0.028779778588524874,True,True,26,-3755.8183573208526,-4994.630886048019,-3755.8183573208526,0.35304747172358475,9.396629370521774e-05,26.0,14,1,0.02
ar,pseudo,2019:Q4:pre_third:pseudo,2020-03-31,pre_third,DELTA_MT,DELTA_MT,2019:Q4,0.28493109658739835,,,not_available,0.6275,-0.3425689034126016,True,True,0,,,,,,,14,1,0.02
no_revision,pseudo,2019:Q4:pre_third:pseudo,2020-03-31,pre_third,DELTA_MT,DELTA_MT,2019:Q4,0.0,,,not_available,0.6275,-0.6275,True,True,0,,,,,,,14,1,0.02
bridge,pseudo,2019:Q4:pre_third:pseudo,2020-03-31,pre_third,DELTA_MT,DELTA_MT,2019:Q4,-0.3429288327850699,,,not_available,0.6275,-0.9704288327850699,True,True,0,,,,,,,14,1,0.02
midas_umidas,pseudo,2019:Q4:pre_third:pseudo,2020-03-31,pre_third,DELTA_MT,DELTA_MT,2019:Q4,4.406138958198086,,,not_available,0.6275,3.7786389581980857,True,True,0,,,,,,,14,1,0.02
monthly_mixed_frequency_kalman_em,pseudo,2019:Q4:pre_third:pseudo,2020-03-31,pre_third,DELTA_MT,DELTA_MT,2019:Q4,-0.1179606553660899,4.4118857116143975,2.100448930970329,model_implied_state_space,0.6275,-0.7454606553660899,True,True,87,-6459.905496539938,-7541.2159128546655,-6459.905496539938,0.5675317894992986,8.783319020462265e-05,87.0,14,1,0.02
standard_dfm,pseudo,2019:Q4:pre_third:pseudo,2020-03-31,pre_third,DELTA_MT,DELTA_MT,2019:Q4,0.22861088466232404,,,not_available,0.6275,-0.3988891153376759,True,True,0,,,,,,,14,1,0.02
release_dfm,pseudo,2019:Q4:pre_third:pseudo,2020-03-31,pre_third,DELTA_MT,DELTA_MT,2019:Q4,0.22721360826241455,,,not_available,0.6275,-0.4002863917375854,True,True,0,,,,,,,14,1,0.02
revision_dfm_kalman_em,pseudo,2019:Q4:pre_third:pseudo,2020-03-31,pre_third,DELTA_MT,DELTA_MT,2019:Q4,0.0016846200268370026,4.300051282674531,2.0736565006467513,model_implied_state_space,0.6275,-0.6258153799731629,True,True,22,-2045.7069656668834,-3048.5504246030696,-2045.7069656668834,0.20057198610629712,9.798780961854072e-05,22.0,14,1,0.02
indicator_revision_only_dfm_kalman_em,pseudo,2019:Q4:pre_third:pseudo,2020-03-31,pre_third,DELTA_MT,DELTA_MT,2019:Q4,0.0,4.298579571812912,2.0733016113949536,model_implied_state_space,0.6275,-0.6275,True,True,25,-3791.2194361484385,-4967.271755973021,-3791.2194361484385,0.35447946562862853,9.346672563696987e-05,25.0,14,1,0.02
joint_indicator_revision_dfm_full_kalman_em,pseudo,2019:Q4:pre_third:pseudo,2020-03-31,pre_third,DELTA_MT,DELTA_MT,2019:Q4,0.0013382509485087013,4.309132169709556,2.075844929109483,model_implied_state_space,0.6275,-0.6261617490514912,True,True,26,-3755.692707103207,-4982.675983768298,-3755.692707103207,0.3586315488478249,9.545558911007423e-05,26.0,14,1,0.02
ar,exact,2020:Q1:pre_advance:exact,2020-04-28,pre_advance,DELTA_SA,DELTA_SA,2020:Q1,0.07270396930060219,,,not_available,-0.26449999999999996,0.33720396930060215,True,True,0,,,,,,,14,1,0.02
no_revision,exact,2020:Q1:pre_advance:exact,2020-04-28,pre_advance,DELTA_SA,DELTA_SA,2020:Q1,0.0,,,not_available,-0.26449999999999996,0.26449999999999996,True,True,0,,,,,,,14,1,0.02
bridge,exact,2020:Q1:pre_advance:exact,2020-04-28,pre_advance,DELTA_SA,DELTA_SA,2020:Q1,-0.0012122564109908751,,,not_available,-0.26449999999999996,0.2632877435890091,True,True,0,,,,,,,14,1,0.02
midas_umidas,exact,2020:Q1:pre_advance:exact,2020-04-28,pre_advance,DELTA_SA,DELTA_SA,2020:Q1,0.8166439581580391,,,not_available,-0.26449999999999996,1.081143958158039,True,True,0,,,,,,,14,1,0.02
monthly_mixed_frequency_kalman_em,exact,2020:Q1:pre_advance:exact,2020-04-28,pre_advance,DELTA_SA,DELTA_SA,2020:Q1,-0.7001358075843687,0.3502455710560186,0.5918154873404536,model_implied_state_space,-0.26449999999999996,-0.4356358075843687,True,True,40,-6365.157784502217,-7570.539615772524,-6365.157784502217,0.5121276228919669,8.04388526436147e-05,40.0,14,1,0.02
standard_dfm,exact,2020:Q1:pre_advance:exact,2020-04-28,pre_advance,DELTA_SA,DELTA_SA,2020:Q1,-0.07900204542880451,,,not_available,-0.26449999999999996,0.18549795457119544,True,True,0,,,,,,,14,1,0.02
release_dfm,exact,2020:Q1:pre_advance:exact,2020-04-28,pre_advance,DELTA_SA,DELTA_SA,2020:Q1,-0.07900204542880451,,,not_available,-0.26449999999999996,0.18549795457119544,True,True,0,,,,,,,14,1,0.02
revision_dfm_kalman_em,exact,2020:Q1:pre_advance:exact,2020-04-28,pre_advance,DELTA_SA,DELTA_SA,2020:Q1,-0.09284848077759333,0.4044727260295202,0.6359817025901926,model_implied_state_space,-0.26449999999999996,0.17165151922240662,True,True,21,-2059.9190806614383,-3052.481811245196,-2059.9190806614383,0.18798139433874894,9.120409017048035e-05,21.0,14,1,0.02
indicator_revision_only_dfm_kalman_em,exact,2020:Q1:pre_advance:exact,2020-04-28,pre_advance,DELTA_SA,DELTA_SA,2020:Q1,0.0,0.43057102336307995,0.6561791092095816,model_implied_state_space,-0.26449999999999996,0.26449999999999996,True,True,25,-3819.1968930405533,-5004.205753105809,-3819.1968930405533,0.36401650053085177,9.527828744250448e-05,25.0,14,1,0.02
joint_indicator_revision_dfm_full_kalman_em,exact,2020:Q1:pre_advance:exact,2020-04-28,pre_advance,DELTA_SA,DELTA_SA,2020:Q1,-0.017145714672563983,0.38849008831949927,0.6232897306385685,model_implied_state_space,-0.26449999999999996,0.24735428532743597,True,True,26,-3783.5065810607493,-5019.5959821616625,-3783.5065810607493,0.37067308728319404,9.793529945441565e-05,26.0,14,1,0.02
ar,exact,2020:Q1:pre_second:exact,2020-05-27,pre_second,DELTA_TS,DELTA_TS,2020:Q1,0.06260501235437754,,,not_available,0.05400000000000027,0.008605012354377273,True,True,0,,,,,,,14,1,0.02
no_revision,exact,2020:Q1:pre_second:exact,2020-05-27,pre_second,DELTA_TS,DELTA_TS,2020:Q1,0.0,,,not_available,0.05400000000000027,-0.05400000000000027,True,True,0,,,,,,,14,1,0.02
bridge,exact,2020:Q1:pre_second:exact,2020-05-27,pre_second,DELTA_TS,DELTA_TS,2020:Q1,-0.19571952994773856,,,not_available,0.05400000000000027,-0.24971952994773883,True,True,0,,,,,,,14,1,0.02
midas_umidas,exact,2020:Q1:pre_second:exact,2020-05-27,pre_second,DELTA_TS,DELTA_TS,2020:Q1,1.0995167666791978,,,not_available,0.05400000000000027,1.0455167666791976,True,True,0,,,,,,,14,1,0.02
monthly_mixed_frequency_kalman_em,exact,2020:Q1:pre_second:exact,2020-05-27,pre_second,DELTA_TS,DELTA_TS,2020:Q1,0.1462839644181333,0.15021312183058277,0.3875733760600472,model_implied_state_space,0.05400000000000027,0.09228396441813302,True,True,38,-5904.76722749727,-7387.481874880861,-5904.76722749727,0.5293239996499324,8.962028828636753e-05,38.0,14,1,0.02
standard_dfm,exact,2020:Q1:pre_second:exact,2020-05-27,pre_second,DELTA_TS,DELTA_TS,2020:Q1,0.029589852763222346,,,not_available,0.05400000000000027,-0.024410147236777924,True,True,0,,,,,,,14,1,0.02
release_dfm,exact,2020:Q1:pre_second:exact,2020-05-27,pre_second,DELTA_TS,DELTA_TS,2020:Q1,0.0020918693136193767,,,not_available,0.05400000000000027,-0.05190813068638089,True,True,0,,,,,,,14,1,0.02
revision_dfm_kalman_em,exact,2020:Q1:pre_second:exact,2020-05-27,pre_second,DELTA_TS,DELTA_TS,2020:Q1,-0.015110077813063505,0.14692949538827327,0.3833138340684735,model_implied_state_space,0.05400000000000027,-0.06911007781306377,True,True,20,-2059.2155904471892,-3053.706984276602,-2059.2155904471892,0.20149403117375186,9.779283655317012e-05,20.0,14,1,0.02
indicator_revision_only_dfm_kalman_em,exact,2020:Q1:pre_second:exact,2020-05-27,pre_second,DELTA_TS,DELTA_TS,2020:Q1,0.0,0.15107598426731217,0.38868494216693317,model_implied_state_space,0.05400000000000027,-0.05400000000000027,True,True,25,-3817.738548458216,-5005.358848261837,-3817.738548458216,0.3579554271846064,9.372777745218965e-05,25.0,14,1,0.02
joint_indicator_revision_dfm_full_kalman_em,exact,2020:Q1:pre_second:exact,2020-05-27,pre_second,DELTA_TS,DELTA_TS,2020:Q1,-0.012144160705942042,0.14589561919312255,0.38196285054062856,model_implied_state_space,0.05400000000000027,-0.06614416070594231,True,True,26,-3782.6666964782157,-5020.384300436641,-3782.6666964782157,0.36613772738155603,9.675860211144847e-05,26.0,14,1,0.02
ar,exact,2020:Q1:pre_third:exact,2020-06-24,pre_third,DELTA_MT,DELTA_MT,2020:Q1,0.1841743620429881,,,not_available,-0.16790000000000038,0.3520743620429885,True,True,0,,,,,,,14,1,0.02
no_revision,exact,2020:Q1:pre_third:exact,2020-06-24,pre_third,DELTA_MT,DELTA_MT,2020:Q1,0.0,,,not_available,-0.16790000000000038,0.16790000000000038,True,True,0,,,,,,,14,1,0.02
bridge,exact,2020:Q1:pre_third:exact,2020-06-24,pre_third,DELTA_MT,DELTA_MT,2020:Q1,-0.6232225679515535,,,not_available,-0.16790000000000038,-0.4553225679515531,True,True,0,,,,,,,14,1,0.02
midas_umidas,exact,2020:Q1:pre_third:exact,2020-06-24,pre_third,DELTA_MT,DELTA_MT,2020:Q1,2.5739716051732966,,,not_available,-0.16790000000000038,2.741871605173297,True,True,0,,,,,,,14,1,0.02
monthly_mixed_frequency_kalman_em,exact,2020:Q1:pre_third:exact,2020-06-24,pre_third,DELTA_MT,DELTA_MT,2020:Q1,-0.2265386385878454,4.360171106161589,2.088102273874915,model_implied_state_space,-0.16790000000000038,-0.058638638587845016,True,True,30,-5842.564757670993,-7569.414509506856,-5842.564757670993,0.568459167846413,9.727005644027727e-05,30.0,14,1,0.02
standard_dfm,exact,2020:Q1:pre_third:exact,2020-06-24,pre_third,DELTA_MT,DELTA_MT,2020:Q1,0.0422232444522006,,,not_available,-0.16790000000000038,0.21012324445220099,True,True,0,,,,,,,14,1,0.02
release_dfm,exact,2020:Q1:pre_third:exact,2020-06-24,pre_third,DELTA_MT,DELTA_MT,2020:Q1,1.1250785037045006,,,not_available,-0.16790000000000038,1.292978503704501,True,True,0,,,,,,,14,1,0.02
revision_dfm_kalman_em,exact,2020:Q1:pre_third:exact,2020-06-24,pre_third,DELTA_MT,DELTA_MT,2020:Q1,-0.00953277807422559,4.276640423720157,2.0680039709149876,model_implied_state_space,-0.16790000000000038,0.1583672219257748,True,True,20,-2056.899842234065,-3055.2393940443058,-2056.899842234065,0.20486615090294436,9.954117012040001e-05,20.0,14,1,0.02
indicator_revision_only_dfm_kalman_em,exact,2020:Q1:pre_third:exact,2020-06-24,pre_third,DELTA_MT,DELTA_MT,2020:Q1,0.0,4.280701819864426,2.0689856983228343,model_implied_state_space,-0.16790000000000038,0.16790000000000038,True,True,25,-3815.3436035875666,-5020.250324368543,-3815.3436035875666,0.3477190086568953,9.110482857187592e-05,25.0,14,1,0.02
joint_indicator_revision_dfm_full_kalman_em,exact,2020:Q1:pre_third:exact,2020-06-24,pre_third,DELTA_MT,DELTA_MT,2020:Q1,-0.008948368556874087,4.291166151623117,2.071513010247128,model_implied_state_space,-0.16790000000000038,0.1589516314431263,True,True,26,-3779.4533944590503,-5035.0670223173665,-3779.4533944590503,0.35810146114044983,9.471550261812074e-05,26.0,14,1,0.02
ar,pseudo,2020:Q1:pre_advance:pseudo,2020-04-30,pre_advance,DELTA_SA,DELTA_SA,2020:Q1,0.07270396930060219,,,not_available,-0.26449999999999996,0.33720396930060215,True,True,0,,,,,,,14,1,0.02
no_revision,pseudo,2020:Q1:pre_advance:pseudo,2020-04-30,pre_advance,DELTA_SA,DELTA_SA,2020:Q1,0.0,,,not_available,-0.26449999999999996,0.26449999999999996,True,True,0,,,,,,,14,1,0.02
bridge,pseudo,2020:Q1:pre_advance:pseudo,2020-04-30,pre_advance,DELTA_SA,DELTA_SA,2020:Q1,-0.008254212386642479,,,not_available,-0.26449999999999996,0.2562457876133575,True,True,0,,,,,,,14,1,0.02
midas_umidas,pseudo,2020:Q1:pre_advance:pseudo,2020-04-30,pre_advance,DELTA_SA,DELTA_SA,2020:Q1,0.3587534204445504,,,not_available,-0.26449999999999996,0.6232534204445503,True,True,0,,,,,,,14,1,0.02
monthly_mixed_frequency_kalman_em,pseudo,2020:Q1:pre_advance:pseudo,2020-04-30,pre_advance,DELTA_SA,DELTA_SA,2020:Q1,-0.7033996338458226,0.3502055003116089,0.5917816322864448,model_implied_state_space,-0.26449999999999996,-0.43889963384582265,True,True,40,-6365.75857504451,-7568.960720705711,-6365.75857504451,0.5585125763955148,8.771552738929141e-05,40.0,14,1,0.02
standard_dfm,pseudo,2020:Q1:pre_advance:pseudo,2020-04-30,pre_advance,DELTA_SA,DELTA_SA,2020:Q1,-0.08726901154794109,,,not_available,-0.26449999999999996,0.17723098845205887,True,True,0,,,,,,,14,1,0.02
release_dfm,pseudo,2020:Q1:pre_advance:pseudo,2020-04-30,pre_advance,DELTA_SA,DELTA_SA,2020:Q1,-0.08726901154794109,,,not_available,-0.26449999999999996,0.17723098845205887,True,True,0,,,,,,,14,1,0.02
revision_dfm_kalman_em,pseudo,2020:Q1:pre_advance:pseudo,2020-04-30,pre_advance,DELTA_SA,DELTA_SA,2020:Q1,-0.09606386773300013,0.4044988618125256,0.6360022498486351,model_implied_state_space,-0.26449999999999996,0.16843613226699983,True,True,21,-2059.088326221227,-3052.090779029537,-2059.088326221227,0.18771605883239317,9.11120912829973e-05,21.0,14,1,0.02
indicator_revision_only_dfm_kalman_em,pseudo,2020:Q1:pre_advance:pseudo,2020-04-30,pre_advance,DELTA_SA,DELTA_SA,2020:Q1,0.0,0.4305715535080443,0.6561795131730679,model_implied_state_space,-0.26449999999999996,0.26449999999999996,True,True,25,-3818.1758031594413,-5003.5268326828445,-3818.1758031594413,0.3621143325003686,9.480579596867756e-05,25.0,14,1,0.02
joint_indicator_revision_dfm_full_kalman_em,pseudo,2020:Q1:pre_advance:pseudo,2020-04-30,pre_advance,DELTA_SA,DELTA_SA,2020:Q1,-0.014992985380558377,0.3884900879035147,0.6232897303048677,model_implied_state_space,-0.26449999999999996,0.24950701461944158,True,True,26,-3782.473356154798,-5018.916741120674,-3782.473356154798,0.36928325599001255,9.759477102555105e-05,26.0,14,1,0.02
ar,pseudo,2020:Q1:pre_second:pseudo,2020-05-31,pre_second,DELTA_TS,DELTA_TS,2020:Q1,0.06260501235437754,,,not_available,0.05400000000000027,0.008605012354377273,True,True,0,,,,,,,14,1,0.02
no_revision,pseudo,2020:Q1:pre_second:pseudo,2020-05-31,pre_second,DELTA_TS,DELTA_TS,2020:Q1,0.0,,,not_available,0.05400000000000027,-0.05400000000000027,True,True,0,,,,,,,14,1,0.02
bridge,pseudo,2020:Q1:pre_second:pseudo,2020-05-31,pre_second,DELTA_TS,DELTA_TS,2020:Q1,-0.1950308406984187,,,not_available,0.05400000000000027,-0.24903084069841896,True,True,0,,,,,,,14,1,0.02
midas_umidas,pseudo,2020:Q1:pre_second:pseudo,2020-05-31,pre_second,DELTA_TS,DELTA_TS,2020:Q1,0.7787367456186525,,,not_available,0.05400000000000027,0.7247367456186522,True,True,0,,,,,,,14,1,0.02
monthly_mixed_frequency_kalman_em,pseudo,2020:Q1:pre_second:pseudo,2020-05-31,pre_second,DELTA_TS,DELTA_TS,2020:Q1,0.09223285893868383,0.14843031507427562,0.3852665506818307,model_implied_state_space,0.05400000000000027,0.038232858938683556,True,True,44,-5864.340540144614,-7345.674777637329,-5864.340540144614,0.547686764674836,9.3368087404456e-05,44.0,14,1,0.02
standard_dfm,pseudo,2020:Q1:pre_second:pseudo,2020-05-31,pre_second,DELTA_TS,DELTA_TS,2020:Q1,0.029330985332028714,,,not_available,0.05400000000000027,-0.024669014667971556,True,True,0,,,,,,,14,1,0.02
release_dfm,pseudo,2020:Q1:pre_second:pseudo,2020-05-31,pre_second,DELTA_TS,DELTA_TS,2020:Q1,0.0020323707882221598,,,not_available,0.05400000000000027,-0.05196762921177811,True,True,0,,,,,,,14,1,0.02
revision_dfm_kalman_em,pseudo,2020:Q1:pre_second:pseudo,2020-05-31,pre_second,DELTA_TS,DELTA_TS,2020:Q1,-0.01505788083139148,0.14693218756967974,0.3833173457719853,model_implied_state_space,0.05400000000000027,-0.06905788083139175,True,True,20,-2060.1535555438313,-3054.096057583945,-2060.1535555438313,0.2022971133574174,9.813788972760162e-05,20.0,14,1,0.02
indicator_revision_only_dfm_kalman_em,pseudo,2020:Q1:pre_second:pseudo,2020-05-31,pre_second,DELTA_TS,DELTA_TS,2020:Q1,0.0,0.15107857089249632,0.38868826955864816,model_implied_state_space,0.05400000000000027,-0.05400000000000027,True,True,25,-3818.5435627106617,-5005.710113382972,-3818.5435627106617,0.35558758727438544,9.308821340130173e-05,25.0,14,1,0.02
joint_indicator_revision_dfm_full_kalman_em,pseudo,2020:Q1:pre_second:pseudo,2020-05-31,pre_second,DELTA_TS,DELTA_TS,2020:Q1,-0.012098654074581994,0.14589435233766557,0.38196119218798336,model_implied_state_space,0.05400000000000027,-0.06609865407458226,True,True,26,-3783.460660482166,-5020.735650599257,-3783.460660482166,0.3636429544631028,9.607921671104103e-05,26.0,14,1,0.02
ar,pseudo,2020:Q1:pre_third:pseudo,2020-06-30,pre_third,DELTA_MT,DELTA_MT,2020:Q1,0.1841743620429881,,,not_available,-0.16790000000000038,0.3520743620429885,True,True,0,,,,,,,14,1,0.02
no_revision,pseudo,2020:Q1:pre_third:pseudo,2020-06-30,pre_third,DELTA_MT,DELTA_MT,2020:Q1,0.0,,,not_available,-0.16790000000000038,0.16790000000000038,True,True,0,,,,,,,14,1,0.02
bridge,pseudo,2020:Q1:pre_third:pseudo,2020-06-30,pre_third,DELTA_MT,DELTA_MT,2020:Q1,-0.6220211317495115,,,not_available,-0.16790000000000038,-0.4541211317495111,True,True,0,,,,,,,14,1,0.02
midas_umidas,pseudo,2020:Q1:pre_third:pseudo,2020-06-30,pre_third,DELTA_MT,DELTA_MT,2020:Q1,2.525235690040403,,,not_available,-0.16790000000000038,2.6931356900404033,True,True,0,,,,,,,14,1,0.02
monthly_mixed_frequency_kalman_em,pseudo,2020:Q1:pre_third:pseudo,2020-06-30,pre_third,DELTA_MT,DELTA_MT,2020:Q1,-0.22617328111443946,4.360133186602745,2.0880931939457934,model_implied_state_space,-0.16790000000000038,-0.05827328111443908,True,True,30,-5848.09797214537,-7570.982370400096,-5848.09797214537,0.5808403497094332,9.929440031284142e-05,30.0,14,1,0.02
standard_dfm,pseudo,2020:Q1:pre_third:pseudo,2020-06-30,pre_third,DELTA_MT,DELTA_MT,2020:Q1,0.04086455062086802,,,not_available,-0.16790000000000038,0.2087645506208684,True,True,0,,,,,,,14,1,0.02
release_dfm,pseudo,2020:Q1:pre_third:pseudo,2020-06-30,pre_third,DELTA_MT,DELTA_MT,2020:Q1,1.1213922379207828,,,not_available,-0.16790000000000038,1.2892922379207832,True,True,0,,,,,,,14,1,0.02
revision_dfm_kalman_em,pseudo,2020:Q1:pre_third:pseudo,2020-06-30,pre_third,DELTA_MT,DELTA_MT,2020:Q1,-0.009528183020588443,4.276641839995029,2.068004313340528,model_implied_state_space,-0.16790000000000038,0.15837181697941194,True,True,20,-2056.8050972137657,-3055.1987922069134,-2056.8050972137657,0.20482699136982774,9.952672674741254e-05,20.0,14,1,0.02
indicator_revision_only_dfm_kalman_em,pseudo,2020:Q1:pre_third:pseudo,2020-06-30,pre_third,DELTA_MT,DELTA_MT,2020:Q1,0.0,4.280700257655503,2.068985320792659,model_implied_state_space,-0.16790000000000038,0.16790000000000038,True,True,25,-3815.2858131534144,-5020.232957605215,-3815.2858131534144,0.3478183994020583,9.113224715272097e-05,25.0,14,1,0.02
joint_indicator_revision_dfm_full_kalman_em,pseudo,2020:Q1:pre_third:pseudo,2020-06-30,pre_third,DELTA_MT,DELTA_MT,2020:Q1,-0.008944006692548356,4.291167438381823,2.071513320831373,model_implied_state_space,-0.16790000000000038,0.15895599330745203,True,True,26,-3779.3941763545527,-5035.049649856849,-3779.3941763545527,0.3581961741010673,9.474203513135602e-05,26.0,14,1,0.02
ar,exact,2020:Q2:pre_advance:exact,2020-07-29,pre_advance,DELTA_SA,DELTA_SA,2020:Q2,0.22277037037452474,,,not_available,1.1996999999999964,-0.9769296296254717,True,True,0,,,,,,,14,1,0.02
no_revision,exact,2020:Q2:pre_advance:exact,2020-07-29,pre_advance,DELTA_SA,DELTA_SA,2020:Q2,0.0,,,not_available,1.1996999999999964,-1.1996999999999964,True,True,0,,,,,,,14,1,0.02
bridge,exact,2020:Q2:pre_advance:exact,2020-07-29,pre_advance,DELTA_SA,DELTA_SA,2020:Q2,-0.8123714058636846,,,not_available,1.1996999999999964,-2.012071405863681,True,True,0,,,,,,,14,1,0.02
midas_umidas,exact,2020:Q2:pre_advance:exact,2020-07-29,pre_advance,DELTA_SA,DELTA_SA,2020:Q2,46.64625568917797,,,not_available,1.1996999999999964,45.44655568917797,True,True,0,,,,,,,14,1,0.02
monthly_mixed_frequency_kalman_em,exact,2020:Q2:pre_advance:exact,2020-07-29,pre_advance,DELTA_SA,DELTA_SA,2020:Q2,-1.5587867500333488,0.3331608578720253,0.5772008817318502,model_implied_state_space,1.1996999999999964,-2.758486750033345,True,True,30,-5800.950420662696,-7576.408237289621,-5800.950420662696,0.543709375088838,9.370270144250838e-05,30.0,14,1,0.02
standard_dfm,exact,2020:Q2:pre_advance:exact,2020-07-29,pre_advance,DELTA_SA,DELTA_SA,2020:Q2,-1.5018387117883414,,,not_available,1.1996999999999964,-2.701538711788338,True,True,0,,,,,,,14,1,0.02
release_dfm,exact,2020:Q2:pre_advance:exact,2020-07-29,pre_advance,DELTA_SA,DELTA_SA,2020:Q2,-1.5018387117883414,,,not_available,1.1996999999999964,-2.701538711788338,True,True,0,,,,,,,14,1,0.02
revision_dfm_kalman_em,exact,2020:Q2:pre_advance:exact,2020-07-29,pre_advance,DELTA_SA,DELTA_SA,2020:Q2,-0.9879343315634657,0.3968308978820634,0.6299451546619462,model_implied_state_space,1.1996999999999964,-2.187634331563462,True,True,29,-1891.8445054192732,-3080.8355834170593,-1891.8445054192732,0.17548484974167877,9.27010019142697e-05,29.0,14,1,0.02
indicator_revision_only_dfm_kalman_em,exact,2020:Q2:pre_advance:exact,2020-07-29,pre_advance,DELTA_SA,DELTA_SA,2020:Q2,0.0,0.42424577971974564,0.6513415231042358,model_implied_state_space,1.1996999999999964,-1.1996999999999964,True,True,36,-3399.241944191726,-5004.986631498734,-3399.241944191726,0.28469331787846386,8.372036105765096e-05,36.0,14,1,0.02
joint_indicator_revision_dfm_full_kalman_em,exact,2020:Q2:pre_advance:exact,2020-07-29,pre_advance,DELTA_SA,DELTA_SA,2020:Q2,-0.5091284971819761,0.3595551102868866,0.5996291439605705,model_implied_state_space,1.1996999999999964,-1.7088284971819725,True,True,37,-3358.067376843012,-5020.0117931285295,-3358.067376843012,0.30927411258380744,9.206294640877274e-05,37.0,14,1,0.02
ar,exact,2020:Q2:pre_second:exact,2020-08-26,pre_second,DELTA_TS,DELTA_TS,2020:Q2,0.22266421245840196,,,not_available,0.3214000000000006,-0.09873578754159862,True,True,0,,,,,,,14,1,0.02
no_revision,exact,2020:Q2:pre_second:exact,2020-08-26,pre_second,DELTA_TS,DELTA_TS,2020:Q2,0.0,,,not_available,0.3214000000000006,-0.3214000000000006,True,True,0,,,,,,,14,1,0.02
bridge,exact,2020:Q2:pre_second:exact,2020-08-26,pre_second,DELTA_TS,DELTA_TS,2020:Q2,0.2158070170818096,,,not_available,0.3214000000000006,-0.10559298291819097,True,True,0,,,,,,,14,1,0.02
midas_umidas,exact,2020:Q2:pre_second:exact,2020-08-26,pre_second,DELTA_TS,DELTA_TS,2020:Q2,-20.633376910143767,,,not_available,0.3214000000000006,-20.954776910143767,True,True,0,,,,,,,14,1,0.02
monthly_mixed_frequency_kalman_em,exact,2020:Q2:pre_second:exact,2020-08-26,pre_second,DELTA_TS,DELTA_TS,2020:Q2,-0.7709575212528677,0.14745425712027993,0.38399773061865866,model_implied_state_space,0.3214000000000006,-1.0923575212528682,True,True,30,-5790.936824378299,-7593.671304928383,-5790.936824378299,0.5359329527009322,9.252230871913056e-05,30.0,14,1,0.02
standard_dfm,exact,2020:Q2:pre_second:exact,2020-08-26,pre_second,DELTA_TS,DELTA_TS,2020:Q2,-0.20132203708942242,,,not_available,0.3214000000000006,-0.522722037089423,True,True,0,,,,,,,14,1,0.02
release_dfm,exact,2020:Q2:pre_second:exact,2020-08-26,pre_second,DELTA_TS,DELTA_TS,2020:Q2,-0.1432377354184453,,,not_available,0.3214000000000006,-0.4646377354184459,True,True,0,,,,,,,14,1,0.02
revision_dfm_kalman_em,exact,2020:Q2:pre_second:exact,2020-08-26,pre_second,DELTA_TS,DELTA_TS,2020:Q2,-0.06476457984167894,0.1457410931072104,0.3817605180046915,model_implied_state_space,0.3214000000000006,-0.3861645798416795,True,True,24,-1847.8199834852524,-3092.2696242769625,-1847.8199834852524,0.18011123713722554,9.741007458643077e-05,24.0,14,1,0.02
indicator_revision_only_dfm_kalman_em,exact,2020:Q2:pre_second:exact,2020-08-26,pre_second,DELTA_TS,DELTA_TS,2020:Q2,0.0,0.14889887824515857,0.3858741741101088,model_implied_state_space,0.3214000000000006,-0.3214000000000006,True,True,41,-3346.398701062516,-5007.3431499408,-3346.398701062516,0.3176039602935816,9.48718264498872e-05,41.0,14,1,0.02
joint_indicator_revision_dfm_full_kalman_em,exact,2020:Q2:pre_second:exact,2020-08-26,pre_second,DELTA_TS,DELTA_TS,2020:Q2,-0.011204584908469428,0.14440053066890257,0.3800006982479145,model_implied_state_space,0.3214000000000006,-0.33260458490847,True,True,44,-3306.7009781381967,-5016.1604148621045,-3306.7009781381967,0.3087009305331776,9.331923436816636e-05,44.0,14,1,0.02
ar,exact,2020:Q2:pre_third:exact,2020-09-29,pre_third,DELTA_MT,DELTA_MT,2020:Q2,3.4133521633512327,,,not_available,3.4068000000000005,0.00655216335123221,True,True,0,,,,,,,14,1,0.02
no_revision,exact,2020:Q2:pre_third:exact,2020-09-29,pre_third,DELTA_MT,DELTA_MT,2020:Q2,0.0,,,not_available,3.4068000000000005,-3.4068000000000005,True,True,0,,,,,,,14,1,0.02
bridge,exact,2020:Q2:pre_third:exact,2020-09-29,pre_third,DELTA_MT,DELTA_MT,2020:Q2,-1.2255572624661575,,,not_available,3.4068000000000005,-4.632357262466158,True,True,0,,,,,,,14,1,0.02
midas_umidas,exact,2020:Q2:pre_third:exact,2020-09-29,pre_third,DELTA_MT,DELTA_MT,2020:Q2,5.755193188971731,,,not_available,3.4068000000000005,2.3483931889717304,True,True,0,,,,,,,14,1,0.02
monthly_mixed_frequency_kalman_em,exact,2020:Q2:pre_third:exact,2020-09-29,pre_third,DELTA_MT,DELTA_MT,2020:Q2,-0.07489958433117039,4.282575440904073,2.069438436123209,model_implied_state_space,3.4068000000000005,-3.481699584331171,True,True,30,-5763.283163787264,-7611.521640025797,-5763.283163787264,0.5381468727000538,9.335013935383299e-05,30.0,14,1,0.02
standard_dfm,exact,2020:Q2:pre_third:exact,2020-09-29,pre_third,DELTA_MT,DELTA_MT,2020:Q2,-0.6909622800456106,,,not_available,3.4068000000000005,-4.097762280045611,True,True,0,,,,,,,14,1,0.02
release_dfm,exact,2020:Q2:pre_third:exact,2020-09-29,pre_third,DELTA_MT,DELTA_MT,2020:Q2,1.4993223405828005,,,not_available,3.4068000000000005,-1.9074776594172,True,True,0,,,,,,,14,1,0.02
revision_dfm_kalman_em,exact,2020:Q2:pre_third:exact,2020-09-29,pre_third,DELTA_MT,DELTA_MT,2020:Q2,0.004331236615286116,4.261868405031421,2.064429317034473,model_implied_state_space,3.4068000000000005,-3.4024687633847144,True,True,24,-1808.7746615042768,-3096.919438502148,-1808.7746615042768,0.16719441171085236,9.237557060982906e-05,24.0,14,1,0.02
indicator_revision_only_dfm_kalman_em,exact,2020:Q2:pre_third:exact,2020-09-29,pre_third,DELTA_MT,DELTA_MT,2020:Q2,0.0,4.27904675652302,2.06858568991546,model_implied_state_space,3.4068000000000005,-3.4068000000000005,True,True,38,-3301.9388812561447,-5023.22720103023,-3301.9388812561447,0.3177014381126355,9.617825020831612e-05,38.0,14,1,0.02
joint_indicator_revision_dfm_full_kalman_em,exact,2020:Q2:pre_third:exact,2020-09-29,pre_third,DELTA_MT,DELTA_MT,2020:Q2,0.018838645243071994,4.281698821790656,2.0692266240773765,model_implied_state_space,3.4068000000000005,-3.3879613547569285,True,True,40,-3261.8338144547415,-5031.850508004844,-3261.8338144547415,0.2871933519063532,8.80118607980751e-05,40.0,14,1,0.02
ar,pseudo,2020:Q2:pre_advance:pseudo,2020-07-31,pre_advance,DELTA_SA,DELTA_SA,2020:Q2,0.22277037037452474,,,not_available,1.1996999999999964,-0.9769296296254717,True,True,0,,,,,,,14,1,0.02
no_revision,pseudo,2020:Q2:pre_advance:pseudo,2020-07-31,pre_advance,DELTA_SA,DELTA_SA,2020:Q2,0.0,,,not_available,1.1996999999999964,-1.1996999999999964,True,True,0,,,,,,,14,1,0.02
bridge,pseudo,2020:Q2:pre_advance:pseudo,2020-07-31,pre_advance,DELTA_SA,DELTA_SA,2020:Q2,-0.7774403997501551,,,not_available,1.1996999999999964,-1.9771403997501515,True,True,0,,,,,,,14,1,0.02
midas_umidas,pseudo,2020:Q2:pre_advance:pseudo,2020-07-31,pre_advance,DELTA_SA,DELTA_SA,2020:Q2,47.64493335960522,,,not_available,1.1996999999999964,46.445233359605226,True,True,0,,,,,,,14,1,0.02
monthly_mixed_frequency_kalman_em,pseudo,2020:Q2:pre_advance:pseudo,2020-07-31,pre_advance,DELTA_SA,DELTA_SA,2020:Q2,-1.5572435297640652,0.3332142579721582,0.5772471376907452,model_implied_state_space,1.1996999999999964,-2.7569435297640617,True,True,30,-5805.174913630151,-7577.424273802538,-5805.174913630151,0.5482355668964374,9.441393240389759e-05,30.0,14,1,0.02
standard_dfm,pseudo,2020:Q2:pre_advance:pseudo,2020-07-31,pre_advance,DELTA_SA,DELTA_SA,2020:Q2,-1.4870034110111714,,,not_available,1.1996999999999964,-2.686703411011168,True,True,0,,,,,,,14,1,0.02
release_dfm,pseudo,2020:Q2:pre_advance:pseudo,2020-07-31,pre_advance,DELTA_SA,DELTA_SA,2020:Q2,-1.4870034110111714,,,not_available,1.1996999999999964,-2.686703411011168,True,True,0,,,,,,,14,1,0.02
revision_dfm_kalman_em,pseudo,2020:Q2:pre_advance:pseudo,2020-07-31,pre_advance,DELTA_SA,DELTA_SA,2020:Q2,-0.9824488485237737,0.3967234874701804,0.6298598951117466,model_implied_state_space,1.1996999999999964,-2.18214884852377,True,True,29,-1897.2621604196192,-3083.3040611548386,-1897.2621604196192,0.16859548232991983,8.880781235016376e-05,29.0,14,1,0.02
indicator_revision_only_dfm_kalman_em,pseudo,2020:Q2:pre_advance:pseudo,2020-07-31,pre_advance,DELTA_SA,DELTA_SA,2020:Q2,0.0,0.42424286838814407,0.6513392882270684,model_implied_state_space,1.1996999999999964,-1.1996999999999964,True,True,36,-3409.5146855200437,-5008.738914775296,-3409.5146855200437,0.34030460602116364,9.977105652579678e-05,36.0,14,1,0.02
joint_indicator_revision_dfm_full_kalman_em,pseudo,2020:Q2:pre_advance:pseudo,2020-07-31,pre_advance,DELTA_SA,DELTA_SA,2020:Q2,-0.5211132736710553,0.3585035809855741,0.5987516855805703,model_implied_state_space,1.1996999999999964,-1.7208132736710517,True,True,38,-3367.9970001613815,-5023.755595534122,-3367.9970001613815,0.29397967660725044,8.725268264642028e-05,38.0,14,1,0.02
ar,pseudo,2020:Q2:pre_second:pseudo,2020-08-31,pre_second,DELTA_TS,DELTA_TS,2020:Q2,0.22266421245840196,,,not_available,0.3214000000000006,-0.09873578754159862,True,True,0,,,,,,,14,1,0.02
no_revision,pseudo,2020:Q2:pre_second:pseudo,2020-08-31,pre_second,DELTA_TS,DELTA_TS,2020:Q2,0.0,,,not_available,0.3214000000000006,-0.3214000000000006,True,True,0,,,,,,,14,1,0.02
bridge,pseudo,2020:Q2:pre_second:pseudo,2020-08-31,pre_second,DELTA_TS,DELTA_TS,2020:Q2,0.23140965317984374,,,not_available,0.3214000000000006,-0.08999034682015683,True,True,0,,,,,,,14,1,0.02
midas_umidas,pseudo,2020:Q2:pre_second:pseudo,2020-08-31,pre_second,DELTA_TS,DELTA_TS,2020:Q2,-20.626923509636782,,,not_available,0.3214000000000006,-20.948323509636783,True,True,0,,,,,,,14,1,0.02
monthly_mixed_frequency_kalman_em,pseudo,2020:Q2:pre_second:pseudo,2020-08-31,pre_second,DELTA_TS,DELTA_TS,2020:Q2,-0.770920708788907,0.14745774825586389,0.38400227636807555,model_implied_state_space,0.3214000000000006,-1.0923207087889075,True,True,30,-5794.179609483348,-7595.112622176762,-5794.179609483348,0.5378628933985965,9.280350465013715e-05,30.0,14,1,0.02
standard_dfm,pseudo,2020:Q2:pre_second:pseudo,2020-08-31,pre_second,DELTA_TS,DELTA_TS,2020:Q2,-0.2010002342961421,,,not_available,0.3214000000000006,-0.5224002342961427,True,True,0,,,,,,,14,1,0.02
release_dfm,pseudo,2020:Q2:pre_second:pseudo,2020-08-31,pre_second,DELTA_TS,DELTA_TS,2020:Q2,-0.14322689758746776,,,not_available,0.3214000000000006,-0.46462689758746833,True,True,0,,,,,,,14,1,0.02
revision_dfm_kalman_em,pseudo,2020:Q2:pre_second:pseudo,2020-08-31,pre_second,DELTA_TS,DELTA_TS,2020:Q2,-0.06479654490080122,0.1457406329315719,0.38175991530223796,model_implied_state_space,0.3214000000000006,-0.3861965449008018,True,True,24,-1848.682344325339,-3092.5044557548194,-1848.682344325339,0.17971129801412644,9.714848600079459e-05,24.0,14,1,0.02
indicator_revision_only_dfm_kalman_em,pseudo,2020:Q2:pre_second:pseudo,2020-08-31,pre_second,DELTA_TS,DELTA_TS,2020:Q2,0.0,0.14889942279011004,0.38587487970857864,model_implied_state_space,0.3214000000000006,-0.3214000000000006,True,True,41,-3347.4175928156897,-5007.383419199728,-3347.4175928156897,0.3309750092525974,9.883543137058216e-05,41.0,14,1,0.02
joint_indicator_revision_dfm_full_kalman_em,pseudo,2020:Q2:pre_second:pseudo,2020-08-31,pre_second,DELTA_TS,DELTA_TS,2020:Q2,-0.01107468383987964,0.1444002200185044,0.3800002894979218,model_implied_state_space,0.3214000000000006,-0.3324746838398802,True,True,44,-3307.7313568486675,-5016.2008884936195,-3307.7313568486675,0.32098151820400744,9.700103999032624e-05,44.0,14,1,0.02
ar,pseudo,2020:Q2:pre_third:pseudo,2020-09-30,pre_third,DELTA_MT,DELTA_MT,2020:Q2,3.4133521633512327,,,not_available,3.4068000000000005,0.00655216335123221,True,True,0,,,,,,,14,1,0.02
no_revision,pseudo,2020:Q2:pre_third:pseudo,2020-09-30,pre_third,DELTA_MT,DELTA_MT,2020:Q2,0.0,,,not_available,3.4068000000000005,-3.4068000000000005,True,True,0,,,,,,,14,1,0.02
bridge,pseudo,2020:Q2:pre_third:pseudo,2020-09-30,pre_third,DELTA_MT,DELTA_MT,2020:Q2,-1.2255572624661575,,,not_available,3.4068000000000005,-4.632357262466158,True,True,0,,,,,,,14,1,0.02
midas_umidas,pseudo,2020:Q2:pre_third:pseudo,2020-09-30,pre_third,DELTA_MT,DELTA_MT,2020:Q2,5.755193188971731,,,not_available,3.4068000000000005,2.3483931889717304,True,True,0,,,,,,,14,1,0.02
monthly_mixed_frequency_kalman_em,pseudo,2020:Q2:pre_third:pseudo,2020-09-30,pre_third,DELTA_MT,DELTA_MT,2020:Q2,-0.07489958433117039,4.282575440904073,2.069438436123209,model_implied_state_space,3.4068000000000005,-3.481699584331171,True,True,30,-5763.283163787264,-7611.521640025797,-5763.283163787264,0.5381468727000538,9.335013935383299e-05,30.0,14,1,0.02
standard_dfm,pseudo,2020:Q2:pre_third:pseudo,2020-09-30,pre_third,DELTA_MT,DELTA_MT,2020:Q2,-0.6909622800456106,,,not_available,3.4068000000000005,-4.097762280045611,True,True,0,,,,,,,14,1,0.02
release_dfm,pseudo,2020:Q2:pre_third:pseudo,2020-09-30,pre_third,DELTA_MT,DELTA_MT,2020:Q2,1.4993223405828005,,,not_available,3.4068000000000005,-1.9074776594172,True,True,0,,,,,,,14,1,0.02
revision_dfm_kalman_em,pseudo,2020:Q2:pre_third:pseudo,2020-09-30,pre_third,DELTA_MT,DELTA_MT,2020:Q2,0.004331236615286116,4.261868405031421,2.064429317034473,model_implied_state_space,3.4068000000000005,-3.4024687633847144,True,True,24,-1808.7746615042768,-3096.919438502148,-1808.7746615042768,0.16719441171085236,9.237557060982906e-05,24.0,14,1,0.02
indicator_revision_only_dfm_kalman_em,pseudo,2020:Q2:pre_third:pseudo,2020-09-30,pre_third,DELTA_MT,DELTA_MT,2020:Q2,0.0,4.27904675652302,2.06858568991546,model_implied_state_space,3.4068000000000005,-3.4068000000000005,True,True,38,-3301.9388812561447,-5023.22720103023,-3301.9388812561447,0.3177014381126355,9.617825020831612e-05,38.0,14,1,0.02
joint_indicator_revision_dfm_full_kalman_em,pseudo,2020:Q2:pre_third:pseudo,2020-09-30,pre_third,DELTA_MT,DELTA_MT,2020:Q2,0.018838645243071994,4.281698821790656,2.0692266240773765,model_implied_state_space,3.4068000000000005,-3.3879613547569285,True,True,40,-3261.8338144547415,-5031.850508004844,-3261.8338144547415,0.2871933519063532,8.80118607980751e-05,40.0,14,1,0.02
ar,exact,2020:Q3:pre_advance:exact,2020-10-28,pre_advance,DELTA_SA,DELTA_SA,2020:Q3,2.555388340709694,,,not_available,-0.014299999999998647,2.5696883407096927,True,True,0,,,,,,,14,1,0.02
no_revision,exact,2020:Q3:pre_advance:exact,2020-10-28,pre_advance,DELTA_SA,DELTA_SA,2020:Q3,0.0,,,not_available,-0.014299999999998647,0.014299999999998647,True,True,0,,,,,,,14,1,0.02
bridge,exact,2020:Q3:pre_advance:exact,2020-10-28,pre_advance,DELTA_SA,DELTA_SA,2020:Q3,2.262902420301885,,,not_available,-0.014299999999998647,2.2772024203018835,True,True,0,,,,,,,14,1,0.02
midas_umidas,exact,2020:Q3:pre_advance:exact,2020-10-28,pre_advance,DELTA_SA,DELTA_SA,2020:Q3,-63.93108790807699,,,not_available,-0.014299999999998647,-63.91678790807699,True,True,0,,,,,,,14,1,0.02
monthly_mixed_frequency_kalman_em,exact,2020:Q3:pre_advance:exact,2020-10-28,pre_advance,DELTA_SA,DELTA_SA,2020:Q3,1.1994237271587114,0.36806673004026,0.6066850336379331,model_implied_state_space,-0.014299999999998647,1.21372372715871,True,True,30,-5768.034541426863,-7659.023192441736,-5768.034541426863,0.5548614852687024,9.617001254693144e-05,30.0,14,1,0.02
standard_dfm,exact,2020:Q3:pre_advance:exact,2020-10-28,pre_advance,DELTA_SA,DELTA_SA,2020:Q3,0.1201214726990365,,,not_available,-0.014299999999998647,0.13442147269903515,True,True,0,,,,,,,14,1,0.02
release_dfm,exact,2020:Q3:pre_advance:exact,2020-10-28,pre_advance,DELTA_SA,DELTA_SA,2020:Q3,0.1201214726990365,,,not_available,-0.014299999999998647,0.13442147269903515,True,True,0,,,,,,,14,1,0.02
revision_dfm_kalman_em,exact,2020:Q3:pre_advance:exact,2020-10-28,pre_advance,DELTA_SA,DELTA_SA,2020:Q3,0.7298287752127717,0.39312210056531427,0.6269944980343243,model_implied_state_space,-0.014299999999998647,0.7441287752127703,True,True,38,-1757.3443199908932,-3171.3433679597624,-1757.3443199908932,0.1307702306187366,7.436569977358264e-05,38.0,14,1,0.02
indicator_revision_only_dfm_kalman_em,exact,2020:Q3:pre_advance:exact,2020-10-28,pre_advance,DELTA_SA,DELTA_SA,2020:Q3,0.0,0.4297562235853567,0.6555579483046153,model_implied_state_space,-0.014299999999998647,0.014299999999998647,True,True,39,-3199.4533870761206,-5116.649815801015,-3199.4533870761206,0.29275895499404214,9.146584628620411e-05,39.0,14,1,0.02
joint_indicator_revision_dfm_full_kalman_em,exact,2020:Q3:pre_advance:exact,2020-10-28,pre_advance,DELTA_SA,DELTA_SA,2020:Q3,1.5470980139746864,0.3570292427764805,0.5975192405073502,model_implied_state_space,-0.014299999999998647,1.561398013974685,True,True,39,-3168.999253449028,-5127.7290978856445,-3168.999253449028,0.3151718242570496,9.941342781162199e-05,39.0,14,1,0.02
ar,exact,2020:Q3:pre_second:exact,2020-11-24,pre_second,DELTA_TS,DELTA_TS,2020:Q3,1.0697573673306877,,,not_available,0.3727000000000018,0.6970573673306859,True,True,0,,,,,,,14,1,0.02
no_revision,exact,2020:Q3:pre_second:exact,2020-11-24,pre_second,DELTA_TS,DELTA_TS,2020:Q3,0.0,,,not_available,0.3727000000000018,-0.3727000000000018,True,True,0,,,,,,,14,1,0.02
bridge,exact,2020:Q3:pre_second:exact,2020-11-24,pre_second,DELTA_TS,DELTA_TS,2020:Q3,1.0566794154162311,,,not_available,0.3727000000000018,0.6839794154162293,True,True,0,,,,,,,14,1,0.02
midas_umidas,exact,2020:Q3:pre_second:exact,2020-11-24,pre_second,DELTA_TS,DELTA_TS,2020:Q3,14.8390442611652,,,not_available,0.3727000000000018,14.466344261165197,True,True,0,,,,,,,14,1,0.02
monthly_mixed_frequency_kalman_em,exact,2020:Q3:pre_second:exact,2020-11-24,pre_second,DELTA_TS,DELTA_TS,2020:Q3,0.48896568790998174,0.14475198477720796,0.38046285597572854,model_implied_state_space,0.3727000000000018,0.11626568790997993,True,True,37,-5751.403105536458,-7656.96332378251,-5751.403105536458,0.5543315071199686,9.635592009608843e-05,37.0,14,1,0.02
standard_dfm,exact,2020:Q3:pre_second:exact,2020-11-24,pre_second,DELTA_TS,DELTA_TS,2020:Q3,0.07655031567811577,,,not_available,0.3727000000000018,-0.29614968432188604,True,True,0,,,,,,,14,1,0.02
release_dfm,exact,2020:Q3:pre_second:exact,2020-11-24,pre_second,DELTA_TS,DELTA_TS,2020:Q3,0.025104152176020023,,,not_available,0.3727000000000018,-0.3475958478239818,True,True,0,,,,,,,14,1,0.02
revision_dfm_kalman_em,exact,2020:Q3:pre_second:exact,2020-11-24,pre_second,DELTA_TS,DELTA_TS,2020:Q3,0.052436902582577716,0.1460916256256778,0.3822193422966423,model_implied_state_space,0.3727000000000018,-0.3202630974174241,True,True,26,-1735.1074335771732,-3184.275241282571,-1735.1074335771732,0.15797771551069673,9.098707748435719e-05,26.0,14,1,0.02
indicator_revision_only_dfm_kalman_em,exact,2020:Q3:pre_second:exact,2020-11-24,pre_second,DELTA_TS,DELTA_TS,2020:Q3,0.0,0.14854612258706268,0.38541681668949357,model_implied_state_space,0.3727000000000018,-0.3727000000000018,True,True,39,-3169.641234947149,-5135.214381633735,-3169.641234947149,0.27014222381194486,8.519387383603312e-05,39.0,14,1,0.02
joint_indicator_revision_dfm_full_kalman_em,exact,2020:Q3:pre_second:exact,2020-11-24,pre_second,DELTA_TS,DELTA_TS,2020:Q3,0.031046899675374107,0.14442793463419656,0.3800367543201533,model_implied_state_space,0.3727000000000018,-0.3416531003246277,True,True,40,-3135.616491341895,-5146.56777244994,-3135.616491341895,0.2837681326573147,9.046131823931417e-05,40.0,14,1,0.02
ar,exact,2020:Q3:pre_third:exact,2020-12-21,pre_third,DELTA_MT,DELTA_MT,2020:Q3,18.90965041100232,,,not_available,1.4142999999999972,17.495350411002324,True,True,0,,,,,,,14,1,0.02
no_revision,exact,2020:Q3:pre_third:exact,2020-12-21,pre_third,DELTA_MT,DELTA_MT,2020:Q3,0.0,,,not_available,1.4142999999999972,-1.4142999999999972,True,True,0,,,,,,,14,1,0.02
bridge,exact,2020:Q3:pre_third:exact,2020-12-21,pre_third,DELTA_MT,DELTA_MT,2020:Q3,6.926143260561631,,,not_available,1.4142999999999972,5.511843260561633,True,True,0,,,,,,,14,1,0.02
midas_umidas,exact,2020:Q3:pre_third:exact,2020-12-21,pre_third,DELTA_MT,DELTA_MT,2020:Q3,38.85047266361775,,,not_available,1.4142999999999972,37.436172663617754,True,True,0,,,,,,,14,1,0.02
monthly_mixed_frequency_kalman_em,exact,2020:Q3:pre_third:exact,2020-12-21,pre_third,DELTA_MT,DELTA_MT,2020:Q3,0.3313663820439743,4.263836525566774,2.0649059362515216,model_implied_state_space,1.4142999999999972,-1.082933617956023,True,True,33,-5738.80839494275,-7680.297825146089,-5738.80839494275,0.5482886126919766,9.551472894753632e-05,33.0,14,1,0.02
standard_dfm,exact,2020:Q3:pre_third:exact,2020-12-21,pre_third,DELTA_MT,DELTA_MT,2020:Q3,-5.018362780451323,,,not_available,1.4142999999999972,-6.43266278045132,True,True,0,,,,,,,14,1,0.02
release_dfm,exact,2020:Q3:pre_third:exact,2020-12-21,pre_third,DELTA_MT,DELTA_MT,2020:Q3,-1.9791798300080856,,,not_available,1.4142999999999972,-3.393479830008083,True,True,0,,,,,,,14,1,0.02
