haminh109/Revision-Aware-DFM/outputs/full_state_space_release_revision_dfm/frozen/q2_manuscript_best_v1/initialization_audit/seed_2/forecast_results.csv
model_id,timing_mode,forecast_origin,forecast_origin_date,checkpoint_id,target_id,target_quarter,forecast_value,forecast_variance,forecast_sd,density_source,realized_value,forecast_error,revision_target_flag,converged,n_iter,loglikelihood,llf_initial,llf_final,llf_last_improvement,llf_relative_last_improvement,llf_history_length,n_indicators,initialization_seed,initialization_jitter
ar,exact,2019:Q1:pre_advance:exact,2019-04-25,pre_advance,A,2019:Q1,2.544004133182678,,,not_available,3.1705,-0.6264958668173222,False,True,0,,,,,,,14,2,0.02
no_revision,exact,2019:Q1:pre_advance:exact,2019-04-25,pre_advance,A,2019:Q1,2.494294354572081,,,not_available,3.1705,-0.676205645427919,False,True,0,,,,,,,14,2,0.02
bridge,exact,2019:Q1:pre_advance:exact,2019-04-25,pre_advance,A,2019:Q1,2.463317526102582,,,not_available,3.1705,-0.7071824738974182,False,True,0,,,,,,,14,2,0.02
midas_umidas,exact,2019:Q1:pre_advance:exact,2019-04-25,pre_advance,A,2019:Q1,4.853686202530027,,,not_available,3.1705,1.683186202530027,False,True,0,,,,,,,14,2,0.02
monthly_mixed_frequency_kalman_em,exact,2019:Q1:pre_advance:exact,2019-04-25,pre_advance,A,2019:Q1,1.6706465197439566,3.1904042636923116,1.7861702784707598,model_implied_state_space,3.1705,-1.4998534802560435,False,True,54,-6285.22325928218,-7334.434583170255,-6285.22325928218,0.6243558635778754,9.931143584166545e-05,54.0,14,2,0.02
standard_dfm,exact,2019:Q1:pre_advance:exact,2019-04-25,pre_advance,A,2019:Q1,1.8414926723620524,,,not_available,3.1705,-1.3290073276379477,False,True,0,,,,,,,14,2,0.02
release_dfm,exact,2019:Q1:pre_advance:exact,2019-04-25,pre_advance,A,2019:Q1,1.8414926723620524,,,not_available,3.1705,-1.3290073276379477,False,True,0,,,,,,,14,2,0.02
revision_dfm_kalman_em,exact,2019:Q1:pre_advance:exact,2019-04-25,pre_advance,A,2019:Q1,1.47693469354912,3.2248040931425614,1.7957739537989077,model_implied_state_space,3.1705,-1.69356530645088,False,True,21,-1989.6558391993162,-2962.899755748499,-1989.6558391993162,0.18183084947941097,9.133384012919259e-05,21.0,14,2,0.02
indicator_revision_only_dfm_kalman_em,exact,2019:Q1:pre_advance:exact,2019-04-25,pre_advance,A,2019:Q1,1.4704279062978343,3.713023107393428,1.9269206282027882,model_implied_state_space,3.1705,-1.7000720937021658,False,True,25,-3681.9401188973734,-4844.278444639991,-3681.9401188973734,0.34922397528725924,9.481307135509844e-05,25.0,14,2,0.02
joint_indicator_revision_dfm_full_kalman_em,exact,2019:Q1:pre_advance:exact,2019-04-25,pre_advance,A,2019:Q1,1.5286414578929841,2.6557224375000654,1.6296387444768443,model_implied_state_space,3.1705,-1.641858542107016,False,True,26,-3646.5894971834055,-4859.630594484298,-3646.5894971834055,0.34455881896519713,9.445313804350558e-05,26.0,14,2,0.02
ar,exact,2019:Q1:pre_second:exact,2019-05-29,pre_second,S,2019:Q1,3.0088930533858775,,,not_available,3.0658,-0.05690694661412232,False,True,0,,,,,,,14,2,0.02
no_revision,exact,2019:Q1:pre_second:exact,2019-05-29,pre_second,S,2019:Q1,3.1705,,,not_available,3.0658,0.10470000000000024,False,True,0,,,,,,,14,2,0.02
bridge,exact,2019:Q1:pre_second:exact,2019-05-29,pre_second,S,2019:Q1,1.421798536985786,,,not_available,3.0658,-1.644001463014214,False,True,0,,,,,,,14,2,0.02
midas_umidas,exact,2019:Q1:pre_second:exact,2019-05-29,pre_second,S,2019:Q1,3.776783996287483,,,not_available,3.0658,0.7109839962874833,False,True,0,,,,,,,14,2,0.02
monthly_mixed_frequency_kalman_em,exact,2019:Q1:pre_second:exact,2019-05-29,pre_second,S,2019:Q1,3.3924495359859783,0.35099787842523383,0.5924507392393344,model_implied_state_space,3.0658,0.32664953598597846,False,True,50,-6312.701696013429,-7328.980019682591,-6312.701696013429,0.6195132228340299,9.811240231615679e-05,50.0,14,2,0.02
standard_dfm,exact,2019:Q1:pre_second:exact,2019-05-29,pre_second,S,2019:Q1,1.741965267784774,,,not_available,3.0658,-1.323834732215226,False,True,0,,,,,,,14,2,0.02
release_dfm,exact,2019:Q1:pre_second:exact,2019-05-29,pre_second,S,2019:Q1,3.258302538296523,,,not_available,3.0658,0.19250253829652308,False,True,0,,,,,,,14,2,0.02
revision_dfm_kalman_em,exact,2019:Q1:pre_second:exact,2019-05-29,pre_second,S,2019:Q1,3.3395925959553607,0.4021016832332093,0.6341148817313857,model_implied_state_space,3.0658,0.2737925959553609,False,True,21,-1990.4721709899384,-2964.0297319650917,-1990.4721709899384,0.18616270742154484,9.347120651760995e-05,21.0,14,2,0.02
indicator_revision_only_dfm_kalman_em,exact,2019:Q1:pre_second:exact,2019-05-29,pre_second,S,2019:Q1,2.9658698812788615,0.3928467737347892,0.6267748987753013,model_implied_state_space,3.0658,-0.09993011872113833,False,True,25,-3683.1409945917894,-4845.50410969005,-3683.1409945917894,0.3503363361874108,9.508404409766245e-05,25.0,14,2,0.02
joint_indicator_revision_dfm_full_kalman_em,exact,2019:Q1:pre_second:exact,2019-05-29,pre_second,S,2019:Q1,3.2821668680614544,0.3900300350761636,0.624523846683346,model_implied_state_space,3.0658,0.21636686806145455,False,True,26,-3647.760390271754,-4860.961414542916,-3647.760390271754,0.3453522306049308,9.464023653315866e-05,26.0,14,2,0.02
ar,exact,2019:Q1:pre_third:exact,2019-06-26,pre_third,T,2019:Q1,2.445392866771208,,,not_available,3.1268,-0.6814071332287917,False,True,0,,,,,,,14,2,0.02
no_revision,exact,2019:Q1:pre_third:exact,2019-06-26,pre_third,T,2019:Q1,3.0658,,,not_available,3.1268,-0.06099999999999994,False,True,0,,,,,,,14,2,0.02
bridge,exact,2019:Q1:pre_third:exact,2019-06-26,pre_third,T,2019:Q1,2.2734338386671746,,,not_available,3.1268,-0.8533661613328252,False,True,0,,,,,,,14,2,0.02
midas_umidas,exact,2019:Q1:pre_third:exact,2019-06-26,pre_third,T,2019:Q1,4.146205141121396,,,not_available,3.1268,1.0194051411213958,False,True,0,,,,,,,14,2,0.02
monthly_mixed_frequency_kalman_em,exact,2019:Q1:pre_third:exact,2019-06-26,pre_third,T,2019:Q1,3.3103944704163646,0.14291941677752384,0.3780468446866391,model_implied_state_space,3.1268,0.18359447041636479,False,True,52,-6328.886922084899,-7349.5487198973715,-6328.886922084899,0.6279233508239486,9.918993417678798e-05,52.0,14,2,0.02
standard_dfm,exact,2019:Q1:pre_third:exact,2019-06-26,pre_third,T,2019:Q1,1.7778168513068795,,,not_available,3.1268,-1.3489831486931203,False,True,0,,,,,,,14,2,0.02
release_dfm,exact,2019:Q1:pre_third:exact,2019-06-26,pre_third,T,2019:Q1,3.178066193022631,,,not_available,3.1268,0.051266193022631246,False,True,0,,,,,,,14,2,0.02
revision_dfm_kalman_em,exact,2019:Q1:pre_third:exact,2019-06-26,pre_third,T,2019:Q1,3.090331501105978,0.14773605929469924,0.384364487556667,model_implied_state_space,3.1268,-0.03646849889402182,False,True,23,-1989.4516613995215,-2981.5897061627256,-1989.4516613995215,0.18196128276167656,9.140872568830244e-05,23.0,14,2,0.02
indicator_revision_only_dfm_kalman_em,exact,2019:Q1:pre_third:exact,2019-06-26,pre_third,T,2019:Q1,3.058777780640139,0.1521240105268003,0.39003078151192155,model_implied_state_space,3.1268,-0.06802221935986097,False,True,25,-3681.8428608695367,-4846.09950983836,-3681.8428608695367,0.3518673622984352,9.553319557105079e-05,25.0,14,2,0.02
joint_indicator_revision_dfm_full_kalman_em,exact,2019:Q1:pre_third:exact,2019-06-26,pre_third,T,2019:Q1,3.084053482564893,0.14739248227813126,0.3839172857245832,model_implied_state_space,3.1268,-0.042746517435106934,False,True,26,-3646.5140606271007,-4861.525518649085,-3646.5140606271007,0.34791597307412303,9.53753117047434e-05,26.0,14,2,0.02
ar,pseudo,2019:Q1:pre_advance:pseudo,2019-04-30,pre_advance,A,2019:Q1,2.544004133182678,,,not_available,3.1705,-0.6264958668173222,False,True,0,,,,,,,14,2,0.02
no_revision,pseudo,2019:Q1:pre_advance:pseudo,2019-04-30,pre_advance,A,2019:Q1,2.494294354572081,,,not_available,3.1705,-0.676205645427919,False,True,0,,,,,,,14,2,0.02
bridge,pseudo,2019:Q1:pre_advance:pseudo,2019-04-30,pre_advance,A,2019:Q1,2.4633884141498354,,,not_available,3.1705,-0.7071115858501646,False,True,0,,,,,,,14,2,0.02
midas_umidas,pseudo,2019:Q1:pre_advance:pseudo,2019-04-30,pre_advance,A,2019:Q1,4.923193803822225,,,not_available,3.1705,1.752693803822225,False,True,0,,,,,,,14,2,0.02
monthly_mixed_frequency_kalman_em,pseudo,2019:Q1:pre_advance:pseudo,2019-04-30,pre_advance,A,2019:Q1,1.6594276342989491,3.188071753329054,1.785517222915829,model_implied_state_space,3.1705,-1.511072365701051,False,True,54,-6287.947680874189,-7337.221342752908,-6287.947680874189,0.6241217620436146,9.923120072848489e-05,54.0,14,2,0.02
standard_dfm,pseudo,2019:Q1:pre_advance:pseudo,2019-04-30,pre_advance,A,2019:Q1,1.8406746253161013,,,not_available,3.1705,-1.3298253746838988,False,True,0,,,,,,,14,2,0.02
release_dfm,pseudo,2019:Q1:pre_advance:pseudo,2019-04-30,pre_advance,A,2019:Q1,1.8406746253161013,,,not_available,3.1705,-1.3298253746838988,False,True,0,,,,,,,14,2,0.02
revision_dfm_kalman_em,pseudo,2019:Q1:pre_advance:pseudo,2019-04-30,pre_advance,A,2019:Q1,1.4764469600129637,3.2247908295546424,1.7957702607946937,model_implied_state_space,3.1705,-1.6940530399870364,False,True,21,-1989.6548162133251,-2962.899862584508,-1989.6548162133251,0.18182958734905696,9.133325314891859e-05,21.0,14,2,0.02
indicator_revision_only_dfm_kalman_em,pseudo,2019:Q1:pre_advance:pseudo,2019-04-30,pre_advance,A,2019:Q1,1.4700261655002422,3.713005284082742,1.926916003380205,model_implied_state_space,3.1705,-1.7004738344997579,False,True,25,-3681.9402464050586,-4844.277742078632,-3681.9402464050586,0.3492191531104254,9.48117589931272e-05,25.0,14,2,0.02
joint_indicator_revision_dfm_full_kalman_em,pseudo,2019:Q1:pre_advance:pseudo,2019-04-30,pre_advance,A,2019:Q1,1.5281823734342332,2.6557141623022713,1.629636205507926,model_implied_state_space,3.1705,-1.6423176265657669,False,True,26,-3646.5894995380127,-4859.6298792728585,-3646.5894995380127,0.34455710620659374,9.445266851220337e-05,26.0,14,2,0.02
ar,pseudo,2019:Q1:pre_second:pseudo,2019-05-31,pre_second,S,2019:Q1,3.0088930533858775,,,not_available,3.0658,-0.05690694661412232,False,True,0,,,,,,,14,2,0.02
no_revision,pseudo,2019:Q1:pre_second:pseudo,2019-05-31,pre_second,S,2019:Q1,3.1705,,,not_available,3.0658,0.10470000000000024,False,True,0,,,,,,,14,2,0.02
bridge,pseudo,2019:Q1:pre_second:pseudo,2019-05-31,pre_second,S,2019:Q1,1.4218172198520036,,,not_available,3.0658,-1.6439827801479963,False,True,0,,,,,,,14,2,0.02
midas_umidas,pseudo,2019:Q1:pre_second:pseudo,2019-05-31,pre_second,S,2019:Q1,3.7955827815763,,,not_available,3.0658,0.7297827815763003,False,True,0,,,,,,,14,2,0.02
monthly_mixed_frequency_kalman_em,pseudo,2019:Q1:pre_second:pseudo,2019-05-31,pre_second,S,2019:Q1,3.3919479549178164,0.35098859636512447,0.5924429055741359,model_implied_state_space,3.0658,0.32614795491781656,False,True,50,-6314.183496918036,-7330.413930259353,-6314.183496918036,0.6163609765144429,9.759032749335954e-05,50.0,14,2,0.02
standard_dfm,pseudo,2019:Q1:pre_second:pseudo,2019-05-31,pre_second,S,2019:Q1,1.7397240301912387,,,not_available,3.0658,-1.3260759698087612,False,True,0,,,,,,,14,2,0.02
release_dfm,pseudo,2019:Q1:pre_second:pseudo,2019-05-31,pre_second,S,2019:Q1,3.2581766904090235,,,not_available,3.0658,0.1923766904090236,False,True,0,,,,,,,14,2,0.02
revision_dfm_kalman_em,pseudo,2019:Q1:pre_second:pseudo,2019-05-31,pre_second,S,2019:Q1,3.339174199474985,0.40210084908806715,0.6341142240070531,model_implied_state_space,3.0658,0.273374199474985,False,True,21,-1990.4808004519946,-2964.0219422668247,-1990.4808004519946,0.18612527746881824,9.345201000445816e-05,21.0,14,2,0.02
indicator_revision_only_dfm_kalman_em,pseudo,2019:Q1:pre_second:pseudo,2019-05-31,pre_second,S,2019:Q1,2.9663518490768745,0.39284182378007987,0.6267709500129053,model_implied_state_space,3.0658,-0.09944815092312531,False,True,25,-3683.143773801433,-4845.49000875315,-3683.143773801433,0.3504118258106246,9.510445889086697e-05,25.0,14,2,0.02
joint_indicator_revision_dfm_full_kalman_em,pseudo,2019:Q1:pre_second:pseudo,2019-05-31,pre_second,S,2019:Q1,3.2817485520130916,0.39002927462792963,0.6245232378606337,model_implied_state_space,3.0658,0.2159485520130917,False,True,26,-3647.763776257563,-4860.947147069669,-3647.763776257563,0.345425182249528,9.466013845604706e-05,26.0,14,2,0.02
ar,pseudo,2019:Q1:pre_third:pseudo,2019-06-30,pre_third,T,2019:Q1,2.445392866771208,,,not_available,3.1268,-0.6814071332287917,False,True,0,,,,,,,14,2,0.02
no_revision,pseudo,2019:Q1:pre_third:pseudo,2019-06-30,pre_third,T,2019:Q1,3.0658,,,not_available,3.1268,-0.06099999999999994,False,True,0,,,,,,,14,2,0.02
bridge,pseudo,2019:Q1:pre_third:pseudo,2019-06-30,pre_third,T,2019:Q1,2.2684052100145555,,,not_available,3.1268,-0.8583947899854443,False,True,0,,,,,,,14,2,0.02
midas_umidas,pseudo,2019:Q1:pre_third:pseudo,2019-06-30,pre_third,T,2019:Q1,4.13209857753133,,,not_available,3.1268,1.0052985775313306,False,True,0,,,,,,,14,2,0.02
monthly_mixed_frequency_kalman_em,pseudo,2019:Q1:pre_third:pseudo,2019-06-30,pre_third,T,2019:Q1,3.310186438213462,0.14291480612390647,0.37804074664499654,model_implied_state_space,3.1268,0.183386438213462,False,True,52,-6330.262917367987,-7350.951155117272,-6330.262917367987,0.6282721687175581,9.922346261347043e-05,52.0,14,2,0.02
standard_dfm,pseudo,2019:Q1:pre_third:pseudo,2019-06-30,pre_third,T,2019:Q1,1.7705413071187412,,,not_available,3.1268,-1.3562586928812586,False,True,0,,,,,,,14,2,0.02
release_dfm,pseudo,2019:Q1:pre_third:pseudo,2019-06-30,pre_third,T,2019:Q1,3.177975883912608,,,not_available,3.1268,0.05117588391260819,False,True,0,,,,,,,14,2,0.02
revision_dfm_kalman_em,pseudo,2019:Q1:pre_third:pseudo,2019-06-30,pre_third,T,2019:Q1,3.0903313089587328,0.1477359064942921,0.38436428878642215,model_implied_state_space,3.1268,-0.03646869104126704,False,True,23,-1989.4371829614906,-2981.588667385332,-1989.4371829614906,0.18194608378075827,9.14017559290823e-05,23.0,14,2,0.02
indicator_revision_only_dfm_kalman_em,pseudo,2019:Q1:pre_third:pseudo,2019-06-30,pre_third,T,2019:Q1,3.058754141679758,0.15212397171454017,0.3900307317565376,model_implied_state_space,3.1268,-0.06804585832024168,False,True,25,-3681.8492483477335,-4846.110481790007,-3681.8492483477335,0.351903453716659,9.554282788615641e-05,25.0,14,2,0.02
joint_indicator_revision_dfm_full_kalman_em,pseudo,2019:Q1:pre_third:pseudo,2019-06-30,pre_third,T,2019:Q1,3.084057110756328,0.1473924251637514,0.3839172113408715,model_implied_state_space,3.1268,-0.042742889243671645,False,True,26,-3646.520701149911,-4861.536386222362,-3646.520701149911,0.3479528024618048,9.538523326074442e-05,26.0,14,2,0.02
ar,exact,2019:Q2:pre_advance:exact,2019-07-25,pre_advance,A,2019:Q2,2.835856491574643,,,not_available,2.055,0.7808564915746428,False,True,0,,,,,,,14,2,0.02
no_revision,exact,2019:Q2:pre_advance:exact,2019-07-25,pre_advance,A,2019:Q2,2.8870145085411787,,,not_available,2.055,0.8320145085411785,False,True,0,,,,,,,14,2,0.02
bridge,exact,2019:Q2:pre_advance:exact,2019-07-25,pre_advance,A,2019:Q2,2.0272387884123937,,,not_available,2.055,-0.02776121158760647,False,True,0,,,,,,,14,2,0.02
midas_umidas,exact,2019:Q2:pre_advance:exact,2019-07-25,pre_advance,A,2019:Q2,1.095853544431865,,,not_available,2.055,-0.9591464555681353,False,True,0,,,,,,,14,2,0.02
monthly_mixed_frequency_kalman_em,exact,2019:Q2:pre_advance:exact,2019-07-25,pre_advance,A,2019:Q2,1.9529338367558156,3.214129048734322,1.792799221534392,model_implied_state_space,2.055,-0.1020661632441846,False,True,50,-6350.581332858644,-7371.17664482267,-6350.581332858644,0.6185725957329851,9.737927095175985e-05,50.0,14,2,0.02
standard_dfm,exact,2019:Q2:pre_advance:exact,2019-07-25,pre_advance,A,2019:Q2,2.2075222586847105,,,not_available,2.055,0.15252225868471037,False,True,0,,,,,,,14,2,0.02
release_dfm,exact,2019:Q2:pre_advance:exact,2019-07-25,pre_advance,A,2019:Q2,2.2075222586847105,,,not_available,2.055,0.15252225868471037,False,True,0,,,,,,,14,2,0.02
revision_dfm_kalman_em,exact,2019:Q2:pre_advance:exact,2019-07-25,pre_advance,A,2019:Q2,1.9992400669193335,3.2702654223786256,1.8083875199687223,model_implied_state_space,2.055,-0.055759933080666624,False,True,21,-2007.8800397791163,-2985.551829253488,-2007.8800397791163,0.1845395213761094,9.185345422811724e-05,21.0,14,2,0.02
indicator_revision_only_dfm_kalman_em,exact,2019:Q2:pre_advance:exact,2019-07-25,pre_advance,A,2019:Q2,2.5642872179976255,3.73877214802782,1.9335904809519053,model_implied_state_space,2.055,0.5092872179976253,False,True,25,-3718.455771239916,-4885.2472813367185,-3718.455771239916,0.3542247035748005,9.522655833526119e-05,25.0,14,2,0.02
joint_indicator_revision_dfm_full_kalman_em,exact,2019:Q2:pre_advance:exact,2019-07-25,pre_advance,A,2019:Q2,2.5371150681358143,2.6824361592398684,1.6378144459125608,model_implied_state_space,2.055,0.4821150681358142,False,True,26,-3683.2494222443934,-4900.675603087262,-3683.2494222443934,0.34816350136998153,9.44915946091066e-05,26.0,14,2,0.02
ar,exact,2019:Q2:pre_second:exact,2019-08-28,pre_second,S,2019:Q2,2.809602293515929,,,not_available,2.0379,0.7717022935159288,False,True,0,,,,,,,14,2,0.02
no_revision,exact,2019:Q2:pre_second:exact,2019-08-28,pre_second,S,2019:Q2,2.055,,,not_available,2.0379,0.017100000000000115,False,True,0,,,,,,,14,2,0.02
bridge,exact,2019:Q2:pre_second:exact,2019-08-28,pre_second,S,2019:Q2,1.7903441270878622,,,not_available,2.0379,-0.24755587291213788,False,True,0,,,,,,,14,2,0.02
midas_umidas,exact,2019:Q2:pre_second:exact,2019-08-28,pre_second,S,2019:Q2,2.1500769988566333,,,not_available,2.0379,0.11217699885663324,False,True,0,,,,,,,14,2,0.02
monthly_mixed_frequency_kalman_em,exact,2019:Q2:pre_second:exact,2019-08-28,pre_second,S,2019:Q2,2.0583690569770954,0.348651806292067,0.5904674472755183,model_implied_state_space,2.0379,0.020469056977095335,False,True,52,-6368.1541381053285,-7418.865479658013,-6368.1541381053285,0.635894770505729,9.982978516147965e-05,52.0,14,2,0.02
standard_dfm,exact,2019:Q2:pre_second:exact,2019-08-28,pre_second,S,2019:Q2,2.249521942147944,,,not_available,2.0379,0.21162194214794416,False,True,0,,,,,,,14,2,0.02
release_dfm,exact,2019:Q2:pre_second:exact,2019-08-28,pre_second,S,2019:Q2,2.130270211283246,,,not_available,2.0379,0.09237021128324585,False,True,0,,,,,,,14,2,0.02
revision_dfm_kalman_em,exact,2019:Q2:pre_second:exact,2019-08-28,pre_second,S,2019:Q2,2.105560775919738,0.40049837990737563,0.6328494132946444,model_implied_state_space,2.0379,0.06766077591973785,False,True,21,-2009.098627573864,-2986.6926996762472,-2009.098627573864,0.18686178927896435,9.295286180380382e-05,21.0,14,2,0.02
indicator_revision_only_dfm_kalman_em,exact,2019:Q2:pre_second:exact,2019-08-28,pre_second,S,2019:Q2,2.103253123970945,0.3908871049440079,0.6252096487931131,model_implied_state_space,2.0379,0.06535312397094506,False,True,25,-3719.791042633447,-4886.54177358581,-3719.791042633447,0.35404448534563926,9.51439616184836e-05,25.0,14,2,0.02
joint_indicator_revision_dfm_full_kalman_em,exact,2019:Q2:pre_second:exact,2019-08-28,pre_second,S,2019:Q2,2.101148719119405,0.3883624203303806,0.6231873075812605,model_implied_state_space,2.0379,0.0632487191194051,False,True,26,-3684.427069506241,-4902.081891883919,-3684.427069506241,0.34757736686833596,9.430239235141769e-05,26.0,14,2,0.02
ar,exact,2019:Q2:pre_third:exact,2019-09-25,pre_third,T,2019:Q2,2.86498901665629,,,not_available,2.0143,0.8506890166562902,False,True,0,,,,,,,14,2,0.02
no_revision,exact,2019:Q2:pre_third:exact,2019-09-25,pre_third,T,2019:Q2,2.0379,,,not_available,2.0143,0.023600000000000065,False,True,0,,,,,,,14,2,0.02
bridge,exact,2019:Q2:pre_third:exact,2019-09-25,pre_third,T,2019:Q2,2.0335288624287204,,,not_available,2.0143,0.01922886242872046,False,True,0,,,,,,,14,2,0.02
midas_umidas,exact,2019:Q2:pre_third:exact,2019-09-25,pre_third,T,2019:Q2,1.7094667106387418,,,not_available,2.0143,-0.3048332893612582,False,True,0,,,,,,,14,2,0.02
monthly_mixed_frequency_kalman_em,exact,2019:Q2:pre_third:exact,2019-09-25,pre_third,T,2019:Q2,2.0327701108691314,0.14315155390113643,0.3783537417564896,model_implied_state_space,2.0143,0.018470110869131418,False,True,54,-6383.975003426527,-7438.317659323553,-6383.975003426527,0.6276238260634273,9.828732896482518e-05,54.0,14,2,0.02
standard_dfm,exact,2019:Q2:pre_third:exact,2019-09-25,pre_third,T,2019:Q2,2.3153784836701568,,,not_available,2.0143,0.30107848367015677,False,True,0,,,,,,,14,2,0.02
release_dfm,exact,2019:Q2:pre_third:exact,2019-09-25,pre_third,T,2019:Q2,2.1127219183232313,,,not_available,2.0143,0.09842191832323133,False,True,0,,,,,,,14,2,0.02
revision_dfm_kalman_em,exact,2019:Q2:pre_third:exact,2019-09-25,pre_third,T,2019:Q2,2.0457369890826724,0.14705408516237853,0.3834763162991667,model_implied_state_space,2.0143,0.03143698908267245,False,True,23,-2009.0072778991962,-3004.676162545937,-2009.0072778991962,0.18435884927703228,9.171207655367452e-05,23.0,14,2,0.02
indicator_revision_only_dfm_kalman_em,exact,2019:Q2:pre_third:exact,2019-09-25,pre_third,T,2019:Q2,2.042333895625263,0.15143806281257685,0.3891504372509131,model_implied_state_space,2.0143,0.02803389562526304,False,True,25,-3719.3260810229544,-4887.563901466083,-3719.3260810229544,0.35479782552692996,9.53583059337077e-05,25.0,14,2,0.02
joint_indicator_revision_dfm_full_kalman_em,exact,2019:Q2:pre_third:exact,2019-09-25,pre_third,T,2019:Q2,2.0422246907710244,0.14671497590634522,0.383033909603765,model_implied_state_space,2.0143,0.02792469077102444,False,True,26,-3683.946312279632,-4903.076703293663,-3683.946312279632,0.34843446656077504,9.454724533727284e-05,26.0,14,2,0.02
ar,pseudo,2019:Q2:pre_advance:pseudo,2019-07-31,pre_advance,A,2019:Q2,2.835856491574643,,,not_available,2.055,0.7808564915746428,False,True,0,,,,,,,14,2,0.02
no_revision,pseudo,2019:Q2:pre_advance:pseudo,2019-07-31,pre_advance,A,2019:Q2,2.8870145085411787,,,not_available,2.055,0.8320145085411785,False,True,0,,,,,,,14,2,0.02
bridge,pseudo,2019:Q2:pre_advance:pseudo,2019-07-31,pre_advance,A,2019:Q2,2.0262506423041557,,,not_available,2.055,-0.028749357695844413,False,True,0,,,,,,,14,2,0.02
midas_umidas,pseudo,2019:Q2:pre_advance:pseudo,2019-07-31,pre_advance,A,2019:Q2,1.2162629624178303,,,not_available,2.055,-0.8387370375821699,False,True,0,,,,,,,14,2,0.02
monthly_mixed_frequency_kalman_em,pseudo,2019:Q2:pre_advance:pseudo,2019-07-31,pre_advance,A,2019:Q2,1.9854003780147371,3.2156528952706047,1.793224162025095,model_implied_state_space,2.055,-0.06959962198526304,False,True,49,-6352.49700138712,-7372.402001919866,-6352.49700138712,0.6272247180922932,9.871143461681316e-05,49.0,14,2,0.02
standard_dfm,pseudo,2019:Q2:pre_advance:pseudo,2019-07-31,pre_advance,A,2019:Q2,2.258550549919068,,,not_available,2.055,0.20355054991906796,False,True,0,,,,,,,14,2,0.02
release_dfm,pseudo,2019:Q2:pre_advance:pseudo,2019-07-31,pre_advance,A,2019:Q2,2.258550549919068,,,not_available,2.055,0.20355054991906796,False,True,0,,,,,,,14,2,0.02
revision_dfm_kalman_em,pseudo,2019:Q2:pre_advance:pseudo,2019-07-31,pre_advance,A,2019:Q2,2.024118787000048,3.2696028849781276,1.8082043261142053,model_implied_state_space,2.055,-0.03088121299995228,False,True,21,-2007.6185689104109,-2985.241321306091,-2007.6185689104109,0.1844563873946754,9.182402907190449e-05,21.0,14,2,0.02
indicator_revision_only_dfm_kalman_em,pseudo,2019:Q2:pre_advance:pseudo,2019-07-31,pre_advance,A,2019:Q2,2.577693171311639,3.7373265677039127,1.933216637550979,model_implied_state_space,2.055,0.522693171311639,False,True,25,-3717.915881824933,-4884.98862642378,-3717.915881824933,0.35372545782729503,9.510616200951382e-05,25.0,14,2,0.02
joint_indicator_revision_dfm_full_kalman_em,pseudo,2019:Q2:pre_advance:pseudo,2019-07-31,pre_advance,A,2019:Q2,2.5561906892242954,2.6804735032494866,1.637215167059445,model_implied_state_space,2.055,0.5011906892242952,False,True,26,-3682.707580448926,-4900.418390604122,-3682.707580448926,0.3474471897834519,9.43110749369419e-05,26.0,14,2,0.02
ar,pseudo,2019:Q2:pre_second:pseudo,2019-08-31,pre_second,S,2019:Q2,2.809602293515929,,,not_available,2.0379,0.7717022935159288,False,True,0,,,,,,,14,2,0.02
no_revision,pseudo,2019:Q2:pre_second:pseudo,2019-08-31,pre_second,S,2019:Q2,2.055,,,not_available,2.0379,0.017100000000000115,False,True,0,,,,,,,14,2,0.02
bridge,pseudo,2019:Q2:pre_second:pseudo,2019-08-31,pre_second,S,2019:Q2,1.7904080390729669,,,not_available,2.0379,-0.24749196092703318,False,True,0,,,,,,,14,2,0.02
midas_umidas,pseudo,2019:Q2:pre_second:pseudo,2019-08-31,pre_second,S,2019:Q2,2.146409259715819,,,not_available,2.0379,0.10850925971581882,False,True,0,,,,,,,14,2,0.02
monthly_mixed_frequency_kalman_em,pseudo,2019:Q2:pre_second:pseudo,2019-08-31,pre_second,S,2019:Q2,2.0577822748534356,0.34864346061422136,0.5904603802239583,model_implied_state_space,2.0379,0.019882274853435522,False,True,52,-6369.468280958436,-7420.230284323025,-6369.468280958436,0.6364165223421878,9.989107895116457e-05,52.0,14,2,0.02
standard_dfm,pseudo,2019:Q2:pre_second:pseudo,2019-08-31,pre_second,S,2019:Q2,2.248397659127057,,,not_available,2.0379,0.2104976591270571,False,True,0,,,,,,,14,2,0.02
release_dfm,pseudo,2019:Q2:pre_second:pseudo,2019-08-31,pre_second,S,2019:Q2,2.1302045363490407,,,not_available,2.0379,0.09230453634904068,False,True,0,,,,,,,14,2,0.02
revision_dfm_kalman_em,pseudo,2019:Q2:pre_second:pseudo,2019-08-31,pre_second,S,2019:Q2,2.105562423618453,0.40049832725252243,0.6328493716932351,model_implied_state_space,2.0379,0.0676624236184531,False,True,21,-2009.1043011585696,-2986.694860598213,-2009.1043011585696,0.18686719858760625,9.295529002413973e-05,21.0,14,2,0.02
indicator_revision_only_dfm_kalman_em,pseudo,2019:Q2:pre_second:pseudo,2019-08-31,pre_second,S,2019:Q2,2.1031646377951203,0.3908863298590654,0.6252090289327765,model_implied_state_space,2.0379,0.06526463779512026,False,True,25,-3719.797802820728,-4886.546060411366,-3719.797802820728,0.35404070661752485,9.514277339511182e-05,25.0,14,2,0.02
joint_indicator_revision_dfm_full_kalman_em,pseudo,2019:Q2:pre_second:pseudo,2019-08-31,pre_second,S,2019:Q2,2.101165827238826,0.38836267079596754,0.6231875085365299,model_implied_state_space,2.0379,0.06326582723882579,False,True,26,-3684.433654147908,-4902.086224786673,-3684.433654147908,0.3475725873081501,9.430092724630383e-05,26.0,14,2,0.02
ar,pseudo,2019:Q2:pre_third:pseudo,2019-09-30,pre_third,T,2019:Q2,2.86498901665629,,,not_available,2.0143,0.8506890166562902,False,True,0,,,,,,,14,2,0.02
no_revision,pseudo,2019:Q2:pre_third:pseudo,2019-09-30,pre_third,T,2019:Q2,2.0379,,,not_available,2.0143,0.023600000000000065,False,True,0,,,,,,,14,2,0.02
bridge,pseudo,2019:Q2:pre_third:pseudo,2019-09-30,pre_third,T,2019:Q2,2.0315149833894925,,,not_available,2.0143,0.017214983389492566,False,True,0,,,,,,,14,2,0.02
midas_umidas,pseudo,2019:Q2:pre_third:pseudo,2019-09-30,pre_third,T,2019:Q2,1.7001949812298822,,,not_available,2.0143,-0.31410501877011776,False,True,0,,,,,,,14,2,0.02
monthly_mixed_frequency_kalman_em,pseudo,2019:Q2:pre_third:pseudo,2019-09-30,pre_third,T,2019:Q2,2.0330119011251235,0.14313265104427197,0.3783287605301399,model_implied_state_space,2.0143,0.018711901125123553,False,True,54,-6386.717266298226,-7441.16270349829,-6386.717266298226,0.6266257989755104,9.808892720235168e-05,54.0,14,2,0.02
standard_dfm,pseudo,2019:Q2:pre_third:pseudo,2019-09-30,pre_third,T,2019:Q2,2.3122326767126324,,,not_available,2.0143,0.29793267671263246,False,True,0,,,,,,,14,2,0.02
release_dfm,pseudo,2019:Q2:pre_third:pseudo,2019-09-30,pre_third,T,2019:Q2,2.112680858792247,,,not_available,2.0143,0.09838085879224723,False,True,0,,,,,,,14,2,0.02
revision_dfm_kalman_em,pseudo,2019:Q2:pre_third:pseudo,2019-09-30,pre_third,T,2019:Q2,2.045735655900321,0.14705403912657306,0.3834762562748482,model_implied_state_space,2.0143,0.031435655900320825,False,True,23,-2008.996736060071,-3004.672120866167,-2008.996736060071,0.1843490777750958,9.170769695231424e-05,23.0,14,2,0.02
indicator_revision_only_dfm_kalman_em,pseudo,2019:Q2:pre_third:pseudo,2019-09-30,pre_third,T,2019:Q2,2.042322734837902,0.15143807282779975,0.3891504501189736,model_implied_state_space,2.0143,0.028022734837902075,False,True,25,-3719.3213729173763,-4887.561346229904,-3719.3213729173763,0.35480820560133,9.536121616857327e-05,25.0,14,2,0.02
joint_indicator_revision_dfm_full_kalman_em,pseudo,2019:Q2:pre_third:pseudo,2019-09-30,pre_third,T,2019:Q2,2.0422261181619894,0.14671498189621837,0.3830339174227504,model_implied_state_space,2.0143,0.02792611816198942,False,True,26,-3683.941508435885,-4903.074149044889,-3683.941508435885,0.348444213428138,9.455001313469118e-05,26.0,14,2,0.02
ar,exact,2019:Q3:pre_advance:exact,2019-10-29,pre_advance,A,2019:Q3,2.279256097331871,,,not_available,1.9188,0.3604560973318711,False,True,0,,,,,,,14,2,0.02
no_revision,exact,2019:Q3:pre_advance:exact,2019-10-29,pre_advance,A,2019:Q3,2.317127933697079,,,not_available,1.9188,0.39832793369707886,False,True,0,,,,,,,14,2,0.02
bridge,exact,2019:Q3:pre_advance:exact,2019-10-29,pre_advance,A,2019:Q3,2.5989815132209673,,,not_available,1.9188,0.6801815132209672,False,True,0,,,,,,,14,2,0.02
midas_umidas,exact,2019:Q3:pre_advance:exact,2019-10-29,pre_advance,A,2019:Q3,2.7556857521246303,,,not_available,1.9188,0.8368857521246302,False,True,0,,,,,,,14,2,0.02
monthly_mixed_frequency_kalman_em,exact,2019:Q3:pre_advance:exact,2019-10-29,pre_advance,A,2019:Q3,2.539287744378626,3.0673289327178286,1.751379151616756,model_implied_state_space,1.9188,0.6204877443786261,False,True,88,-6364.134759274062,-7462.623169084342,-6364.134759274062,0.6169100469369369,9.691079372606745e-05,88.0,14,2,0.02
standard_dfm,exact,2019:Q3:pre_advance:exact,2019-10-29,pre_advance,A,2019:Q3,2.3386766974748623,,,not_available,1.9188,0.4198766974748622,False,True,0,,,,,,,14,2,0.02
release_dfm,exact,2019:Q3:pre_advance:exact,2019-10-29,pre_advance,A,2019:Q3,2.3386766974748623,,,not_available,1.9188,0.4198766974748622,False,True,0,,,,,,,14,2,0.02
revision_dfm_kalman_em,exact,2019:Q3:pre_advance:exact,2019-10-29,pre_advance,A,2019:Q3,2.461893168693943,3.248233088214673,1.8022855179506583,model_implied_state_space,1.9188,0.5430931686939431,False,True,21,-2026.2992108987705,-3008.3352279044793,-2026.2992108987705,0.18479021694679432,9.114262644987823e-05,21.0,14,2,0.02
indicator_revision_only_dfm_kalman_em,exact,2019:Q3:pre_advance:exact,2019-10-29,pre_advance,A,2019:Q3,2.5743050333322994,3.6996556707132533,1.9234488999485413,model_implied_state_space,1.9188,0.6555050333322994,False,True,25,-3753.5233970728805,-4915.6149714794055,-3753.5233970728805,0.37484834290899016,9.98291613805056e-05,25.0,14,2,0.02
joint_indicator_revision_dfm_full_kalman_em,exact,2019:Q3:pre_advance:exact,2019-10-29,pre_advance,A,2019:Q3,2.458190797793511,2.639322566775266,1.624599201888043,model_implied_state_space,1.9188,0.5393907977935108,False,True,27,-3717.940315360708,-4930.861199648487,-3717.940315360708,0.34555368516475937,9.290861131182852e-05,27.0,14,2,0.02
ar,exact,2019:Q3:pre_second:exact,2019-11-26,pre_second,S,2019:Q3,2.3385524286308836,,,not_available,2.1238,0.2147524286308835,False,True,0,,,,,,,14,2,0.02
no_revision,exact,2019:Q3:pre_second:exact,2019-11-26,pre_second,S,2019:Q3,1.9188,,,not_available,2.1238,-0.20500000000000007,False,True,0,,,,,,,14,2,0.02
bridge,exact,2019:Q3:pre_second:exact,2019-11-26,pre_second,S,2019:Q3,2.759703662352096,,,not_available,2.1238,0.6359036623520957,False,True,0,,,,,,,14,2,0.02
midas_umidas,exact,2019:Q3:pre_second:exact,2019-11-26,pre_second,S,2019:Q3,1.8640393070936114,,,not_available,2.1238,-0.2597606929063887,False,True,0,,,,,,,14,2,0.02
monthly_mixed_frequency_kalman_em,exact,2019:Q3:pre_second:exact,2019-11-26,pre_second,S,2019:Q3,1.6805457182703787,0.34079438783074206,0.5837759740095014,model_implied_state_space,2.1238,-0.44325428172962145,False,True,86,-6380.071972056759,-7481.016055452483,-6380.071972056759,0.6095312175175422,9.551263522079682e-05,86.0,14,2,0.02
standard_dfm,exact,2019:Q3:pre_second:exact,2019-11-26,pre_second,S,2019:Q3,2.4213444454816266,,,not_available,2.1238,0.2975444454816265,False,True,0,,,,,,,14,2,0.02
release_dfm,exact,2019:Q3:pre_second:exact,2019-11-26,pre_second,S,2019:Q3,1.9988734990510797,,,not_available,2.1238,-0.12492650094892044,False,True,0,,,,,,,14,2,0.02
revision_dfm_kalman_em,exact,2019:Q3:pre_second:exact,2019-11-26,pre_second,S,2019:Q3,2.0341412870479076,0.3985680790867585,0.6313224842239966,model_implied_state_space,2.1238,-0.08965871295209249,False,True,21,-2027.1960625751487,-3009.6102726093527,-2027.1960625751487,0.1867064340806337,9.204694347301673e-05,21.0,14,2,0.02
indicator_revision_only_dfm_kalman_em,exact,2019:Q3:pre_second:exact,2019-11-26,pre_second,S,2019:Q3,1.9882178271636852,0.38910575627424016,0.6237834209677587,model_implied_state_space,2.1238,-0.1355821728363149,False,True,25,-3754.195966457247,-4927.360710095583,-3754.195966457247,0.35645845783074037,9.491505310002451e-05,25.0,14,2,0.02
joint_indicator_revision_dfm_full_kalman_em,exact,2019:Q3:pre_second:exact,2019-11-26,pre_second,S,2019:Q3,2.0437437456730603,0.38658590453995145,0.6217603272483309,model_implied_state_space,2.1238,-0.08005625432693986,False,True,26,-3718.635782855259,-4942.9653952728295,-3718.635782855259,0.34880761962904216,9.376587755824921e-05,26.0,14,2,0.02
ar,exact,2019:Q3:pre_third:exact,2019-12-19,pre_third,T,2019:Q3,2.3786343473599274,,,not_available,2.1024,0.2762343473599276,False,True,0,,,,,,,14,2,0.02
no_revision,exact,2019:Q3:pre_third:exact,2019-12-19,pre_third,T,2019:Q3,2.1238,,,not_available,2.1024,0.021400000000000308,False,True,0,,,,,,,14,2,0.02
bridge,exact,2019:Q3:pre_third:exact,2019-12-19,pre_third,T,2019:Q3,2.7361020837181926,,,not_available,2.1024,0.6337020837181928,False,True,0,,,,,,,14,2,0.02
midas_umidas,exact,2019:Q3:pre_third:exact,2019-12-19,pre_third,T,2019:Q3,3.214676894078797,,,not_available,2.1024,1.1122768940787973,False,True,0,,,,,,,14,2,0.02
monthly_mixed_frequency_kalman_em,exact,2019:Q3:pre_third:exact,2019-12-19,pre_third,T,2019:Q3,1.9273133671702225,0.13462476869731857,0.3669124809778465,model_implied_state_space,2.1024,-0.17508663282977732,False,True,84,-6397.344570870017,-7475.925544386487,-6397.344570870017,0.5613095619301021,8.771961526213476e-05,84.0,14,2,0.02
standard_dfm,exact,2019:Q3:pre_third:exact,2019-12-19,pre_third,T,2019:Q3,2.4553317270171258,,,not_available,2.1024,0.35293172701712594,False,True,0,,,,,,,14,2,0.02
release_dfm,exact,2019:Q3:pre_third:exact,2019-12-19,pre_third,T,2019:Q3,2.1495184018457247,,,not_available,2.1024,0.04711840184572491,False,True,0,,,,,,,14,2,0.02
revision_dfm_kalman_em,exact,2019:Q3:pre_third:exact,2019-12-19,pre_third,T,2019:Q3,2.12193678576027,0.1463821617977709,0.38259921823988463,model_implied_state_space,2.1024,0.01953678576027018,False,True,23,-2026.6716715879074,-3027.6301148172133,-2026.6716715879074,0.18419525318086016,9.083251733654624e-05,23.0,14,2,0.02
indicator_revision_only_dfm_kalman_em,exact,2019:Q3:pre_third:exact,2019-12-19,pre_third,T,2019:Q3,2.114805693966204,0.15062405221990335,0.38810314636692056,model_implied_state_space,2.1024,0.012405693966204279,False,True,26,-3753.70459950864,-4917.830046461024,-3753.70459950864,0.345088456186204,9.189983751539546e-05,26.0,14,2,0.02
joint_indicator_revision_dfm_full_kalman_em,exact,2019:Q3:pre_third:exact,2019-12-19,pre_third,T,2019:Q3,2.1219217176811007,0.14598787390136395,0.3820835954360825,model_implied_state_space,2.1024,0.019521717681100892,False,True,27,-3718.2721169167608,-4933.151004091081,-3718.2721169167608,0.3501623069173547,9.413921108958329e-05,27.0,14,2,0.02
ar,pseudo,2019:Q3:pre_advance:pseudo,2019-10-31,pre_advance,A,2019:Q3,2.279256097331871,,,not_available,1.9188,0.3604560973318711,False,True,0,,,,,,,14,2,0.02
no_revision,pseudo,2019:Q3:pre_advance:pseudo,2019-10-31,pre_advance,A,2019:Q3,2.317127933697079,,,not_available,1.9188,0.39832793369707886,False,True,0,,,,,,,14,2,0.02
bridge,pseudo,2019:Q3:pre_advance:pseudo,2019-10-31,pre_advance,A,2019:Q3,2.5967493981997967,,,not_available,1.9188,0.6779493981997966,False,True,0,,,,,,,14,2,0.02
midas_umidas,pseudo,2019:Q3:pre_advance:pseudo,2019-10-31,pre_advance,A,2019:Q3,2.6690577042540142,,,not_available,1.9188,0.7502577042540142,False,True,0,,,,,,,14,2,0.02
monthly_mixed_frequency_kalman_em,pseudo,2019:Q3:pre_advance:pseudo,2019-10-31,pre_advance,A,2019:Q3,2.585880304249913,3.179203707597051,1.7830321667308897,model_implied_state_space,1.9188,0.6670803042499132,False,True,56,-6405.025629257409,-7464.052371991779,-6405.025629257409,0.6391214492350628,9.975884084844128e-05,56.0,14,2,0.02
standard_dfm,pseudo,2019:Q3:pre_advance:pseudo,2019-10-31,pre_advance,A,2019:Q3,2.3597547953357836,,,not_available,1.9188,0.4409547953357835,False,True,0,,,,,,,14,2,0.02
release_dfm,pseudo,2019:Q3:pre_advance:pseudo,2019-10-31,pre_advance,A,2019:Q3,2.3597547953357836,,,not_available,1.9188,0.4409547953357835,False,True,0,,,,,,,14,2,0.02
revision_dfm_kalman_em,pseudo,2019:Q3:pre_advance:pseudo,2019-10-31,pre_advance,A,2019:Q3,2.474377470460561,3.2480923814051184,1.802246481867871,model_implied_state_space,1.9188,0.5555774704605607,False,True,21,-2026.3029950446835,-3008.3390609783332,-2026.3029950446835,0.18477268951460246,9.113381222570513e-05,21.0,14,2,0.02
indicator_revision_only_dfm_kalman_em,pseudo,2019:Q3:pre_advance:pseudo,2019-10-31,pre_advance,A,2019:Q3,2.584100281666608,3.6995214807144916,1.9234140169798315,model_implied_state_space,1.9188,0.665300281666608,False,True,25,-3753.4906256295653,-4915.574215712449,-3753.4906256295653,0.3746518440757427,9.977770609331075e-05,25.0,14,2,0.02
joint_indicator_revision_dfm_full_kalman_em,pseudo,2019:Q3:pre_advance:pseudo,2019-10-31,pre_advance,A,2019:Q3,2.4683341616735346,2.6392604106992708,1.6245800721107195,model_implied_state_space,1.9188,0.5495341616735345,False,True,27,-3717.9089171244905,-4930.820322441829,-3717.9089171244905,0.34539555536366606,9.286688307011638e-05,27.0,14,2,0.02
ar,pseudo,2019:Q3:pre_second:pseudo,2019-11-30,pre_second,S,2019:Q3,2.3385524286308836,,,not_available,2.1238,0.2147524286308835,False,True,0,,,,,,,14,2,0.02
no_revision,pseudo,2019:Q3:pre_second:pseudo,2019-11-30,pre_second,S,2019:Q3,1.9188,,,not_available,2.1238,-0.20500000000000007,False,True,0,,,,,,,14,2,0.02
bridge,pseudo,2019:Q3:pre_second:pseudo,2019-11-30,pre_second,S,2019:Q3,2.755757569281757,,,not_available,2.1238,0.6319575692817567,False,True,0,,,,,,,14,2,0.02
midas_umidas,pseudo,2019:Q3:pre_second:pseudo,2019-11-30,pre_second,S,2019:Q3,1.8794035051159255,,,not_available,2.1238,-0.24439649488407467,False,True,0,,,,,,,14,2,0.02
monthly_mixed_frequency_kalman_em,pseudo,2019:Q3:pre_second:pseudo,2019-11-30,pre_second,S,2019:Q3,1.6809960704656808,0.3407958181701062,0.5837771990837824,model_implied_state_space,2.1238,-0.44280392953431935,False,True,86,-6382.861424006063,-7483.761482383472,-6382.861424006063,0.603163747941835,9.447366175368237e-05,86.0,14,2,0.02
standard_dfm,pseudo,2019:Q3:pre_second:pseudo,2019-11-30,pre_second,S,2019:Q3,2.415863334629673,,,not_available,2.1238,0.29206333462967304,False,True,0,,,,,,,14,2,0.02
release_dfm,pseudo,2019:Q3:pre_second:pseudo,2019-11-30,pre_second,S,2019:Q3,1.9985507776579652,,,not_available,2.1238,-0.12524922234203495,False,True,0,,,,,,,14,2,0.02
revision_dfm_kalman_em,pseudo,2019:Q3:pre_second:pseudo,2019-11-30,pre_second,S,2019:Q3,2.0338036001717055,0.3985728757291714,0.6313262830970776,model_implied_state_space,2.1238,-0.08999639982829466,False,True,21,-2027.079239239073,-3009.5725881180692,-2027.079239239073,0.18671213737661674,9.20550568084563e-05,21.0,14,2,0.02
indicator_revision_only_dfm_kalman_em,pseudo,2019:Q3:pre_second:pseudo,2019-11-30,pre_second,S,2019:Q3,1.9884711723178015,0.3891031400926087,0.6237813239370098,model_implied_state_space,2.1238,-0.13532882768219867,False,True,25,-3754.169511230902,-4927.360984603658,-3754.169511230902,0.35664584773257957,9.49656140885486e-05,25.0,14,2,0.02
joint_indicator_revision_dfm_full_kalman_em,pseudo,2019:Q3:pre_second:pseudo,2019-11-30,pre_second,S,2019:Q3,2.04343191487525,0.38659470838525317,0.6217674069821071,model_implied_state_space,2.1238,-0.08036808512474991,False,True,26,-3718.60953394297,-4942.965695828466,-3718.60953394297,0.3490034519763867,9.381917794728721e-05,26.0,14,2,0.02
ar,pseudo,2019:Q3:pre_third:pseudo,2019-12-31,pre_third,T,2019:Q3,2.3786343473599274,,,not_available,2.1024,0.2762343473599276,False,True,0,,,,,,,14,2,0.02
no_revision,pseudo,2019:Q3:pre_third:pseudo,2019-12-31,pre_third,T,2019:Q3,2.1238,,,not_available,2.1024,0.021400000000000308,False,True,0,,,,,,,14,2,0.02
bridge,pseudo,2019:Q3:pre_third:pseudo,2019-12-31,pre_third,T,2019:Q3,2.7336186979777626,,,not_available,2.1024,0.6312186979777628,False,True,0,,,,,,,14,2,0.02
midas_umidas,pseudo,2019:Q3:pre_third:pseudo,2019-12-31,pre_third,T,2019:Q3,3.204672467793214,,,not_available,2.1024,1.102272467793214,False,True,0,,,,,,,14,2,0.02
monthly_mixed_frequency_kalman_em,pseudo,2019:Q3:pre_third:pseudo,2019-12-31,pre_third,T,2019:Q3,1.926586040179088,0.13462632467763821,0.3669146013415632,model_implied_state_space,2.1024,-0.17581395982091186,False,True,85,-6400.655898089368,-7478.681402652314,-6400.655898089368,0.5302225945315513,8.281899097224487e-05,85.0,14,2,0.02
standard_dfm,pseudo,2019:Q3:pre_third:pseudo,2019-12-31,pre_third,T,2019:Q3,2.451380048869966,,,not_available,2.1024,0.34898004886996636,False,True,0,,,,,,,14,2,0.02
release_dfm,pseudo,2019:Q3:pre_third:pseudo,2019-12-31,pre_third,T,2019:Q3,2.149466156677759,,,not_available,2.1024,0.04706615667775926,False,True,0,,,,,,,14,2,0.02
revision_dfm_kalman_em,pseudo,2019:Q3:pre_third:pseudo,2019-12-31,pre_third,T,2019:Q3,2.1219356155721507,0.1463821405163334,0.38259919042822527,model_implied_state_space,2.1024,0.01953561557215089,False,True,23,-2026.6698449123182,-3027.628223896805,-2026.6698449123182,0.1841901284992673,9.083007224213741e-05,23.0,14,2,0.02
indicator_revision_only_dfm_kalman_em,pseudo,2019:Q3:pre_third:pseudo,2019-12-31,pre_third,T,2019:Q3,2.114792806342073,0.15062405473568483,0.3881031496080453,model_implied_state_space,2.1024,0.012392806342073293,False,True,26,-3753.7066736555153,-4917.832047122485,-3753.7066736555153,0.3451183376514564,9.190774369273584e-05,26.0,14,2,0.02
joint_indicator_revision_dfm_full_kalman_em,pseudo,2019:Q3:pre_third:pseudo,2019-12-31,pre_third,T,2019:Q3,2.121923599078114,0.14598787760285578,0.38208360027990707,model_implied_state_space,2.1024,0.019523599078114184,False,True,27,-3718.274099572508,-4933.153010956401,-3718.274099572508,0.350187476031806,9.414592684834681e-05,27.0,14,2,0.02
ar,exact,2019:Q4:pre_advance:exact,2020-01-29,pre_advance,A,2019:Q4,2.2100311607376257,,,not_available,2.0808,0.12923116073762575,False,True,0,,,,,,,14,2,0.02
no_revision,exact,2019:Q4:pre_advance:exact,2020-01-29,pre_advance,A,2019:Q4,2.1968709062412755,,,not_available,2.0808,0.11607090624127547,False,True,0,,,,,,,14,2,0.02
bridge,exact,2019:Q4:pre_advance:exact,2020-01-29,pre_advance,A,2019:Q4,2.510353588287196,,,not_available,2.0808,0.42955358828719614,False,True,0,,,,,,,14,2,0.02
midas_umidas,exact,2019:Q4:pre_advance:exact,2020-01-29,pre_advance,A,2019:Q4,0.14334577927015535,,,not_available,2.0808,-1.9374542207298446,False,True,0,,,,,,,14,2,0.02
monthly_mixed_frequency_kalman_em,exact,2019:Q4:pre_advance:exact,2020-01-29,pre_advance,A,2019:Q4,2.321376306824769,3.1804824465352883,1.783390716173909,model_implied_state_space,2.0808,0.24057630682476905,False,True,50,-6469.2853342069075,-7498.543314628145,-6469.2853342069075,0.6272767151895096,9.693790550203759e-05,50.0,14,2,0.02
standard_dfm,exact,2019:Q4:pre_advance:exact,2020-01-29,pre_advance,A,2019:Q4,1.9184646342382905,,,not_available,2.0808,-0.16233536576170948,False,True,0,,,,,,,14,2,0.02
release_dfm,exact,2019:Q4:pre_advance:exact,2020-01-29,pre_advance,A,2019:Q4,1.9184646342382905,,,not_available,2.0808,-0.16233536576170948,False,True,0,,,,,,,14,2,0.02
revision_dfm_kalman_em,exact,2019:Q4:pre_advance:exact,2020-01-29,pre_advance,A,2019:Q4,1.4370612061852979,3.1605764366334417,1.7778010115402234,model_implied_state_space,2.0808,-0.6437387938147021,False,True,23,-2045.413197444106,-3049.062572131113,-2045.413197444106,0.18401150670706556,8.991095360742673e-05,23.0,14,2,0.02
indicator_revision_only_dfm_kalman_em,exact,2019:Q4:pre_advance:exact,2020-01-29,pre_advance,A,2019:Q4,1.6394806022563322,3.6955550946168323,1.9223826608188164,model_implied_state_space,2.0808,-0.4413193977436678,False,True,25,-3791.203747415335,-4968.815462889262,-3791.203747415335,0.37061783647732227,9.772196950783184e-05,25.0,14,2,0.02
joint_indicator_revision_dfm_full_kalman_em,exact,2019:Q4:pre_advance:exact,2020-01-29,pre_advance,A,2019:Q4,1.5873523033005246,2.644142155097991,1.6260818414514047,model_implied_state_space,2.0808,-0.4934476966994754,False,True,26,-3755.6694568556004,-4984.383018520602,-3755.6694568556004,0.3599936336408973,9.581868824425074e-05,26.0,14,2,0.02
ar,exact,2019:Q4:pre_second:exact,2020-02-26,pre_second,S,2019:Q4,2.3765756189143223,,,not_available,2.0956,0.2809756189143222,False,True,0,,,,,,,14,2,0.02
no_revision,exact,2019:Q4:pre_second:exact,2020-02-26,pre_second,S,2019:Q4,2.0808,,,not_available,2.0956,-0.014800000000000146,False,True,0,,,,,,,14,2,0.02
bridge,exact,2019:Q4:pre_second:exact,2020-02-26,pre_second,S,2019:Q4,2.8435719314230106,,,not_available,2.0956,0.7479719314230104,False,True,0,,,,,,,14,2,0.02
midas_umidas,exact,2019:Q4:pre_second:exact,2020-02-26,pre_second,S,2019:Q4,2.407347471050032,,,not_available,2.0956,0.31174747105003187,False,True,0,,,,,,,14,2,0.02
monthly_mixed_frequency_kalman_em,exact,2019:Q4:pre_second:exact,2020-02-26,pre_second,S,2019:Q4,1.8308919516610667,0.3409102591919393,0.5838752085779454,model_implied_state_space,2.0956,-0.26470804833893347,False,True,87,-6438.970241778739,-7517.704691580865,-6438.970241778739,0.5797461170295719,9.00150015323434e-05,87.0,14,2,0.02
standard_dfm,exact,2019:Q4:pre_second:exact,2020-02-26,pre_second,S,2019:Q4,2.072184393236813,,,not_available,2.0956,-0.023415606763187213,False,True,0,,,,,,,14,2,0.02
release_dfm,exact,2019:Q4:pre_second:exact,2020-02-26,pre_second,S,2019:Q4,2.146839918234161,,,not_available,2.0956,0.051239918234160964,False,True,0,,,,,,,14,2,0.02
revision_dfm_kalman_em,exact,2019:Q4:pre_second:exact,2020-02-26,pre_second,S,2019:Q4,2.2038405475944334,0.39682961987961957,0.6299441402851681,model_implied_state_space,2.0956,0.10824054759443325,False,True,21,-2045.6659176370079,-3033.123202649644,-2045.6659176370079,0.18805023995923875,9.187281697203233e-05,21.0,14,2,0.02
indicator_revision_only_dfm_kalman_em,exact,2019:Q4:pre_second:exact,2020-02-26,pre_second,S,2019:Q4,2.0469239008395412,0.38737003887024485,0.6223905838540978,model_implied_state_space,2.0956,-0.0486760991604589,False,True,25,-3791.626945244972,-4969.778840930812,-3791.626945244972,0.36957561458712007,9.743631784385813e-05,25.0,14,2,0.02
joint_indicator_revision_dfm_full_kalman_em,exact,2019:Q4:pre_second:exact,2020-02-26,pre_second,S,2019:Q4,2.1652623255112284,0.385133632724259,0.6205913572748649,model_implied_state_space,2.0956,0.0696623255112283,False,True,26,-3755.9576577833727,-4985.4532357377675,-3755.9576577833727,0.35866448081424096,9.545762189064429e-05,26.0,14,2,0.02
ar,exact,2019:Q4:pre_third:exact,2020-03-25,pre_third,T,2019:Q4,2.41550164741769,,,not_available,2.1275,0.2880016474176901,False,True,0,,,,,,,14,2,0.02
no_revision,exact,2019:Q4:pre_third:exact,2020-03-25,pre_third,T,2019:Q4,2.0956,,,not_available,2.1275,-0.03189999999999982,False,True,0,,,,,,,14,2,0.02
bridge,exact,2019:Q4:pre_third:exact,2020-03-25,pre_third,T,2019:Q4,2.864398639107203,,,not_available,2.1275,0.7368986391072032,False,True,0,,,,,,,14,2,0.02
midas_umidas,exact,2019:Q4:pre_third:exact,2020-03-25,pre_third,T,2019:Q4,2.010628492430776,,,not_available,2.1275,-0.11687150756922415,False,True,0,,,,,,,14,2,0.02
monthly_mixed_frequency_kalman_em,exact,2019:Q4:pre_third:exact,2020-03-25,pre_third,T,2019:Q4,1.9491936121009557,0.14080023833339672,0.3752335783660582,model_implied_state_space,2.1275,-0.1783063878990443,False,True,53,-6506.291415830412,-7539.787496723451,-6506.291415830412,0.6501470142229664,9.990056117510461e-05,53.0,14,2,0.02
standard_dfm,exact,2019:Q4:pre_third:exact,2020-03-25,pre_third,T,2019:Q4,2.132247901709427,,,not_available,2.1275,0.0047479017094271825,False,True,0,,,,,,,14,2,0.02
release_dfm,exact,2019:Q4:pre_third:exact,2020-03-25,pre_third,T,2019:Q4,2.161040249378947,,,not_available,2.1275,0.03354024937894717,False,True,0,,,,,,,14,2,0.02
revision_dfm_kalman_em,exact,2019:Q4:pre_third:exact,2020-03-25,pre_third,T,2019:Q4,2.106519312155549,0.1457031407754742,0.3817108077792325,model_implied_state_space,2.1275,-0.02098068784445095,False,True,23,-2045.6420289166892,-3051.354139553679,-2045.6420289166892,0.18577426706315237,9.076204005739442e-05,23.0,14,2,0.02
indicator_revision_only_dfm_kalman_em,exact,2019:Q4:pre_third:exact,2020-03-25,pre_third,T,2019:Q4,2.0925300861878986,0.1499242537856398,0.38720053433026125,model_implied_state_space,2.1275,-0.03496991381210135,False,True,26,-3791.5442094363307,-4960.319874340284,-3791.5442094363307,0.36461964407044434,9.613192947715729e-05,26.0,14,2,0.02
joint_indicator_revision_dfm_full_kalman_em,exact,2019:Q4:pre_third:exact,2020-03-25,pre_third,T,2019:Q4,2.1035899816815,0.14532228538066558,0.3812116018442586,model_implied_state_space,2.1275,-0.023910018318499926,False,True,27,-3756.003895792844,-4975.709757444162,-3756.003895792844,0.3668128002841513,9.76248628982092e-05,27.0,14,2,0.02
ar,pseudo,2019:Q4:pre_advance:pseudo,2020-01-31,pre_advance,A,2019:Q4,2.2100311607376257,,,not_available,2.0808,0.12923116073762575,False,True,0,,,,,,,14,2,0.02
no_revision,pseudo,2019:Q4:pre_advance:pseudo,2020-01-31,pre_advance,A,2019:Q4,2.1968709062412755,,,not_available,2.0808,0.11607090624127547,False,True,0,,,,,,,14,2,0.02
bridge,pseudo,2019:Q4:pre_advance:pseudo,2020-01-31,pre_advance,A,2019:Q4,2.5104803906747097,,,not_available,2.0808,0.42968039067470976,False,True,0,,,,,,,14,2,0.02
midas_umidas,pseudo,2019:Q4:pre_advance:pseudo,2020-01-31,pre_advance,A,2019:Q4,0.1263758571926259,,,not_available,2.0808,-1.954424142807374,False,True,0,,,,,,,14,2,0.02
monthly_mixed_frequency_kalman_em,pseudo,2019:Q4:pre_advance:pseudo,2020-01-31,pre_advance,A,2019:Q4,2.312207659190274,3.1802250645765655,1.7833185538698815,model_implied_state_space,2.0808,0.23140765919027384,False,True,50,-6470.62796759433,-7499.925111035035,-6470.62796759433,0.6268550275635789,9.685264946191373e-05,50.0,14,2,0.02
standard_dfm,pseudo,2019:Q4:pre_advance:pseudo,2020-01-31,pre_advance,A,2019:Q4,1.9173075948074958,,,not_available,2.0808,-0.1634924051925042,False,True,0,,,,,,,14,2,0.02
release_dfm,pseudo,2019:Q4:pre_advance:pseudo,2020-01-31,pre_advance,A,2019:Q4,1.9173075948074958,,,not_available,2.0808,-0.1634924051925042,False,True,0,,,,,,,14,2,0.02
revision_dfm_kalman_em,pseudo,2019:Q4:pre_advance:pseudo,2020-01-31,pre_advance,A,2019:Q4,1.4363183025117112,3.160566527437431,1.7777982246130832,model_implied_state_space,2.0808,-0.6444816974882888,False,True,23,-2045.4104998801815,-3049.061099364582,-2045.4104998801815,0.18400673524070044,8.990874090882006e-05,23.0,14,2,0.02
indicator_revision_only_dfm_kalman_em,pseudo,2019:Q4:pre_advance:pseudo,2020-01-31,pre_advance,A,2019:Q4,1.6388702442800154,3.6955361470672115,1.922377732670458,model_implied_state_space,2.0808,-0.4419297557199846,False,True,25,-3791.21036781181,-4968.820785330706,-3791.21036781181,0.3706935055356553,9.774174883605404e-05,25.0,14,2,0.02
joint_indicator_revision_dfm_full_kalman_em,pseudo,2019:Q4:pre_advance:pseudo,2020-01-31,pre_advance,A,2019:Q4,1.5869938428668129,2.64414696374789,1.6260833200509408,model_implied_state_space,2.0808,-0.4938061571331871,False,True,26,-3755.6762275129404,-4984.388343833557,-3755.6762275129404,0.3600684291882317,9.583842178398214e-05,26.0,14,2,0.02
ar,pseudo,2019:Q4:pre_second:pseudo,2020-02-29,pre_second,S,2019:Q4,2.3765756189143223,,,not_available,2.0956,0.2809756189143222,False,True,0,,,,,,,14,2,0.02
no_revision,pseudo,2019:Q4:pre_second:pseudo,2020-02-29,pre_second,S,2019:Q4,2.0808,,,not_available,2.0956,-0.014800000000000146,False,True,0,,,,,,,14,2,0.02
bridge,pseudo,2019:Q4:pre_second:pseudo,2020-02-29,pre_second,S,2019:Q4,2.8529123584527927,,,not_available,2.0956,0.7573123584527925,False,True,0,,,,,,,14,2,0.02
midas_umidas,pseudo,2019:Q4:pre_second:pseudo,2020-02-29,pre_second,S,2019:Q4,2.4205851823166946,,,not_available,2.0956,0.3249851823166945,False,True,0,,,,,,,14,2,0.02
monthly_mixed_frequency_kalman_em,pseudo,2019:Q4:pre_second:pseudo,2020-02-29,pre_second,S,2019:Q4,1.9220105592565297,0.3477306015605787,0.5896868673801196,model_implied_state_space,2.0956,-0.17358944074347038,False,True,53,-6488.448639322011,-7520.511986458246,-6488.448639322011,0.6459187049040338,9.952377413440994e-05,53.0,14,2,0.02
standard_dfm,pseudo,2019:Q4:pre_second:pseudo,2020-02-29,pre_second,S,2019:Q4,2.0812869841245267,,,not_available,2.0956,-0.0143130158754734,False,True,0,,,,,,,14,2,0.02
release_dfm,pseudo,2019:Q4:pre_second:pseudo,2020-02-29,pre_second,S,2019:Q4,2.1473853057521275,,,not_available,2.0956,0.051785305752127364,False,True,0,,,,,,,14,2,0.02
revision_dfm_kalman_em,pseudo,2019:Q4:pre_second:pseudo,2020-02-29,pre_second,S,2019:Q4,2.2038148613097492,0.3968308548738783,0.6299451205254933,model_implied_state_space,2.0956,0.10821486130974911,False,True,21,-2045.655747510807,-3033.1105552309104,-2045.655747510807,0.18805326371466435,9.187475060065911e-05,21.0,14,2,0.02
indicator_revision_only_dfm_kalman_em,pseudo,2019:Q4:pre_second:pseudo,2020-02-29,pre_second,S,2019:Q4,2.0481053377919363,0.38736758237646124,0.6223886104167244,model_implied_state_space,2.0956,-0.047494662208063865,False,True,25,-3791.665073402494,-4969.808369012858,-3791.665073402494,0.3696714322441039,9.746059741411898e-05,25.0,14,2,0.02
joint_indicator_revision_dfm_full_kalman_em,pseudo,2019:Q4:pre_second:pseudo,2020-02-29,pre_second,S,2019:Q4,2.165151201008614,0.3851372993782015,0.6205943114291345,model_implied_state_space,2.0956,0.0695512010086139,False,True,26,-3755.9945190303024,-4985.48308460577,-3755.9945190303024,0.3587595787053033,9.548199280268849e-05,26.0,14,2,0.02
ar,pseudo,2019:Q4:pre_third:pseudo,2020-03-31,pre_third,T,2019:Q4,2.41550164741769,,,not_available,2.1275,0.2880016474176901,False,True,0,,,,,,,14,2,0.02
no_revision,pseudo,2019:Q4:pre_third:pseudo,2020-03-31,pre_third,T,2019:Q4,2.0956,,,not_available,2.1275,-0.03189999999999982,False,True,0,,,,,,,14,2,0.02
bridge,pseudo,2019:Q4:pre_third:pseudo,2020-03-31,pre_third,T,2019:Q4,2.8646820537455304,,,not_available,2.1275,0.7371820537455305,False,True,0,,,,,,,14,2,0.02
midas_umidas,pseudo,2019:Q4:pre_third:pseudo,2020-03-31,pre_third,T,2019:Q4,2.0064379187967267,,,not_available,2.1275,-0.12106208120327322,False,True,0,,,,,,,14,2,0.02
monthly_mixed_frequency_kalman_em,pseudo,2019:Q4:pre_third:pseudo,2020-03-31,pre_third,T,2019:Q4,1.8967459996732918,0.13417929717566401,0.3663049237666128,model_implied_state_space,2.1275,-0.23075400032670812,False,True,87,-6459.905496539938,-7541.2159128546655,-6459.905496539938,0.5675317894992986,8.783319020462265e-05,87.0,14,2,0.02
standard_dfm,pseudo,2019:Q4:pre_third:pseudo,2020-03-31,pre_third,T,2019:Q4,2.132690978022118,,,not_available,2.1275,0.005190978022118209,False,True,0,,,,,,,14,2,0.02
release_dfm,pseudo,2019:Q4:pre_third:pseudo,2020-03-31,pre_third,T,2019:Q4,2.1610461765746436,,,not_available,2.1275,0.03354617657464365,False,True,0,,,,,,,14,2,0.02
revision_dfm_kalman_em,pseudo,2019:Q4:pre_third:pseudo,2020-03-31,pre_third,T,2019:Q4,2.1065194182611844,0.14570314146603627,0.38171080868379437,model_implied_state_space,2.1275,-0.020980581738815562,False,True,23,-2045.642665255275,-3051.3545557603406,-2045.642665255275,0.1857755254056883,9.0762626561331e-05,23.0,14,2,0.02
indicator_revision_only_dfm_kalman_em,pseudo,2019:Q4:pre_third:pseudo,2020-03-31,pre_third,T,2019:Q4,2.0925315719956523,0.14992425449526947,0.38720053524662057,model_implied_state_space,2.1275,-0.03496842800434763,False,True,26,-3791.544386251177,-4960.319998925818,-3791.544386251177,0.36461227436439003,9.612998216042877e-05,26.0,14,2,0.02
joint_indicator_revision_dfm_full_kalman_em,pseudo,2019:Q4:pre_third:pseudo,2020-03-31,pre_third,T,2019:Q4,2.1035896311305233,0.1453222795266072,0.3812115941660316,model_implied_state_space,2.1275,-0.023910368869476617,False,True,27,-3756.0040419143807,-4975.709883829929,-3756.0040419143807,0.3668059153219474,9.762302689227985e-05,27.0,14,2,0.02
ar,exact,2020:Q1:pre_advance:exact,2020-04-28,pre_advance,A,2020:Q1,2.2897072387924506,,,not_available,-4.7832,7.0729072387924505,False,True,0,,,,,,,14,2,0.02
no_revision,exact,2020:Q1:pre_advance:exact,2020-04-28,pre_advance,A,2020:Q1,2.323386808382237,,,not_available,-4.7832,7.106586808382237,False,True,0,,,,,,,14,2,0.02
bridge,exact,2020:Q1:pre_advance:exact,2020-04-28,pre_advance,A,2020:Q1,1.6139523635539974,,,not_available,-4.7832,6.397152363553998,False,True,0,,,,,,,14,2,0.02
midas_umidas,exact,2020:Q1:pre_advance:exact,2020-04-28,pre_advance,A,2020:Q1,6.983423304700622,,,not_available,-4.7832,11.766623304700623,False,True,0,,,,,,,14,2,0.02
monthly_mixed_frequency_kalman_em,exact,2020:Q1:pre_advance:exact,2020-04-28,pre_advance,A,2020:Q1,-0.435795227697092,2.8147618221056883,1.6777251926658574,model_implied_state_space,-4.7832,4.347404772302908,False,True,40,-6365.157784502217,-7570.539615772524,-6365.157784502217,0.5121276228919669,8.04388526436147e-05,40.0,14,2,0.02
standard_dfm,exact,2020:Q1:pre_advance:exact,2020-04-28,pre_advance,A,2020:Q1,0.6240466118451982,,,not_available,-4.7832,5.407246611845198,False,True,0,,,,,,,14,2,0.02
release_dfm,exact,2020:Q1:pre_advance:exact,2020-04-28,pre_advance,A,2020:Q1,0.6240466118451982,,,not_available,-4.7832,5.407246611845198,False,True,0,,,,,,,14,2,0.02
revision_dfm_kalman_em,exact,2020:Q1:pre_advance:exact,2020-04-28,pre_advance,A,2020:Q1,-0.8958814706386384,3.1380330355791557,1.7714494166018842,model_implied_state_space,-4.7832,3.8873185293613615,False,True,21,-2059.916241503951,-3054.41505075714,-2059.916241503951,0.19051499228089597,9.243334518235289e-05,21.0,14,2,0.02
indicator_revision_only_dfm_kalman_em,exact,2020:Q1:pre_advance:exact,2020-04-28,pre_advance,A,2020:Q1,-0.6181353152953579,3.6302448969977075,1.9053201560361732,model_implied_state_space,-4.7832,4.165064684704642,False,True,27,-3819.3175871297244,-4997.043654380125,-3819.3175871297244,0.35045127010107535,9.172512936974539e-05,27.0,14,2,0.02
joint_indicator_revision_dfm_full_kalman_em,exact,2020:Q1:pre_advance:exact,2020-04-28,pre_advance,A,2020:Q1,-0.5383154739019202,2.581372726591555,1.6066650947199776,model_implied_state_space,-4.7832,4.24488452609808,False,True,28,-3783.616331066416,-5012.4162829261995,-3783.616331066416,0.35512082588820704,9.382391132981033e-05,28.0,14,2,0.02
ar,exact,2020:Q1:pre_second:exact,2020-05-27,pre_second,S,2020:Q1,2.362411208093053,,,not_available,-5.0477,7.410111208093053,False,True,0,,,,,,,14,2,0.02
no_revision,exact,2020:Q1:pre_second:exact,2020-05-27,pre_second,S,2020:Q1,-4.7832,,,not_available,-5.0477,0.26449999999999996,False,True,0,,,,,,,14,2,0.02
bridge,exact,2020:Q1:pre_second:exact,2020-05-27,pre_second,S,2020:Q1,1.5192628497722622,,,not_available,-5.0477,6.566962849772262,False,True,0,,,,,,,14,2,0.02
midas_umidas,exact,2020:Q1:pre_second:exact,2020-05-27,pre_second,S,2020:Q1,-5.0219408204296805,,,not_available,-5.0477,0.025759179570319368,False,True,0,,,,,,,14,2,0.02
monthly_mixed_frequency_kalman_em,exact,2020:Q1:pre_second:exact,2020-05-27,pre_second,S,2020:Q1,-4.457447833958721,0.3389045054750804,0.5821550527781069,model_implied_state_space,-5.0477,0.590252166041279,False,True,38,-5904.76722749727,-7387.481874880861,-5904.76722749727,0.5293239996499324,8.962028828636753e-05,38.0,14,2,0.02
standard_dfm,exact,2020:Q1:pre_second:exact,2020-05-27,pre_second,S,2020:Q1,0.4106136891548773,,,not_available,-5.0477,5.458313689154878,False,True,0,,,,,,,14,2,0.02
release_dfm,exact,2020:Q1:pre_second:exact,2020-05-27,pre_second,S,2020:Q1,-5.062017677057046,,,not_available,-5.0477,-0.014317677057046119,False,True,0,,,,,,,14,2,0.02
revision_dfm_kalman_em,exact,2020:Q1:pre_second:exact,2020-05-27,pre_second,S,2020:Q1,-5.093084416861739,0.39628656244739596,0.6295129565365561,model_implied_state_space,-5.0477,-0.04538441686173922,False,True,20,-2059.2340258441955,-3055.6269620211324,-2059.2340258441955,0.2050040071553667,9.949530376065367e-05,20.0,14,2,0.02
indicator_revision_only_dfm_kalman_em,exact,2020:Q1:pre_second:exact,2020-05-27,pre_second,S,2020:Q1,-4.353162383912869,0.3867324131911435,0.6218781337136268,model_implied_state_space,-5.0477,0.694537616087131,False,True,26,-3818.270694425105,-4998.283446923563,-3818.270694425105,0.3806203690687653,9.964793581931325e-05,26.0,14,2,0.02
joint_indicator_revision_dfm_full_kalman_em,exact,2020:Q1:pre_second:exact,2020-05-27,pre_second,S,2020:Q1,-4.970719158442198,0.3818516249337754,0.617941441346812,model_implied_state_space,-5.0477,0.07698084155780194,False,True,28,-3782.823775477221,-5013.2609972784585,-3782.823775477221,0.353417966185134,9.339360926266296e-05,28.0,14,2,0.02
ar,exact,2020:Q1:pre_third:exact,2020-06-24,pre_third,T,2020:Q1,2.4250162204474304,,,not_available,-4.9937,7.41871622044743,False,True,0,,,,,,,14,2,0.02
no_revision,exact,2020:Q1:pre_third:exact,2020-06-24,pre_third,T,2020:Q1,-5.0477,,,not_available,-4.9937,-0.05400000000000027,False,True,0,,,,,,,14,2,0.02
bridge,exact,2020:Q1:pre_third:exact,2020-06-24,pre_third,T,2020:Q1,1.2725491109883,,,not_available,-4.9937,6.2662491109883,False,True,0,,,,,,,14,2,0.02
midas_umidas,exact,2020:Q1:pre_third:exact,2020-06-24,pre_third,T,2020:Q1,-4.6542372064798965,,,not_available,-4.9937,0.3394627935201031,False,True,0,,,,,,,14,2,0.02
monthly_mixed_frequency_kalman_em,exact,2020:Q1:pre_third:exact,2020-06-24,pre_third,T,2020:Q1,-5.349545992541492,0.15257514584676934,0.39060868634321144,model_implied_state_space,-4.9937,-0.3558459925414921,False,True,30,-5842.564757670993,-7569.414509506856,-5842.564757670993,0.568459167846413,9.727005644027727e-05,30.0,14,2,0.02
standard_dfm,exact,2020:Q1:pre_third:exact,2020-06-24,pre_third,T,2020:Q1,0.40658589299139214,,,not_available,-4.9937,5.400285892991391,False,True,0,,,,,,,14,2,0.02
release_dfm,exact,2020:Q1:pre_third:exact,2020-06-24,pre_third,T,2020:Q1,-5.096306401636982,,,not_available,-4.9937,-0.10260640163698209,False,True,0,,,,,,,14,2,0.02
revision_dfm_kalman_em,exact,2020:Q1:pre_third:exact,2020-06-24,pre_third,T,2020:Q1,-5.065737393364582,0.1449241008878928,0.3806889818314851,model_implied_state_space,-4.9937,-0.07203739336458259,False,True,21,-2056.743396551771,-3057.0930228727543,-2056.743396551771,0.17640573972585116,8.572041511502201e-05,21.0,14,2,0.02
indicator_revision_only_dfm_kalman_em,exact,2020:Q1:pre_third:exact,2020-06-24,pre_third,T,2020:Q1,-5.001471761771526,0.14931775700310848,0.3864165589142221,model_implied_state_space,-4.9937,-0.0077717617715267195,False,True,25,-3815.517433113246,-5010.798624172015,-3815.517433113246,0.3678536483002972,9.6375348134291e-05,25.0,14,2,0.02
joint_indicator_revision_dfm_full_kalman_em,exact,2020:Q1:pre_third:exact,2020-06-24,pre_third,T,2020:Q1,-5.057137697820995,0.14465689152351546,0.38033786496155686,model_implied_state_space,-4.9937,-0.06343769782099518,False,True,26,-3779.6679333253087,-5026.144519911568,-3779.6679333253087,0.36599659732610235,9.679801982988054e-05,26.0,14,2,0.02
ar,pseudo,2020:Q1:pre_advance:pseudo,2020-04-30,pre_advance,A,2020:Q1,2.2897072387924506,,,not_available,-4.7832,7.0729072387924505,False,True,0,,,,,,,14,2,0.02
no_revision,pseudo,2020:Q1:pre_advance:pseudo,2020-04-30,pre_advance,A,2020:Q1,2.323386808382237,,,not_available,-4.7832,7.106586808382237,False,True,0,,,,,,,14,2,0.02
bridge,pseudo,2020:Q1:pre_advance:pseudo,2020-04-30,pre_advance,A,2020:Q1,1.6186201510230136,,,not_available,-4.7832,6.4018201510230135,False,True,0,,,,,,,14,2,0.02
midas_umidas,pseudo,2020:Q1:pre_advance:pseudo,2020-04-30,pre_advance,A,2020:Q1,6.412402070448358,,,not_available,-4.7832,11.19560207044836,False,True,0,,,,,,,14,2,0.02
monthly_mixed_frequency_kalman_em,pseudo,2020:Q1:pre_advance:pseudo,2020-04-30,pre_advance,A,2020:Q1,-0.43496932211960404,2.812883517601773,1.6771653220841924,model_implied_state_space,-4.7832,4.348230677880396,False,True,40,-6365.75857504451,-7568.960720705711,-6365.75857504451,0.5585125763955148,8.771552738929141e-05,40.0,14,2,0.02
standard_dfm,pseudo,2020:Q1:pre_advance:pseudo,2020-04-30,pre_advance,A,2020:Q1,0.5327006664243215,,,not_available,-4.7832,5.315900666424321,False,True,0,,,,,,,14,2,0.02
release_dfm,pseudo,2020:Q1:pre_advance:pseudo,2020-04-30,pre_advance,A,2020:Q1,0.5327006664243215,,,not_available,-4.7832,5.315900666424321,False,True,0,,,,,,,14,2,0.02
revision_dfm_kalman_em,pseudo,2020:Q1:pre_advance:pseudo,2020-04-30,pre_advance,A,2020:Q1,-0.945520149417169,3.1354264366504965,1.7707135388454274,model_implied_state_space,-4.7832,3.837679850582831,False,True,21,-2059.085808568774,-3054.0127877053023,-2059.085808568774,0.19027956139780144,9.235634121759474e-05,21.0,14,2,0.02
indicator_revision_only_dfm_kalman_em,pseudo,2020:Q1:pre_advance:pseudo,2020-04-30,pre_advance,A,2020:Q1,-0.6649045669092719,3.632584265428849,1.905933961455341,model_implied_state_space,-4.7832,4.1182954330907275,False,True,26,-3818.627930001731,-4996.381152899285,-3818.627930001731,0.3805755900375516,9.962689598215843e-05,26.0,14,2,0.02
joint_indicator_revision_dfm_full_kalman_em,pseudo,2020:Q1:pre_advance:pseudo,2020-04-30,pre_advance,A,2020:Q1,-0.5832475688079346,2.579587943456042,1.606109567699552,model_implied_state_space,-4.7832,4.199952431192065,False,True,28,-3782.566919567272,-5011.752320514218,-3782.566919567272,0.35254303533247366,9.316874706682903e-05,28.0,14,2,0.02
ar,pseudo,2020:Q1:pre_second:pseudo,2020-05-31,pre_second,S,2020:Q1,2.362411208093053,,,not_available,-5.0477,7.410111208093053,False,True,0,,,,,,,14,2,0.02
no_revision,pseudo,2020:Q1:pre_second:pseudo,2020-05-31,pre_second,S,2020:Q1,-4.7832,,,not_available,-5.0477,0.26449999999999996,False,True,0,,,,,,,14,2,0.02
bridge,pseudo,2020:Q1:pre_second:pseudo,2020-05-31,pre_second,S,2020:Q1,1.51011815047926,,,not_available,-5.0477,6.55781815047926,False,True,0,,,,,,,14,2,0.02
midas_umidas,pseudo,2020:Q1:pre_second:pseudo,2020-05-31,pre_second,S,2020:Q1,-5.297727048454643,,,not_available,-5.0477,-0.2500270484546432,False,True,0,,,,,,,14,2,0.02
monthly_mixed_frequency_kalman_em,pseudo,2020:Q1:pre_second:pseudo,2020-05-31,pre_second,S,2020:Q1,-4.534396625304282,0.33888374801190985,0.5821372243826277,model_implied_state_space,-5.0477,0.5133033746957176,False,True,44,-5864.340540144614,-7345.674777637329,-5864.340540144614,0.547686764674836,9.3368087404456e-05,44.0,14,2,0.02
standard_dfm,pseudo,2020:Q1:pre_second:pseudo,2020-05-31,pre_second,S,2020:Q1,0.400962282321097,,,not_available,-5.0477,5.448662282321097,False,True,0,,,,,,,14,2,0.02
release_dfm,pseudo,2020:Q1:pre_second:pseudo,2020-05-31,pre_second,S,2020:Q1,-5.062788567388224,,,not_available,-5.0477,-0.01508856738822395,False,True,0,,,,,,,14,2,0.02
revision_dfm_kalman_em,pseudo,2020:Q1:pre_second:pseudo,2020-05-31,pre_second,S,2020:Q1,-5.0924276832914614,0.39623534017667744,0.6294722711737805,model_implied_state_space,-5.0477,-0.044727683291461595,False,True,20,-2060.172326229879,-3056.004659468988,-2060.172326229879,0.20576742578487028,9.982032234560168e-05,20.0,14,2,0.02
indicator_revision_only_dfm_kalman_em,pseudo,2020:Q1:pre_second:pseudo,2020-05-31,pre_second,S,2020:Q1,-4.354789150007623,0.38666608579113954,0.6218248031327952,model_implied_state_space,-5.0477,0.6929108499923773,False,True,26,-3819.062830276788,-4998.639586193751,-3819.062830276788,0.3773720126951048,9.87771023006606e-05,26.0,14,2,0.02
joint_indicator_revision_dfm_full_kalman_em,pseudo,2020:Q1:pre_second:pseudo,2020-05-31,pre_second,S,2020:Q1,-4.969559468278167,0.3817888137169398,0.617890616304326,model_implied_state_space,-5.0477,0.0781405317218331,False,True,28,-3783.6072866723416,-5013.618130619263,-3783.6072866723416,0.3503580652745768,9.256591437996517e-05,28.0,14,2,0.02
ar,pseudo,2020:Q1:pre_third:pseudo,2020-06-30,pre_third,T,2020:Q1,2.4250162204474304,,,not_available,-4.9937,7.41871622044743,False,True,0,,,,,,,14,2,0.02
no_revision,pseudo,2020:Q1:pre_third:pseudo,2020-06-30,pre_third,T,2020:Q1,-5.0477,,,not_available,-4.9937,-0.05400000000000027,False,True,0,,,,,,,14,2,0.02
bridge,pseudo,2020:Q1:pre_third:pseudo,2020-06-30,pre_third,T,2020:Q1,1.2646961124291711,,,not_available,-4.9937,6.258396112429171,False,True,0,,,,,,,14,2,0.02
midas_umidas,pseudo,2020:Q1:pre_third:pseudo,2020-06-30,pre_third,T,2020:Q1,-4.652482852347865,,,not_available,-4.9937,0.3412171476521344,False,True,0,,,,,,,14,2,0.02
monthly_mixed_frequency_kalman_em,pseudo,2020:Q1:pre_third:pseudo,2020-06-30,pre_third,T,2020:Q1,-5.348879665225306,0.1525827713012122,0.39061844721058964,model_implied_state_space,-4.9937,-0.35517966522530653,False,True,30,-5848.09797214537,-7570.982370400096,-5848.09797214537,0.5808403497094332,9.929440031284142e-05,30.0,14,2,0.02
standard_dfm,pseudo,2020:Q1:pre_third:pseudo,2020-06-30,pre_third,T,2020:Q1,0.3938563920230176,,,not_available,-4.9937,5.387556392023017,False,True,0,,,,,,,14,2,0.02
release_dfm,pseudo,2020:Q1:pre_third:pseudo,2020-06-30,pre_third,T,2020:Q1,-5.096460939848946,,,not_available,-4.9937,-0.10276093984894619,False,True,0,,,,,,,14,2,0.02
revision_dfm_kalman_em,pseudo,2020:Q1:pre_third:pseudo,2020-06-30,pre_third,T,2020:Q1,-5.065738943098653,0.1449241423983457,0.38068903635164714,model_implied_state_space,-4.9937,-0.07203894309865344,False,True,21,-2056.6487338454926,-3057.0511981597383,-2056.6487338454926,0.1763755737106294,8.570970045185682e-05,21.0,14,2,0.02
indicator_revision_only_dfm_kalman_em,pseudo,2020:Q1:pre_third:pseudo,2020-06-30,pre_third,T,2020:Q1,-5.001509560504875,0.14931794663871684,0.3864168042913207,model_implied_state_space,-4.9937,-0.007809560504875357,False,True,25,-3815.459764760747,-5010.780297661727,-3815.459764760747,0.36795653783383386,9.640375848785907e-05,25.0,14,2,0.02
joint_indicator_revision_dfm_full_kalman_em,pseudo,2020:Q1:pre_third:pseudo,2020-06-30,pre_third,T,2020:Q1,-5.057133540444955,0.14465689062930823,0.3803378637860136,model_implied_state_space,-4.9937,-0.0634335404449553,False,True,26,-3779.6087990096557,-5026.126087429312,-3779.6087990096557,0.3661013335845382,9.682723192669256e-05,26.0,14,2,0.02
ar,exact,2020:Q2:pre_advance:exact,2020-07-29,pre_advance,A,2020:Q2,-1.1573964624978355,,,not_available,-32.9038,31.74640353750216,False,True,0,,,,,,,14,2,0.02
no_revision,exact,2020:Q2:pre_advance:exact,2020-07-29,pre_advance,A,2020:Q2,-1.1484712531706052,,,not_available,-32.9038,31.75532874682939,False,True,0,,,,,,,14,2,0.02
bridge,exact,2020:Q2:pre_advance:exact,2020-07-29,pre_advance,A,2020:Q2,-11.104287028089175,,,not_available,-32.9038,21.799512971910822,False,True,0,,,,,,,14,2,0.02
midas_umidas,exact,2020:Q2:pre_advance:exact,2020-07-29,pre_advance,A,2020:Q2,30.848015896470223,,,not_available,-32.9038,63.75181589647022,False,True,0,,,,,,,14,2,0.02
monthly_mixed_frequency_kalman_em,exact,2020:Q2:pre_advance:exact,2020-07-29,pre_advance,A,2020:Q2,-17.29279099840882,2.7860907616824515,1.6691586987708662,model_implied_state_space,-32.9038,15.611009001591178,False,True,30,-5800.950420662696,-7576.408237289621,-5800.950420662696,0.543709375088838,9.370270144250838e-05,30.0,14,2,0.02
standard_dfm,exact,2020:Q2:pre_advance:exact,2020-07-29,pre_advance,A,2020:Q2,-15.718307815729272,,,not_available,-32.9038,17.185492184270725,False,True,0,,,,,,,14,2,0.02
release_dfm,exact,2020:Q2:pre_advance:exact,2020-07-29,pre_advance,A,2020:Q2,-15.718307815729272,,,not_available,-32.9038,17.185492184270725,False,True,0,,,,,,,14,2,0.02
revision_dfm_kalman_em,exact,2020:Q2:pre_advance:exact,2020-07-29,pre_advance,A,2020:Q2,-20.552002572422523,2.1396573176026727,1.4627567527113565,model_implied_state_space,-32.9038,12.351797427577473,False,True,29,-1891.9115312820363,-3083.604358628097,-1891.9115312820363,0.1768876505677781,9.343866287424343e-05,29.0,14,2,0.02
indicator_revision_only_dfm_kalman_em,exact,2020:Q2:pre_advance:exact,2020-07-29,pre_advance,A,2020:Q2,-25.588808957662394,2.8231448513423434,1.6802216673231969,model_implied_state_space,-32.9038,7.314991042337603,False,True,36,-3399.187138336603,-5000.125328571136,-3399.187138336603,0.290430749830648,8.54088121241966e-05,36.0,14,2,0.02
joint_indicator_revision_dfm_full_kalman_em,exact,2020:Q2:pre_advance:exact,2020-07-29,pre_advance,A,2020:Q2,-26.08425735673675,1.8692813765699658,1.3672166531204797,model_implied_state_space,-32.9038,6.819542643263247,False,True,37,-3358.23407541736,-5015.072852641998,-3358.23407541736,0.31667834879590373,9.426211181387806e-05,37.0,14,2,0.02
ar,exact,2020:Q2:pre_second:exact,2020-08-26,pre_second,S,2020:Q2,-0.9346260921233107,,,not_available,-31.7041,30.76947390787669,False,True,0,,,,,,,14,2,0.02
no_revision,exact,2020:Q2:pre_second:exact,2020-08-26,pre_second,S,2020:Q2,-32.9038,,,not_available,-31.7041,-1.1996999999999964,False,True,0,,,,,,,14,2,0.02
bridge,exact,2020:Q2:pre_second:exact,2020-08-26,pre_second,S,2020:Q2,-11.728274633025507,,,not_available,-31.7041,19.975825366974494,False,True,0,,,,,,,14,2,0.02
midas_umidas,exact,2020:Q2:pre_second:exact,2020-08-26,pre_second,S,2020:Q2,-3.540074893379682,,,not_available,-31.7041,28.16402510662032,False,True,0,,,,,,,14,2,0.02
monthly_mixed_frequency_kalman_em,exact,2020:Q2:pre_second:exact,2020-08-26,pre_second,S,2020:Q2,-33.66595335826234,0.3429319133219236,0.5856038877278084,model_implied_state_space,-31.7041,-1.961853358262342,False,True,30,-5790.936824378299,-7593.671304928383,-5790.936824378299,0.5359329527009322,9.252230871913056e-05,30.0,14,2,0.02
standard_dfm,exact,2020:Q2:pre_second:exact,2020-08-26,pre_second,S,2020:Q2,-17.217326420438106,,,not_available,-31.7041,14.486773579561895,False,True,0,,,,,,,14,2,0.02
release_dfm,exact,2020:Q2:pre_second:exact,2020-08-26,pre_second,S,2020:Q2,-35.1656335115921,,,not_available,-31.7041,-3.4615335115920978,False,True,0,,,,,,,14,2,0.02
revision_dfm_kalman_em,exact,2020:Q2:pre_second:exact,2020-08-26,pre_second,S,2020:Q2,-34.711509163506605,0.38674680369336223,0.621889703800732,model_implied_state_space,-31.7041,-3.0074091635066047,False,True,25,-1847.7181564180075,-3094.8139111078767,-1847.7181564180075,0.1618311167576394,8.752927061178243e-05,25.0,14,2,0.02
indicator_revision_only_dfm_kalman_em,exact,2020:Q2:pre_second:exact,2020-08-26,pre_second,S,2020:Q2,-32.77957306222599,0.36580257701487096,0.6048161514169996,model_implied_state_space,-31.7041,-1.075473062225992,False,True,42,-3346.0197220033,-5000.359266650824,-3346.0197220033,0.31636899052864464,9.451366158894259e-05,42.0,14,2,0.02
joint_indicator_revision_dfm_full_kalman_em,exact,2020:Q2:pre_second:exact,2020-08-26,pre_second,S,2020:Q2,-33.21311163116617,0.34861482112993736,0.5904361279003322,model_implied_state_space,-31.7041,-1.509011631166171,False,True,45,-3306.7208485310102,-5008.473916841611,-3306.7208485310102,0.27439731692948044,8.294973134374747e-05,45.0,14,2,0.02
ar,exact,2020:Q2:pre_third:exact,2020-09-29,pre_third,T,2020:Q2,-0.7119618796649088,,,not_available,-31.3827,30.67073812033509,False,True,0,,,,,,,14,2,0.02
no_revision,exact,2020:Q2:pre_third:exact,2020-09-29,pre_third,T,2020:Q2,-31.7041,,,not_available,-31.3827,-0.3214000000000006,False,True,0,,,,,,,14,2,0.02
bridge,exact,2020:Q2:pre_third:exact,2020-09-29,pre_third,T,2020:Q2,-11.706443047869818,,,not_available,-31.3827,19.67625695213018,False,True,0,,,,,,,14,2,0.02
midas_umidas,exact,2020:Q2:pre_third:exact,2020-09-29,pre_third,T,2020:Q2,-62.55032037882182,,,not_available,-31.3827,-31.167620378821823,False,True,0,,,,,,,14,2,0.02
monthly_mixed_frequency_kalman_em,exact,2020:Q2:pre_third:exact,2020-09-29,pre_third,T,2020:Q2,-31.98292276889753,0.14698826089382985,0.3833904809640295,model_implied_state_space,-31.3827,-0.600222768897531,False,True,30,-5763.283163787264,-7611.521640025797,-5763.283163787264,0.5381468727000538,9.335013935383299e-05,30.0,14,2,0.02
standard_dfm,exact,2020:Q2:pre_third:exact,2020-09-29,pre_third,T,2020:Q2,-17.276938736761693,,,not_available,-31.3827,14.105761263238307,False,True,0,,,,,,,14,2,0.02
release_dfm,exact,2020:Q2:pre_third:exact,2020-09-29,pre_third,T,2020:Q2,-32.88490959470745,,,not_available,-31.3827,-1.5022095947074519,False,True,0,,,,,,,14,2,0.02
revision_dfm_kalman_em,exact,2020:Q2:pre_third:exact,2020-09-29,pre_third,T,2020:Q2,-31.830176218141872,0.14440839569476574,0.3800110468062287,model_implied_state_space,-31.3827,-0.44747621814187255,False,True,24,-1808.8263014273953,-3099.849287938369,-1808.8263014273953,0.17061148127231718,9.426064765941744e-05,24.0,14,2,0.02
indicator_revision_only_dfm_kalman_em,exact,2020:Q2:pre_third:exact,2020-09-29,pre_third,T,2020:Q2,-31.755561264489565,0.14805795686471643,0.3847829997085584,model_implied_state_space,-31.3827,-0.3728612644895648,False,True,38,-3301.8624921195774,-5020.355052569304,-3301.8624921195774,0.31481904772590497,9.530794688543428e-05,38.0,14,2,0.02
joint_indicator_revision_dfm_full_kalman_em,exact,2020:Q2:pre_third:exact,2020-09-29,pre_third,T,2020:Q2,-31.722449922427053,0.14410479100097706,0.37961136837689285,model_implied_state_space,-31.3827,-0.33974992242705326,False,True,40,-3261.923695085176,-5029.912803870359,-3261.923695085176,0.28325967567980115,8.680407942454874e-05,40.0,14,2,0.02
ar,pseudo,2020:Q2:pre_advance:pseudo,2020-07-31,pre_advance,A,2020:Q2,-1.1573964624978355,,,not_available,-32.9038,31.74640353750216,False,True,0,,,,,,,14,2,0.02
no_revision,pseudo,2020:Q2:pre_advance:pseudo,2020-07-31,pre_advance,A,2020:Q2,-1.1484712531706052,,,not_available,-32.9038,31.75532874682939,False,True,0,,,,,,,14,2,0.02
bridge,pseudo,2020:Q2:pre_advance:pseudo,2020-07-31,pre_advance,A,2020:Q2,-10.908992164679558,,,not_available,-32.9038,21.994807835320437,False,True,0,,,,,,,14,2,0.02
midas_umidas,pseudo,2020:Q2:pre_advance:pseudo,2020-07-31,pre_advance,A,2020:Q2,33.13857262025131,,,not_available,-32.9038,66.04237262025131,False,True,0,,,,,,,14,2,0.02
monthly_mixed_frequency_kalman_em,pseudo,2020:Q2:pre_advance:pseudo,2020-07-31,pre_advance,A,2020:Q2,-17.306620998822268,2.789537862087015,1.6701909657542202,model_implied_state_space,-32.9038,15.597179001177729,False,True,30,-5805.174913630151,-7577.424273802538,-5805.174913630151,0.5482355668964374,9.441393240389759e-05,30.0,14,2,0.02
standard_dfm,pseudo,2020:Q2:pre_advance:pseudo,2020-07-31,pre_advance,A,2020:Q2,-15.575879759710256,,,not_available,-32.9038,17.327920240289743,False,True,0,,,,,,,14,2,0.02
release_dfm,pseudo,2020:Q2:pre_advance:pseudo,2020-07-31,pre_advance,A,2020:Q2,-15.575879759710256,,,not_available,-32.9038,17.327920240289743,False,True,0,,,,,,,14,2,0.02
revision_dfm_kalman_em,pseudo,2020:Q2:pre_advance:pseudo,2020-07-31,pre_advance,A,2020:Q2,-20.433681694008257,2.1451404793971665,1.4646298096779153,model_implied_state_space,-32.9038,12.47011830599174,False,True,29,-1897.3295802389944,-3086.1692793346256,-1897.3295802389944,0.1702256702944851,8.966325398856457e-05,29.0,14,2,0.02
indicator_revision_only_dfm_kalman_em,pseudo,2020:Q2:pre_advance:pseudo,2020-07-31,pre_advance,A,2020:Q2,-25.65616923810564,2.8224776128716096,1.680023098910134,model_implied_state_space,-32.9038,7.2476307618943565,False,True,37,-3409.1875070892056,-5003.862827713946,-3409.1875070892056,0.2782895213595111,8.159868415513345e-05,37.0,14,2,0.02
joint_indicator_revision_dfm_full_kalman_em,pseudo,2020:Q2:pre_advance:pseudo,2020-07-31,pre_advance,A,2020:Q2,-26.179054443530987,1.867369073076551,1.3665171323757894,model_implied_state_space,-32.9038,6.72474555646901,False,True,38,-3368.1627525129875,-5018.797297561836,-3368.1627525129875,0.30245763683160476,8.976428541850306e-05,38.0,14,2,0.02
ar,pseudo,2020:Q2:pre_second:pseudo,2020-08-31,pre_second,S,2020:Q2,-0.9346260921233107,,,not_available,-31.7041,30.76947390787669,False,True,0,,,,,,,14,2,0.02
no_revision,pseudo,2020:Q2:pre_second:pseudo,2020-08-31,pre_second,S,2020:Q2,-32.9038,,,not_available,-31.7041,-1.1996999999999964,False,True,0,,,,,,,14,2,0.02
bridge,pseudo,2020:Q2:pre_second:pseudo,2020-08-31,pre_second,S,2020:Q2,-11.717629878838661,,,not_available,-31.7041,19.98647012116134,False,True,0,,,,,,,14,2,0.02
midas_umidas,pseudo,2020:Q2:pre_second:pseudo,2020-08-31,pre_second,S,2020:Q2,-3.5709717284978524,,,not_available,-31.7041,28.133128271502148,False,True,0,,,,,,,14,2,0.02
monthly_mixed_frequency_kalman_em,pseudo,2020:Q2:pre_second:pseudo,2020-08-31,pre_second,S,2020:Q2,-33.665856850705055,0.34295872981940945,0.5856267837278358,model_implied_state_space,-31.7041,-1.9617568507050542,False,True,30,-5794.179609483348,-7595.112622176762,-5794.179609483348,0.5378628933985965,9.280350465013715e-05,30.0,14,2,0.02
standard_dfm,pseudo,2020:Q2:pre_second:pseudo,2020-08-31,pre_second,S,2020:Q2,-17.193668211540995,,,not_available,-31.7041,14.510431788459005,False,True,0,,,,,,,14,2,0.02
release_dfm,pseudo,2020:Q2:pre_second:pseudo,2020-08-31,pre_second,S,2020:Q2,-35.16420465364802,,,not_available,-31.7041,-3.4601046536480204,False,True,0,,,,,,,14,2,0.02
revision_dfm_kalman_em,pseudo,2020:Q2:pre_second:pseudo,2020-08-31,pre_second,S,2020:Q2,-34.71181452136156,0.38675507243162954,0.6218963518397816,model_implied_state_space,-31.7041,-3.00771452136156,False,True,25,-1848.5807999288156,-3095.048096136602,-1848.5807999288156,0.16149681694560059,8.730773861295209e-05,25.0,14,2,0.02
indicator_revision_only_dfm_kalman_em,pseudo,2020:Q2:pre_second:pseudo,2020-08-31,pre_second,S,2020:Q2,-32.780218947996914,0.36580358285580084,0.6048169829426095,model_implied_state_space,-31.7041,-1.076118947996914,False,True,42,-3347.022384522298,-5000.38371805466,-3347.022384522298,0.328421894895655,9.80846732863912e-05,42.0,14,2,0.02
joint_indicator_revision_dfm_full_kalman_em,pseudo,2020:Q2:pre_second:pseudo,2020-08-31,pre_second,S,2020:Q2,-33.20858950931715,0.34848461126532787,0.5903258517677571,model_implied_state_space,-31.7041,-1.5044895093171498,False,True,45,-3307.7447512070926,-5008.499029987163,-3307.7447512070926,0.2849549904954074,8.6114364570891e-05,45.0,14,2,0.02
ar,pseudo,2020:Q2:pre_third:pseudo,2020-09-30,pre_third,T,2020:Q2,-0.7119618796649088,,,not_available,-31.3827,30.67073812033509,False,True,0,,,,,,,14,2,0.02
no_revision,pseudo,2020:Q2:pre_third:pseudo,2020-09-30,pre_third,T,2020:Q2,-31.7041,,,not_available,-31.3827,-0.3214000000000006,False,True,0,,,,,,,14,2,0.02
bridge,pseudo,2020:Q2:pre_third:pseudo,2020-09-30,pre_third,T,2020:Q2,-11.706443047869818,,,not_available,-31.3827,19.67625695213018,False,True,0,,,,,,,14,2,0.02
midas_umidas,pseudo,2020:Q2:pre_third:pseudo,2020-09-30,pre_third,T,2020:Q2,-62.55032037882182,,,not_available,-31.3827,-31.167620378821823,False,True,0,,,,,,,14,2,0.02
monthly_mixed_frequency_kalman_em,pseudo,2020:Q2:pre_third:pseudo,2020-09-30,pre_third,T,2020:Q2,-31.98292276889753,0.14698826089382985,0.3833904809640295,model_implied_state_space,-31.3827,-0.600222768897531,False,True,30,-5763.283163787264,-7611.521640025797,-5763.283163787264,0.5381468727000538,9.335013935383299e-05,30.0,14,2,0.02
standard_dfm,pseudo,2020:Q2:pre_third:pseudo,2020-09-30,pre_third,T,2020:Q2,-17.276938736761693,,,not_available,-31.3827,14.105761263238307,False,True,0,,,,,,,14,2,0.02
release_dfm,pseudo,2020:Q2:pre_third:pseudo,2020-09-30,pre_third,T,2020:Q2,-32.88490959470745,,,not_available,-31.3827,-1.5022095947074519,False,True,0,,,,,,,14,2,0.02
revision_dfm_kalman_em,pseudo,2020:Q2:pre_third:pseudo,2020-09-30,pre_third,T,2020:Q2,-31.830176218141872,0.14440839569476574,0.3800110468062287,model_implied_state_space,-31.3827,-0.44747621814187255,False,True,24,-1808.8263014273953,-3099.849287938369,-1808.8263014273953,0.17061148127231718,9.426064765941744e-05,24.0,14,2,0.02
indicator_revision_only_dfm_kalman_em,pseudo,2020:Q2:pre_third:pseudo,2020-09-30,pre_third,T,2020:Q2,-31.755561264489565,0.14805795686471643,0.3847829997085584,model_implied_state_space,-31.3827,-0.3728612644895648,False,True,38,-3301.8624921195774,-5020.355052569304,-3301.8624921195774,0.31481904772590497,9.530794688543428e-05,38.0,14,2,0.02
joint_indicator_revision_dfm_full_kalman_em,pseudo,2020:Q2:pre_third:pseudo,2020-09-30,pre_third,T,2020:Q2,-31.722449922427053,0.14410479100097706,0.37961136837689285,model_implied_state_space,-31.3827,-0.33974992242705326,False,True,40,-3261.923695085176,-5029.912803870359,-3261.923695085176,0.28325967567980115,8.680407942454874e-05,40.0,14,2,0.02
ar,exact,2020:Q3:pre_advance:exact,2020-10-28,pre_advance,A,2020:Q3,-19.53626137751003,,,not_available,33.0826,-52.61886137751003,False,True,0,,,,,,,14,2,0.02
no_revision,exact,2020:Q3:pre_advance:exact,2020-10-28,pre_advance,A,2020:Q3,-20.080777742191426,,,not_available,33.0826,-53.16337774219143,False,True,0,,,,,,,14,2,0.02
bridge,exact,2020:Q3:pre_advance:exact,2020-10-28,pre_advance,A,2020:Q3,-0.47142845367528485,,,not_available,33.0826,-33.554028453675286,False,True,0,,,,,,,14,2,0.02
midas_umidas,exact,2020:Q3:pre_advance:exact,2020-10-28,pre_advance,A,2020:Q3,-29.778597368800916,,,not_available,33.0826,-62.861197368800916,False,True,0,,,,,,,14,2,0.02
monthly_mixed_frequency_kalman_em,exact,2020:Q3:pre_advance:exact,2020-10-28,pre_advance,A,2020:Q3,10.815794329781165,3.639724791901018,1.907806277351298,model_implied_state_space,33.0826,-22.266805670218837,False,True,30,-5768.034541426863,-7659.023192441736,-5768.034541426863,0.5548614852687024,9.617001254693144e-05,30.0,14,2,0.02
standard_dfm,exact,2020:Q3:pre_advance:exact,2020-10-28,pre_advance,A,2020:Q3,18.88190202791502,,,not_available,33.0826,-14.200697972084978,False,True,0,,,,,,,14,2,0.02
release_dfm,exact,2020:Q3:pre_advance:exact,2020-10-28,pre_advance,A,2020:Q3,18.88190202791502,,,not_available,33.0826,-14.200697972084978,False,True,0,,,,,,,14,2,0.02
revision_dfm_kalman_em,exact,2020:Q3:pre_advance:exact,2020-10-28,pre_advance,A,2020:Q3,11.322522137923745,2.721335051119063,1.6496469474160411,model_implied_state_space,33.0826,-21.760077862076255,False,True,28,-1763.127121855079,-3175.7445210718997,-1763.127121855079,0.1613140541987832,9.143292611088576e-05,28.0,14,2,0.02
indicator_revision_only_dfm_kalman_em,exact,2020:Q3:pre_advance:exact,2020-10-28,pre_advance,A,2020:Q3,9.97443161563822,2.9933254707323873,1.7301229640497773,model_implied_state_space,33.0826,-23.10816838436178,False,True,39,-3199.3870782503836,-5113.531538475422,-3199.3870782503836,0.2732074231844308,8.535970668531454e-05,39.0,14,2,0.02
joint_indicator_revision_dfm_full_kalman_em,exact,2020:Q3:pre_advance:exact,2020-10-28,pre_advance,A,2020:Q3,8.961300538836234,2.2030138619089783,1.4842553223448378,model_implied_state_space,33.0826,-24.121299461163765,False,True,40,-3167.003227108281,-5124.266590848008,-3167.003227108281,0.3136959968242081,9.901029614069376e-05,40.0,14,2,0.02
ar,exact,2020:Q3:pre_second:exact,2020-11-24,pre_second,S,2020:Q3,-16.980873036800336,,,not_available,33.0683,-50.04917303680034,False,True,0,,,,,,,14,2,0.02
no_revision,exact,2020:Q3:pre_second:exact,2020-11-24,pre_second,S,2020:Q3,33.0826,,,not_available,33.0683,0.014299999999998647,False,True,0,,,,,,,14,2,0.02
bridge,exact,2020:Q3:pre_second:exact,2020-11-24,pre_second,S,2020:Q3,2.7510477231713444,,,not_available,33.0683,-30.317252276828658,False,True,0,,,,,,,14,2,0.02
midas_umidas,exact,2020:Q3:pre_second:exact,2020-11-24,pre_second,S,2020:Q3,8.800212665578378,,,not_available,33.0683,-24.268087334421622,False,True,0,,,,,,,14,2,0.02
monthly_mixed_frequency_kalman_em,exact,2020:Q3:pre_second:exact,2020-11-24,pre_second,S,2020:Q3,33.550250756515915,0.35793197322276527,0.5982741622557047,model_implied_state_space,33.0683,0.48195075651591424,False,True,37,-5751.403105536458,-7656.96332378251,-5751.403105536458,0.5543315071199686,9.635592009608843e-05,37.0,14,2,0.02
standard_dfm,exact,2020:Q3:pre_second:exact,2020-11-24,pre_second,S,2020:Q3,19.833129890307784,,,not_available,33.0683,-13.235170109692216,False,True,0,,,,,,,14,2,0.02
release_dfm,exact,2020:Q3:pre_second:exact,2020-11-24,pre_second,S,2020:Q3,33.5551410655814,,,not_available,33.0683,0.4868410655814017,False,True,0,,,,,,,14,2,0.02
revision_dfm_kalman_em,exact,2020:Q3:pre_second:exact,2020-11-24,pre_second,S,2020:Q3,34.529347211045604,0.4005510662253677,0.6328910381932799,model_implied_state_space,33.0683,1.461047211045603,False,True,26,-1735.1510350532392,-3188.4420446597446,-1735.1510350532392,0.16745340862826197,9.644164347786333e-05,26.0,14,2,0.02
indicator_revision_only_dfm_kalman_em,exact,2020:Q3:pre_second:exact,2020-11-24,pre_second,S,2020:Q3,32.83109132287233,0.3686354297560377,0.6071535470999389,model_implied_state_space,33.0683,-0.23720867712766847,False,True,39,-3169.6863866862514,-5129.401490511552,-3169.6863866862514,0.28772031809876353,9.073562520211674e-05,39.0,14,2,0.02
joint_indicator_revision_dfm_full_kalman_em,exact,2020:Q3:pre_second:exact,2020-11-24,pre_second,S,2020:Q3,34.06639234613672,0.34779115461265236,0.5897382085405798,model_implied_state_space,33.0683,0.9980923461367226,False,True,40,-3135.693850005652,-5142.610399800349,-3135.693850005652,0.30174787494615884,9.619008555511658e-05,40.0,14,2,0.02
ar,exact,2020:Q3:pre_third:exact,2020-12-21,pre_third,T,2020:Q3,-15.911115669469648,,,not_available,33.441,-49.352115669469654,False,True,0,,,,,,,14,2,0.02
no_revision,exact,2020:Q3:pre_third:exact,2020-12-21,pre_third,T,2020:Q3,33.0683,,,not_available,33.441,-0.3727000000000018,False,True,0,,,,,,,14,2,0.02
bridge,exact,2020:Q3:pre_third:exact,2020-12-21,pre_third,T,2020:Q3,4.160750997856098,,,not_available,33.441,-29.280249002143904,False,True,0,,,,,,,14,2,0.02
midas_umidas,exact,2020:Q3:pre_third:exact,2020-12-21,pre_third,T,2020:Q3,74.0258756987586,,,not_available,33.441,40.584875698758594,False,True,0,,,,,,,14,2,0.02
monthly_mixed_frequency_kalman_em,exact,2020:Q3:pre_third:exact,2020-12-21,pre_third,T,2020:Q3,33.53328153227935,0.14540948018133482,0.3813259500497374,model_implied_state_space,33.441,0.09228153227934399,False,True,33,-5738.80839494275,-7680.297825146089,-5738.80839494275,0.5482886126919766,9.551472894753632e-05,33.0,14,2,0.02
standard_dfm,exact,2020:Q3:pre_third:exact,2020-12-21,pre_third,T,2020:Q3,20.128692846342442,,,not_available,33.441,-13.31230715365756,False,True,0,,,,,,,14,2,0.02
release_dfm,exact,2020:Q3:pre_third:exact,2020-12-21,pre_third,T,2020:Q3,33.381430367698066,,,not_available,33.441,-0.05956963230193679,False,True,0,,,,,,,14,2,0.02
revision_dfm_kalman_em,exact,2020:Q3:pre_third:exact,2020-12-21,pre_third,T,2020:Q3,33.12843068287175,0.14528287847067786,0.38115991194074683,model_implied_state_space,33.441,-0.31256931712825065,False,True,25,-1705.9085147525352,-3206.54017038526,-1705.9085147525352,0.1586732609050614,9.295080007349547e-05,25.0,14,2,0.02
indicator_revision_only_dfm_kalman_em,exact,2020:Q3:pre_third:exact,2020-12-21,pre_third,T,2020:Q3,33.05749709667508,0.1476203247123395,0.3842139048919748,model_implied_state_space,33.441,-0.3835029033249242,False,True,38,-3141.1350555991908,-5128.6410927860115,-3141.1350555991908,0.2991128429989658,9.518507849831778e-05,38.0,14,2,0.02
joint_indicator_revision_dfm_full_kalman_em,exact,2020:Q3:pre_third:exact,2020-12-21,pre_third,T,2020:Q3,33.087558742891595,0.143757222342007,0.3791532966255298,model_implied_state_space,33.441,-0.35344125710840757,False,True,39,-3107.6416899629844,-5135.689380554153,-3107.6416899629844,0.3045949264396768,9.797368578547517e-05,39.0,14,2,0.02
ar,pseudo,2020:Q3:pre_advance:pseudo,2020-10-31,pre_advance,A,2020:Q3,-19.53626137751003,,,not_available,33.0826,-52.61886137751003,False,True,0,,,,,,,14,2,0.02
no_revision,pseudo,2020:Q3:pre_advance:pseudo,2020-10-31,pre_advance,A,2020:Q3,-20.080777742191426,,,not_available,33.0826,-53.16337774219143,False,True,0,,,,,,,14,2,0.02
bridge,pseudo,2020:Q3:pre_advance:pseudo,2020-10-31,pre_advance,A,2020:Q3,-0.16082314518756657,,,not_available,33.0826,-33.24342314518756,False,True,0,,,,,,,14,2,0.02
midas_umidas,pseudo,2020:Q3:pre_advance:pseudo,2020-10-31,pre_advance,A,2020:Q3,-29.6874130831427,,,not_available,33.0826,-62.7700130831427,False,True,0,,,,,,,14,2,0.02
monthly_mixed_frequency_kalman_em,pseudo,2020:Q3:pre_advance:pseudo,2020-10-31,pre_advance,A,2020:Q3,10.809311286514113,3.642176955793251,1.9084488349948632,model_implied_state_space,33.0826,-22.273288713485886,False,True,30,-5768.210513924089,-7659.314173156125,-5768.210513924089,0.5545354391269939,9.611057545370856e-05,30.0,14,2,0.02
standard_dfm,pseudo,2020:Q3:pre_advance:pseudo,2020-10-31,pre_advance,A,2020:Q3,19.28951008955901,,,not_available,33.0826,-13.79308991044099,False,True,0,,,,,,,14,2,0.02
release_dfm,pseudo,2020:Q3:pre_advance:pseudo,2020-10-31,pre_advance,A,2020:Q3,19.28951008955901,,,not_available,33.0826,-13.79308991044099,False,True,0,,,,,,,14,2,0.02
revision_dfm_kalman_em,pseudo,2020:Q3:pre_advance:pseudo,2020-10-31,pre_advance,A,2020:Q3,11.410657149369726,2.719984672179861,1.6492376033124703,model_implied_state_space,33.0826,-21.671942850630273,False,True,28,-1758.721391469188,-3174.038158937917,-1758.721391469188,0.16295086390869074,9.259180276168895e-05,28.0,14,2,0.02
indicator_revision_only_dfm_kalman_em,pseudo,2020:Q3:pre_advance:pseudo,2020-10-31,pre_advance,A,2020:Q3,9.928516723140403,2.9904443289175258,1.7292901228300375,model_implied_state_space,33.0826,-23.154083276859595,False,True,39,-3194.013314092279,-5110.732892768925,-3194.013314092279,0.26835290119015554,8.398411444042e-05,39.0,14,2,0.02
joint_indicator_revision_dfm_full_kalman_em,pseudo,2020:Q3:pre_advance:pseudo,2020-10-31,pre_advance,A,2020:Q3,8.912317848485884,2.2016562368929438,1.4837979097211802,model_implied_state_space,33.0826,-24.170282151514115,False,True,40,-3161.5728762679732,-5121.455242918384,-3161.5728762679732,0.3098437706103141,9.796245957755094e-05,40.0,14,2,0.02
ar,pseudo,2020:Q3:pre_second:pseudo,2020-11-30,pre_second,S,2020:Q3,-16.980873036800336,,,not_available,33.0683,-50.04917303680034,False,True,0,,,,,,,14,2,0.02
no_revision,pseudo,2020:Q3:pre_second:pseudo,2020-11-30,pre_second,S,2020:Q3,33.0826,,,not_available,33.0683,0.014299999999998647,False,True,0,,,,,,,14,2,0.02
bridge,pseudo,2020:Q3:pre_second:pseudo,2020-11-30,pre_second,S,2020:Q3,2.6749579371403445,,,not_available,33.0683,-30.393342062859656,False,True,0,,,,,,,14,2,0.02
midas_umidas,pseudo,2020:Q3:pre_second:pseudo,2020-11-30,pre_second,S,2020:Q3,8.75957808006508,,,not_available,33.0683,-24.30872191993492,False,True,0,,,,,,,14,2,0.02
monthly_mixed_frequency_kalman_em,pseudo,2020:Q3:pre_second:pseudo,2020-11-30,pre_second,S,2020:Q3,33.549794256355,0.35792817807266797,0.5982709904990112,model_implied_state_space,33.0683,0.4814942563549991,False,True,37,-5754.894766050502,-7659.926374435473,-5754.894766050502,0.5539771611884134,9.623592355298789e-05,37.0,14,2,0.02
standard_dfm,pseudo,2020:Q3:pre_second:pseudo,2020-11-30,pre_second,S,2020:Q3,19.937054667069408,,,not_available,33.0683,-13.131245332930593,False,True,0,,,,,,,14,2,0.02
release_dfm,pseudo,2020:Q3:pre_second:pseudo,2020-11-30,pre_second,S,2020:Q3,33.55458278971348,,,not_available,33.0683,0.4862827897134778,False,True,0,,,,,,,14,2,0.02
revision_dfm_kalman_em,pseudo,2020:Q3:pre_second:pseudo,2020-11-30,pre_second,S,2020:Q3,34.53189760042235,0.40051245006983444,0.6328605297139603,model_implied_state_space,33.0683,1.4635976004223465,False,True,26,-1736.1810800500225,-3188.7261993737566,-1736.1810800500225,0.16682272086700323,9.60214822839676e-05,26.0,14,2,0.02
indicator_revision_only_dfm_kalman_em,pseudo,2020:Q3:pre_second:pseudo,2020-11-30,pre_second,S,2020:Q3,32.8308758445341,0.36841714448804946,0.6069737593076404,model_implied_state_space,33.0683,-0.23742415546590223,False,True,40,-3171.1033289002917,-5129.344673392625,-3171.1033289002917,0.25279843539328795,7.968791183781805e-05,40.0,14,2,0.02
joint_indicator_revision_dfm_full_kalman_em,pseudo,2020:Q3:pre_second:pseudo,2020-11-30,pre_second,S,2020:Q3,34.07908876059067,0.34761848222080854,0.5895917928709732,model_implied_state_space,33.0683,1.0107887605906711,False,True,41,-3137.1130350643803,-5142.545952279894,-3137.1130350643803,0.2673300299861694,8.518088914889422e-05,41.0,14,2,0.02
ar,pseudo,2020:Q3:pre_third:pseudo,2020-12-31,pre_third,T,2020:Q3,-15.911115669469648,,,not_available,33.441,-49.352115669469654,False,True,0,,,,,,,14,2,0.02
no_revision,pseudo,2020:Q3:pre_third:pseudo,2020-12-31,pre_third,T,2020:Q3,33.0683,,,not_available,33.441,-0.3727000000000018,False,True,0,,,,,,,14,2,0.02
bridge,pseudo,2020:Q3:pre_third:pseudo,2020-12-31,pre_third,T,2020:Q3,4.14745085722406,,,not_available,33.441,-29.293549142775944,False,True,0,,,,,,,14,2,0.02
midas_umidas,pseudo,2020:Q3:pre_third:pseudo,2020-12-31,pre_third,T,2020:Q3,74.01504204633113,,,not_available,33.441,40.57404204633113,False,True,0,,,,,,,14,2,0.02
monthly_mixed_frequency_kalman_em,pseudo,2020:Q3:pre_third:pseudo,2020-12-31,pre_third,T,2020:Q3,33.533204972727944,0.14540422258922267,0.38131905615799305,model_implied_state_space,33.441,0.09220497272794148,False,True,33,-5741.948543437359,-7683.204442651881,-5741.948543437359,0.5491872741831685,9.56189590267552e-05,33.0,14,2,0.02
standard_dfm,pseudo,2020:Q3:pre_third:pseudo,2020-12-31,pre_third,T,2020:Q3,20.115730575511265,,,not_available,33.441,-13.325269424488738,False,True,0,,,,,,,14,2,0.02
release_dfm,pseudo,2020:Q3:pre_third:pseudo,2020-12-31,pre_third,T,2020:Q3,33.381575730604204,,,not_available,33.441,-0.059424269395798035,False,True,0,,,,,,,14,2,0.02
revision_dfm_kalman_em,pseudo,2020:Q3:pre_third:pseudo,2020-12-31,pre_third,T,2020:Q3,33.1284339687939,0.1452828506985565,0.3811598755096823,model_implied_state_space,33.441,-0.31256603120610293,False,True,25,-1706.0389677881483,-3206.583857284988,-1706.0389677881483,0.15866346351413085,9.29379590327828e-05,25.0,14,2,0.02
indicator_revision_only_dfm_kalman_em,pseudo,2020:Q3:pre_third:pseudo,2020-12-31,pre_third,T,2020:Q3,33.05749788371029,0.14762029756799075,0.38421386956744646,model_implied_state_space,33.441,-0.3835021162897121,False,True,38,-3141.2197074257742,-5128.680599407248,-3141.2197074257742,0.29889024511658135,9.511168695647715e-05,38.0,14,2,0.02
joint_indicator_revision_dfm_full_kalman_em,pseudo,2020:Q3:pre_third:pseudo,2020-12-31,pre_third,T,2020:Q3,33.08755700308678,0.14375723318829,0.3791533109288247,model_implied_state_space,33.441,-0.35344299691322334,False,True,39,-3107.72636954202,-5135.729206412821,-3107.72636954202,0.30442678421104574,9.79169407298152e-05,39.0,14,2,0.02
ar,exact,2020:Q4:pre_advance:exact,2021-01-27,pre_advance,A,2020:Q4,3.457490434452062,,,not_available,4.0124,-0.5549095655479386,False,True,0,,,,,,,14,2,0.02
no_revision,exact,2020:Q4:pre_advance:exact,2021-01-27,pre_advance,A,2020:Q4,-2.3881056978927964,,,not_available,4.0124,-6.400505697892797,False,True,0,,,,,,,14,2,0.02
bridge,exact,2020:Q4:pre_advance:exact,2021-01-27,pre_advance,A,2020:Q4,9.066557621801813,,,not_available,4.0124,5.054157621801813,False,True,0,,,,,,,14,2,0.02
midas_umidas,exact,2020:Q4:pre_advance:exact,2021-01-27,pre_advance,A,2020:Q4,0.8259064302255368,,,not_available,4.0124,-3.1864935697744636,False,True,0,,,,,,,14,2,0.02
monthly_mixed_frequency_kalman_em,exact,2020:Q4:pre_advance:exact,2021-01-27,pre_advance,A,2020:Q4,1.6030423056758234,3.5461121443761545,1.8831123557494265,model_implied_state_space,4.0124,-2.409357694324177,False,True,32,-5735.998194739421,-7705.548388301524,-5735.998194739421,0.5496989707180546,9.580729972130939e-05,32.0,14,2,0.02
standard_dfm,exact,2020:Q4:pre_advance:exact,2021-01-27,pre_advance,A,2020:Q4,7.1854299729367686,,,not_available,4.0124,3.173029972936768,False,True,0,,,,,,,14,2,0.02
release_dfm,exact,2020:Q4:pre_advance:exact,2021-01-27,pre_advance,A,2020:Q4,7.1854299729367686,,,not_available,4.0124,3.173029972936768,False,True,0,,,,,,,14,2,0.02
revision_dfm_kalman_em,exact,2020:Q4:pre_advance:exact,2021-01-27,pre_advance,A,2020:Q4,2.6334641277969206,2.582810020022286,1.6071123233994211,model_implied_state_space,4.0124,-1.3789358722030798,False,True,29,-1693.6762116125522,-3213.3005576718083,-1693.6762116125522,0.15079341622322318,8.897274811871608e-05,29.0,14,2,0.02
