haminh109/Revision-Aware-DFM/outputs/full_state_space_release_revision_dfm/frozen/q2_manuscript_best_v1/initialization_audit/seed_2/revision_forecast_results.csv
model_id,timing_mode,forecast_origin,forecast_origin_date,checkpoint_id,target_id,revision_target_id,target_quarter,forecast_value,forecast_variance,forecast_sd,density_source,realized_value,forecast_error,revision_target_flag,converged,n_iter,loglikelihood,llf_initial,llf_final,llf_last_improvement,llf_relative_last_improvement,llf_history_length,n_indicators,initialization_seed,initialization_jitter
ar,exact,2019:Q1:pre_advance:exact,2019-04-25,pre_advance,DELTA_SA,DELTA_SA,2019:Q1,0.4648889202031996,,,not_available,-0.10470000000000024,0.5695889202031998,True,True,0,,,,,,,14,2,0.02
no_revision,exact,2019:Q1:pre_advance:exact,2019-04-25,pre_advance,DELTA_SA,DELTA_SA,2019:Q1,0.0,,,not_available,-0.10470000000000024,0.10470000000000024,True,True,0,,,,,,,14,2,0.02
bridge,exact,2019:Q1:pre_advance:exact,2019-04-25,pre_advance,DELTA_SA,DELTA_SA,2019:Q1,-0.8963490410084507,,,not_available,-0.10470000000000024,-0.7916490410084505,True,True,0,,,,,,,14,2,0.02
midas_umidas,exact,2019:Q1:pre_advance:exact,2019-04-25,pre_advance,DELTA_SA,DELTA_SA,2019:Q1,-0.277062365539126,,,not_available,-0.10470000000000024,-0.17236236553912576,True,True,0,,,,,,,14,2,0.02
monthly_mixed_frequency_kalman_em,exact,2019:Q1:pre_advance:exact,2019-04-25,pre_advance,DELTA_SA,DELTA_SA,2019:Q1,0.0722382020011556,0.3496579782164604,0.5913188464918571,model_implied_state_space,-0.10470000000000024,0.17693820200115584,True,True,54,-6285.22325928218,-7334.434583170255,-6285.22325928218,0.6243558635778754,9.931143584166545e-05,54.0,14,2,0.02
standard_dfm,exact,2019:Q1:pre_advance:exact,2019-04-25,pre_advance,DELTA_SA,DELTA_SA,2019:Q1,0.03229029921893689,,,not_available,-0.10470000000000024,0.13699029921893713,True,True,0,,,,,,,14,2,0.02
release_dfm,exact,2019:Q1:pre_advance:exact,2019-04-25,pre_advance,DELTA_SA,DELTA_SA,2019:Q1,0.03229029921893689,,,not_available,-0.10470000000000024,0.13699029921893713,True,True,0,,,,,,,14,2,0.02
revision_dfm_kalman_em,exact,2019:Q1:pre_advance:exact,2019-04-25,pre_advance,DELTA_SA,DELTA_SA,2019:Q1,0.07925731316948559,0.41195015253828693,0.6418334305240628,model_implied_state_space,-0.10470000000000024,0.18395731316948583,True,True,21,-1989.6558391993162,-2962.899755748499,-1989.6558391993162,0.18183084947941097,9.133384012919259e-05,21.0,14,2,0.02
indicator_revision_only_dfm_kalman_em,exact,2019:Q1:pre_advance:exact,2019-04-25,pre_advance,DELTA_SA,DELTA_SA,2019:Q1,0.0,0.4383554372251721,0.6620841617386509,model_implied_state_space,-0.10470000000000024,0.10470000000000024,True,True,25,-3681.9401188973734,-4844.278444639991,-3681.9401188973734,0.34922397528725924,9.481307135509844e-05,25.0,14,2,0.02
joint_indicator_revision_dfm_full_kalman_em,exact,2019:Q1:pre_advance:exact,2019-04-25,pre_advance,DELTA_SA,DELTA_SA,2019:Q1,0.036503512850009745,0.3955830611540829,0.6289539419974113,model_implied_state_space,-0.10470000000000024,0.14120351285000998,True,True,26,-3646.5894971834055,-4859.630594484298,-3646.5894971834055,0.34455881896519713,9.445313804350558e-05,26.0,14,2,0.02
ar,exact,2019:Q1:pre_second:exact,2019-05-29,pre_second,DELTA_TS,DELTA_TS,2019:Q1,-0.5635001866146694,,,not_available,0.06099999999999994,-0.6245001866146693,True,True,0,,,,,,,14,2,0.02
no_revision,exact,2019:Q1:pre_second:exact,2019-05-29,pre_second,DELTA_TS,DELTA_TS,2019:Q1,0.0,,,not_available,0.06099999999999994,-0.06099999999999994,True,True,0,,,,,,,14,2,0.02
bridge,exact,2019:Q1:pre_second:exact,2019-05-29,pre_second,DELTA_TS,DELTA_TS,2019:Q1,0.8923743808409088,,,not_available,0.06099999999999994,0.8313743808409089,True,True,0,,,,,,,14,2,0.02
midas_umidas,exact,2019:Q1:pre_second:exact,2019-05-29,pre_second,DELTA_TS,DELTA_TS,2019:Q1,0.1692563726873546,,,not_available,0.06099999999999994,0.10825637268735466,True,True,0,,,,,,,14,2,0.02
monthly_mixed_frequency_kalman_em,exact,2019:Q1:pre_second:exact,2019-05-29,pre_second,DELTA_TS,DELTA_TS,2019:Q1,0.22826322812823108,0.1448815061963019,0.38063303350642325,model_implied_state_space,0.06099999999999994,0.16726322812823113,True,True,50,-6312.701696013429,-7328.980019682591,-6312.701696013429,0.6195132228340299,9.811240231615679e-05,50.0,14,2,0.02
standard_dfm,exact,2019:Q1:pre_second:exact,2019-05-29,pre_second,DELTA_TS,DELTA_TS,2019:Q1,0.05165552868850387,,,not_available,0.06099999999999994,-0.009344471311496072,True,True,0,,,,,,,14,2,0.02
release_dfm,exact,2019:Q1:pre_second:exact,2019-05-29,pre_second,DELTA_TS,DELTA_TS,2019:Q1,0.04575425000561806,,,not_available,0.06099999999999994,-0.015245749994381885,True,True,0,,,,,,,14,2,0.02
revision_dfm_kalman_em,exact,2019:Q1:pre_second:exact,2019-05-29,pre_second,DELTA_TS,DELTA_TS,2019:Q1,0.008339242257501045,0.14953085681245526,0.38669219905818536,model_implied_state_space,0.06099999999999994,-0.0526607577424989,True,True,21,-1990.4721709899384,-2964.0297319650917,-1990.4721709899384,0.18616270742154484,9.347120651760995e-05,21.0,14,2,0.02
indicator_revision_only_dfm_kalman_em,exact,2019:Q1:pre_second:exact,2019-05-29,pre_second,DELTA_TS,DELTA_TS,2019:Q1,0.0,0.1539493314562258,0.39236377439338843,model_implied_state_space,0.06099999999999994,-0.06099999999999994,True,True,25,-3683.1409945917894,-4845.50410969005,-3683.1409945917894,0.3503363361874108,9.508404409766245e-05,25.0,14,2,0.02
joint_indicator_revision_dfm_full_kalman_em,exact,2019:Q1:pre_second:exact,2019-05-29,pre_second,DELTA_TS,DELTA_TS,2019:Q1,0.00619091790833437,0.148651992729803,0.3855541372230403,model_implied_state_space,0.06099999999999994,-0.05480908209166557,True,True,26,-3647.760390271754,-4860.961414542916,-3647.760390271754,0.3453522306049308,9.464023653315866e-05,26.0,14,2,0.02
ar,exact,2019:Q1:pre_third:exact,2019-06-26,pre_third,DELTA_MT,DELTA_MT,2019:Q1,0.29507328704170277,,,not_available,-0.6073999999999997,0.9024732870417025,True,True,0,,,,,,,14,2,0.02
no_revision,exact,2019:Q1:pre_third:exact,2019-06-26,pre_third,DELTA_MT,DELTA_MT,2019:Q1,0.0,,,not_available,-0.6073999999999997,0.6073999999999997,True,True,0,,,,,,,14,2,0.02
bridge,exact,2019:Q1:pre_third:exact,2019-06-26,pre_third,DELTA_MT,DELTA_MT,2019:Q1,-0.2460835305255178,,,not_available,-0.6073999999999997,0.3613164694744819,True,True,0,,,,,,,14,2,0.02
midas_umidas,exact,2019:Q1:pre_third:exact,2019-06-26,pre_third,DELTA_MT,DELTA_MT,2019:Q1,-0.12965189226681062,,,not_available,-0.6073999999999997,0.4777481077331891,True,True,0,,,,,,,14,2,0.02
monthly_mixed_frequency_kalman_em,exact,2019:Q1:pre_third:exact,2019-06-26,pre_third,DELTA_MT,DELTA_MT,2019:Q1,0.14522074281064423,4.4784901265845125,2.1162443447259376,model_implied_state_space,-0.6073999999999997,0.752620742810644,True,True,52,-6328.886922084899,-7349.5487198973715,-6328.886922084899,0.6279233508239486,9.918993417678798e-05,52.0,14,2,0.02
standard_dfm,exact,2019:Q1:pre_third:exact,2019-06-26,pre_third,DELTA_MT,DELTA_MT,2019:Q1,0.2069325298377389,,,not_available,-0.6073999999999997,0.8143325298377386,True,True,0,,,,,,,14,2,0.02
release_dfm,exact,2019:Q1:pre_third:exact,2019-06-26,pre_third,DELTA_MT,DELTA_MT,2019:Q1,-0.05832211075326654,,,not_available,-0.6073999999999997,0.5490778892467332,True,True,0,,,,,,,14,2,0.02
revision_dfm_kalman_em,exact,2019:Q1:pre_third:exact,2019-06-26,pre_third,DELTA_MT,DELTA_MT,2019:Q1,0.0024258718715906014,4.364024250486912,2.0890247127516015,model_implied_state_space,-0.6073999999999997,0.6098258718715903,True,True,23,-1989.4516613995215,-2981.5897061627256,-1989.4516613995215,0.18196128276167656,9.140872568830244e-05,23.0,14,2,0.02
indicator_revision_only_dfm_kalman_em,exact,2019:Q1:pre_third:exact,2019-06-26,pre_third,DELTA_MT,DELTA_MT,2019:Q1,0.0,4.361054841760642,2.0883138752976387,model_implied_state_space,-0.6073999999999997,0.6073999999999997,True,True,25,-3681.8428608695367,-4846.09950983836,-3681.8428608695367,0.3518673622984352,9.553319557105079e-05,25.0,14,2,0.02
joint_indicator_revision_dfm_full_kalman_em,exact,2019:Q1:pre_third:exact,2019-06-26,pre_third,DELTA_MT,DELTA_MT,2019:Q1,0.001460151374670815,4.372519745101666,2.091057087958544,model_implied_state_space,-0.6073999999999997,0.6088601513746705,True,True,26,-3646.5140606271007,-4861.525518649085,-3646.5140606271007,0.34791597307412303,9.53753117047434e-05,26.0,14,2,0.02
ar,pseudo,2019:Q1:pre_advance:pseudo,2019-04-30,pre_advance,DELTA_SA,DELTA_SA,2019:Q1,0.4648889202031996,,,not_available,-0.10470000000000024,0.5695889202031998,True,True,0,,,,,,,14,2,0.02
no_revision,pseudo,2019:Q1:pre_advance:pseudo,2019-04-30,pre_advance,DELTA_SA,DELTA_SA,2019:Q1,0.0,,,not_available,-0.10470000000000024,0.10470000000000024,True,True,0,,,,,,,14,2,0.02
bridge,pseudo,2019:Q1:pre_advance:pseudo,2019-04-30,pre_advance,DELTA_SA,DELTA_SA,2019:Q1,-0.8963928945664441,,,not_available,-0.10470000000000024,-0.7916928945664439,True,True,0,,,,,,,14,2,0.02
midas_umidas,pseudo,2019:Q1:pre_advance:pseudo,2019-04-30,pre_advance,DELTA_SA,DELTA_SA,2019:Q1,-0.3550490427156605,,,not_available,-0.10470000000000024,-0.2503490427156603,True,True,0,,,,,,,14,2,0.02
monthly_mixed_frequency_kalman_em,pseudo,2019:Q1:pre_advance:pseudo,2019-04-30,pre_advance,DELTA_SA,DELTA_SA,2019:Q1,0.07017223175006237,0.3495530576467809,0.5912301224115538,model_implied_state_space,-0.10470000000000024,0.1748722317500626,True,True,54,-6287.947680874189,-7337.221342752908,-6287.947680874189,0.6241217620436146,9.923120072848489e-05,54.0,14,2,0.02
standard_dfm,pseudo,2019:Q1:pre_advance:pseudo,2019-04-30,pre_advance,DELTA_SA,DELTA_SA,2019:Q1,0.032216263021888736,,,not_available,-0.10470000000000024,0.13691626302188897,True,True,0,,,,,,,14,2,0.02
release_dfm,pseudo,2019:Q1:pre_advance:pseudo,2019-04-30,pre_advance,DELTA_SA,DELTA_SA,2019:Q1,0.032216263021888736,,,not_available,-0.10470000000000024,0.13691626302188897,True,True,0,,,,,,,14,2,0.02
revision_dfm_kalman_em,pseudo,2019:Q1:pre_advance:pseudo,2019-04-30,pre_advance,DELTA_SA,DELTA_SA,2019:Q1,0.07922300029598572,0.4119503037613832,0.6418335483296141,model_implied_state_space,-0.10470000000000024,0.18392300029598596,True,True,21,-1989.6548162133251,-2962.899862584508,-1989.6548162133251,0.18182958734905696,9.133325314891859e-05,21.0,14,2,0.02
indicator_revision_only_dfm_kalman_em,pseudo,2019:Q1:pre_advance:pseudo,2019-04-30,pre_advance,DELTA_SA,DELTA_SA,2019:Q1,0.0,0.43835551028531494,0.662084216913011,model_implied_state_space,-0.10470000000000024,0.10470000000000024,True,True,25,-3681.9402464050586,-4844.277742078632,-3681.9402464050586,0.3492191531104254,9.48117589931272e-05,25.0,14,2,0.02
joint_indicator_revision_dfm_full_kalman_em,pseudo,2019:Q1:pre_advance:pseudo,2019-04-30,pre_advance,DELTA_SA,DELTA_SA,2019:Q1,0.03658072680485325,0.3955826077987732,0.628953581593088,model_implied_state_space,-0.10470000000000024,0.14128072680485348,True,True,26,-3646.5894995380127,-4859.6298792728585,-3646.5894995380127,0.34455710620659374,9.445266851220337e-05,26.0,14,2,0.02
ar,pseudo,2019:Q1:pre_second:pseudo,2019-05-31,pre_second,DELTA_TS,DELTA_TS,2019:Q1,-0.5635001866146694,,,not_available,0.06099999999999994,-0.6245001866146693,True,True,0,,,,,,,14,2,0.02
no_revision,pseudo,2019:Q1:pre_second:pseudo,2019-05-31,pre_second,DELTA_TS,DELTA_TS,2019:Q1,0.0,,,not_available,0.06099999999999994,-0.06099999999999994,True,True,0,,,,,,,14,2,0.02
bridge,pseudo,2019:Q1:pre_second:pseudo,2019-05-31,pre_second,DELTA_TS,DELTA_TS,2019:Q1,0.8891871677354084,,,not_available,0.06099999999999994,0.8281871677354085,True,True,0,,,,,,,14,2,0.02
midas_umidas,pseudo,2019:Q1:pre_second:pseudo,2019-05-31,pre_second,DELTA_TS,DELTA_TS,2019:Q1,0.15850275294399863,,,not_available,0.06099999999999994,0.09750275294399868,True,True,0,,,,,,,14,2,0.02
monthly_mixed_frequency_kalman_em,pseudo,2019:Q1:pre_second:pseudo,2019-05-31,pre_second,DELTA_TS,DELTA_TS,2019:Q1,0.22777825448362732,0.14489493338300918,0.38065067106601713,model_implied_state_space,0.06099999999999994,0.16677825448362738,True,True,50,-6314.183496918036,-7330.413930259353,-6314.183496918036,0.6163609765144429,9.759032749335954e-05,50.0,14,2,0.02
standard_dfm,pseudo,2019:Q1:pre_second:pseudo,2019-05-31,pre_second,DELTA_TS,DELTA_TS,2019:Q1,0.05169863222872828,,,not_available,0.06099999999999994,-0.009301367771271662,True,True,0,,,,,,,14,2,0.02
release_dfm,pseudo,2019:Q1:pre_second:pseudo,2019-05-31,pre_second,DELTA_TS,DELTA_TS,2019:Q1,0.045647170481801336,,,not_available,0.06099999999999994,-0.015352829518198607,True,True,0,,,,,,,14,2,0.02
revision_dfm_kalman_em,pseudo,2019:Q1:pre_second:pseudo,2019-05-31,pre_second,DELTA_TS,DELTA_TS,2019:Q1,0.008321422303811943,0.14953107314371528,0.386692478778312,model_implied_state_space,0.06099999999999994,-0.052678577696188,True,True,21,-1990.4808004519946,-2964.0219422668247,-1990.4808004519946,0.18612527746881824,9.345201000445816e-05,21.0,14,2,0.02
indicator_revision_only_dfm_kalman_em,pseudo,2019:Q1:pre_second:pseudo,2019-05-31,pre_second,DELTA_TS,DELTA_TS,2019:Q1,0.0,0.1539487811128888,0.3923630730750395,model_implied_state_space,0.06099999999999994,-0.06099999999999994,True,True,25,-3683.143773801433,-4845.49000875315,-3683.143773801433,0.3504118258106246,9.510445889086697e-05,25.0,14,2,0.02
joint_indicator_revision_dfm_full_kalman_em,pseudo,2019:Q1:pre_second:pseudo,2019-05-31,pre_second,DELTA_TS,DELTA_TS,2019:Q1,0.006171254053383368,0.14865225972478213,0.38555448347124965,model_implied_state_space,0.06099999999999994,-0.054828745946616575,True,True,26,-3647.763776257563,-4860.947147069669,-3647.763776257563,0.345425182249528,9.466013845604706e-05,26.0,14,2,0.02
ar,pseudo,2019:Q1:pre_third:pseudo,2019-06-30,pre_third,DELTA_MT,DELTA_MT,2019:Q1,0.29507328704170277,,,not_available,-0.6073999999999997,0.9024732870417025,True,True,0,,,,,,,14,2,0.02
no_revision,pseudo,2019:Q1:pre_third:pseudo,2019-06-30,pre_third,DELTA_MT,DELTA_MT,2019:Q1,0.0,,,not_available,-0.6073999999999997,0.6073999999999997,True,True,0,,,,,,,14,2,0.02
bridge,pseudo,2019:Q1:pre_third:pseudo,2019-06-30,pre_third,DELTA_MT,DELTA_MT,2019:Q1,-0.24458762674535617,,,not_available,-0.6073999999999997,0.36281237325464355,True,True,0,,,,,,,14,2,0.02
midas_umidas,pseudo,2019:Q1:pre_third:pseudo,2019-06-30,pre_third,DELTA_MT,DELTA_MT,2019:Q1,-0.10219946807304581,,,not_available,-0.6073999999999997,0.5052005319269539,True,True,0,,,,,,,14,2,0.02
monthly_mixed_frequency_kalman_em,pseudo,2019:Q1:pre_third:pseudo,2019-06-30,pre_third,DELTA_MT,DELTA_MT,2019:Q1,0.14510499833795176,4.478492055124484,2.1162448003774244,model_implied_state_space,-0.6073999999999997,0.7525049983379515,True,True,52,-6330.262917367987,-7350.951155117272,-6330.262917367987,0.6282721687175581,9.922346261347043e-05,52.0,14,2,0.02
standard_dfm,pseudo,2019:Q1:pre_third:pseudo,2019-06-30,pre_third,DELTA_MT,DELTA_MT,2019:Q1,0.20610842776374927,,,not_available,-0.6073999999999997,0.813508427763749,True,True,0,,,,,,,14,2,0.02
release_dfm,pseudo,2019:Q1:pre_third:pseudo,2019-06-30,pre_third,DELTA_MT,DELTA_MT,2019:Q1,-0.06045295100080228,,,not_available,-0.6073999999999997,0.5469470489991974,True,True,0,,,,,,,14,2,0.02
revision_dfm_kalman_em,pseudo,2019:Q1:pre_third:pseudo,2019-06-30,pre_third,DELTA_MT,DELTA_MT,2019:Q1,0.002429073086890998,4.364023127313424,2.0890244439243464,model_implied_state_space,-0.6073999999999997,0.6098290730868907,True,True,23,-1989.4371829614906,-2981.588667385332,-1989.4371829614906,0.18194608378075827,9.14017559290823e-05,23.0,14,2,0.02
indicator_revision_only_dfm_kalman_em,pseudo,2019:Q1:pre_third:pseudo,2019-06-30,pre_third,DELTA_MT,DELTA_MT,2019:Q1,0.0,4.361055095286022,2.0883139359986136,model_implied_state_space,-0.6073999999999997,0.6073999999999997,True,True,25,-3681.8492483477335,-4846.110481790007,-3681.8492483477335,0.351903453716659,9.554282788615641e-05,25.0,14,2,0.02
joint_indicator_revision_dfm_full_kalman_em,pseudo,2019:Q1:pre_third:pseudo,2019-06-30,pre_third,DELTA_MT,DELTA_MT,2019:Q1,0.0014629563302785975,4.372519024718728,2.091056915705244,model_implied_state_space,-0.6073999999999997,0.6088629563302783,True,True,26,-3646.520701149911,-4861.536386222362,-3646.520701149911,0.3479528024618048,9.538523326074442e-05,26.0,14,2,0.02
ar,exact,2019:Q2:pre_advance:exact,2019-07-25,pre_advance,DELTA_SA,DELTA_SA,2019:Q2,-0.026254198058714096,,,not_available,-0.017100000000000115,-0.00915419805871398,True,True,0,,,,,,,14,2,0.02
no_revision,exact,2019:Q2:pre_advance:exact,2019-07-25,pre_advance,DELTA_SA,DELTA_SA,2019:Q2,0.0,,,not_available,-0.017100000000000115,0.017100000000000115,True,True,0,,,,,,,14,2,0.02
bridge,exact,2019:Q2:pre_advance:exact,2019-07-25,pre_advance,DELTA_SA,DELTA_SA,2019:Q2,-0.08652409669299166,,,not_available,-0.017100000000000115,-0.06942409669299154,True,True,0,,,,,,,14,2,0.02
midas_umidas,exact,2019:Q2:pre_advance:exact,2019-07-25,pre_advance,DELTA_SA,DELTA_SA,2019:Q2,0.6439951021716461,,,not_available,-0.017100000000000115,0.6610951021716462,True,True,0,,,,,,,14,2,0.02
monthly_mixed_frequency_kalman_em,exact,2019:Q2:pre_advance:exact,2019-07-25,pre_advance,DELTA_SA,DELTA_SA,2019:Q2,-0.03954711119215437,0.350678416996292,0.5921810677455773,model_implied_state_space,-0.017100000000000115,-0.022447111192154257,True,True,50,-6350.581332858644,-7371.17664482267,-6350.581332858644,0.6185725957329851,9.737927095175985e-05,50.0,14,2,0.02
standard_dfm,exact,2019:Q2:pre_advance:exact,2019-07-25,pre_advance,DELTA_SA,DELTA_SA,2019:Q2,0.06429942451968351,,,not_available,-0.017100000000000115,0.08139942451968363,True,True,0,,,,,,,14,2,0.02
release_dfm,exact,2019:Q2:pre_advance:exact,2019-07-25,pre_advance,DELTA_SA,DELTA_SA,2019:Q2,0.06429942451968351,,,not_available,-0.017100000000000115,0.08139942451968363,True,True,0,,,,,,,14,2,0.02
revision_dfm_kalman_em,exact,2019:Q2:pre_advance:exact,2019-07-25,pre_advance,DELTA_SA,DELTA_SA,2019:Q2,0.050187404681511616,0.410553250230941,0.640744293951137,model_implied_state_space,-0.017100000000000115,0.06728740468151173,True,True,21,-2007.8800397791163,-2985.551829253488,-2007.8800397791163,0.1845395213761094,9.185345422811724e-05,21.0,14,2,0.02
indicator_revision_only_dfm_kalman_em,exact,2019:Q2:pre_advance:exact,2019-07-25,pre_advance,DELTA_SA,DELTA_SA,2019:Q2,0.0,0.4363944897456262,0.6606016119762548,model_implied_state_space,-0.017100000000000115,0.017100000000000115,True,True,25,-3718.455771239916,-4885.2472813367185,-3718.455771239916,0.3542247035748005,9.522655833526119e-05,25.0,14,2,0.02
joint_indicator_revision_dfm_full_kalman_em,exact,2019:Q2:pre_advance:exact,2019-07-25,pre_advance,DELTA_SA,DELTA_SA,2019:Q2,0.07217577855179691,0.3937232984048009,0.627473743199507,model_implied_state_space,-0.017100000000000115,0.08927577855179702,True,True,26,-3683.2494222443934,-4900.675603087262,-3683.2494222443934,0.34816350136998153,9.44915946091066e-05,26.0,14,2,0.02
ar,exact,2019:Q2:pre_second:exact,2019-08-28,pre_second,DELTA_TS,DELTA_TS,2019:Q2,0.055386723140361305,,,not_available,-0.023600000000000065,0.07898672314036137,True,True,0,,,,,,,14,2,0.02
no_revision,exact,2019:Q2:pre_second:exact,2019-08-28,pre_second,DELTA_TS,DELTA_TS,2019:Q2,0.0,,,not_available,-0.023600000000000065,0.023600000000000065,True,True,0,,,,,,,14,2,0.02
bridge,exact,2019:Q2:pre_second:exact,2019-08-28,pre_second,DELTA_TS,DELTA_TS,2019:Q2,0.23410885204244902,,,not_available,-0.023600000000000065,0.2577088520424491,True,True,0,,,,,,,14,2,0.02
midas_umidas,exact,2019:Q2:pre_second:exact,2019-08-28,pre_second,DELTA_TS,DELTA_TS,2019:Q2,-0.29173799287155333,,,not_available,-0.023600000000000065,-0.26813799287155327,True,True,0,,,,,,,14,2,0.02
monthly_mixed_frequency_kalman_em,exact,2019:Q2:pre_second:exact,2019-08-28,pre_second,DELTA_TS,DELTA_TS,2019:Q2,0.01683106127437206,0.14467528830341836,0.3803620489788885,model_implied_state_space,-0.023600000000000065,0.040431061274372126,True,True,52,-6368.1541381053285,-7418.865479658013,-6368.1541381053285,0.635894770505729,9.982978516147965e-05,52.0,14,2,0.02
standard_dfm,exact,2019:Q2:pre_second:exact,2019-08-28,pre_second,DELTA_TS,DELTA_TS,2019:Q2,0.05877272252036114,,,not_available,-0.023600000000000065,0.08237272252036121,True,True,0,,,,,,,14,2,0.02
release_dfm,exact,2019:Q2:pre_second:exact,2019-08-28,pre_second,DELTA_TS,DELTA_TS,2019:Q2,0.040997546223894066,,,not_available,-0.023600000000000065,0.06459754622389413,True,True,0,,,,,,,14,2,0.02
revision_dfm_kalman_em,exact,2019:Q2:pre_second:exact,2019-08-28,pre_second,DELTA_TS,DELTA_TS,2019:Q2,0.002006271363822698,0.14884990841988766,0.38581071579193815,model_implied_state_space,-0.023600000000000065,0.025606271363822763,True,True,21,-2009.098627573864,-2986.6926996762472,-2009.098627573864,0.18686178927896435,9.295286180380382e-05,21.0,14,2,0.02
indicator_revision_only_dfm_kalman_em,exact,2019:Q2:pre_second:exact,2019-08-28,pre_second,DELTA_TS,DELTA_TS,2019:Q2,0.0,0.15325771553697853,0.39148143702732385,model_implied_state_space,-0.023600000000000065,0.023600000000000065,True,True,25,-3719.791042633447,-4886.54177358581,-3719.791042633447,0.35404448534563926,9.51439616184836e-05,25.0,14,2,0.02
joint_indicator_revision_dfm_full_kalman_em,exact,2019:Q2:pre_second:exact,2019-08-28,pre_second,DELTA_TS,DELTA_TS,2019:Q2,0.0008268938076239074,0.1479848471319275,0.3846879867268115,model_implied_state_space,-0.023600000000000065,0.024426893807623973,True,True,26,-3684.427069506241,-4902.081891883919,-3684.427069506241,0.34757736686833596,9.430239235141769e-05,26.0,14,2,0.02
ar,exact,2019:Q2:pre_third:exact,2019-09-25,pre_third,DELTA_MT,DELTA_MT,2019:Q2,-0.46237987223397825,,,not_available,1.3697,-1.8320798722339782,True,True,0,,,,,,,14,2,0.02
no_revision,exact,2019:Q2:pre_third:exact,2019-09-25,pre_third,DELTA_MT,DELTA_MT,2019:Q2,0.0,,,not_available,1.3697,-1.3697,True,True,0,,,,,,,14,2,0.02
bridge,exact,2019:Q2:pre_third:exact,2019-09-25,pre_third,DELTA_MT,DELTA_MT,2019:Q2,-1.1014609870404506,,,not_available,1.3697,-2.4711609870404505,True,True,0,,,,,,,14,2,0.02
midas_umidas,exact,2019:Q2:pre_third:exact,2019-09-25,pre_third,DELTA_MT,DELTA_MT,2019:Q2,-2.7795466199430354,,,not_available,1.3697,-4.149246619943035,True,True,0,,,,,,,14,2,0.02
monthly_mixed_frequency_kalman_em,exact,2019:Q2:pre_third:exact,2019-09-25,pre_third,DELTA_MT,DELTA_MT,2019:Q2,-0.00410915759849706,4.457429140538674,2.1112624518374483,model_implied_state_space,1.3697,-1.373809157598497,True,True,54,-6383.975003426527,-7438.317659323553,-6383.975003426527,0.6276238260634273,9.828732896482518e-05,54.0,14,2,0.02
standard_dfm,exact,2019:Q2:pre_third:exact,2019-09-25,pre_third,DELTA_MT,DELTA_MT,2019:Q2,0.2538501440217149,,,not_available,1.3697,-1.115849855978285,True,True,0,,,,,,,14,2,0.02
release_dfm,exact,2019:Q2:pre_third:exact,2019-09-25,pre_third,DELTA_MT,DELTA_MT,2019:Q2,0.29477225106409,,,not_available,1.3697,-1.07492774893591,True,True,0,,,,,,,14,2,0.02
revision_dfm_kalman_em,exact,2019:Q2:pre_third:exact,2019-09-25,pre_third,DELTA_MT,DELTA_MT,2019:Q2,0.0006637993418783239,4.342685696804832,2.0839111537694768,model_implied_state_space,1.3697,-1.3690362006581216,True,True,23,-2009.0072778991962,-3004.676162545937,-2009.0072778991962,0.18435884927703228,9.171207655367452e-05,23.0,14,2,0.02
indicator_revision_only_dfm_kalman_em,exact,2019:Q2:pre_third:exact,2019-09-25,pre_third,DELTA_MT,DELTA_MT,2019:Q2,0.0,4.339722310870129,2.0832000170099194,model_implied_state_space,1.3697,-1.3697,True,True,25,-3719.3260810229544,-4887.563901466083,-3719.3260810229544,0.35479782552692996,9.53583059337077e-05,25.0,14,2,0.02
joint_indicator_revision_dfm_full_kalman_em,exact,2019:Q2:pre_third:exact,2019-09-25,pre_third,DELTA_MT,DELTA_MT,2019:Q2,-0.0002310018733635566,4.351093261113575,2.085927434287582,model_implied_state_space,1.3697,-1.3699310018733635,True,True,26,-3683.946312279632,-4903.076703293663,-3683.946312279632,0.34843446656077504,9.454724533727284e-05,26.0,14,2,0.02
ar,pseudo,2019:Q2:pre_advance:pseudo,2019-07-31,pre_advance,DELTA_SA,DELTA_SA,2019:Q2,-0.026254198058714096,,,not_available,-0.017100000000000115,-0.00915419805871398,True,True,0,,,,,,,14,2,0.02
no_revision,pseudo,2019:Q2:pre_advance:pseudo,2019-07-31,pre_advance,DELTA_SA,DELTA_SA,2019:Q2,0.0,,,not_available,-0.017100000000000115,0.017100000000000115,True,True,0,,,,,,,14,2,0.02
bridge,pseudo,2019:Q2:pre_advance:pseudo,2019-07-31,pre_advance,DELTA_SA,DELTA_SA,2019:Q2,-0.08882651376427209,,,not_available,-0.017100000000000115,-0.07172651376427197,True,True,0,,,,,,,14,2,0.02
midas_umidas,pseudo,2019:Q2:pre_advance:pseudo,2019-07-31,pre_advance,DELTA_SA,DELTA_SA,2019:Q2,0.0825776765362578,,,not_available,-0.017100000000000115,0.09967767653625792,True,True,0,,,,,,,14,2,0.02
monthly_mixed_frequency_kalman_em,pseudo,2019:Q2:pre_advance:pseudo,2019-07-31,pre_advance,DELTA_SA,DELTA_SA,2019:Q2,-0.032333698315883064,0.3504926899935672,0.5920242309175927,model_implied_state_space,-0.017100000000000115,-0.015233698315882949,True,True,49,-6352.49700138712,-7372.402001919866,-6352.49700138712,0.6272247180922932,9.871143461681316e-05,49.0,14,2,0.02
standard_dfm,pseudo,2019:Q2:pre_advance:pseudo,2019-07-31,pre_advance,DELTA_SA,DELTA_SA,2019:Q2,0.06890437481270517,,,not_available,-0.017100000000000115,0.08600437481270529,True,True,0,,,,,,,14,2,0.02
release_dfm,pseudo,2019:Q2:pre_advance:pseudo,2019-07-31,pre_advance,DELTA_SA,DELTA_SA,2019:Q2,0.06890437481270517,,,not_available,-0.017100000000000115,0.08600437481270529,True,True,0,,,,,,,14,2,0.02
revision_dfm_kalman_em,pseudo,2019:Q2:pre_advance:pseudo,2019-07-31,pre_advance,DELTA_SA,DELTA_SA,2019:Q2,0.05301320501942275,0.41049185355557416,0.6406963817250525,model_implied_state_space,-0.017100000000000115,0.07011320501942286,True,True,21,-2007.6185689104109,-2985.241321306091,-2007.6185689104109,0.1844563873946754,9.182402907190449e-05,21.0,14,2,0.02
indicator_revision_only_dfm_kalman_em,pseudo,2019:Q2:pre_advance:pseudo,2019-07-31,pre_advance,DELTA_SA,DELTA_SA,2019:Q2,0.0,0.4363940322970912,0.6606012657398495,model_implied_state_space,-0.017100000000000115,0.017100000000000115,True,True,25,-3717.915881824933,-4884.98862642378,-3717.915881824933,0.35372545782729503,9.510616200951382e-05,25.0,14,2,0.02
joint_indicator_revision_dfm_full_kalman_em,pseudo,2019:Q2:pre_advance:pseudo,2019-07-31,pre_advance,DELTA_SA,DELTA_SA,2019:Q2,0.06717542223258333,0.3937102143519837,0.6274633171365349,model_implied_state_space,-0.017100000000000115,0.08427542223258344,True,True,26,-3682.707580448926,-4900.418390604122,-3682.707580448926,0.3474471897834519,9.43110749369419e-05,26.0,14,2,0.02
ar,pseudo,2019:Q2:pre_second:pseudo,2019-08-31,pre_second,DELTA_TS,DELTA_TS,2019:Q2,0.055386723140361305,,,not_available,-0.023600000000000065,0.07898672314036137,True,True,0,,,,,,,14,2,0.02
no_revision,pseudo,2019:Q2:pre_second:pseudo,2019-08-31,pre_second,DELTA_TS,DELTA_TS,2019:Q2,0.0,,,not_available,-0.023600000000000065,0.023600000000000065,True,True,0,,,,,,,14,2,0.02
bridge,pseudo,2019:Q2:pre_second:pseudo,2019-08-31,pre_second,DELTA_TS,DELTA_TS,2019:Q2,0.23350068936004886,,,not_available,-0.023600000000000065,0.25710068936004893,True,True,0,,,,,,,14,2,0.02
midas_umidas,pseudo,2019:Q2:pre_second:pseudo,2019-08-31,pre_second,DELTA_TS,DELTA_TS,2019:Q2,-0.2911198224050162,,,not_available,-0.023600000000000065,-0.26751982240501615,True,True,0,,,,,,,14,2,0.02
monthly_mixed_frequency_kalman_em,pseudo,2019:Q2:pre_second:pseudo,2019-08-31,pre_second,DELTA_TS,DELTA_TS,2019:Q2,0.016644376134210326,0.14466854149366493,0.3803531799441999,model_implied_state_space,-0.023600000000000065,0.04024437613421039,True,True,52,-6369.468280958436,-7420.230284323025,-6369.468280958436,0.6364165223421878,9.989107895116457e-05,52.0,14,2,0.02
standard_dfm,pseudo,2019:Q2:pre_second:pseudo,2019-08-31,pre_second,DELTA_TS,DELTA_TS,2019:Q2,0.058756074050508644,,,not_available,-0.023600000000000065,0.08235607405050871,True,True,0,,,,,,,14,2,0.02
release_dfm,pseudo,2019:Q2:pre_second:pseudo,2019-08-31,pre_second,DELTA_TS,DELTA_TS,2019:Q2,0.04099531098372022,,,not_available,-0.023600000000000065,0.06459531098372029,True,True,0,,,,,,,14,2,0.02
revision_dfm_kalman_em,pseudo,2019:Q2:pre_second:pseudo,2019-08-31,pre_second,DELTA_TS,DELTA_TS,2019:Q2,0.002007516998639325,0.148849913489965,0.3858107223626179,model_implied_state_space,-0.023600000000000065,0.02560751699863939,True,True,21,-2009.1043011585696,-2986.694860598213,-2009.1043011585696,0.18686719858760625,9.295529002413973e-05,21.0,14,2,0.02
indicator_revision_only_dfm_kalman_em,pseudo,2019:Q2:pre_second:pseudo,2019-08-31,pre_second,DELTA_TS,DELTA_TS,2019:Q2,0.0,0.15325774838501371,0.39148147898082447,model_implied_state_space,-0.023600000000000065,0.023600000000000065,True,True,25,-3719.797802820728,-4886.546060411366,-3719.797802820728,0.35404070661752485,9.514277339511182e-05,25.0,14,2,0.02
joint_indicator_revision_dfm_full_kalman_em,pseudo,2019:Q2:pre_second:pseudo,2019-08-31,pre_second,DELTA_TS,DELTA_TS,2019:Q2,0.0008285744853302468,0.14798486728903693,0.3846880129261073,model_implied_state_space,-0.023600000000000065,0.024428574485330312,True,True,26,-3684.433654147908,-4902.086224786673,-3684.433654147908,0.3475725873081501,9.430092724630383e-05,26.0,14,2,0.02
ar,pseudo,2019:Q2:pre_third:pseudo,2019-09-30,pre_third,DELTA_MT,DELTA_MT,2019:Q2,-0.46237987223397825,,,not_available,1.3697,-1.8320798722339782,True,True,0,,,,,,,14,2,0.02
no_revision,pseudo,2019:Q2:pre_third:pseudo,2019-09-30,pre_third,DELTA_MT,DELTA_MT,2019:Q2,0.0,,,not_available,1.3697,-1.3697,True,True,0,,,,,,,14,2,0.02
bridge,pseudo,2019:Q2:pre_third:pseudo,2019-09-30,pre_third,DELTA_MT,DELTA_MT,2019:Q2,-1.101354405618797,,,not_available,1.3697,-2.471054405618797,True,True,0,,,,,,,14,2,0.02
midas_umidas,pseudo,2019:Q2:pre_third:pseudo,2019-09-30,pre_third,DELTA_MT,DELTA_MT,2019:Q2,-2.7666666149646053,,,not_available,1.3697,-4.136366614964605,True,True,0,,,,,,,14,2,0.02
monthly_mixed_frequency_kalman_em,pseudo,2019:Q2:pre_third:pseudo,2019-09-30,pre_third,DELTA_MT,DELTA_MT,2019:Q2,-0.003925680525870057,4.45743928540231,2.1112648543947086,model_implied_state_space,1.3697,-1.37362568052587,True,True,54,-6386.717266298226,-7441.16270349829,-6386.717266298226,0.6266257989755104,9.808892720235168e-05,54.0,14,2,0.02
standard_dfm,pseudo,2019:Q2:pre_third:pseudo,2019-09-30,pre_third,DELTA_MT,DELTA_MT,2019:Q2,0.25346771696324044,,,not_available,1.3697,-1.1162322830367595,True,True,0,,,,,,,14,2,0.02
release_dfm,pseudo,2019:Q2:pre_third:pseudo,2019-09-30,pre_third,DELTA_MT,DELTA_MT,2019:Q2,0.29384601405375,,,not_available,1.3697,-1.07585398594625,True,True,0,,,,,,,14,2,0.02
revision_dfm_kalman_em,pseudo,2019:Q2:pre_third:pseudo,2019-09-30,pre_third,DELTA_MT,DELTA_MT,2019:Q2,0.0006652118366772264,4.34268570534908,2.0839111558195276,model_implied_state_space,1.3697,-1.3690347881633227,True,True,23,-2008.996736060071,-3004.672120866167,-2008.996736060071,0.1843490777750958,9.170769695231424e-05,23.0,14,2,0.02
indicator_revision_only_dfm_kalman_em,pseudo,2019:Q2:pre_third:pseudo,2019-09-30,pre_third,DELTA_MT,DELTA_MT,2019:Q2,0.0,4.33972219254016,2.0831999886089094,model_implied_state_space,1.3697,-1.3697,True,True,25,-3719.3213729173763,-4887.561346229904,-3719.3213729173763,0.35480820560133,9.536121616857327e-05,25.0,14,2,0.02
joint_indicator_revision_dfm_full_kalman_em,pseudo,2019:Q2:pre_third:pseudo,2019-09-30,pre_third,DELTA_MT,DELTA_MT,2019:Q2,-0.00022968507547327377,4.351093046425259,2.0859273828264633,model_implied_state_space,1.3697,-1.3699296850754732,True,True,26,-3683.941508435885,-4903.074149044889,-3683.941508435885,0.348444213428138,9.455001313469118e-05,26.0,14,2,0.02
ar,exact,2019:Q3:pre_advance:exact,2019-10-29,pre_advance,DELTA_SA,DELTA_SA,2019:Q3,0.05929633129901246,,,not_available,0.20500000000000007,-0.1457036687009876,True,True,0,,,,,,,14,2,0.02
no_revision,exact,2019:Q3:pre_advance:exact,2019-10-29,pre_advance,DELTA_SA,DELTA_SA,2019:Q3,0.0,,,not_available,0.20500000000000007,-0.20500000000000007,True,True,0,,,,,,,14,2,0.02
bridge,exact,2019:Q3:pre_advance:exact,2019-10-29,pre_advance,DELTA_SA,DELTA_SA,2019:Q3,0.12826412666737008,,,not_available,0.20500000000000007,-0.07673587333262999,True,True,0,,,,,,,14,2,0.02
midas_umidas,exact,2019:Q3:pre_advance:exact,2019-10-29,pre_advance,DELTA_SA,DELTA_SA,2019:Q3,-0.8415004723431267,,,not_available,0.20500000000000007,-1.0465004723431268,True,True,0,,,,,,,14,2,0.02
monthly_mixed_frequency_kalman_em,exact,2019:Q3:pre_advance:exact,2019-10-29,pre_advance,DELTA_SA,DELTA_SA,2019:Q3,-0.15387602072336293,0.3444452894331924,0.586894615270231,model_implied_state_space,0.20500000000000007,-0.358876020723363,True,True,88,-6364.134759274062,-7462.623169084342,-6364.134759274062,0.6169100469369369,9.691079372606745e-05,88.0,14,2,0.02
standard_dfm,exact,2019:Q3:pre_advance:exact,2019-10-29,pre_advance,DELTA_SA,DELTA_SA,2019:Q3,0.07588607489593979,,,not_available,0.20500000000000007,-0.12911392510406028,True,True,0,,,,,,,14,2,0.02
release_dfm,exact,2019:Q3:pre_advance:exact,2019-10-29,pre_advance,DELTA_SA,DELTA_SA,2019:Q3,0.07588607489593979,,,not_available,0.20500000000000007,-0.12911392510406028,True,True,0,,,,,,,14,2,0.02
revision_dfm_kalman_em,exact,2019:Q3:pre_advance:exact,2019-10-29,pre_advance,DELTA_SA,DELTA_SA,2019:Q3,0.14492739660825738,0.4084062270914668,0.6390666843854926,model_implied_state_space,0.20500000000000007,-0.060072603391742696,True,True,21,-2026.2992108987705,-3008.3352279044793,-2026.2992108987705,0.18479021694679432,9.114262644987823e-05,21.0,14,2,0.02
indicator_revision_only_dfm_kalman_em,exact,2019:Q3:pre_advance:exact,2019-10-29,pre_advance,DELTA_SA,DELTA_SA,2019:Q3,0.0,0.4343469094235717,0.6590500052526908,model_implied_state_space,0.20500000000000007,-0.20500000000000007,True,True,25,-3753.5233970728805,-4915.6149714794055,-3753.5233970728805,0.37484834290899016,9.98291613805056e-05,25.0,14,2,0.02
joint_indicator_revision_dfm_full_kalman_em,exact,2019:Q3:pre_advance:exact,2019-10-29,pre_advance,DELTA_SA,DELTA_SA,2019:Q3,0.1462756102760876,0.39060919643537506,0.6249873570204241,model_implied_state_space,0.20500000000000007,-0.058724389723912473,True,True,27,-3717.940315360708,-4930.861199648487,-3717.940315360708,0.34555368516475937,9.290861131182852e-05,27.0,14,2,0.02
ar,exact,2019:Q3:pre_second:exact,2019-11-26,pre_second,DELTA_TS,DELTA_TS,2019:Q3,0.040081918729043764,,,not_available,-0.021400000000000308,0.06148191872904407,True,True,0,,,,,,,14,2,0.02
no_revision,exact,2019:Q3:pre_second:exact,2019-11-26,pre_second,DELTA_TS,DELTA_TS,2019:Q3,0.0,,,not_available,-0.021400000000000308,0.021400000000000308,True,True,0,,,,,,,14,2,0.02
bridge,exact,2019:Q3:pre_second:exact,2019-11-26,pre_second,DELTA_TS,DELTA_TS,2019:Q3,0.0008234501869393007,,,not_available,-0.021400000000000308,0.02222345018693961,True,True,0,,,,,,,14,2,0.02
midas_umidas,exact,2019:Q3:pre_second:exact,2019-11-26,pre_second,DELTA_TS,DELTA_TS,2019:Q3,0.36563147681554975,,,not_available,-0.021400000000000308,0.38703147681555006,True,True,0,,,,,,,14,2,0.02
monthly_mixed_frequency_kalman_em,exact,2019:Q3:pre_second:exact,2019-11-26,pre_second,DELTA_TS,DELTA_TS,2019:Q3,-0.1870544448725615,0.13618451899718864,0.36903186718383635,model_implied_state_space,-0.021400000000000308,-0.1656544448725612,True,True,86,-6380.071972056759,-7481.016055452483,-6380.071972056759,0.6095312175175422,9.551263522079682e-05,86.0,14,2,0.02
standard_dfm,exact,2019:Q3:pre_second:exact,2019-11-26,pre_second,DELTA_TS,DELTA_TS,2019:Q3,0.060954373232045,,,not_available,-0.021400000000000308,0.08235437323204531,True,True,0,,,,,,,14,2,0.02
release_dfm,exact,2019:Q3:pre_second:exact,2019-11-26,pre_second,DELTA_TS,DELTA_TS,2019:Q3,0.04036250402543873,,,not_available,-0.021400000000000308,0.061762504025439036,True,True,0,,,,,,,14,2,0.02
revision_dfm_kalman_em,exact,2019:Q3:pre_second:exact,2019-11-26,pre_second,DELTA_TS,DELTA_TS,2019:Q3,0.0028039118011986552,0.14817308339748858,0.3849325699359416,model_implied_state_space,-0.021400000000000308,0.024203911801198963,True,True,21,-2027.1960625751487,-3009.6102726093527,-2027.1960625751487,0.1867064340806337,9.204694347301673e-05,21.0,14,2,0.02
indicator_revision_only_dfm_kalman_em,exact,2019:Q3:pre_second:exact,2019-11-26,pre_second,DELTA_TS,DELTA_TS,2019:Q3,0.0,0.1525553237197772,0.39058331213683106,model_implied_state_space,-0.021400000000000308,0.021400000000000308,True,True,25,-3754.195966457247,-4927.360710095583,-3754.195966457247,0.35645845783074037,9.491505310002451e-05,25.0,14,2,0.02
joint_indicator_revision_dfm_full_kalman_em,exact,2019:Q3:pre_second:exact,2019-11-26,pre_second,DELTA_TS,DELTA_TS,2019:Q3,0.0031676081757359142,0.1472983936308474,0.38379472850841423,model_implied_state_space,-0.021400000000000308,0.024567608175736222,True,True,26,-3718.635782855259,-4942.9653952728295,-3718.635782855259,0.34880761962904216,9.376587755824921e-05,26.0,14,2,0.02
ar,exact,2019:Q3:pre_third:exact,2019-12-19,pre_third,DELTA_MT,DELTA_MT,2019:Q3,0.5233605281748179,,,not_available,2.6594,-2.1360394718251823,True,True,0,,,,,,,14,2,0.02
no_revision,exact,2019:Q3:pre_third:exact,2019-12-19,pre_third,DELTA_MT,DELTA_MT,2019:Q3,0.0,,,not_available,2.6594,-2.6594,True,True,0,,,,,,,14,2,0.02
bridge,exact,2019:Q3:pre_third:exact,2019-12-19,pre_third,DELTA_MT,DELTA_MT,2019:Q3,-0.5005867649503339,,,not_available,2.6594,-3.159986764950334,True,True,0,,,,,,,14,2,0.02
midas_umidas,exact,2019:Q3:pre_third:exact,2019-12-19,pre_third,DELTA_MT,DELTA_MT,2019:Q3,-3.418106266556611,,,not_available,2.6594,-6.077506266556611,True,True,0,,,,,,,14,2,0.02
monthly_mixed_frequency_kalman_em,exact,2019:Q3:pre_third:exact,2019-12-19,pre_third,DELTA_MT,DELTA_MT,2019:Q3,-0.09403960276818202,4.43398933542303,2.105703999954179,model_implied_state_space,2.6594,-2.7534396027681822,True,True,84,-6397.344570870017,-7475.925544386487,-6397.344570870017,0.5613095619301021,8.771961526213476e-05,84.0,14,2,0.02
standard_dfm,exact,2019:Q3:pre_third:exact,2019-12-19,pre_third,DELTA_MT,DELTA_MT,2019:Q3,0.27145584172888215,,,not_available,2.6594,-2.387944158271118,True,True,0,,,,,,,14,2,0.02
release_dfm,exact,2019:Q3:pre_third:exact,2019-12-19,pre_third,DELTA_MT,DELTA_MT,2019:Q3,0.3141445144366579,,,not_available,2.6594,-2.3452554855633423,True,True,0,,,,,,,14,2,0.02
revision_dfm_kalman_em,exact,2019:Q3:pre_third:exact,2019-12-19,pre_third,DELTA_MT,DELTA_MT,2019:Q3,0.002966095307748162,4.3222598315498,2.079004528987323,model_implied_state_space,2.6594,-2.656433904692252,True,True,23,-2026.6716715879074,-3027.6301148172133,-2026.6716715879074,0.18419525318086016,9.083251733654624e-05,23.0,14,2,0.02
indicator_revision_only_dfm_kalman_em,exact,2019:Q3:pre_third:exact,2019-12-19,pre_third,DELTA_MT,DELTA_MT,2019:Q3,0.0,4.320856562101462,2.078667015686125,model_implied_state_space,2.6594,-2.6594,True,True,26,-3753.70459950864,-4917.830046461024,-3753.70459950864,0.345088456186204,9.189983751539546e-05,26.0,14,2,0.02
joint_indicator_revision_dfm_full_kalman_em,exact,2019:Q3:pre_third:exact,2019-12-19,pre_third,DELTA_MT,DELTA_MT,2019:Q3,0.0030155500417583525,4.3316209018855085,2.0812546460934347,model_implied_state_space,2.6594,-2.656384449958242,True,True,27,-3718.2721169167608,-4933.151004091081,-3718.2721169167608,0.3501623069173547,9.413921108958329e-05,27.0,14,2,0.02
ar,pseudo,2019:Q3:pre_advance:pseudo,2019-10-31,pre_advance,DELTA_SA,DELTA_SA,2019:Q3,0.05929633129901246,,,not_available,0.20500000000000007,-0.1457036687009876,True,True,0,,,,,,,14,2,0.02
no_revision,pseudo,2019:Q3:pre_advance:pseudo,2019-10-31,pre_advance,DELTA_SA,DELTA_SA,2019:Q3,0.0,,,not_available,0.20500000000000007,-0.20500000000000007,True,True,0,,,,,,,14,2,0.02
bridge,pseudo,2019:Q3:pre_advance:pseudo,2019-10-31,pre_advance,DELTA_SA,DELTA_SA,2019:Q3,0.1296675890855088,,,not_available,0.20500000000000007,-0.07533241091449128,True,True,0,,,,,,,14,2,0.02
midas_umidas,pseudo,2019:Q3:pre_advance:pseudo,2019-10-31,pre_advance,DELTA_SA,DELTA_SA,2019:Q3,-0.8759867655145306,,,not_available,0.20500000000000007,-1.0809867655145307,True,True,0,,,,,,,14,2,0.02
monthly_mixed_frequency_kalman_em,pseudo,2019:Q3:pre_advance:pseudo,2019-10-31,pre_advance,DELTA_SA,DELTA_SA,2019:Q3,-0.13300595179307928,0.34711205551882784,0.5891621640251755,model_implied_state_space,0.20500000000000007,-0.33800595179307935,True,True,56,-6405.025629257409,-7464.052371991779,-6405.025629257409,0.6391214492350628,9.975884084844128e-05,56.0,14,2,0.02
standard_dfm,pseudo,2019:Q3:pre_advance:pseudo,2019-10-31,pre_advance,DELTA_SA,DELTA_SA,2019:Q3,0.07779904361249201,,,not_available,0.20500000000000007,-0.12720095638750806,True,True,0,,,,,,,14,2,0.02
release_dfm,pseudo,2019:Q3:pre_advance:pseudo,2019-10-31,pre_advance,DELTA_SA,DELTA_SA,2019:Q3,0.07779904361249201,,,not_available,0.20500000000000007,-0.12720095638750806,True,True,0,,,,,,,14,2,0.02
revision_dfm_kalman_em,pseudo,2019:Q3:pre_advance:pseudo,2019-10-31,pre_advance,DELTA_SA,DELTA_SA,2019:Q3,0.14583997725789377,0.4084023445690388,0.6390636467278035,model_implied_state_space,0.20500000000000007,-0.0591600227421063,True,True,21,-2026.3029950446835,-3008.3390609783332,-2026.3029950446835,0.18477268951460246,9.113381222570513e-05,21.0,14,2,0.02
indicator_revision_only_dfm_kalman_em,pseudo,2019:Q3:pre_advance:pseudo,2019-10-31,pre_advance,DELTA_SA,DELTA_SA,2019:Q3,0.0,0.43434693821181813,0.6590500270934052,model_implied_state_space,0.20500000000000007,-0.20500000000000007,True,True,25,-3753.4906256295653,-4915.574215712449,-3753.4906256295653,0.3746518440757427,9.977770609331075e-05,25.0,14,2,0.02
joint_indicator_revision_dfm_full_kalman_em,pseudo,2019:Q3:pre_advance:pseudo,2019-10-31,pre_advance,DELTA_SA,DELTA_SA,2019:Q3,0.14579421931827374,0.3906018725260312,0.6249814977469582,model_implied_state_space,0.20500000000000007,-0.05920578068172633,True,True,27,-3717.9089171244905,-4930.820322441829,-3717.9089171244905,0.34539555536366606,9.286688307011638e-05,27.0,14,2,0.02
ar,pseudo,2019:Q3:pre_second:pseudo,2019-11-30,pre_second,DELTA_TS,DELTA_TS,2019:Q3,0.040081918729043764,,,not_available,-0.021400000000000308,0.06148191872904407,True,True,0,,,,,,,14,2,0.02
no_revision,pseudo,2019:Q3:pre_second:pseudo,2019-11-30,pre_second,DELTA_TS,DELTA_TS,2019:Q3,0.0,,,not_available,-0.021400000000000308,0.021400000000000308,True,True,0,,,,,,,14,2,0.02
bridge,pseudo,2019:Q3:pre_second:pseudo,2019-11-30,pre_second,DELTA_TS,DELTA_TS,2019:Q3,-0.0012805936584112665,,,not_available,-0.021400000000000308,0.02011940634158904,True,True,0,,,,,,,14,2,0.02
midas_umidas,pseudo,2019:Q3:pre_second:pseudo,2019-11-30,pre_second,DELTA_TS,DELTA_TS,2019:Q3,0.3635531020191416,,,not_available,-0.021400000000000308,0.3849531020191419,True,True,0,,,,,,,14,2,0.02
monthly_mixed_frequency_kalman_em,pseudo,2019:Q3:pre_second:pseudo,2019-11-30,pre_second,DELTA_TS,DELTA_TS,2019:Q3,-0.1866202995772639,0.13619107243272266,0.3690407463041482,model_implied_state_space,-0.021400000000000308,-0.16522029957726359,True,True,86,-6382.861424006063,-7483.761482383472,-6382.861424006063,0.603163747941835,9.447366175368237e-05,86.0,14,2,0.02
standard_dfm,pseudo,2019:Q3:pre_second:pseudo,2019-11-30,pre_second,DELTA_TS,DELTA_TS,2019:Q3,0.060865098210171276,,,not_available,-0.021400000000000308,0.08226509821017158,True,True,0,,,,,,,14,2,0.02
release_dfm,pseudo,2019:Q3:pre_second:pseudo,2019-11-30,pre_second,DELTA_TS,DELTA_TS,2019:Q3,0.040349504607029685,,,not_available,-0.021400000000000308,0.06174950460702999,True,True,0,,,,,,,14,2,0.02
revision_dfm_kalman_em,pseudo,2019:Q3:pre_second:pseudo,2019-11-30,pre_second,DELTA_TS,DELTA_TS,2019:Q3,0.002794861033146301,0.14817245415360303,0.3849317525920706,model_implied_state_space,-0.021400000000000308,0.02419486103314661,True,True,21,-2027.079239239073,-3009.5725881180692,-2027.079239239073,0.18671213737661674,9.20550568084563e-05,21.0,14,2,0.02
indicator_revision_only_dfm_kalman_em,pseudo,2019:Q3:pre_second:pseudo,2019-11-30,pre_second,DELTA_TS,DELTA_TS,2019:Q3,0.0,0.1525554647978189,0.3905834927359564,model_implied_state_space,-0.021400000000000308,0.021400000000000308,True,True,25,-3754.169511230902,-4927.360984603658,-3754.169511230902,0.35664584773257957,9.49656140885486e-05,25.0,14,2,0.02
joint_indicator_revision_dfm_full_kalman_em,pseudo,2019:Q3:pre_second:pseudo,2019-11-30,pre_second,DELTA_TS,DELTA_TS,2019:Q3,0.0031541715185445796,0.14729848221210884,0.3837948439102704,model_implied_state_space,-0.021400000000000308,0.024554171518544887,True,True,26,-3718.60953394297,-4942.965695828466,-3718.60953394297,0.3490034519763867,9.381917794728721e-05,26.0,14,2,0.02
ar,pseudo,2019:Q3:pre_third:pseudo,2019-12-31,pre_third,DELTA_MT,DELTA_MT,2019:Q3,0.5233605281748179,,,not_available,2.6594,-2.1360394718251823,True,True,0,,,,,,,14,2,0.02
no_revision,pseudo,2019:Q3:pre_third:pseudo,2019-12-31,pre_third,DELTA_MT,DELTA_MT,2019:Q3,0.0,,,not_available,2.6594,-2.6594,True,True,0,,,,,,,14,2,0.02
bridge,pseudo,2019:Q3:pre_third:pseudo,2019-12-31,pre_third,DELTA_MT,DELTA_MT,2019:Q3,-0.5005279317503972,,,not_available,2.6594,-3.1599279317503974,True,True,0,,,,,,,14,2,0.02
midas_umidas,pseudo,2019:Q3:pre_third:pseudo,2019-12-31,pre_third,DELTA_MT,DELTA_MT,2019:Q3,-3.4287036456544917,,,not_available,2.6594,-6.088103645654492,True,True,0,,,,,,,14,2,0.02
monthly_mixed_frequency_kalman_em,pseudo,2019:Q3:pre_third:pseudo,2019-12-31,pre_third,DELTA_MT,DELTA_MT,2019:Q3,-0.09442725915027861,4.4340044050499685,2.1057075782382437,model_implied_state_space,2.6594,-2.753827259150279,True,True,85,-6400.655898089368,-7478.681402652314,-6400.655898089368,0.5302225945315513,8.281899097224487e-05,85.0,14,2,0.02
standard_dfm,pseudo,2019:Q3:pre_third:pseudo,2019-12-31,pre_third,DELTA_MT,DELTA_MT,2019:Q3,0.27097951517942986,,,not_available,2.6594,-2.3884204848205703,True,True,0,,,,,,,14,2,0.02
release_dfm,pseudo,2019:Q3:pre_third:pseudo,2019-12-31,pre_third,DELTA_MT,DELTA_MT,2019:Q3,0.31298521039985117,,,not_available,2.6594,-2.346414789600149,True,True,0,,,,,,,14,2,0.02
revision_dfm_kalman_em,pseudo,2019:Q3:pre_third:pseudo,2019-12-31,pre_third,DELTA_MT,DELTA_MT,2019:Q3,0.00296778491858829,4.3222598698712265,2.079004538203615,model_implied_state_space,2.6594,-2.656432215081412,True,True,23,-2026.6698449123182,-3027.628223896805,-2026.6698449123182,0.1841901284992673,9.083007224213741e-05,23.0,14,2,0.02
indicator_revision_only_dfm_kalman_em,pseudo,2019:Q3:pre_third:pseudo,2019-12-31,pre_third,DELTA_MT,DELTA_MT,2019:Q3,0.0,4.320856456857449,2.07866699037086,model_implied_state_space,2.6594,-2.6594,True,True,26,-3753.7066736555153,-4917.832047122485,-3753.7066736555153,0.3451183376514564,9.190774369273584e-05,26.0,14,2,0.02
joint_indicator_revision_dfm_full_kalman_em,pseudo,2019:Q3:pre_third:pseudo,2019-12-31,pre_third,DELTA_MT,DELTA_MT,2019:Q3,0.0030171542998185252,4.331620620349118,2.0812545784572145,model_implied_state_space,2.6594,-2.6563828457001817,True,True,27,-3718.274099572508,-4933.153010956401,-3718.274099572508,0.350187476031806,9.414592684834681e-05,27.0,14,2,0.02
ar,exact,2019:Q4:pre_advance:exact,2020-01-29,pre_advance,DELTA_SA,DELTA_SA,2019:Q4,0.1665444581766966,,,not_available,0.014800000000000146,0.15174445817669646,True,True,0,,,,,,,14,2,0.02
no_revision,exact,2019:Q4:pre_advance:exact,2020-01-29,pre_advance,DELTA_SA,DELTA_SA,2019:Q4,0.0,,,not_available,0.014800000000000146,-0.014800000000000146,True,True,0,,,,,,,14,2,0.02
bridge,exact,2019:Q4:pre_advance:exact,2020-01-29,pre_advance,DELTA_SA,DELTA_SA,2019:Q4,0.2746654258404977,,,not_available,0.014800000000000146,0.25986542584049754,True,True,0,,,,,,,14,2,0.02
midas_umidas,exact,2019:Q4:pre_advance:exact,2020-01-29,pre_advance,DELTA_SA,DELTA_SA,2019:Q4,0.9147253380832268,,,not_available,0.014800000000000146,0.8999253380832266,True,True,0,,,,,,,14,2,0.02
monthly_mixed_frequency_kalman_em,exact,2019:Q4:pre_advance:exact,2020-01-29,pre_advance,DELTA_SA,DELTA_SA,2019:Q4,-0.1365828619100684,0.3479927672484875,0.5899091177872127,model_implied_state_space,0.014800000000000146,-0.15138286191006856,True,True,50,-6469.2853342069075,-7498.543314628145,-6469.2853342069075,0.6272767151895096,9.693790550203759e-05,50.0,14,2,0.02
standard_dfm,exact,2019:Q4:pre_advance:exact,2020-01-29,pre_advance,DELTA_SA,DELTA_SA,2019:Q4,0.03862515144349943,,,not_available,0.014800000000000146,0.02382515144349928,True,True,0,,,,,,,14,2,0.02
release_dfm,exact,2019:Q4:pre_advance:exact,2020-01-29,pre_advance,DELTA_SA,DELTA_SA,2019:Q4,0.03862515144349943,,,not_available,0.014800000000000146,0.02382515144349928,True,True,0,,,,,,,14,2,0.02
revision_dfm_kalman_em,exact,2019:Q4:pre_advance:exact,2020-01-29,pre_advance,DELTA_SA,DELTA_SA,2019:Q4,0.07921172211759031,0.40417040548007144,0.6357439779345703,model_implied_state_space,0.014800000000000146,0.06441172211759016,True,True,23,-2045.413197444106,-3049.062572131113,-2045.413197444106,0.18401150670706556,8.991095360742673e-05,23.0,14,2,0.02
indicator_revision_only_dfm_kalman_em,exact,2019:Q4:pre_advance:exact,2020-01-29,pre_advance,DELTA_SA,DELTA_SA,2019:Q4,0.0,0.4325221864187645,0.6576641897038066,model_implied_state_space,0.014800000000000146,-0.014800000000000146,True,True,25,-3791.203747415335,-4968.815462889262,-3791.203747415335,0.37061783647732227,9.772196950783184e-05,25.0,14,2,0.02
joint_indicator_revision_dfm_full_kalman_em,exact,2019:Q4:pre_advance:exact,2020-01-29,pre_advance,DELTA_SA,DELTA_SA,2019:Q4,0.057407561521869876,0.39060677708667857,0.6249854214993167,model_implied_state_space,0.014800000000000146,0.04260756152186973,True,True,26,-3755.6694568556004,-4984.383018520602,-3755.6694568556004,0.3599936336408973,9.581868824425074e-05,26.0,14,2,0.02
ar,exact,2019:Q4:pre_second:exact,2020-02-26,pre_second,DELTA_TS,DELTA_TS,2019:Q4,0.03892602850336768,,,not_available,0.03189999999999982,0.007026028503367865,True,True,0,,,,,,,14,2,0.02
no_revision,exact,2019:Q4:pre_second:exact,2020-02-26,pre_second,DELTA_TS,DELTA_TS,2019:Q4,0.0,,,not_available,0.03189999999999982,-0.03189999999999982,True,True,0,,,,,,,14,2,0.02
bridge,exact,2019:Q4:pre_second:exact,2020-02-26,pre_second,DELTA_TS,DELTA_TS,2019:Q4,0.03400117091687571,,,not_available,0.03189999999999982,0.002101170916875894,True,True,0,,,,,,,14,2,0.02
midas_umidas,exact,2019:Q4:pre_second:exact,2020-02-26,pre_second,DELTA_TS,DELTA_TS,2019:Q4,0.6241503795066428,,,not_available,0.03189999999999982,0.5922503795066429,True,True,0,,,,,,,14,2,0.02
monthly_mixed_frequency_kalman_em,exact,2019:Q4:pre_second:exact,2020-02-26,pre_second,DELTA_TS,DELTA_TS,2019:Q4,-0.1668650907342064,0.13520033461446979,0.36769598123241676,model_implied_state_space,0.03189999999999982,-0.19876509073420623,True,True,87,-6438.970241778739,-7517.704691580865,-6438.970241778739,0.5797461170295719,9.00150015323434e-05,87.0,14,2,0.02
standard_dfm,exact,2019:Q4:pre_second:exact,2020-02-26,pre_second,DELTA_TS,DELTA_TS,2019:Q4,0.05548674693901656,,,not_available,0.03189999999999982,0.023586746939016745,True,True,0,,,,,,,14,2,0.02
release_dfm,exact,2019:Q4:pre_second:exact,2020-02-26,pre_second,DELTA_TS,DELTA_TS,2019:Q4,0.040042636480916105,,,not_available,0.03189999999999982,0.008142636480916288,True,True,0,,,,,,,14,2,0.02
revision_dfm_kalman_em,exact,2019:Q4:pre_second:exact,2020-02-26,pre_second,DELTA_TS,DELTA_TS,2019:Q4,0.004485008013979108,0.1474804586150893,0.384031845834547,model_implied_state_space,0.03189999999999982,-0.02741499198602071,True,True,21,-2045.6659176370079,-3033.123202649644,-2045.6659176370079,0.18805023995923875,9.187281697203233e-05,21.0,14,2,0.02
indicator_revision_only_dfm_kalman_em,exact,2019:Q4:pre_second:exact,2020-02-26,pre_second,DELTA_TS,DELTA_TS,2019:Q4,0.0,0.15184877363663696,0.38967778181035284,model_implied_state_space,0.03189999999999982,-0.03189999999999982,True,True,25,-3791.626945244972,-4969.778840930812,-3791.626945244972,0.36957561458712007,9.743631784385813e-05,25.0,14,2,0.02
joint_indicator_revision_dfm_full_kalman_em,exact,2019:Q4:pre_second:exact,2020-02-26,pre_second,DELTA_TS,DELTA_TS,2019:Q4,0.0032323449012281458,0.14662399147509075,0.3829151230691872,model_implied_state_space,0.03189999999999982,-0.02866765509877167,True,True,26,-3755.9576577833727,-4985.4532357377675,-3755.9576577833727,0.35866448081424096,9.545762189064429e-05,26.0,14,2,0.02
ar,exact,2019:Q4:pre_third:exact,2020-03-25,pre_third,DELTA_MT,DELTA_MT,2019:Q4,0.28493109658739835,,,not_available,0.6275,-0.3425689034126016,True,True,0,,,,,,,14,2,0.02
no_revision,exact,2019:Q4:pre_third:exact,2020-03-25,pre_third,DELTA_MT,DELTA_MT,2019:Q4,0.0,,,not_available,0.6275,-0.6275,True,True,0,,,,,,,14,2,0.02
bridge,exact,2019:Q4:pre_third:exact,2020-03-25,pre_third,DELTA_MT,DELTA_MT,2019:Q4,-0.3429265046088039,,,not_available,0.6275,-0.9704265046088039,True,True,0,,,,,,,14,2,0.02
midas_umidas,exact,2019:Q4:pre_third:exact,2020-03-25,pre_third,DELTA_MT,DELTA_MT,2019:Q4,4.4102217841675255,,,not_available,0.6275,3.7827217841675256,True,True,0,,,,,,,14,2,0.02
monthly_mixed_frequency_kalman_em,exact,2019:Q4:pre_third:exact,2020-03-25,pre_third,DELTA_MT,DELTA_MT,2019:Q4,-0.08747126955077422,4.41549729289404,2.1013084716181107,model_implied_state_space,0.6275,-0.7149712695507742,True,True,53,-6506.291415830412,-7539.787496723451,-6506.291415830412,0.6501470142229664,9.990056117510461e-05,53.0,14,2,0.02
standard_dfm,exact,2019:Q4:pre_third:exact,2020-03-25,pre_third,DELTA_MT,DELTA_MT,2019:Q4,0.2285591696432827,,,not_available,0.6275,-0.39894083035671724,True,True,0,,,,,,,14,2,0.02
release_dfm,exact,2019:Q4:pre_third:exact,2020-03-25,pre_third,DELTA_MT,DELTA_MT,2019:Q4,0.22708393626803725,,,not_available,0.6275,-0.4004160637319627,True,True,0,,,,,,,14,2,0.02
revision_dfm_kalman_em,exact,2019:Q4:pre_third:exact,2020-03-25,pre_third,DELTA_MT,DELTA_MT,2019:Q4,0.0016725182203511935,4.301836778839562,2.074086974752882,model_implied_state_space,0.6275,-0.6258274817796488,True,True,23,-2045.6420289166892,-3051.354139553679,-2045.6420289166892,0.18577426706315237,9.076204005739442e-05,23.0,14,2,0.02
indicator_revision_only_dfm_kalman_em,exact,2019:Q4:pre_third:exact,2020-03-25,pre_third,DELTA_MT,DELTA_MT,2019:Q4,0.0,4.300379562048706,2.0737356538500045,model_implied_state_space,0.6275,-0.6275,True,True,26,-3791.5442094363307,-4960.319874340284,-3791.5442094363307,0.36461964407044434,9.613192947715729e-05,26.0,14,2,0.02
joint_indicator_revision_dfm_full_kalman_em,exact,2019:Q4:pre_third:exact,2020-03-25,pre_third,DELTA_MT,DELTA_MT,2019:Q4,0.0013864926155293666,4.311020067331035,2.076299609240207,model_implied_state_space,0.6275,-0.6261135073844706,True,True,27,-3756.003895792844,-4975.709757444162,-3756.003895792844,0.3668128002841513,9.76248628982092e-05,27.0,14,2,0.02
ar,pseudo,2019:Q4:pre_advance:pseudo,2020-01-31,pre_advance,DELTA_SA,DELTA_SA,2019:Q4,0.1665444581766966,,,not_available,0.014800000000000146,0.15174445817669646,True,True,0,,,,,,,14,2,0.02
no_revision,pseudo,2019:Q4:pre_advance:pseudo,2020-01-31,pre_advance,DELTA_SA,DELTA_SA,2019:Q4,0.0,,,not_available,0.014800000000000146,-0.014800000000000146,True,True,0,,,,,,,14,2,0.02
bridge,pseudo,2019:Q4:pre_advance:pseudo,2020-01-31,pre_advance,DELTA_SA,DELTA_SA,2019:Q4,0.2745872631544426,,,not_available,0.014800000000000146,0.25978726315444245,True,True,0,,,,,,,14,2,0.02
midas_umidas,pseudo,2019:Q4:pre_advance:pseudo,2020-01-31,pre_advance,DELTA_SA,DELTA_SA,2019:Q4,0.9118186832048545,,,not_available,0.014800000000000146,0.8970186832048543,True,True,0,,,,,,,14,2,0.02
monthly_mixed_frequency_kalman_em,pseudo,2019:Q4:pre_advance:pseudo,2020-01-31,pre_advance,DELTA_SA,DELTA_SA,2019:Q4,-0.13749565285170195,0.3479340147202432,0.5898593177362236,model_implied_state_space,0.014800000000000146,-0.1522956528517021,True,True,50,-6470.62796759433,-7499.925111035035,-6470.62796759433,0.6268550275635789,9.685264946191373e-05,50.0,14,2,0.02
standard_dfm,pseudo,2019:Q4:pre_advance:pseudo,2020-01-31,pre_advance,DELTA_SA,DELTA_SA,2019:Q4,0.03852049043193739,,,not_available,0.014800000000000146,0.023720490431937247,True,True,0,,,,,,,14,2,0.02
release_dfm,pseudo,2019:Q4:pre_advance:pseudo,2020-01-31,pre_advance,DELTA_SA,DELTA_SA,2019:Q4,0.03852049043193739,,,not_available,0.014800000000000146,0.023720490431937247,True,True,0,,,,,,,14,2,0.02
revision_dfm_kalman_em,pseudo,2019:Q4:pre_advance:pseudo,2020-01-31,pre_advance,DELTA_SA,DELTA_SA,2019:Q4,0.07915739087026297,0.404170607646674,0.6357441369345642,model_implied_state_space,0.014800000000000146,0.06435739087026282,True,True,23,-2045.4104998801815,-3049.061099364582,-2045.4104998801815,0.18400673524070044,8.990874090882006e-05,23.0,14,2,0.02
indicator_revision_only_dfm_kalman_em,pseudo,2019:Q4:pre_advance:pseudo,2020-01-31,pre_advance,DELTA_SA,DELTA_SA,2019:Q4,0.0,0.4325221195977136,0.6576641389020034,model_implied_state_space,0.014800000000000146,-0.014800000000000146,True,True,25,-3791.21036781181,-4968.820785330706,-3791.21036781181,0.3706935055356553,9.774174883605404e-05,25.0,14,2,0.02
joint_indicator_revision_dfm_full_kalman_em,pseudo,2019:Q4:pre_advance:pseudo,2020-01-31,pre_advance,DELTA_SA,DELTA_SA,2019:Q4,0.057164055603229125,0.39060596580891715,0.6249847724616314,model_implied_state_space,0.014800000000000146,0.04236405560322898,True,True,26,-3755.6762275129404,-4984.388343833557,-3755.6762275129404,0.3600684291882317,9.583842178398214e-05,26.0,14,2,0.02
ar,pseudo,2019:Q4:pre_second:pseudo,2020-02-29,pre_second,DELTA_TS,DELTA_TS,2019:Q4,0.03892602850336768,,,not_available,0.03189999999999982,0.007026028503367865,True,True,0,,,,,,,14,2,0.02
no_revision,pseudo,2019:Q4:pre_second:pseudo,2020-02-29,pre_second,DELTA_TS,DELTA_TS,2019:Q4,0.0,,,not_available,0.03189999999999982,-0.03189999999999982,True,True,0,,,,,,,14,2,0.02
bridge,pseudo,2019:Q4:pre_second:pseudo,2020-02-29,pre_second,DELTA_TS,DELTA_TS,2019:Q4,0.03696695036035447,,,not_available,0.03189999999999982,0.0050669503603546495,True,True,0,,,,,,,14,2,0.02
midas_umidas,pseudo,2019:Q4:pre_second:pseudo,2020-02-29,pre_second,DELTA_TS,DELTA_TS,2019:Q4,0.6400989146419032,,,not_available,0.03189999999999982,0.6081989146419033,True,True,0,,,,,,,14,2,0.02
monthly_mixed_frequency_kalman_em,pseudo,2019:Q4:pre_second:pseudo,2020-02-29,pre_second,DELTA_TS,DELTA_TS,2019:Q4,-0.11786730351220331,0.14151371210691366,0.37618308322798577,model_implied_state_space,0.03189999999999982,-0.14976730351220313,True,True,53,-6488.448639322011,-7520.511986458246,-6488.448639322011,0.6459187049040338,9.952377413440994e-05,53.0,14,2,0.02
standard_dfm,pseudo,2019:Q4:pre_second:pseudo,2020-02-29,pre_second,DELTA_TS,DELTA_TS,2019:Q4,0.05561877310770136,,,not_available,0.03189999999999982,0.02371877310770154,True,True,0,,,,,,,14,2,0.02
release_dfm,pseudo,2019:Q4:pre_second:pseudo,2020-02-29,pre_second,DELTA_TS,DELTA_TS,2019:Q4,0.04006162345805109,,,not_available,0.03189999999999982,0.00816162345805127,True,True,0,,,,,,,14,2,0.02
revision_dfm_kalman_em,pseudo,2019:Q4:pre_second:pseudo,2020-02-29,pre_second,DELTA_TS,DELTA_TS,2019:Q4,0.0044675673296104,0.147480278998687,0.3840316119783461,model_implied_state_space,0.03189999999999982,-0.027432432670389417,True,True,21,-2045.655747510807,-3033.1105552309104,-2045.655747510807,0.18805326371466435,9.187475060065911e-05,21.0,14,2,0.02
indicator_revision_only_dfm_kalman_em,pseudo,2019:Q4:pre_second:pseudo,2020-02-29,pre_second,DELTA_TS,DELTA_TS,2019:Q4,0.0,0.15184882804297428,0.38967785161973767,model_implied_state_space,0.03189999999999982,-0.03189999999999982,True,True,25,-3791.665073402494,-4969.808369012858,-3791.665073402494,0.3696714322441039,9.746059741411898e-05,25.0,14,2,0.02
joint_indicator_revision_dfm_full_kalman_em,pseudo,2019:Q4:pre_second:pseudo,2020-02-29,pre_second,DELTA_TS,DELTA_TS,2019:Q4,0.0032136809762808305,0.146624005044668,0.38291514078796623,model_implied_state_space,0.03189999999999982,-0.028686319023718987,True,True,26,-3755.9945190303024,-4985.48308460577,-3755.9945190303024,0.3587595787053033,9.548199280268849e-05,26.0,14,2,0.02
ar,pseudo,2019:Q4:pre_third:pseudo,2020-03-31,pre_third,DELTA_MT,DELTA_MT,2019:Q4,0.28493109658739835,,,not_available,0.6275,-0.3425689034126016,True,True,0,,,,,,,14,2,0.02
no_revision,pseudo,2019:Q4:pre_third:pseudo,2020-03-31,pre_third,DELTA_MT,DELTA_MT,2019:Q4,0.0,,,not_available,0.6275,-0.6275,True,True,0,,,,,,,14,2,0.02
bridge,pseudo,2019:Q4:pre_third:pseudo,2020-03-31,pre_third,DELTA_MT,DELTA_MT,2019:Q4,-0.3429288327850699,,,not_available,0.6275,-0.9704288327850699,True,True,0,,,,,,,14,2,0.02
midas_umidas,pseudo,2019:Q4:pre_third:pseudo,2020-03-31,pre_third,DELTA_MT,DELTA_MT,2019:Q4,4.406138958198086,,,not_available,0.6275,3.7786389581980857,True,True,0,,,,,,,14,2,0.02
monthly_mixed_frequency_kalman_em,pseudo,2019:Q4:pre_third:pseudo,2020-03-31,pre_third,DELTA_MT,DELTA_MT,2019:Q4,-0.1179606553660899,4.4118857116143975,2.100448930970329,model_implied_state_space,0.6275,-0.7454606553660899,True,True,87,-6459.905496539938,-7541.2159128546655,-6459.905496539938,0.5675317894992986,8.783319020462265e-05,87.0,14,2,0.02
standard_dfm,pseudo,2019:Q4:pre_third:pseudo,2020-03-31,pre_third,DELTA_MT,DELTA_MT,2019:Q4,0.22861088466232404,,,not_available,0.6275,-0.3988891153376759,True,True,0,,,,,,,14,2,0.02
release_dfm,pseudo,2019:Q4:pre_third:pseudo,2020-03-31,pre_third,DELTA_MT,DELTA_MT,2019:Q4,0.22721360826241455,,,not_available,0.6275,-0.4002863917375854,True,True,0,,,,,,,14,2,0.02
revision_dfm_kalman_em,pseudo,2019:Q4:pre_third:pseudo,2020-03-31,pre_third,DELTA_MT,DELTA_MT,2019:Q4,0.0016723257989292861,4.301836781305088,2.074086975347246,model_implied_state_space,0.6275,-0.6258276742010707,True,True,23,-2045.642665255275,-3051.3545557603406,-2045.642665255275,0.1857755254056883,9.0762626561331e-05,23.0,14,2,0.02
indicator_revision_only_dfm_kalman_em,pseudo,2019:Q4:pre_third:pseudo,2020-03-31,pre_third,DELTA_MT,DELTA_MT,2019:Q4,0.0,4.300379557237129,2.0737356526898814,model_implied_state_space,0.6275,-0.6275,True,True,26,-3791.544386251177,-4960.319998925818,-3791.544386251177,0.36461227436439003,9.612998216042877e-05,26.0,14,2,0.02
joint_indicator_revision_dfm_full_kalman_em,pseudo,2019:Q4:pre_third:pseudo,2020-03-31,pre_third,DELTA_MT,DELTA_MT,2019:Q4,0.0013862916195885866,4.31102011225718,2.076299620059008,model_implied_state_space,0.6275,-0.6261137083804114,True,True,27,-3756.0040419143807,-4975.709883829929,-3756.0040419143807,0.3668059153219474,9.762302689227985e-05,27.0,14,2,0.02
ar,exact,2020:Q1:pre_advance:exact,2020-04-28,pre_advance,DELTA_SA,DELTA_SA,2020:Q1,0.07270396930060219,,,not_available,-0.26449999999999996,0.33720396930060215,True,True,0,,,,,,,14,2,0.02
no_revision,exact,2020:Q1:pre_advance:exact,2020-04-28,pre_advance,DELTA_SA,DELTA_SA,2020:Q1,0.0,,,not_available,-0.26449999999999996,0.26449999999999996,True,True,0,,,,,,,14,2,0.02
bridge,exact,2020:Q1:pre_advance:exact,2020-04-28,pre_advance,DELTA_SA,DELTA_SA,2020:Q1,-0.0012122564109908751,,,not_available,-0.26449999999999996,0.2632877435890091,True,True,0,,,,,,,14,2,0.02
midas_umidas,exact,2020:Q1:pre_advance:exact,2020-04-28,pre_advance,DELTA_SA,DELTA_SA,2020:Q1,0.8166439581580391,,,not_available,-0.26449999999999996,1.081143958158039,True,True,0,,,,,,,14,2,0.02
monthly_mixed_frequency_kalman_em,exact,2020:Q1:pre_advance:exact,2020-04-28,pre_advance,DELTA_SA,DELTA_SA,2020:Q1,-0.7001358075843687,0.3502455710560186,0.5918154873404536,model_implied_state_space,-0.26449999999999996,-0.4356358075843687,True,True,40,-6365.157784502217,-7570.539615772524,-6365.157784502217,0.5121276228919669,8.04388526436147e-05,40.0,14,2,0.02
standard_dfm,exact,2020:Q1:pre_advance:exact,2020-04-28,pre_advance,DELTA_SA,DELTA_SA,2020:Q1,-0.07900204542880451,,,not_available,-0.26449999999999996,0.18549795457119544,True,True,0,,,,,,,14,2,0.02
release_dfm,exact,2020:Q1:pre_advance:exact,2020-04-28,pre_advance,DELTA_SA,DELTA_SA,2020:Q1,-0.07900204542880451,,,not_available,-0.26449999999999996,0.18549795457119544,True,True,0,,,,,,,14,2,0.02
revision_dfm_kalman_em,exact,2020:Q1:pre_advance:exact,2020-04-28,pre_advance,DELTA_SA,DELTA_SA,2020:Q1,-0.09000714632513018,0.40498191668731653,0.6363818953170467,model_implied_state_space,-0.26449999999999996,0.17449285367486977,True,True,21,-2059.916241503951,-3054.41505075714,-2059.916241503951,0.19051499228089597,9.243334518235289e-05,21.0,14,2,0.02
indicator_revision_only_dfm_kalman_em,exact,2020:Q1:pre_advance:exact,2020-04-28,pre_advance,DELTA_SA,DELTA_SA,2020:Q1,0.0,0.4296414939766997,0.655470437149304,model_implied_state_space,-0.26449999999999996,0.26449999999999996,True,True,27,-3819.3175871297244,-4997.043654380125,-3819.3175871297244,0.35045127010107535,9.172512936974539e-05,27.0,14,2,0.02
joint_indicator_revision_dfm_full_kalman_em,exact,2020:Q1:pre_advance:exact,2020-04-28,pre_advance,DELTA_SA,DELTA_SA,2020:Q1,-0.005915320178360162,0.3871715280311374,0.6222310889300995,model_implied_state_space,-0.26449999999999996,0.2585846798216398,True,True,28,-3783.616331066416,-5012.4162829261995,-3783.616331066416,0.35512082588820704,9.382391132981033e-05,28.0,14,2,0.02
ar,exact,2020:Q1:pre_second:exact,2020-05-27,pre_second,DELTA_TS,DELTA_TS,2020:Q1,0.06260501235437754,,,not_available,0.05400000000000027,0.008605012354377273,True,True,0,,,,,,,14,2,0.02
no_revision,exact,2020:Q1:pre_second:exact,2020-05-27,pre_second,DELTA_TS,DELTA_TS,2020:Q1,0.0,,,not_available,0.05400000000000027,-0.05400000000000027,True,True,0,,,,,,,14,2,0.02
bridge,exact,2020:Q1:pre_second:exact,2020-05-27,pre_second,DELTA_TS,DELTA_TS,2020:Q1,-0.19571952994773856,,,not_available,0.05400000000000027,-0.24971952994773883,True,True,0,,,,,,,14,2,0.02
midas_umidas,exact,2020:Q1:pre_second:exact,2020-05-27,pre_second,DELTA_TS,DELTA_TS,2020:Q1,1.0995167666791978,,,not_available,0.05400000000000027,1.0455167666791976,True,True,0,,,,,,,14,2,0.02
monthly_mixed_frequency_kalman_em,exact,2020:Q1:pre_second:exact,2020-05-27,pre_second,DELTA_TS,DELTA_TS,2020:Q1,0.1462839644181333,0.15021312183058277,0.3875733760600472,model_implied_state_space,0.05400000000000027,0.09228396441813302,True,True,38,-5904.76722749727,-7387.481874880861,-5904.76722749727,0.5293239996499324,8.962028828636753e-05,38.0,14,2,0.02
standard_dfm,exact,2020:Q1:pre_second:exact,2020-05-27,pre_second,DELTA_TS,DELTA_TS,2020:Q1,0.029589852763222346,,,not_available,0.05400000000000027,-0.024410147236777924,True,True,0,,,,,,,14,2,0.02
release_dfm,exact,2020:Q1:pre_second:exact,2020-05-27,pre_second,DELTA_TS,DELTA_TS,2020:Q1,0.0020918693136193767,,,not_available,0.05400000000000027,-0.05190813068638089,True,True,0,,,,,,,14,2,0.02
revision_dfm_kalman_em,exact,2020:Q1:pre_second:exact,2020-05-27,pre_second,DELTA_TS,DELTA_TS,2020:Q1,-0.015102483064597827,0.14693880434302997,0.3833259766087213,model_implied_state_space,0.05400000000000027,-0.0691024830645981,True,True,20,-2059.2340258441955,-3055.6269620211324,-2059.2340258441955,0.2050040071553667,9.949530376065367e-05,20.0,14,2,0.02
indicator_revision_only_dfm_kalman_em,exact,2020:Q1:pre_second:exact,2020-05-27,pre_second,DELTA_TS,DELTA_TS,2020:Q1,0.0,0.1508550056930753,0.3884005737548225,model_implied_state_space,0.05400000000000027,-0.05400000000000027,True,True,26,-3818.270694425105,-4998.283446923563,-3818.270694425105,0.3806203690687653,9.964793581931325e-05,26.0,14,2,0.02
joint_indicator_revision_dfm_full_kalman_em,exact,2020:Q1:pre_second:exact,2020-05-27,pre_second,DELTA_TS,DELTA_TS,2020:Q1,-0.011794766981130245,0.14572007805144005,0.38173299313976,model_implied_state_space,0.05400000000000027,-0.06579476698113051,True,True,28,-3782.823775477221,-5013.2609972784585,-3782.823775477221,0.353417966185134,9.339360926266296e-05,28.0,14,2,0.02
ar,exact,2020:Q1:pre_third:exact,2020-06-24,pre_third,DELTA_MT,DELTA_MT,2020:Q1,0.1841743620429881,,,not_available,-0.16790000000000038,0.3520743620429885,True,True,0,,,,,,,14,2,0.02
no_revision,exact,2020:Q1:pre_third:exact,2020-06-24,pre_third,DELTA_MT,DELTA_MT,2020:Q1,0.0,,,not_available,-0.16790000000000038,0.16790000000000038,True,True,0,,,,,,,14,2,0.02
bridge,exact,2020:Q1:pre_third:exact,2020-06-24,pre_third,DELTA_MT,DELTA_MT,2020:Q1,-0.6232225679515535,,,not_available,-0.16790000000000038,-0.4553225679515531,True,True,0,,,,,,,14,2,0.02
midas_umidas,exact,2020:Q1:pre_third:exact,2020-06-24,pre_third,DELTA_MT,DELTA_MT,2020:Q1,2.5739716051732966,,,not_available,-0.16790000000000038,2.741871605173297,True,True,0,,,,,,,14,2,0.02
monthly_mixed_frequency_kalman_em,exact,2020:Q1:pre_third:exact,2020-06-24,pre_third,DELTA_MT,DELTA_MT,2020:Q1,-0.2265386385878454,4.360171106161589,2.088102273874915,model_implied_state_space,-0.16790000000000038,-0.058638638587845016,True,True,30,-5842.564757670993,-7569.414509506856,-5842.564757670993,0.568459167846413,9.727005644027727e-05,30.0,14,2,0.02
standard_dfm,exact,2020:Q1:pre_third:exact,2020-06-24,pre_third,DELTA_MT,DELTA_MT,2020:Q1,0.0422232444522006,,,not_available,-0.16790000000000038,0.21012324445220099,True,True,0,,,,,,,14,2,0.02
release_dfm,exact,2020:Q1:pre_third:exact,2020-06-24,pre_third,DELTA_MT,DELTA_MT,2020:Q1,1.1250785037045006,,,not_available,-0.16790000000000038,1.292978503704501,True,True,0,,,,,,,14,2,0.02
revision_dfm_kalman_em,exact,2020:Q1:pre_third:exact,2020-06-24,pre_third,DELTA_MT,DELTA_MT,2020:Q1,-0.00954744384335271,4.278753237900275,2.068514742006997,model_implied_state_space,-0.16790000000000038,0.15835255615664767,True,True,21,-2056.743396551771,-3057.0930228727543,-2056.743396551771,0.17640573972585116,8.572041511502201e-05,21.0,14,2,0.02
indicator_revision_only_dfm_kalman_em,exact,2020:Q1:pre_third:exact,2020-06-24,pre_third,DELTA_MT,DELTA_MT,2020:Q1,0.0,4.280883517220333,2.069029607622939,model_implied_state_space,-0.16790000000000038,0.16790000000000038,True,True,25,-3815.517433113246,-5010.798624172015,-3815.517433113246,0.3678536483002972,9.6375348134291e-05,25.0,14,2,0.02
joint_indicator_revision_dfm_full_kalman_em,exact,2020:Q1:pre_third:exact,2020-06-24,pre_third,DELTA_MT,DELTA_MT,2020:Q1,-0.008936293160600073,4.291437738604715,2.0715785620161054,model_implied_state_space,-0.16790000000000038,0.1589637068394003,True,True,26,-3779.6679333253087,-5026.144519911568,-3779.6679333253087,0.36599659732610235,9.679801982988054e-05,26.0,14,2,0.02
ar,pseudo,2020:Q1:pre_advance:pseudo,2020-04-30,pre_advance,DELTA_SA,DELTA_SA,2020:Q1,0.07270396930060219,,,not_available,-0.26449999999999996,0.33720396930060215,True,True,0,,,,,,,14,2,0.02
no_revision,pseudo,2020:Q1:pre_advance:pseudo,2020-04-30,pre_advance,DELTA_SA,DELTA_SA,2020:Q1,0.0,,,not_available,-0.26449999999999996,0.26449999999999996,True,True,0,,,,,,,14,2,0.02
bridge,pseudo,2020:Q1:pre_advance:pseudo,2020-04-30,pre_advance,DELTA_SA,DELTA_SA,2020:Q1,-0.008254212386642479,,,not_available,-0.26449999999999996,0.2562457876133575,True,True,0,,,,,,,14,2,0.02
midas_umidas,pseudo,2020:Q1:pre_advance:pseudo,2020-04-30,pre_advance,DELTA_SA,DELTA_SA,2020:Q1,0.3587534204445504,,,not_available,-0.26449999999999996,0.6232534204445503,True,True,0,,,,,,,14,2,0.02
monthly_mixed_frequency_kalman_em,pseudo,2020:Q1:pre_advance:pseudo,2020-04-30,pre_advance,DELTA_SA,DELTA_SA,2020:Q1,-0.7033996338458226,0.3502055003116089,0.5917816322864448,model_implied_state_space,-0.26449999999999996,-0.43889963384582265,True,True,40,-6365.75857504451,-7568.960720705711,-6365.75857504451,0.5585125763955148,8.771552738929141e-05,40.0,14,2,0.02
standard_dfm,pseudo,2020:Q1:pre_advance:pseudo,2020-04-30,pre_advance,DELTA_SA,DELTA_SA,2020:Q1,-0.08726901154794109,,,not_available,-0.26449999999999996,0.17723098845205887,True,True,0,,,,,,,14,2,0.02
release_dfm,pseudo,2020:Q1:pre_advance:pseudo,2020-04-30,pre_advance,DELTA_SA,DELTA_SA,2020:Q1,-0.08726901154794109,,,not_available,-0.26449999999999996,0.17723098845205887,True,True,0,,,,,,,14,2,0.02
revision_dfm_kalman_em,pseudo,2020:Q1:pre_advance:pseudo,2020-04-30,pre_advance,DELTA_SA,DELTA_SA,2020:Q1,-0.09317002547680531,0.40500717271512077,0.6364017384601655,model_implied_state_space,-0.26449999999999996,0.17132997452319465,True,True,21,-2059.085808568774,-3054.0127877053023,-2059.085808568774,0.19027956139780144,9.235634121759474e-05,21.0,14,2,0.02
indicator_revision_only_dfm_kalman_em,pseudo,2020:Q1:pre_advance:pseudo,2020-04-30,pre_advance,DELTA_SA,DELTA_SA,2020:Q1,0.0,0.43006384374465867,0.6557925310223186,model_implied_state_space,-0.26449999999999996,0.26449999999999996,True,True,26,-3818.627930001731,-4996.381152899285,-3818.627930001731,0.3805755900375516,9.962689598215843e-05,26.0,14,2,0.02
joint_indicator_revision_dfm_full_kalman_em,pseudo,2020:Q1:pre_advance:pseudo,2020-04-30,pre_advance,DELTA_SA,DELTA_SA,2020:Q1,-0.0035542985963066265,0.3871722147572685,0.6222316407554894,model_implied_state_space,-0.26449999999999996,0.26094570140369333,True,True,28,-3782.566919567272,-5011.752320514218,-3782.566919567272,0.35254303533247366,9.316874706682903e-05,28.0,14,2,0.02
ar,pseudo,2020:Q1:pre_second:pseudo,2020-05-31,pre_second,DELTA_TS,DELTA_TS,2020:Q1,0.06260501235437754,,,not_available,0.05400000000000027,0.008605012354377273,True,True,0,,,,,,,14,2,0.02
no_revision,pseudo,2020:Q1:pre_second:pseudo,2020-05-31,pre_second,DELTA_TS,DELTA_TS,2020:Q1,0.0,,,not_available,0.05400000000000027,-0.05400000000000027,True,True,0,,,,,,,14,2,0.02
bridge,pseudo,2020:Q1:pre_second:pseudo,2020-05-31,pre_second,DELTA_TS,DELTA_TS,2020:Q1,-0.1950308406984187,,,not_available,0.05400000000000027,-0.24903084069841896,True,True,0,,,,,,,14,2,0.02
midas_umidas,pseudo,2020:Q1:pre_second:pseudo,2020-05-31,pre_second,DELTA_TS,DELTA_TS,2020:Q1,0.7787367456186525,,,not_available,0.05400000000000027,0.7247367456186522,True,True,0,,,,,,,14,2,0.02
monthly_mixed_frequency_kalman_em,pseudo,2020:Q1:pre_second:pseudo,2020-05-31,pre_second,DELTA_TS,DELTA_TS,2020:Q1,0.09223285893868383,0.14843031507427562,0.3852665506818307,model_implied_state_space,0.05400000000000027,0.038232858938683556,True,True,44,-5864.340540144614,-7345.674777637329,-5864.340540144614,0.547686764674836,9.3368087404456e-05,44.0,14,2,0.02
standard_dfm,pseudo,2020:Q1:pre_second:pseudo,2020-05-31,pre_second,DELTA_TS,DELTA_TS,2020:Q1,0.029330985332028714,,,not_available,0.05400000000000027,-0.024669014667971556,True,True,0,,,,,,,14,2,0.02
release_dfm,pseudo,2020:Q1:pre_second:pseudo,2020-05-31,pre_second,DELTA_TS,DELTA_TS,2020:Q1,0.0020323707882221598,,,not_available,0.05400000000000027,-0.05196762921177811,True,True,0,,,,,,,14,2,0.02
revision_dfm_kalman_em,pseudo,2020:Q1:pre_second:pseudo,2020-05-31,pre_second,DELTA_TS,DELTA_TS,2020:Q1,-0.015049738894650666,0.14694153866278092,0.3833295431646,model_implied_state_space,0.05400000000000027,-0.06904973889465094,True,True,20,-2060.172326229879,-3056.004659468988,-2060.172326229879,0.20576742578487028,9.982032234560168e-05,20.0,14,2,0.02
indicator_revision_only_dfm_kalman_em,pseudo,2020:Q1:pre_second:pseudo,2020-05-31,pre_second,DELTA_TS,DELTA_TS,2020:Q1,0.0,0.15085763791031104,0.38840396227421653,model_implied_state_space,0.05400000000000027,-0.05400000000000027,True,True,26,-3819.062830276788,-4998.639586193751,-3819.062830276788,0.3773720126951048,9.87771023006606e-05,26.0,14,2,0.02
joint_indicator_revision_dfm_full_kalman_em,pseudo,2020:Q1:pre_second:pseudo,2020-05-31,pre_second,DELTA_TS,DELTA_TS,2020:Q1,-0.011739844918912112,0.1457187632946022,0.38173127104627175,model_implied_state_space,0.05400000000000027,-0.06573984491891238,True,True,28,-3783.6072866723416,-5013.618130619263,-3783.6072866723416,0.3503580652745768,9.256591437996517e-05,28.0,14,2,0.02
ar,pseudo,2020:Q1:pre_third:pseudo,2020-06-30,pre_third,DELTA_MT,DELTA_MT,2020:Q1,0.1841743620429881,,,not_available,-0.16790000000000038,0.3520743620429885,True,True,0,,,,,,,14,2,0.02
no_revision,pseudo,2020:Q1:pre_third:pseudo,2020-06-30,pre_third,DELTA_MT,DELTA_MT,2020:Q1,0.0,,,not_available,-0.16790000000000038,0.16790000000000038,True,True,0,,,,,,,14,2,0.02
bridge,pseudo,2020:Q1:pre_third:pseudo,2020-06-30,pre_third,DELTA_MT,DELTA_MT,2020:Q1,-0.6220211317495115,,,not_available,-0.16790000000000038,-0.4541211317495111,True,True,0,,,,,,,14,2,0.02
midas_umidas,pseudo,2020:Q1:pre_third:pseudo,2020-06-30,pre_third,DELTA_MT,DELTA_MT,2020:Q1,2.525235690040403,,,not_available,-0.16790000000000038,2.6931356900404033,True,True,0,,,,,,,14,2,0.02
monthly_mixed_frequency_kalman_em,pseudo,2020:Q1:pre_third:pseudo,2020-06-30,pre_third,DELTA_MT,DELTA_MT,2020:Q1,-0.22617328111443946,4.360133186602745,2.0880931939457934,model_implied_state_space,-0.16790000000000038,-0.05827328111443908,True,True,30,-5848.09797214537,-7570.982370400096,-5848.09797214537,0.5808403497094332,9.929440031284142e-05,30.0,14,2,0.02
standard_dfm,pseudo,2020:Q1:pre_third:pseudo,2020-06-30,pre_third,DELTA_MT,DELTA_MT,2020:Q1,0.04086455062086802,,,not_available,-0.16790000000000038,0.2087645506208684,True,True,0,,,,,,,14,2,0.02
release_dfm,pseudo,2020:Q1:pre_third:pseudo,2020-06-30,pre_third,DELTA_MT,DELTA_MT,2020:Q1,1.1213922379207828,,,not_available,-0.16790000000000038,1.2892922379207832,True,True,0,,,,,,,14,2,0.02
revision_dfm_kalman_em,pseudo,2020:Q1:pre_third:pseudo,2020-06-30,pre_third,DELTA_MT,DELTA_MT,2020:Q1,-0.0095427216406474,4.278754596017226,2.0685150702900925,model_implied_state_space,-0.16790000000000038,0.15835727835935298,True,True,21,-2056.6487338454926,-3057.0511981597383,-2056.6487338454926,0.1763755737106294,8.570970045185682e-05,21.0,14,2,0.02
indicator_revision_only_dfm_kalman_em,pseudo,2020:Q1:pre_third:pseudo,2020-06-30,pre_third,DELTA_MT,DELTA_MT,2020:Q1,0.0,4.28088196773864,2.069029233176429,model_implied_state_space,-0.16790000000000038,0.16790000000000038,True,True,25,-3815.459764760747,-5010.780297661727,-3815.459764760747,0.36795653783383386,9.640375848785907e-05,25.0,14,2,0.02
joint_indicator_revision_dfm_full_kalman_em,pseudo,2020:Q1:pre_third:pseudo,2020-06-30,pre_third,DELTA_MT,DELTA_MT,2020:Q1,-0.008931928310749626,4.2914391012300985,2.0715788909018404,model_implied_state_space,-0.16790000000000038,0.15896807168925076,True,True,26,-3779.6087990096557,-5026.126087429312,-3779.6087990096557,0.3661013335845382,9.682723192669256e-05,26.0,14,2,0.02
ar,exact,2020:Q2:pre_advance:exact,2020-07-29,pre_advance,DELTA_SA,DELTA_SA,2020:Q2,0.22277037037452474,,,not_available,1.1996999999999964,-0.9769296296254717,True,True,0,,,,,,,14,2,0.02
no_revision,exact,2020:Q2:pre_advance:exact,2020-07-29,pre_advance,DELTA_SA,DELTA_SA,2020:Q2,0.0,,,not_available,1.1996999999999964,-1.1996999999999964,True,True,0,,,,,,,14,2,0.02
bridge,exact,2020:Q2:pre_advance:exact,2020-07-29,pre_advance,DELTA_SA,DELTA_SA,2020:Q2,-0.8123714058636846,,,not_available,1.1996999999999964,-2.012071405863681,True,True,0,,,,,,,14,2,0.02
midas_umidas,exact,2020:Q2:pre_advance:exact,2020-07-29,pre_advance,DELTA_SA,DELTA_SA,2020:Q2,46.64625568917797,,,not_available,1.1996999999999964,45.44655568917797,True,True,0,,,,,,,14,2,0.02
monthly_mixed_frequency_kalman_em,exact,2020:Q2:pre_advance:exact,2020-07-29,pre_advance,DELTA_SA,DELTA_SA,2020:Q2,-1.5587867500333488,0.3331608578720253,0.5772008817318502,model_implied_state_space,1.1996999999999964,-2.758486750033345,True,True,30,-5800.950420662696,-7576.408237289621,-5800.950420662696,0.543709375088838,9.370270144250838e-05,30.0,14,2,0.02
standard_dfm,exact,2020:Q2:pre_advance:exact,2020-07-29,pre_advance,DELTA_SA,DELTA_SA,2020:Q2,-1.5018387117883414,,,not_available,1.1996999999999964,-2.701538711788338,True,True,0,,,,,,,14,2,0.02
release_dfm,exact,2020:Q2:pre_advance:exact,2020-07-29,pre_advance,DELTA_SA,DELTA_SA,2020:Q2,-1.5018387117883414,,,not_available,1.1996999999999964,-2.701538711788338,True,True,0,,,,,,,14,2,0.02
revision_dfm_kalman_em,exact,2020:Q2:pre_advance:exact,2020-07-29,pre_advance,DELTA_SA,DELTA_SA,2020:Q2,-0.9883483163006375,0.3971437758468497,0.6301934431956981,model_implied_state_space,1.1996999999999964,-2.188048316300634,True,True,29,-1891.9115312820363,-3083.604358628097,-1891.9115312820363,0.1768876505677781,9.343866287424343e-05,29.0,14,2,0.02
indicator_revision_only_dfm_kalman_em,exact,2020:Q2:pre_advance:exact,2020-07-29,pre_advance,DELTA_SA,DELTA_SA,2020:Q2,0.0,0.4242326337305675,0.6513314315542952,model_implied_state_space,1.1996999999999964,-1.1996999999999964,True,True,36,-3399.187138336603,-5000.125328571136,-3399.187138336603,0.290430749830648,8.54088121241966e-05,36.0,14,2,0.02
joint_indicator_revision_dfm_full_kalman_em,exact,2020:Q2:pre_advance:exact,2020-07-29,pre_advance,DELTA_SA,DELTA_SA,2020:Q2,-0.5105468155785999,0.3607420588556902,0.6006180640437734,model_implied_state_space,1.1996999999999964,-1.7102468155785964,True,True,37,-3358.23407541736,-5015.072852641998,-3358.23407541736,0.31667834879590373,9.426211181387806e-05,37.0,14,2,0.02
ar,exact,2020:Q2:pre_second:exact,2020-08-26,pre_second,DELTA_TS,DELTA_TS,2020:Q2,0.22266421245840196,,,not_available,0.3214000000000006,-0.09873578754159862,True,True,0,,,,,,,14,2,0.02
no_revision,exact,2020:Q2:pre_second:exact,2020-08-26,pre_second,DELTA_TS,DELTA_TS,2020:Q2,0.0,,,not_available,0.3214000000000006,-0.3214000000000006,True,True,0,,,,,,,14,2,0.02
bridge,exact,2020:Q2:pre_second:exact,2020-08-26,pre_second,DELTA_TS,DELTA_TS,2020:Q2,0.2158070170818096,,,not_available,0.3214000000000006,-0.10559298291819097,True,True,0,,,,,,,14,2,0.02
midas_umidas,exact,2020:Q2:pre_second:exact,2020-08-26,pre_second,DELTA_TS,DELTA_TS,2020:Q2,-20.633376910143767,,,not_available,0.3214000000000006,-20.954776910143767,True,True,0,,,,,,,14,2,0.02
monthly_mixed_frequency_kalman_em,exact,2020:Q2:pre_second:exact,2020-08-26,pre_second,DELTA_TS,DELTA_TS,2020:Q2,-0.7709575212528677,0.14745425712027993,0.38399773061865866,model_implied_state_space,0.3214000000000006,-1.0923575212528682,True,True,30,-5790.936824378299,-7593.671304928383,-5790.936824378299,0.5359329527009322,9.252230871913056e-05,30.0,14,2,0.02
standard_dfm,exact,2020:Q2:pre_second:exact,2020-08-26,pre_second,DELTA_TS,DELTA_TS,2020:Q2,-0.20132203708942242,,,not_available,0.3214000000000006,-0.522722037089423,True,True,0,,,,,,,14,2,0.02
release_dfm,exact,2020:Q2:pre_second:exact,2020-08-26,pre_second,DELTA_TS,DELTA_TS,2020:Q2,-0.1432377354184453,,,not_available,0.3214000000000006,-0.4646377354184459,True,True,0,,,,,,,14,2,0.02
revision_dfm_kalman_em,exact,2020:Q2:pre_second:exact,2020-08-26,pre_second,DELTA_TS,DELTA_TS,2020:Q2,-0.06503980703872969,0.1456630812179378,0.38165833047103503,model_implied_state_space,0.3214000000000006,-0.38643980703873027,True,True,25,-1847.7181564180075,-3094.8139111078767,-1847.7181564180075,0.1618311167576394,8.752927061178243e-05,25.0,14,2,0.02
indicator_revision_only_dfm_kalman_em,exact,2020:Q2:pre_second:exact,2020-08-26,pre_second,DELTA_TS,DELTA_TS,2020:Q2,0.0,0.1488159888789754,0.3857667545019599,model_implied_state_space,0.3214000000000006,-0.3214000000000006,True,True,42,-3346.0197220033,-5000.359266650824,-3346.0197220033,0.31636899052864464,9.451366158894259e-05,42.0,14,2,0.02
joint_indicator_revision_dfm_full_kalman_em,exact,2020:Q2:pre_second:exact,2020-08-26,pre_second,DELTA_TS,DELTA_TS,2020:Q2,-0.011097657327084676,0.1443561864330304,0.3799423461961438,model_implied_state_space,0.3214000000000006,-0.33249765732708525,True,True,45,-3306.7208485310102,-5008.473916841611,-3306.7208485310102,0.27439731692948044,8.294973134374747e-05,45.0,14,2,0.02
ar,exact,2020:Q2:pre_third:exact,2020-09-29,pre_third,DELTA_MT,DELTA_MT,2020:Q2,3.4133521633512327,,,not_available,3.4068000000000005,0.00655216335123221,True,True,0,,,,,,,14,2,0.02
no_revision,exact,2020:Q2:pre_third:exact,2020-09-29,pre_third,DELTA_MT,DELTA_MT,2020:Q2,0.0,,,not_available,3.4068000000000005,-3.4068000000000005,True,True,0,,,,,,,14,2,0.02
bridge,exact,2020:Q2:pre_third:exact,2020-09-29,pre_third,DELTA_MT,DELTA_MT,2020:Q2,-1.2255572624661575,,,not_available,3.4068000000000005,-4.632357262466158,True,True,0,,,,,,,14,2,0.02
midas_umidas,exact,2020:Q2:pre_third:exact,2020-09-29,pre_third,DELTA_MT,DELTA_MT,2020:Q2,5.755193188971731,,,not_available,3.4068000000000005,2.3483931889717304,True,True,0,,,,,,,14,2,0.02
monthly_mixed_frequency_kalman_em,exact,2020:Q2:pre_third:exact,2020-09-29,pre_third,DELTA_MT,DELTA_MT,2020:Q2,-0.07489958433117039,4.282575440904073,2.069438436123209,model_implied_state_space,3.4068000000000005,-3.481699584331171,True,True,30,-5763.283163787264,-7611.521640025797,-5763.283163787264,0.5381468727000538,9.335013935383299e-05,30.0,14,2,0.02
standard_dfm,exact,2020:Q2:pre_third:exact,2020-09-29,pre_third,DELTA_MT,DELTA_MT,2020:Q2,-0.6909622800456106,,,not_available,3.4068000000000005,-4.097762280045611,True,True,0,,,,,,,14,2,0.02
release_dfm,exact,2020:Q2:pre_third:exact,2020-09-29,pre_third,DELTA_MT,DELTA_MT,2020:Q2,1.4993223405828005,,,not_available,3.4068000000000005,-1.9074776594172,True,True,0,,,,,,,14,2,0.02
revision_dfm_kalman_em,exact,2020:Q2:pre_third:exact,2020-09-29,pre_third,DELTA_MT,DELTA_MT,2020:Q2,0.004340740821660916,4.2613082775694044,2.064293651002542,model_implied_state_space,3.4068000000000005,-3.4024592591783396,True,True,24,-1808.8263014273953,-3099.849287938369,-1808.8263014273953,0.17061148127231718,9.426064765941744e-05,24.0,14,2,0.02
indicator_revision_only_dfm_kalman_em,exact,2020:Q2:pre_third:exact,2020-09-29,pre_third,DELTA_MT,DELTA_MT,2020:Q2,0.0,4.279128577777768,2.0686054669215608,model_implied_state_space,3.4068000000000005,-3.4068000000000005,True,True,38,-3301.8624921195774,-5020.355052569304,-3301.8624921195774,0.31481904772590497,9.530794688543428e-05,38.0,14,2,0.02
joint_indicator_revision_dfm_full_kalman_em,exact,2020:Q2:pre_third:exact,2020-09-29,pre_third,DELTA_MT,DELTA_MT,2020:Q2,0.01885161503545163,4.281771771706784,2.0692442513407605,model_implied_state_space,3.4068000000000005,-3.387948384964549,True,True,40,-3261.923695085176,-5029.912803870359,-3261.923695085176,0.28325967567980115,8.680407942454874e-05,40.0,14,2,0.02
ar,pseudo,2020:Q2:pre_advance:pseudo,2020-07-31,pre_advance,DELTA_SA,DELTA_SA,2020:Q2,0.22277037037452474,,,not_available,1.1996999999999964,-0.9769296296254717,True,True,0,,,,,,,14,2,0.02
no_revision,pseudo,2020:Q2:pre_advance:pseudo,2020-07-31,pre_advance,DELTA_SA,DELTA_SA,2020:Q2,0.0,,,not_available,1.1996999999999964,-1.1996999999999964,True,True,0,,,,,,,14,2,0.02
bridge,pseudo,2020:Q2:pre_advance:pseudo,2020-07-31,pre_advance,DELTA_SA,DELTA_SA,2020:Q2,-0.7774403997501551,,,not_available,1.1996999999999964,-1.9771403997501515,True,True,0,,,,,,,14,2,0.02
midas_umidas,pseudo,2020:Q2:pre_advance:pseudo,2020-07-31,pre_advance,DELTA_SA,DELTA_SA,2020:Q2,47.64493335960522,,,not_available,1.1996999999999964,46.445233359605226,True,True,0,,,,,,,14,2,0.02
monthly_mixed_frequency_kalman_em,pseudo,2020:Q2:pre_advance:pseudo,2020-07-31,pre_advance,DELTA_SA,DELTA_SA,2020:Q2,-1.5572435297640652,0.3332142579721582,0.5772471376907452,model_implied_state_space,1.1996999999999964,-2.7569435297640617,True,True,30,-5805.174913630151,-7577.424273802538,-5805.174913630151,0.5482355668964374,9.441393240389759e-05,30.0,14,2,0.02
standard_dfm,pseudo,2020:Q2:pre_advance:pseudo,2020-07-31,pre_advance,DELTA_SA,DELTA_SA,2020:Q2,-1.4870034110111714,,,not_available,1.1996999999999964,-2.686703411011168,True,True,0,,,,,,,14,2,0.02
release_dfm,pseudo,2020:Q2:pre_advance:pseudo,2020-07-31,pre_advance,DELTA_SA,DELTA_SA,2020:Q2,-1.4870034110111714,,,not_available,1.1996999999999964,-2.686703411011168,True,True,0,,,,,,,14,2,0.02
revision_dfm_kalman_em,pseudo,2020:Q2:pre_advance:pseudo,2020-07-31,pre_advance,DELTA_SA,DELTA_SA,2020:Q2,-0.983053733868438,0.39703826111684215,0.6301097214905053,model_implied_state_space,1.1996999999999964,-2.1827537338684344,True,True,29,-1897.3295802389944,-3086.1692793346256,-1897.3295802389944,0.1702256702944851,8.966325398856457e-05,29.0,14,2,0.02
indicator_revision_only_dfm_kalman_em,pseudo,2020:Q2:pre_advance:pseudo,2020-07-31,pre_advance,DELTA_SA,DELTA_SA,2020:Q2,0.0,0.42406698055053127,0.6512042540943135,model_implied_state_space,1.1996999999999964,-1.1996999999999964,True,True,37,-3409.1875070892056,-5003.862827713946,-3409.1875070892056,0.2782895213595111,8.159868415513345e-05,37.0,14,2,0.02
joint_indicator_revision_dfm_full_kalman_em,pseudo,2020:Q2:pre_advance:pseudo,2020-07-31,pre_advance,DELTA_SA,DELTA_SA,2020:Q2,-0.5238065994617358,0.35964940779760113,0.5997077686653735,model_implied_state_space,1.1996999999999964,-1.7235065994617322,True,True,38,-3368.1627525129875,-5018.797297561836,-3368.1627525129875,0.30245763683160476,8.976428541850306e-05,38.0,14,2,0.02
ar,pseudo,2020:Q2:pre_second:pseudo,2020-08-31,pre_second,DELTA_TS,DELTA_TS,2020:Q2,0.22266421245840196,,,not_available,0.3214000000000006,-0.09873578754159862,True,True,0,,,,,,,14,2,0.02
no_revision,pseudo,2020:Q2:pre_second:pseudo,2020-08-31,pre_second,DELTA_TS,DELTA_TS,2020:Q2,0.0,,,not_available,0.3214000000000006,-0.3214000000000006,True,True,0,,,,,,,14,2,0.02
bridge,pseudo,2020:Q2:pre_second:pseudo,2020-08-31,pre_second,DELTA_TS,DELTA_TS,2020:Q2,0.23140965317984374,,,not_available,0.3214000000000006,-0.08999034682015683,True,True,0,,,,,,,14,2,0.02
midas_umidas,pseudo,2020:Q2:pre_second:pseudo,2020-08-31,pre_second,DELTA_TS,DELTA_TS,2020:Q2,-20.626923509636782,,,not_available,0.3214000000000006,-20.948323509636783,True,True,0,,,,,,,14,2,0.02
monthly_mixed_frequency_kalman_em,pseudo,2020:Q2:pre_second:pseudo,2020-08-31,pre_second,DELTA_TS,DELTA_TS,2020:Q2,-0.770920708788907,0.14745774825586389,0.38400227636807555,model_implied_state_space,0.3214000000000006,-1.0923207087889075,True,True,30,-5794.179609483348,-7595.112622176762,-5794.179609483348,0.5378628933985965,9.280350465013715e-05,30.0,14,2,0.02
standard_dfm,pseudo,2020:Q2:pre_second:pseudo,2020-08-31,pre_second,DELTA_TS,DELTA_TS,2020:Q2,-0.2010002342961421,,,not_available,0.3214000000000006,-0.5224002342961427,True,True,0,,,,,,,14,2,0.02
release_dfm,pseudo,2020:Q2:pre_second:pseudo,2020-08-31,pre_second,DELTA_TS,DELTA_TS,2020:Q2,-0.14322689758746776,,,not_available,0.3214000000000006,-0.46462689758746833,True,True,0,,,,,,,14,2,0.02
revision_dfm_kalman_em,pseudo,2020:Q2:pre_second:pseudo,2020-08-31,pre_second,DELTA_TS,DELTA_TS,2020:Q2,-0.06507071394995023,0.14566260742475656,0.3816577097672161,model_implied_state_space,0.3214000000000006,-0.3864707139499508,True,True,25,-1848.5807999288156,-3095.048096136602,-1848.5807999288156,0.16149681694560059,8.730773861295209e-05,25.0,14,2,0.02
indicator_revision_only_dfm_kalman_em,pseudo,2020:Q2:pre_second:pseudo,2020-08-31,pre_second,DELTA_TS,DELTA_TS,2020:Q2,0.0,0.1488164889924255,0.38576740270845267,model_implied_state_space,0.3214000000000006,-0.3214000000000006,True,True,42,-3347.022384522298,-5000.38371805466,-3347.022384522298,0.328421894895655,9.80846732863912e-05,42.0,14,2,0.02
joint_indicator_revision_dfm_full_kalman_em,pseudo,2020:Q2:pre_second:pseudo,2020-08-31,pre_second,DELTA_TS,DELTA_TS,2020:Q2,-0.010948564515771864,0.14435564537600654,0.3799416341703111,model_implied_state_space,0.3214000000000006,-0.33234856451577244,True,True,45,-3307.7447512070926,-5008.499029987163,-3307.7447512070926,0.2849549904954074,8.6114364570891e-05,45.0,14,2,0.02
ar,pseudo,2020:Q2:pre_third:pseudo,2020-09-30,pre_third,DELTA_MT,DELTA_MT,2020:Q2,3.4133521633512327,,,not_available,3.4068000000000005,0.00655216335123221,True,True,0,,,,,,,14,2,0.02
no_revision,pseudo,2020:Q2:pre_third:pseudo,2020-09-30,pre_third,DELTA_MT,DELTA_MT,2020:Q2,0.0,,,not_available,3.4068000000000005,-3.4068000000000005,True,True,0,,,,,,,14,2,0.02
bridge,pseudo,2020:Q2:pre_third:pseudo,2020-09-30,pre_third,DELTA_MT,DELTA_MT,2020:Q2,-1.2255572624661575,,,not_available,3.4068000000000005,-4.632357262466158,True,True,0,,,,,,,14,2,0.02
midas_umidas,pseudo,2020:Q2:pre_third:pseudo,2020-09-30,pre_third,DELTA_MT,DELTA_MT,2020:Q2,5.755193188971731,,,not_available,3.4068000000000005,2.3483931889717304,True,True,0,,,,,,,14,2,0.02
monthly_mixed_frequency_kalman_em,pseudo,2020:Q2:pre_third:pseudo,2020-09-30,pre_third,DELTA_MT,DELTA_MT,2020:Q2,-0.07489958433117039,4.282575440904073,2.069438436123209,model_implied_state_space,3.4068000000000005,-3.481699584331171,True,True,30,-5763.283163787264,-7611.521640025797,-5763.283163787264,0.5381468727000538,9.335013935383299e-05,30.0,14,2,0.02
standard_dfm,pseudo,2020:Q2:pre_third:pseudo,2020-09-30,pre_third,DELTA_MT,DELTA_MT,2020:Q2,-0.6909622800456106,,,not_available,3.4068000000000005,-4.097762280045611,True,True,0,,,,,,,14,2,0.02
release_dfm,pseudo,2020:Q2:pre_third:pseudo,2020-09-30,pre_third,DELTA_MT,DELTA_MT,2020:Q2,1.4993223405828005,,,not_available,3.4068000000000005,-1.9074776594172,True,True,0,,,,,,,14,2,0.02
revision_dfm_kalman_em,pseudo,2020:Q2:pre_third:pseudo,2020-09-30,pre_third,DELTA_MT,DELTA_MT,2020:Q2,0.004340740821660916,4.2613082775694044,2.064293651002542,model_implied_state_space,3.4068000000000005,-3.4024592591783396,True,True,24,-1808.8263014273953,-3099.849287938369,-1808.8263014273953,0.17061148127231718,9.426064765941744e-05,24.0,14,2,0.02
indicator_revision_only_dfm_kalman_em,pseudo,2020:Q2:pre_third:pseudo,2020-09-30,pre_third,DELTA_MT,DELTA_MT,2020:Q2,0.0,4.279128577777768,2.0686054669215608,model_implied_state_space,3.4068000000000005,-3.4068000000000005,True,True,38,-3301.8624921195774,-5020.355052569304,-3301.8624921195774,0.31481904772590497,9.530794688543428e-05,38.0,14,2,0.02
joint_indicator_revision_dfm_full_kalman_em,pseudo,2020:Q2:pre_third:pseudo,2020-09-30,pre_third,DELTA_MT,DELTA_MT,2020:Q2,0.01885161503545163,4.281771771706784,2.0692442513407605,model_implied_state_space,3.4068000000000005,-3.387948384964549,True,True,40,-3261.923695085176,-5029.912803870359,-3261.923695085176,0.28325967567980115,8.680407942454874e-05,40.0,14,2,0.02
ar,exact,2020:Q3:pre_advance:exact,2020-10-28,pre_advance,DELTA_SA,DELTA_SA,2020:Q3,2.555388340709694,,,not_available,-0.014299999999998647,2.5696883407096927,True,True,0,,,,,,,14,2,0.02
no_revision,exact,2020:Q3:pre_advance:exact,2020-10-28,pre_advance,DELTA_SA,DELTA_SA,2020:Q3,0.0,,,not_available,-0.014299999999998647,0.014299999999998647,True,True,0,,,,,,,14,2,0.02
bridge,exact,2020:Q3:pre_advance:exact,2020-10-28,pre_advance,DELTA_SA,DELTA_SA,2020:Q3,2.262902420301885,,,not_available,-0.014299999999998647,2.2772024203018835,True,True,0,,,,,,,14,2,0.02
midas_umidas,exact,2020:Q3:pre_advance:exact,2020-10-28,pre_advance,DELTA_SA,DELTA_SA,2020:Q3,-63.93108790807699,,,not_available,-0.014299999999998647,-63.91678790807699,True,True,0,,,,,,,14,2,0.02
monthly_mixed_frequency_kalman_em,exact,2020:Q3:pre_advance:exact,2020-10-28,pre_advance,DELTA_SA,DELTA_SA,2020:Q3,1.1994237271587114,0.36806673004026,0.6066850336379331,model_implied_state_space,-0.014299999999998647,1.21372372715871,True,True,30,-5768.034541426863,-7659.023192441736,-5768.034541426863,0.5548614852687024,9.617001254693144e-05,30.0,14,2,0.02
standard_dfm,exact,2020:Q3:pre_advance:exact,2020-10-28,pre_advance,DELTA_SA,DELTA_SA,2020:Q3,0.1201214726990365,,,not_available,-0.014299999999998647,0.13442147269903515,True,True,0,,,,,,,14,2,0.02
release_dfm,exact,2020:Q3:pre_advance:exact,2020-10-28,pre_advance,DELTA_SA,DELTA_SA,2020:Q3,0.1201214726990365,,,not_available,-0.014299999999998647,0.13442147269903515,True,True,0,,,,,,,14,2,0.02
revision_dfm_kalman_em,exact,2020:Q3:pre_advance:exact,2020-10-28,pre_advance,DELTA_SA,DELTA_SA,2020:Q3,1.0852558503340362,0.4161421527706004,0.64509080970868,model_implied_state_space,-0.014299999999998647,1.0995558503340348,True,True,28,-1763.127121855079,-3175.7445210718997,-1763.127121855079,0.1613140541987832,9.143292611088576e-05,28.0,14,2,0.02
indicator_revision_only_dfm_kalman_em,exact,2020:Q3:pre_advance:exact,2020-10-28,pre_advance,DELTA_SA,DELTA_SA,2020:Q3,0.0,0.4297403376210376,0.6555458318234032,model_implied_state_space,-0.014299999999998647,0.014299999999998647,True,True,39,-3199.3870782503836,-5113.531538475422,-3199.3870782503836,0.2732074231844308,8.535970668531454e-05,39.0,14,2,0.02
joint_indicator_revision_dfm_full_kalman_em,exact,2020:Q3:pre_advance:exact,2020-10-28,pre_advance,DELTA_SA,DELTA_SA,2020:Q3,1.0191288014692947,0.36333412012386024,0.6027720299780509,model_implied_state_space,-0.014299999999998647,1.0334288014692934,True,True,40,-3167.003227108281,-5124.266590848008,-3167.003227108281,0.3136959968242081,9.901029614069376e-05,40.0,14,2,0.02
ar,exact,2020:Q3:pre_second:exact,2020-11-24,pre_second,DELTA_TS,DELTA_TS,2020:Q3,1.0697573673306877,,,not_available,0.3727000000000018,0.6970573673306859,True,True,0,,,,,,,14,2,0.02
no_revision,exact,2020:Q3:pre_second:exact,2020-11-24,pre_second,DELTA_TS,DELTA_TS,2020:Q3,0.0,,,not_available,0.3727000000000018,-0.3727000000000018,True,True,0,,,,,,,14,2,0.02
bridge,exact,2020:Q3:pre_second:exact,2020-11-24,pre_second,DELTA_TS,DELTA_TS,2020:Q3,1.0566794154162311,,,not_available,0.3727000000000018,0.6839794154162293,True,True,0,,,,,,,14,2,0.02
midas_umidas,exact,2020:Q3:pre_second:exact,2020-11-24,pre_second,DELTA_TS,DELTA_TS,2020:Q3,14.8390442611652,,,not_available,0.3727000000000018,14.466344261165197,True,True,0,,,,,,,14,2,0.02
monthly_mixed_frequency_kalman_em,exact,2020:Q3:pre_second:exact,2020-11-24,pre_second,DELTA_TS,DELTA_TS,2020:Q3,0.48896568790998174,0.14475198477720796,0.38046285597572854,model_implied_state_space,0.3727000000000018,0.11626568790997993,True,True,37,-5751.403105536458,-7656.96332378251,-5751.403105536458,0.5543315071199686,9.635592009608843e-05,37.0,14,2,0.02
standard_dfm,exact,2020:Q3:pre_second:exact,2020-11-24,pre_second,DELTA_TS,DELTA_TS,2020:Q3,0.07655031567811577,,,not_available,0.3727000000000018,-0.29614968432188604,True,True,0,,,,,,,14,2,0.02
release_dfm,exact,2020:Q3:pre_second:exact,2020-11-24,pre_second,DELTA_TS,DELTA_TS,2020:Q3,0.025104152176020023,,,not_available,0.3727000000000018,-0.3475958478239818,True,True,0,,,,,,,14,2,0.02
revision_dfm_kalman_em,exact,2020:Q3:pre_second:exact,2020-11-24,pre_second,DELTA_TS,DELTA_TS,2020:Q3,0.05153452219317245,0.14614078450848744,0.3822836440504451,model_implied_state_space,0.3727000000000018,-0.32116547780682936,True,True,26,-1735.1510350532392,-3188.4420446597446,-1735.1510350532392,0.16745340862826197,9.644164347786333e-05,26.0,14,2,0.02
indicator_revision_only_dfm_kalman_em,exact,2020:Q3:pre_second:exact,2020-11-24,pre_second,DELTA_TS,DELTA_TS,2020:Q3,0.0,0.14853790929827737,0.38540616146901097,model_implied_state_space,0.3727000000000018,-0.3727000000000018,True,True,39,-3169.6863866862514,-5129.401490511552,-3169.6863866862514,0.28772031809876353,9.073562520211674e-05,39.0,14,2,0.02
joint_indicator_revision_dfm_full_kalman_em,exact,2020:Q3:pre_second:exact,2020-11-24,pre_second,DELTA_TS,DELTA_TS,2020:Q3,0.03309745410125231,0.14442524593377326,0.38003321688212105,model_implied_state_space,0.3727000000000018,-0.3396025458987495,True,True,40,-3135.693850005652,-5142.610399800349,-3135.693850005652,0.30174787494615884,9.619008555511658e-05,40.0,14,2,0.02
ar,exact,2020:Q3:pre_third:exact,2020-12-21,pre_third,DELTA_MT,DELTA_MT,2020:Q3,18.90965041100232,,,not_available,1.4142999999999972,17.495350411002324,True,True,0,,,,,,,14,2,0.02
no_revision,exact,2020:Q3:pre_third:exact,2020-12-21,pre_third,DELTA_MT,DELTA_MT,2020:Q3,0.0,,,not_available,1.4142999999999972,-1.4142999999999972,True,True,0,,,,,,,14,2,0.02
bridge,exact,2020:Q3:pre_third:exact,2020-12-21,pre_third,DELTA_MT,DELTA_MT,2020:Q3,6.926143260561631,,,not_available,1.4142999999999972,5.511843260561633,True,True,0,,,,,,,14,2,0.02
midas_umidas,exact,2020:Q3:pre_third:exact,2020-12-21,pre_third,DELTA_MT,DELTA_MT,2020:Q3,38.85047266361775,,,not_available,1.4142999999999972,37.436172663617754,True,True,0,,,,,,,14,2,0.02
monthly_mixed_frequency_kalman_em,exact,2020:Q3:pre_third:exact,2020-12-21,pre_third,DELTA_MT,DELTA_MT,2020:Q3,0.3313663820439743,4.263836525566774,2.0649059362515216,model_implied_state_space,1.4142999999999972,-1.082933617956023,True,True,33,-5738.80839494275,-7680.297825146089,-5738.80839494275,0.5482886126919766,9.551472894753632e-05,33.0,14,2,0.02
standard_dfm,exact,2020:Q3:pre_third:exact,2020-12-21,pre_third,DELTA_MT,DELTA_MT,2020:Q3,-5.018362780451323,,,not_available,1.4142999999999972,-6.43266278045132,True,True,0,,,,,,,14,2,0.02
release_dfm,exact,2020:Q3:pre_third:exact,2020-12-21,pre_third,DELTA_MT,DELTA_MT,2020:Q3,-1.9791798300080856,,,not_available,1.4142999999999972,-3.393479830008083,True,True,0,,,,,,,14,2,0.02
