haminh109/Revision-Aware-DFM/outputs/full_state_space_release_revision_dfm/sensitivity_k2_max_iter2_journal_evidence/cumulative_loss_point.csv
timing_mode,checkpoint_id,outcome_id,baseline_model,model_id,target_quarter,loss_diff_baseline_minus_model,cumulative_loss_diff
exact,pre_advance,A,ar,bridge,2024:Q1,0.7855773239734216,0.7855773239734216
exact,pre_advance,A,ar,bridge,2024:Q2,-0.6561092188970701,0.12946810507635154
exact,pre_advance,A,ar,bridge,2024:Q3,-0.07053545014004434,0.0589326549363072
exact,pre_advance,A,ar,bridge,2024:Q4,-0.00044289376299851135,0.05848976117330869
exact,pre_advance,A,ar,indicator_revision_only_dfm_kalman_em,2024:Q1,0.3812602420963283,0.3812602420963283
exact,pre_advance,A,ar,indicator_revision_only_dfm_kalman_em,2024:Q2,0.14977371022463584,0.5310339523209642
exact,pre_advance,A,ar,indicator_revision_only_dfm_kalman_em,2024:Q3,-0.19047699430941692,0.3405569580115473
exact,pre_advance,A,ar,indicator_revision_only_dfm_kalman_em,2024:Q4,-0.08437241423799513,0.25618454377355215
exact,pre_advance,A,ar,joint_indicator_revision_dfm_full_kalman_em,2024:Q1,0.6797148859148407,0.6797148859148407
exact,pre_advance,A,ar,joint_indicator_revision_dfm_full_kalman_em,2024:Q2,0.14622873285707375,0.8259436187719145
exact,pre_advance,A,ar,joint_indicator_revision_dfm_full_kalman_em,2024:Q3,-0.4422705121117909,0.38367310666012355
exact,pre_advance,A,ar,joint_indicator_revision_dfm_full_kalman_em,2024:Q4,0.014524702091634631,0.3981978087517582
exact,pre_advance,A,ar,midas_umidas,2024:Q1,-6.858121252587562,-6.858121252587562
exact,pre_advance,A,ar,midas_umidas,2024:Q2,-0.009088496400308982,-6.867209748987871
exact,pre_advance,A,ar,midas_umidas,2024:Q3,-3.3941584319243674,-10.261368180912239
exact,pre_advance,A,ar,midas_umidas,2024:Q4,0.053104823491227374,-10.208263357421012
exact,pre_advance,A,ar,monthly_mixed_frequency_kalman_em,2024:Q1,0.8402551928077647,0.8402551928077647
exact,pre_advance,A,ar,monthly_mixed_frequency_kalman_em,2024:Q2,0.07467734108743339,0.9149325338951981
exact,pre_advance,A,ar,monthly_mixed_frequency_kalman_em,2024:Q3,-0.5616952666222822,0.35323726727291593
exact,pre_advance,A,ar,monthly_mixed_frequency_kalman_em,2024:Q4,-0.0012969338098688388,0.3519403334630471
exact,pre_advance,A,ar,no_revision,2024:Q1,-0.31218151521482485,-0.31218151521482485
exact,pre_advance,A,ar,no_revision,2024:Q2,0.0978852185130688,-0.21429629670175604
exact,pre_advance,A,ar,no_revision,2024:Q3,-0.06291573213851451,-0.2772120288402705
exact,pre_advance,A,ar,no_revision,2024:Q4,0.026146771737672124,-0.2510652571025984
exact,pre_advance,A,ar,release_dfm,2024:Q1,0.5325183152236406,0.5325183152236406
exact,pre_advance,A,ar,release_dfm,2024:Q2,0.13837150824328592,0.6708898234669265
exact,pre_advance,A,ar,release_dfm,2024:Q3,-0.6175845462242279,0.05330527724269862
exact,pre_advance,A,ar,release_dfm,2024:Q4,0.059667286909634513,0.11297256415233314
exact,pre_advance,A,ar,revision_dfm_kalman_em,2024:Q1,0.7489675650676316,0.7489675650676316
exact,pre_advance,A,ar,revision_dfm_kalman_em,2024:Q2,-0.08812173433109322,0.6608458307365384
exact,pre_advance,A,ar,revision_dfm_kalman_em,2024:Q3,-0.4171020769577266,0.24374375377881174
exact,pre_advance,A,ar,revision_dfm_kalman_em,2024:Q4,0.057345163576036196,0.30108891735484794
exact,pre_advance,A,ar,spf,2024:Q1,0.6176035835239486,0.6176035835239486
exact,pre_advance,A,ar,spf,2024:Q2,-0.5427808169482209,0.07482276657572773
exact,pre_advance,A,ar,spf,2024:Q3,-0.8072172383919204,-0.7323944718161927
exact,pre_advance,A,ar,spf,2024:Q4,-0.05692555044772479,-0.7893200222639174
exact,pre_advance,A,ar,standard_dfm,2024:Q1,0.5325183152236406,0.5325183152236406
exact,pre_advance,A,ar,standard_dfm,2024:Q2,0.13837150824328592,0.6708898234669265
exact,pre_advance,A,ar,standard_dfm,2024:Q3,-0.6175845462242279,0.05330527724269862
exact,pre_advance,A,ar,standard_dfm,2024:Q4,0.059667286909634513,0.11297256415233314
exact,pre_advance,A,no_revision,ar,2024:Q1,0.31218151521482485,0.31218151521482485
exact,pre_advance,A,no_revision,ar,2024:Q2,-0.0978852185130688,0.21429629670175604
exact,pre_advance,A,no_revision,ar,2024:Q3,0.06291573213851451,0.2772120288402705
exact,pre_advance,A,no_revision,ar,2024:Q4,-0.026146771737672124,0.2510652571025984
exact,pre_advance,A,no_revision,bridge,2024:Q1,1.0977588391882465,1.0977588391882465
exact,pre_advance,A,no_revision,bridge,2024:Q2,-0.7539944374101389,0.3437644017781075
exact,pre_advance,A,no_revision,bridge,2024:Q3,-0.007619718001529829,0.3361446837765777
exact,pre_advance,A,no_revision,bridge,2024:Q4,-0.026589665500670635,0.30955501827590703
exact,pre_advance,A,no_revision,indicator_revision_only_dfm_kalman_em,2024:Q1,0.6934417573111531,0.6934417573111531
exact,pre_advance,A,no_revision,indicator_revision_only_dfm_kalman_em,2024:Q2,0.05188849171156705,0.7453302490227202
exact,pre_advance,A,no_revision,indicator_revision_only_dfm_kalman_em,2024:Q3,-0.1275612621709024,0.6177689868518177
exact,pre_advance,A,no_revision,indicator_revision_only_dfm_kalman_em,2024:Q4,-0.11051918597566726,0.5072498008761505
exact,pre_advance,A,no_revision,joint_indicator_revision_dfm_full_kalman_em,2024:Q1,0.9918964011296656,0.9918964011296656
exact,pre_advance,A,no_revision,joint_indicator_revision_dfm_full_kalman_em,2024:Q2,0.04834351434400496,1.0402399154736706
exact,pre_advance,A,no_revision,joint_indicator_revision_dfm_full_kalman_em,2024:Q3,-0.37935477997327643,0.6608851355003942
exact,pre_advance,A,no_revision,joint_indicator_revision_dfm_full_kalman_em,2024:Q4,-0.011622069646037493,0.6492630658543567
exact,pre_advance,A,no_revision,midas_umidas,2024:Q1,-6.545939737372738,-6.545939737372738
exact,pre_advance,A,no_revision,midas_umidas,2024:Q2,-0.10697371491337779,-6.652913452286115
exact,pre_advance,A,no_revision,midas_umidas,2024:Q3,-3.331242699785853,-9.984156152071968
exact,pre_advance,A,no_revision,midas_umidas,2024:Q4,0.02695805175355525,-9.957198100318413
exact,pre_advance,A,no_revision,monthly_mixed_frequency_kalman_em,2024:Q1,1.1524367080225895,1.1524367080225895
exact,pre_advance,A,no_revision,monthly_mixed_frequency_kalman_em,2024:Q2,-0.02320787742563541,1.129228830596954
exact,pre_advance,A,no_revision,monthly_mixed_frequency_kalman_em,2024:Q3,-0.4987795344837677,0.6304492961131862
exact,pre_advance,A,no_revision,monthly_mixed_frequency_kalman_em,2024:Q4,-0.027443705547540963,0.6030055905656453
exact,pre_advance,A,no_revision,release_dfm,2024:Q1,0.8446998304384654,0.8446998304384654
exact,pre_advance,A,no_revision,release_dfm,2024:Q2,0.040486289730217125,0.8851861201686826
exact,pre_advance,A,no_revision,release_dfm,2024:Q3,-0.5546688140857134,0.33051730608296914
exact,pre_advance,A,no_revision,release_dfm,2024:Q4,0.03352051517196239,0.36403782125493156
exact,pre_advance,A,no_revision,revision_dfm_kalman_em,2024:Q1,1.0611490802824564,1.0611490802824564
exact,pre_advance,A,no_revision,revision_dfm_kalman_em,2024:Q2,-0.18600695284416202,0.8751421274382943
exact,pre_advance,A,no_revision,revision_dfm_kalman_em,2024:Q3,-0.35418634481921213,0.5209557826190823
exact,pre_advance,A,no_revision,revision_dfm_kalman_em,2024:Q4,0.03119839183836407,0.5521541744574463
exact,pre_advance,A,no_revision,spf,2024:Q1,0.9297850987387735,0.9297850987387735
exact,pre_advance,A,no_revision,spf,2024:Q2,-0.6406660354612896,0.2891190632774838
exact,pre_advance,A,no_revision,spf,2024:Q3,-0.744301506253406,-0.45518244297592214
exact,pre_advance,A,no_revision,spf,2024:Q4,-0.08307232218539692,-0.5382547651613191
exact,pre_advance,A,no_revision,standard_dfm,2024:Q1,0.8446998304384654,0.8446998304384654
exact,pre_advance,A,no_revision,standard_dfm,2024:Q2,0.040486289730217125,0.8851861201686826
exact,pre_advance,A,no_revision,standard_dfm,2024:Q3,-0.5546688140857134,0.33051730608296914
exact,pre_advance,A,no_revision,standard_dfm,2024:Q4,0.03352051517196239,0.36403782125493156
exact,pre_advance,A,bridge,ar,2024:Q1,-0.7855773239734216,-0.7855773239734216
exact,pre_advance,A,bridge,ar,2024:Q2,0.6561092188970701,-0.12946810507635154
exact,pre_advance,A,bridge,ar,2024:Q3,0.07053545014004434,-0.0589326549363072
exact,pre_advance,A,bridge,ar,2024:Q4,0.00044289376299851135,-0.05848976117330869
exact,pre_advance,A,bridge,indicator_revision_only_dfm_kalman_em,2024:Q1,-0.4043170818770933,-0.4043170818770933
exact,pre_advance,A,bridge,indicator_revision_only_dfm_kalman_em,2024:Q2,0.805882929121706,0.4015658472446127
exact,pre_advance,A,bridge,indicator_revision_only_dfm_kalman_em,2024:Q3,-0.11994154416937258,0.2816243030752401
exact,pre_advance,A,bridge,indicator_revision_only_dfm_kalman_em,2024:Q4,-0.08392952047499662,0.19769478260024348
exact,pre_advance,A,bridge,joint_indicator_revision_dfm_full_kalman_em,2024:Q1,-0.10586243805858087,-0.10586243805858087
exact,pre_advance,A,bridge,joint_indicator_revision_dfm_full_kalman_em,2024:Q2,0.8023379517541439,0.696475513695563
exact,pre_advance,A,bridge,joint_indicator_revision_dfm_full_kalman_em,2024:Q3,-0.3717350619717466,0.32474045172381644
exact,pre_advance,A,bridge,joint_indicator_revision_dfm_full_kalman_em,2024:Q4,0.014967595854633142,0.3397080475784496
exact,pre_advance,A,bridge,midas_umidas,2024:Q1,-7.6436985765609835,-7.6436985765609835
exact,pre_advance,A,bridge,midas_umidas,2024:Q2,0.6470207224967611,-6.996677854064222
exact,pre_advance,A,bridge,midas_umidas,2024:Q3,-3.323622981784323,-10.320300835848546
exact,pre_advance,A,bridge,midas_umidas,2024:Q4,0.053547717254225885,-10.26675311859432
exact,pre_advance,A,bridge,monthly_mixed_frequency_kalman_em,2024:Q1,0.05467786883434307,0.05467786883434307
exact,pre_advance,A,bridge,monthly_mixed_frequency_kalman_em,2024:Q2,0.7307865599845035,0.7854644288188466
exact,pre_advance,A,bridge,monthly_mixed_frequency_kalman_em,2024:Q3,-0.4911598164822379,0.2943046123366087
exact,pre_advance,A,bridge,monthly_mixed_frequency_kalman_em,2024:Q4,-0.0008540400468703274,0.29345057228973837
exact,pre_advance,A,bridge,no_revision,2024:Q1,-1.0977588391882465,-1.0977588391882465
exact,pre_advance,A,bridge,no_revision,2024:Q2,0.7539944374101389,-0.3437644017781075
exact,pre_advance,A,bridge,no_revision,2024:Q3,0.007619718001529829,-0.3361446837765777
exact,pre_advance,A,bridge,no_revision,2024:Q4,0.026589665500670635,-0.30955501827590703
exact,pre_advance,A,bridge,release_dfm,2024:Q1,-0.25305900874978104,-0.25305900874978104
exact,pre_advance,A,bridge,release_dfm,2024:Q2,0.794480727140356,0.541421718390575
exact,pre_advance,A,bridge,release_dfm,2024:Q3,-0.5470490960841836,-0.0056273776936086595
exact,pre_advance,A,bridge,release_dfm,2024:Q4,0.060110180672633025,0.054482802979024365
exact,pre_advance,A,bridge,revision_dfm_kalman_em,2024:Q1,-0.03660975890579002,-0.03660975890579002
exact,pre_advance,A,bridge,revision_dfm_kalman_em,2024:Q2,0.5679874845659769,0.5313777256601869
exact,pre_advance,A,bridge,revision_dfm_kalman_em,2024:Q3,-0.3465666268176823,0.18481109884250463
exact,pre_advance,A,bridge,revision_dfm_kalman_em,2024:Q4,0.05778805733903471,0.24259915618153932
exact,pre_advance,A,bridge,spf,2024:Q1,-0.167973740449473,-0.167973740449473
exact,pre_advance,A,bridge,spf,2024:Q2,0.1133284019488493,-0.0546453385006237
exact,pre_advance,A,bridge,spf,2024:Q3,-0.7366817882518761,-0.7913271267524998
exact,pre_advance,A,bridge,spf,2024:Q4,-0.05648265668472628,-0.8478097834372261
exact,pre_advance,A,bridge,standard_dfm,2024:Q1,-0.25305900874978104,-0.25305900874978104
exact,pre_advance,A,bridge,standard_dfm,2024:Q2,0.794480727140356,0.541421718390575
exact,pre_advance,A,bridge,standard_dfm,2024:Q3,-0.5470490960841836,-0.0056273776936086595
exact,pre_advance,A,bridge,standard_dfm,2024:Q4,0.060110180672633025,0.054482802979024365
exact,pre_advance,A,midas_umidas,ar,2024:Q1,6.858121252587562,6.858121252587562
exact,pre_advance,A,midas_umidas,ar,2024:Q2,0.009088496400308982,6.867209748987871
exact,pre_advance,A,midas_umidas,ar,2024:Q3,3.3941584319243674,10.261368180912239
exact,pre_advance,A,midas_umidas,ar,2024:Q4,-0.053104823491227374,10.208263357421012
exact,pre_advance,A,midas_umidas,bridge,2024:Q1,7.6436985765609835,7.6436985765609835
exact,pre_advance,A,midas_umidas,bridge,2024:Q2,-0.6470207224967611,6.996677854064222
exact,pre_advance,A,midas_umidas,bridge,2024:Q3,3.323622981784323,10.320300835848546
exact,pre_advance,A,midas_umidas,bridge,2024:Q4,-0.053547717254225885,10.26675311859432
exact,pre_advance,A,midas_umidas,indicator_revision_only_dfm_kalman_em,2024:Q1,7.23938149468389,7.23938149468389
exact,pre_advance,A,midas_umidas,indicator_revision_only_dfm_kalman_em,2024:Q2,0.15886220662494482,7.398243701308835
exact,pre_advance,A,midas_umidas,indicator_revision_only_dfm_kalman_em,2024:Q3,3.2036814376149505,10.601925138923786
exact,pre_advance,A,midas_umidas,indicator_revision_only_dfm_kalman_em,2024:Q4,-0.1374772377292225,10.464447901194564
exact,pre_advance,A,midas_umidas,joint_indicator_revision_dfm_full_kalman_em,2024:Q1,7.537836138502403,7.537836138502403
exact,pre_advance,A,midas_umidas,joint_indicator_revision_dfm_full_kalman_em,2024:Q2,0.15531722925738273,7.693153367759786
exact,pre_advance,A,midas_umidas,joint_indicator_revision_dfm_full_kalman_em,2024:Q3,2.9518879198125765,10.645041287572361
exact,pre_advance,A,midas_umidas,joint_indicator_revision_dfm_full_kalman_em,2024:Q4,-0.03858012139959274,10.60646116617277
exact,pre_advance,A,midas_umidas,monthly_mixed_frequency_kalman_em,2024:Q1,7.6983764453953265,7.6983764453953265
exact,pre_advance,A,midas_umidas,monthly_mixed_frequency_kalman_em,2024:Q2,0.08376583748774237,7.782142282883069
exact,pre_advance,A,midas_umidas,monthly_mixed_frequency_kalman_em,2024:Q3,2.832463165302085,10.614605448185154
exact,pre_advance,A,midas_umidas,monthly_mixed_frequency_kalman_em,2024:Q4,-0.05440175730109621,10.560203690884057
exact,pre_advance,A,midas_umidas,no_revision,2024:Q1,6.545939737372738,6.545939737372738
exact,pre_advance,A,midas_umidas,no_revision,2024:Q2,0.10697371491337779,6.652913452286115
exact,pre_advance,A,midas_umidas,no_revision,2024:Q3,3.331242699785853,9.984156152071968
exact,pre_advance,A,midas_umidas,no_revision,2024:Q4,-0.02695805175355525,9.957198100318413
exact,pre_advance,A,midas_umidas,release_dfm,2024:Q1,7.390639567811203,7.390639567811203
exact,pre_advance,A,midas_umidas,release_dfm,2024:Q2,0.1474600046435949,7.538099572454797
exact,pre_advance,A,midas_umidas,release_dfm,2024:Q3,2.7765738857001394,10.314673458154937
exact,pre_advance,A,midas_umidas,release_dfm,2024:Q4,0.0065624634184071415,10.321235921573344
exact,pre_advance,A,midas_umidas,revision_dfm_kalman_em,2024:Q1,7.607088817655193,7.607088817655193
exact,pre_advance,A,midas_umidas,revision_dfm_kalman_em,2024:Q2,-0.07903323793078423,7.528055579724409
exact,pre_advance,A,midas_umidas,revision_dfm_kalman_em,2024:Q3,2.9770563549666407,10.50511193469105
exact,pre_advance,A,midas_umidas,revision_dfm_kalman_em,2024:Q4,0.004240340084808822,10.509352274775859
exact,pre_advance,A,midas_umidas,spf,2024:Q1,7.47572483611151,7.47572483611151
exact,pre_advance,A,midas_umidas,spf,2024:Q2,-0.5336923205479118,6.942032515563598
exact,pre_advance,A,midas_umidas,spf,2024:Q3,2.586941193532447,9.528973709096045
exact,pre_advance,A,midas_umidas,spf,2024:Q4,-0.11003037393895217,9.418943335157092
exact,pre_advance,A,midas_umidas,standard_dfm,2024:Q1,7.390639567811203,7.390639567811203
exact,pre_advance,A,midas_umidas,standard_dfm,2024:Q2,0.1474600046435949,7.538099572454797
exact,pre_advance,A,midas_umidas,standard_dfm,2024:Q3,2.7765738857001394,10.314673458154937
exact,pre_advance,A,midas_umidas,standard_dfm,2024:Q4,0.0065624634184071415,10.321235921573344
exact,pre_advance,A,spf,ar,2024:Q1,-0.6176035835239486,-0.6176035835239486
exact,pre_advance,A,spf,ar,2024:Q2,0.5427808169482209,-0.07482276657572773
exact,pre_advance,A,spf,ar,2024:Q3,0.8072172383919204,0.7323944718161927
exact,pre_advance,A,spf,ar,2024:Q4,0.05692555044772479,0.7893200222639174
exact,pre_advance,A,spf,bridge,2024:Q1,0.167973740449473,0.167973740449473
exact,pre_advance,A,spf,bridge,2024:Q2,-0.1133284019488493,0.0546453385006237
exact,pre_advance,A,spf,bridge,2024:Q3,0.7366817882518761,0.7913271267524998
exact,pre_advance,A,spf,bridge,2024:Q4,0.05648265668472628,0.8478097834372261
exact,pre_advance,A,spf,indicator_revision_only_dfm_kalman_em,2024:Q1,-0.2363433414276203,-0.2363433414276203
exact,pre_advance,A,spf,indicator_revision_only_dfm_kalman_em,2024:Q2,0.6925545271728567,0.4562111857452364
exact,pre_advance,A,spf,indicator_revision_only_dfm_kalman_em,2024:Q3,0.6167402440825035,1.0729514298277398
exact,pre_advance,A,spf,indicator_revision_only_dfm_kalman_em,2024:Q4,-0.027446863790270337,1.0455045660374696
exact,pre_advance,A,spf,joint_indicator_revision_dfm_full_kalman_em,2024:Q1,0.06211130239089213,0.06211130239089213
exact,pre_advance,A,spf,joint_indicator_revision_dfm_full_kalman_em,2024:Q2,0.6890095498052946,0.7511208521961867
exact,pre_advance,A,spf,joint_indicator_revision_dfm_full_kalman_em,2024:Q3,0.3649467262801295,1.1160675784763163
exact,pre_advance,A,spf,joint_indicator_revision_dfm_full_kalman_em,2024:Q4,0.07145025253935942,1.1875178310156758
exact,pre_advance,A,spf,midas_umidas,2024:Q1,-7.47572483611151,-7.47572483611151
exact,pre_advance,A,spf,midas_umidas,2024:Q2,0.5336923205479118,-6.942032515563598
exact,pre_advance,A,spf,midas_umidas,2024:Q3,-2.586941193532447,-9.528973709096045
exact,pre_advance,A,spf,midas_umidas,2024:Q4,0.11003037393895217,-9.418943335157092
exact,pre_advance,A,spf,monthly_mixed_frequency_kalman_em,2024:Q1,0.22265160928381605,0.22265160928381605
exact,pre_advance,A,spf,monthly_mixed_frequency_kalman_em,2024:Q2,0.6174581580356542,0.8401097673194702
exact,pre_advance,A,spf,monthly_mixed_frequency_kalman_em,2024:Q3,0.2455219717696382,1.0856317390891084
exact,pre_advance,A,spf,monthly_mixed_frequency_kalman_em,2024:Q4,0.055628616637855954,1.1412603557269643
exact,pre_advance,A,spf,no_revision,2024:Q1,-0.9297850987387735,-0.9297850987387735
exact,pre_advance,A,spf,no_revision,2024:Q2,0.6406660354612896,-0.2891190632774838
exact,pre_advance,A,spf,no_revision,2024:Q3,0.744301506253406,0.45518244297592214
exact,pre_advance,A,spf,no_revision,2024:Q4,0.08307232218539692,0.5382547651613191
exact,pre_advance,A,spf,release_dfm,2024:Q1,-0.08508526830030805,-0.08508526830030805
exact,pre_advance,A,spf,release_dfm,2024:Q2,0.6811523251915068,0.5960670568911988
exact,pre_advance,A,spf,release_dfm,2024:Q3,0.18963269216769252,0.7856997490588913
exact,pre_advance,A,spf,release_dfm,2024:Q4,0.11659283735735931,0.9022925864162505
exact,pre_advance,A,spf,revision_dfm_kalman_em,2024:Q1,0.13136398154368298,0.13136398154368298
exact,pre_advance,A,spf,revision_dfm_kalman_em,2024:Q2,0.4546590826171276,0.5860230641608106
exact,pre_advance,A,spf,revision_dfm_kalman_em,2024:Q3,0.3901151614341938,0.9761382255950044
exact,pre_advance,A,spf,revision_dfm_kalman_em,2024:Q4,0.11427071402376099,1.0904089396187655
exact,pre_advance,A,spf,standard_dfm,2024:Q1,-0.08508526830030805,-0.08508526830030805
exact,pre_advance,A,spf,standard_dfm,2024:Q2,0.6811523251915068,0.5960670568911988
exact,pre_advance,A,spf,standard_dfm,2024:Q3,0.18963269216769252,0.7856997490588913
exact,pre_advance,A,spf,standard_dfm,2024:Q4,0.11659283735735931,0.9022925864162505
exact,pre_advance,A,standard_dfm,ar,2024:Q1,-0.5325183152236406,-0.5325183152236406
exact,pre_advance,A,standard_dfm,ar,2024:Q2,-0.13837150824328592,-0.6708898234669265
exact,pre_advance,A,standard_dfm,ar,2024:Q3,0.6175845462242279,-0.05330527724269862
exact,pre_advance,A,standard_dfm,ar,2024:Q4,-0.059667286909634513,-0.11297256415233314
exact,pre_advance,A,standard_dfm,bridge,2024:Q1,0.25305900874978104,0.25305900874978104
exact,pre_advance,A,standard_dfm,bridge,2024:Q2,-0.794480727140356,-0.541421718390575
exact,pre_advance,A,standard_dfm,bridge,2024:Q3,0.5470490960841836,0.0056273776936086595
exact,pre_advance,A,standard_dfm,bridge,2024:Q4,-0.060110180672633025,-0.054482802979024365
exact,pre_advance,A,standard_dfm,indicator_revision_only_dfm_kalman_em,2024:Q1,-0.15125807312731226,-0.15125807312731226
exact,pre_advance,A,standard_dfm,indicator_revision_only_dfm_kalman_em,2024:Q2,0.011402201981349929,-0.13985587114596235
exact,pre_advance,A,standard_dfm,indicator_revision_only_dfm_kalman_em,2024:Q3,0.427107551914811,0.28725168076884866
exact,pre_advance,A,standard_dfm,indicator_revision_only_dfm_kalman_em,2024:Q4,-0.14403970114762965,0.143211979621219
exact,pre_advance,A,standard_dfm,joint_indicator_revision_dfm_full_kalman_em,2024:Q1,0.14719657069120018,0.14719657069120018
exact,pre_advance,A,standard_dfm,joint_indicator_revision_dfm_full_kalman_em,2024:Q2,0.007857224613787834,0.155053795304988
exact,pre_advance,A,standard_dfm,joint_indicator_revision_dfm_full_kalman_em,2024:Q3,0.17531403411243696,0.33036782941742493
exact,pre_advance,A,standard_dfm,joint_indicator_revision_dfm_full_kalman_em,2024:Q4,-0.04514258481799988,0.28522524459942505
exact,pre_advance,A,standard_dfm,midas_umidas,2024:Q1,-7.390639567811203,-7.390639567811203
exact,pre_advance,A,standard_dfm,midas_umidas,2024:Q2,-0.1474600046435949,-7.538099572454797
exact,pre_advance,A,standard_dfm,midas_umidas,2024:Q3,-2.7765738857001394,-10.314673458154937
exact,pre_advance,A,standard_dfm,midas_umidas,2024:Q4,-0.0065624634184071415,-10.321235921573344
exact,pre_advance,A,standard_dfm,monthly_mixed_frequency_kalman_em,2024:Q1,0.3077368775841241,0.3077368775841241
exact,pre_advance,A,standard_dfm,monthly_mixed_frequency_kalman_em,2024:Q2,-0.06369416715585254,0.24404271042827158
exact,pre_advance,A,standard_dfm,monthly_mixed_frequency_kalman_em,2024:Q3,0.055889279601945674,0.29993199003021725
exact,pre_advance,A,standard_dfm,monthly_mixed_frequency_kalman_em,2024:Q4,-0.06096422071950335,0.2389677693107139
exact,pre_advance,A,standard_dfm,no_revision,2024:Q1,-0.8446998304384654,-0.8446998304384654
exact,pre_advance,A,standard_dfm,no_revision,2024:Q2,-0.040486289730217125,-0.8851861201686826
exact,pre_advance,A,standard_dfm,no_revision,2024:Q3,0.5546688140857134,-0.33051730608296914
exact,pre_advance,A,standard_dfm,no_revision,2024:Q4,-0.03352051517196239,-0.36403782125493156
exact,pre_advance,A,standard_dfm,release_dfm,2024:Q1,0.0,0.0
exact,pre_advance,A,standard_dfm,release_dfm,2024:Q2,0.0,0.0
exact,pre_advance,A,standard_dfm,release_dfm,2024:Q3,0.0,0.0
exact,pre_advance,A,standard_dfm,release_dfm,2024:Q4,0.0,0.0
exact,pre_advance,A,standard_dfm,revision_dfm_kalman_em,2024:Q1,0.21644924984399103,0.21644924984399103
exact,pre_advance,A,standard_dfm,revision_dfm_kalman_em,2024:Q2,-0.22649324257437914,-0.010043992730388113
exact,pre_advance,A,standard_dfm,revision_dfm_kalman_em,2024:Q3,0.20048246926650126,0.19043847653611315
exact,pre_advance,A,standard_dfm,revision_dfm_kalman_em,2024:Q4,-0.0023221233335983193,0.18811635320251482
exact,pre_advance,A,standard_dfm,spf,2024:Q1,0.08508526830030805,0.08508526830030805
exact,pre_advance,A,standard_dfm,spf,2024:Q2,-0.6811523251915068,-0.5960670568911988
exact,pre_advance,A,standard_dfm,spf,2024:Q3,-0.18963269216769252,-0.7856997490588913
exact,pre_advance,A,standard_dfm,spf,2024:Q4,-0.11659283735735931,-0.9022925864162505
exact,pre_advance,A,release_dfm,ar,2024:Q1,-0.5325183152236406,-0.5325183152236406
exact,pre_advance,A,release_dfm,ar,2024:Q2,-0.13837150824328592,-0.6708898234669265
exact,pre_advance,A,release_dfm,ar,2024:Q3,0.6175845462242279,-0.05330527724269862
exact,pre_advance,A,release_dfm,ar,2024:Q4,-0.059667286909634513,-0.11297256415233314
exact,pre_advance,A,release_dfm,bridge,2024:Q1,0.25305900874978104,0.25305900874978104
exact,pre_advance,A,release_dfm,bridge,2024:Q2,-0.794480727140356,-0.541421718390575
exact,pre_advance,A,release_dfm,bridge,2024:Q3,0.5470490960841836,0.0056273776936086595
exact,pre_advance,A,release_dfm,bridge,2024:Q4,-0.060110180672633025,-0.054482802979024365
exact,pre_advance,A,release_dfm,indicator_revision_only_dfm_kalman_em,2024:Q1,-0.15125807312731226,-0.15125807312731226
exact,pre_advance,A,release_dfm,indicator_revision_only_dfm_kalman_em,2024:Q2,0.011402201981349929,-0.13985587114596235
exact,pre_advance,A,release_dfm,indicator_revision_only_dfm_kalman_em,2024:Q3,0.427107551914811,0.28725168076884866
exact,pre_advance,A,release_dfm,indicator_revision_only_dfm_kalman_em,2024:Q4,-0.14403970114762965,0.143211979621219
exact,pre_advance,A,release_dfm,joint_indicator_revision_dfm_full_kalman_em,2024:Q1,0.14719657069120018,0.14719657069120018
exact,pre_advance,A,release_dfm,joint_indicator_revision_dfm_full_kalman_em,2024:Q2,0.007857224613787834,0.155053795304988
exact,pre_advance,A,release_dfm,joint_indicator_revision_dfm_full_kalman_em,2024:Q3,0.17531403411243696,0.33036782941742493
exact,pre_advance,A,release_dfm,joint_indicator_revision_dfm_full_kalman_em,2024:Q4,-0.04514258481799988,0.28522524459942505
exact,pre_advance,A,release_dfm,midas_umidas,2024:Q1,-7.390639567811203,-7.390639567811203
exact,pre_advance,A,release_dfm,midas_umidas,2024:Q2,-0.1474600046435949,-7.538099572454797
exact,pre_advance,A,release_dfm,midas_umidas,2024:Q3,-2.7765738857001394,-10.314673458154937
exact,pre_advance,A,release_dfm,midas_umidas,2024:Q4,-0.0065624634184071415,-10.321235921573344
exact,pre_advance,A,release_dfm,monthly_mixed_frequency_kalman_em,2024:Q1,0.3077368775841241,0.3077368775841241
exact,pre_advance,A,release_dfm,monthly_mixed_frequency_kalman_em,2024:Q2,-0.06369416715585254,0.24404271042827158
exact,pre_advance,A,release_dfm,monthly_mixed_frequency_kalman_em,2024:Q3,0.055889279601945674,0.29993199003021725
exact,pre_advance,A,release_dfm,monthly_mixed_frequency_kalman_em,2024:Q4,-0.06096422071950335,0.2389677693107139
exact,pre_advance,A,release_dfm,no_revision,2024:Q1,-0.8446998304384654,-0.8446998304384654
exact,pre_advance,A,release_dfm,no_revision,2024:Q2,-0.040486289730217125,-0.8851861201686826
exact,pre_advance,A,release_dfm,no_revision,2024:Q3,0.5546688140857134,-0.33051730608296914
exact,pre_advance,A,release_dfm,no_revision,2024:Q4,-0.03352051517196239,-0.36403782125493156
exact,pre_advance,A,release_dfm,revision_dfm_kalman_em,2024:Q1,0.21644924984399103,0.21644924984399103
exact,pre_advance,A,release_dfm,revision_dfm_kalman_em,2024:Q2,-0.22649324257437914,-0.010043992730388113
exact,pre_advance,A,release_dfm,revision_dfm_kalman_em,2024:Q3,0.20048246926650126,0.19043847653611315
exact,pre_advance,A,release_dfm,revision_dfm_kalman_em,2024:Q4,-0.0023221233335983193,0.18811635320251482
exact,pre_advance,A,release_dfm,spf,2024:Q1,0.08508526830030805,0.08508526830030805
exact,pre_advance,A,release_dfm,spf,2024:Q2,-0.6811523251915068,-0.5960670568911988
exact,pre_advance,A,release_dfm,spf,2024:Q3,-0.18963269216769252,-0.7856997490588913
exact,pre_advance,A,release_dfm,spf,2024:Q4,-0.11659283735735931,-0.9022925864162505
exact,pre_advance,A,release_dfm,standard_dfm,2024:Q1,0.0,0.0
exact,pre_advance,A,release_dfm,standard_dfm,2024:Q2,0.0,0.0
exact,pre_advance,A,release_dfm,standard_dfm,2024:Q3,0.0,0.0
exact,pre_advance,A,release_dfm,standard_dfm,2024:Q4,0.0,0.0
exact,pre_second,S,ar,bridge,2024:Q1,1.8625059313085512,1.8625059313085512
exact,pre_second,S,ar,bridge,2024:Q2,0.19646254435920277,2.058968475667754
exact,pre_second,S,ar,bridge,2024:Q3,-0.03479997261905867,2.0241685030486956
exact,pre_second,S,ar,bridge,2024:Q4,0.055594885804859225,2.079763388853555
exact,pre_second,S,ar,indicator_revision_only_dfm_kalman_em,2024:Q1,1.506542198620559,1.506542198620559
exact,pre_second,S,ar,indicator_revision_only_dfm_kalman_em,2024:Q2,0.1671406194910125,1.6736828181115715
exact,pre_second,S,ar,indicator_revision_only_dfm_kalman_em,2024:Q3,0.018332818102529153,1.6920156362141006
exact,pre_second,S,ar,indicator_revision_only_dfm_kalman_em,2024:Q4,0.0570271405992371,1.7490427768133376
exact,pre_second,S,ar,joint_indicator_revision_dfm_full_kalman_em,2024:Q1,1.2462410032291356,1.2462410032291356
exact,pre_second,S,ar,joint_indicator_revision_dfm_full_kalman_em,2024:Q2,0.17359955622949896,1.4198405594586345
exact,pre_second,S,ar,joint_indicator_revision_dfm_full_kalman_em,2024:Q3,0.03053221948227802,1.4503727789409124
exact,pre_second,S,ar,joint_indicator_revision_dfm_full_kalman_em,2024:Q4,0.025299207563558343,1.4756719865044707
exact,pre_second,S,ar,midas_umidas,2024:Q1,1.7429815386454721,1.7429815386454721
exact,pre_second,S,ar,midas_umidas,2024:Q2,0.19158475531859834,1.9345662939640704
exact,pre_second,S,ar,midas_umidas,2024:Q3,0.007213688221648709,1.9417799821857191
exact,pre_second,S,ar,midas_umidas,2024:Q4,-3.1537763472888245,-1.2119963651031054
exact,pre_second,S,ar,monthly_mixed_frequency_kalman_em,2024:Q1,1.5282525032541865,1.5282525032541865
exact,pre_second,S,ar,monthly_mixed_frequency_kalman_em,2024:Q2,0.08814288427590776,1.6163953875300943
exact,pre_second,S,ar,monthly_mixed_frequency_kalman_em,2024:Q3,-0.008120447499516896,1.6082749400305774
exact,pre_second,S,ar,monthly_mixed_frequency_kalman_em,2024:Q4,0.03136575759472244,1.6396406976252997
exact,pre_second,S,ar,no_revision,2024:Q1,1.7483139650320858,1.7483139650320858
exact,pre_second,S,ar,no_revision,2024:Q2,0.18710051598747035,1.9354144810195562
exact,pre_second,S,ar,no_revision,2024:Q3,0.05599925683028013,1.9914137378498362
exact,pre_second,S,ar,no_revision,2024:Q4,0.051938970479201964,2.043352708329038
exact,pre_second,S,ar,release_dfm,2024:Q1,1.642003433550263,1.642003433550263
exact,pre_second,S,ar,release_dfm,2024:Q2,0.19926794836486128,1.8412713819151243
exact,pre_second,S,ar,release_dfm,2024:Q3,0.03175284471590353,1.8730242266310277
exact,pre_second,S,ar,release_dfm,2024:Q4,0.05513214484438499,1.9281563714754126
exact,pre_second,S,ar,revision_dfm_kalman_em,2024:Q1,1.287450002691196,1.287450002691196
exact,pre_second,S,ar,revision_dfm_kalman_em,2024:Q2,0.19834297494358372,1.4857929776347796
exact,pre_second,S,ar,revision_dfm_kalman_em,2024:Q3,0.040754562648627576,1.5265475402834072
exact,pre_second,S,ar,revision_dfm_kalman_em,2024:Q4,0.04956202154927764,1.5761095618326848
exact,pre_second,S,ar,spf,2024:Q1,1.1549533750320857,1.1549533750320857
exact,pre_second,S,ar,spf,2024:Q2,-0.6922142840125297,0.462739091019556
exact,pre_second,S,ar,spf,2024:Q3,-0.8720628631697199,-0.4093237721501639
exact,pre_second,S,ar,spf,2024:Q4,-0.13354845952079786,-0.5428722316709618
exact,pre_second,S,ar,standard_dfm,2024:Q1,1.8332395700042057,1.8332395700042057
exact,pre_second,S,ar,standard_dfm,2024:Q2,-0.037845790848098415,1.7953937791561072
exact,pre_second,S,ar,standard_dfm,2024:Q3,-0.17223410911201745,1.6231596700440898
exact,pre_second,S,ar,standard_dfm,2024:Q4,-0.01080782132309071,1.6123518487209991
exact,pre_second,S,no_revision,ar,2024:Q1,-1.7483139650320858,-1.7483139650320858
exact,pre_second,S,no_revision,ar,2024:Q2,-0.18710051598747035,-1.9354144810195562
exact,pre_second,S,no_revision,ar,2024:Q3,-0.05599925683028013,-1.9914137378498362
exact,pre_second,S,no_revision,ar,2024:Q4,-0.051938970479201964,-2.043352708329038
exact,pre_second,S,no_revision,bridge,2024:Q1,0.11419196627646529,0.11419196627646529
exact,pre_second,S,no_revision,bridge,2024:Q2,0.009362028371732417,0.1235539946481977
exact,pre_second,S,no_revision,bridge,2024:Q3,-0.0907992294493388,0.03275476519885891
exact,pre_second,S,no_revision,bridge,2024:Q4,0.0036559153256572573,0.03641068052451617
exact,pre_second,S,no_revision,indicator_revision_only_dfm_kalman_em,2024:Q1,-0.24177176641152703,-0.24177176641152703
exact,pre_second,S,no_revision,indicator_revision_only_dfm_kalman_em,2024:Q2,-0.019959896496457838,-0.2617316629079849
exact,pre_second,S,no_revision,indicator_revision_only_dfm_kalman_em,2024:Q3,-0.037666438727750974,-0.2993981016357359
exact,pre_second,S,no_revision,indicator_revision_only_dfm_kalman_em,2024:Q4,0.005088170120035134,-0.29430993151570073
exact,pre_second,S,no_revision,joint_indicator_revision_dfm_full_kalman_em,2024:Q1,-0.5020729618029502,-0.5020729618029502
exact,pre_second,S,no_revision,joint_indicator_revision_dfm_full_kalman_em,2024:Q2,-0.013500959757971403,-0.5155739215609216
exact,pre_second,S,no_revision,joint_indicator_revision_dfm_full_kalman_em,2024:Q3,-0.025467037348002108,-0.5410409589089238
exact,pre_second,S,no_revision,joint_indicator_revision_dfm_full_kalman_em,2024:Q4,-0.02663976291564362,-0.5676807218245674
exact,pre_second,S,no_revision,midas_umidas,2024:Q1,-0.005332426386613867,-0.005332426386613867
exact,pre_second,S,no_revision,midas_umidas,2024:Q2,0.004484239331127994,-0.0008481870554858731
exact,pre_second,S,no_revision,midas_umidas,2024:Q3,-0.04878556860863142,-0.04963375566411729
exact,pre_second,S,no_revision,midas_umidas,2024:Q4,-3.205715317768026,-3.2553490734321433
exact,pre_second,S,no_revision,monthly_mixed_frequency_kalman_em,2024:Q1,-0.22006146177789943,-0.22006146177789943
exact,pre_second,S,no_revision,monthly_mixed_frequency_kalman_em,2024:Q2,-0.09895763171156259,-0.319019093489462
exact,pre_second,S,no_revision,monthly_mixed_frequency_kalman_em,2024:Q3,-0.06411970432979702,-0.383138797819259
exact,pre_second,S,no_revision,monthly_mixed_frequency_kalman_em,2024:Q4,-0.020573212884479525,-0.4037120107037385
exact,pre_second,S,no_revision,release_dfm,2024:Q1,-0.10631053148182303,-0.10631053148182303
exact,pre_second,S,no_revision,release_dfm,2024:Q2,0.012167432377390925,-0.0941430991044321
exact,pre_second,S,no_revision,release_dfm,2024:Q3,-0.02424641211437659,-0.11838951121880868
exact,pre_second,S,no_revision,release_dfm,2024:Q4,0.003193174365183028,-0.11519633685362565
exact,pre_second,S,no_revision,revision_dfm_kalman_em,2024:Q1,-0.4608639623408899,-0.4608639623408899
exact,pre_second,S,no_revision,revision_dfm_kalman_em,2024:Q2,0.01124245895611336,-0.4496215033847765
exact,pre_second,S,no_revision,revision_dfm_kalman_em,2024:Q3,-0.01524469418165255,-0.46486619756642905
exact,pre_second,S,no_revision,revision_dfm_kalman_em,2024:Q4,-0.002376948929924322,-0.46724314649635335
exact,pre_second,S,no_revision,spf,2024:Q1,-0.5933605900000003,-0.5933605900000003
exact,pre_second,S,no_revision,spf,2024:Q2,-0.8793148000000001,-1.4726753900000005
exact,pre_second,S,no_revision,spf,2024:Q3,-0.9280621200000001,-2.400737510000001
exact,pre_second,S,no_revision,spf,2024:Q4,-0.18548742999999981,-2.5862249400000006
exact,pre_second,S,no_revision,standard_dfm,2024:Q1,0.0849256049721197,0.0849256049721197
exact,pre_second,S,no_revision,standard_dfm,2024:Q2,-0.22494630683556877,-0.14002070186344906
exact,pre_second,S,no_revision,standard_dfm,2024:Q3,-0.22823336594229757,-0.36825406780574665
exact,pre_second,S,no_revision,standard_dfm,2024:Q4,-0.06274679180229267,-0.43100085960803936
exact,pre_second,S,bridge,ar,2024:Q1,-1.8625059313085512,-1.8625059313085512
exact,pre_second,S,bridge,ar,2024:Q2,-0.19646254435920277,-2.058968475667754
exact,pre_second,S,bridge,ar,2024:Q3,0.03479997261905867,-2.0241685030486956
exact,pre_second,S,bridge,ar,2024:Q4,-0.055594885804859225,-2.079763388853555
exact,pre_second,S,bridge,indicator_revision_only_dfm_kalman_em,2024:Q1,-0.3559637326879923,-0.3559637326879923
exact,pre_second,S,bridge,indicator_revision_only_dfm_kalman_em,2024:Q2,-0.029321924868190255,-0.38528565755618255
exact,pre_second,S,bridge,indicator_revision_only_dfm_kalman_em,2024:Q3,0.05313279072158782,-0.3321528668345947
exact,pre_second,S,bridge,indicator_revision_only_dfm_kalman_em,2024:Q4,0.0014322547943778764,-0.33072061204021685
exact,pre_second,S,bridge,joint_indicator_revision_dfm_full_kalman_em,2024:Q1,-0.6162649280794156,-0.6162649280794156
exact,pre_second,S,bridge,joint_indicator_revision_dfm_full_kalman_em,2024:Q2,-0.022862988129703818,-0.6391279162091194
exact,pre_second,S,bridge,joint_indicator_revision_dfm_full_kalman_em,2024:Q3,0.06533219210133669,-0.5737957241077827
exact,pre_second,S,bridge,joint_indicator_revision_dfm_full_kalman_em,2024:Q4,-0.03029567824130088,-0.6040914023490835
exact,pre_second,S,bridge,midas_umidas,2024:Q1,-0.11952439266307915,-0.11952439266307915
exact,pre_second,S,bridge,midas_umidas,2024:Q2,-0.004877789040604423,-0.12440218170368358
exact,pre_second,S,bridge,midas_umidas,2024:Q3,0.04201366084070738,-0.08238852086297621
exact,pre_second,S,bridge,midas_umidas,2024:Q4,-3.2093712330936834,-3.2917597539566597
exact,pre_second,S,bridge,monthly_mixed_frequency_kalman_em,2024:Q1,-0.3342534280543647,-0.3342534280543647
exact,pre_second,S,bridge,monthly_mixed_frequency_kalman_em,2024:Q2,-0.10831966008329501,-0.4425730881376597
exact,pre_second,S,bridge,monthly_mixed_frequency_kalman_em,2024:Q3,0.026679525119541775,-0.415893563018118
exact,pre_second,S,bridge,monthly_mixed_frequency_kalman_em,2024:Q4,-0.024229128210136786,-0.44012269122825476
exact,pre_second,S,bridge,no_revision,2024:Q1,-0.11419196627646529,-0.11419196627646529
exact,pre_second,S,bridge,no_revision,2024:Q2,-0.009362028371732417,-0.1235539946481977
exact,pre_second,S,bridge,no_revision,2024:Q3,0.0907992294493388,-0.03275476519885891
exact,pre_second,S,bridge,no_revision,2024:Q4,-0.0036559153256572573,-0.03641068052451617
exact,pre_second,S,bridge,release_dfm,2024:Q1,-0.2205024977582883,-0.2205024977582883
exact,pre_second,S,bridge,release_dfm,2024:Q2,0.0028054040056585084,-0.2176970937526298
exact,pre_second,S,bridge,release_dfm,2024:Q3,0.06655281733496221,-0.1511442764176676
exact,pre_second,S,bridge,release_dfm,2024:Q4,-0.00046274096047422934,-0.1516070173781418
exact,pre_second,S,bridge,revision_dfm_kalman_em,2024:Q1,-0.5750559286173552,-0.5750559286173552
exact,pre_second,S,bridge,revision_dfm_kalman_em,2024:Q2,0.0018804305843809445,-0.5731754980329743
exact,pre_second,S,bridge,revision_dfm_kalman_em,2024:Q3,0.07555453526768624,-0.49762096276528806
exact,pre_second,S,bridge,revision_dfm_kalman_em,2024:Q4,-0.006032864255581579,-0.5036538270208696
exact,pre_second,S,bridge,spf,2024:Q1,-0.7075525562764656,-0.7075525562764656
exact,pre_second,S,bridge,spf,2024:Q2,-0.8886768283717325,-1.596229384648198
exact,pre_second,S,bridge,spf,2024:Q3,-0.8372628905506613,-2.4334922751988595
exact,pre_second,S,bridge,spf,2024:Q4,-0.18914334532565708,-2.6226356205245165
exact,pre_second,S,bridge,standard_dfm,2024:Q1,-0.02926636130434558,-0.02926636130434558
exact,pre_second,S,bridge,standard_dfm,2024:Q2,-0.23430833520730118,-0.2635746965116468
exact,pre_second,S,bridge,standard_dfm,2024:Q3,-0.13743413649295877,-0.40100883300460555
exact,pre_second,S,bridge,standard_dfm,2024:Q4,-0.06640270712794993,-0.4674115401325555
exact,pre_second,S,midas_umidas,ar,2024:Q1,-1.7429815386454721,-1.7429815386454721
exact,pre_second,S,midas_umidas,ar,2024:Q2,-0.19158475531859834,-1.9345662939640704
exact,pre_second,S,midas_umidas,ar,2024:Q3,-0.007213688221648709,-1.9417799821857191
exact,pre_second,S,midas_umidas,ar,2024:Q4,3.1537763472888245,1.2119963651031054
exact,pre_second,S,midas_umidas,bridge,2024:Q1,0.11952439266307915,0.11952439266307915
exact,pre_second,S,midas_umidas,bridge,2024:Q2,0.004877789040604423,0.12440218170368358
exact,pre_second,S,midas_umidas,bridge,2024:Q3,-0.04201366084070738,0.08238852086297621
exact,pre_second,S,midas_umidas,bridge,2024:Q4,3.2093712330936834,3.2917597539566597
exact,pre_second,S,midas_umidas,indicator_revision_only_dfm_kalman_em,2024:Q1,-0.23643934002491315,-0.23643934002491315
exact,pre_second,S,midas_umidas,indicator_revision_only_dfm_kalman_em,2024:Q2,-0.024444135827585832,-0.260883475852499
exact,pre_second,S,midas_umidas,indicator_revision_only_dfm_kalman_em,2024:Q3,0.011119129880880443,-0.24976434597161856
exact,pre_second,S,midas_umidas,indicator_revision_only_dfm_kalman_em,2024:Q4,3.2108034878880614,2.9610391419164426
exact,pre_second,S,midas_umidas,joint_indicator_revision_dfm_full_kalman_em,2024:Q1,-0.49674053541633634,-0.49674053541633634
exact,pre_second,S,midas_umidas,joint_indicator_revision_dfm_full_kalman_em,2024:Q2,-0.017985199089099395,-0.5147257345054357
exact,pre_second,S,midas_umidas,joint_indicator_revision_dfm_full_kalman_em,2024:Q3,0.02331853126062931,-0.49140720324480636
exact,pre_second,S,midas_umidas,joint_indicator_revision_dfm_full_kalman_em,2024:Q4,3.179075554852383,2.6876683516075763
exact,pre_second,S,midas_umidas,monthly_mixed_frequency_kalman_em,2024:Q1,-0.21472903539128554,-0.21472903539128554
exact,pre_second,S,midas_umidas,monthly_mixed_frequency_kalman_em,2024:Q2,-0.10344187104269059,-0.31817090643397616
exact,pre_second,S,midas_umidas,monthly_mixed_frequency_kalman_em,2024:Q3,-0.015334135721165605,-0.33350504215514176
exact,pre_second,S,midas_umidas,monthly_mixed_frequency_kalman_em,2024:Q4,3.1851421048835467,2.851637062728405
exact,pre_second,S,midas_umidas,no_revision,2024:Q1,0.005332426386613867,0.005332426386613867
exact,pre_second,S,midas_umidas,no_revision,2024:Q2,-0.004484239331127994,0.0008481870554858731
exact,pre_second,S,midas_umidas,no_revision,2024:Q3,0.04878556860863142,0.04963375566411729
exact,pre_second,S,midas_umidas,no_revision,2024:Q4,3.205715317768026,3.2553490734321433
exact,pre_second,S,midas_umidas,release_dfm,2024:Q1,-0.10097810509520916,-0.10097810509520916
exact,pre_second,S,midas_umidas,release_dfm,2024:Q2,0.007683193046262931,-0.09329491204894623
exact,pre_second,S,midas_umidas,release_dfm,2024:Q3,0.024539156494254828,-0.0687557555546914
exact,pre_second,S,midas_umidas,release_dfm,2024:Q4,3.2089084921332094,3.140152736578518
exact,pre_second,S,midas_umidas,revision_dfm_kalman_em,2024:Q1,-0.455531535954276,-0.455531535954276
exact,pre_second,S,midas_umidas,revision_dfm_kalman_em,2024:Q2,0.006758219624985367,-0.44877331632929063
exact,pre_second,S,midas_umidas,revision_dfm_kalman_em,2024:Q3,0.03354087442697887,-0.4152324419023118
exact,pre_second,S,midas_umidas,revision_dfm_kalman_em,2024:Q4,3.203338368838102,2.78810592693579
exact,pre_second,S,midas_umidas,spf,2024:Q1,-0.5880281636133864,-0.5880281636133864
exact,pre_second,S,midas_umidas,spf,2024:Q2,-0.883799039331128,-1.4718272029445143
exact,pre_second,S,midas_umidas,spf,2024:Q3,-0.8792765513913686,-2.351103754335883
exact,pre_second,S,midas_umidas,spf,2024:Q4,3.0202278877680264,0.6691241334321436
exact,pre_second,S,midas_umidas,standard_dfm,2024:Q1,0.09025803135873357,0.09025803135873357
exact,pre_second,S,midas_umidas,standard_dfm,2024:Q2,-0.22943054616669675,-0.13917251480796317
exact,pre_second,S,midas_umidas,standard_dfm,2024:Q3,-0.17944779733366617,-0.31862031214162934
exact,pre_second,S,midas_umidas,standard_dfm,2024:Q4,3.142968525965734,2.8243482138241047
exact,pre_second,S,spf,ar,2024:Q1,-1.1549533750320857,-1.1549533750320857
exact,pre_second,S,spf,ar,2024:Q2,0.6922142840125297,-0.462739091019556
exact,pre_second,S,spf,ar,2024:Q3,0.8720628631697199,0.4093237721501639
exact,pre_second,S,spf,ar,2024:Q4,0.13354845952079786,0.5428722316709618
exact,pre_second,S,spf,bridge,2024:Q1,0.7075525562764656,0.7075525562764656
exact,pre_second,S,spf,bridge,2024:Q2,0.8886768283717325,1.596229384648198
exact,pre_second,S,spf,bridge,2024:Q3,0.8372628905506613,2.4334922751988595
exact,pre_second,S,spf,bridge,2024:Q4,0.18914334532565708,2.6226356205245165
exact,pre_second,S,spf,indicator_revision_only_dfm_kalman_em,2024:Q1,0.35158882358847326,0.35158882358847326
exact,pre_second,S,spf,indicator_revision_only_dfm_kalman_em,2024:Q2,0.8593549035035422,1.2109437270920154
exact,pre_second,S,spf,indicator_revision_only_dfm_kalman_em,2024:Q3,0.8903956812722491,2.1013394083642645
exact,pre_second,S,spf,indicator_revision_only_dfm_kalman_em,2024:Q4,0.19057560012003494,2.2919150084842994
exact,pre_second,S,spf,joint_indicator_revision_dfm_full_kalman_em,2024:Q1,0.09128762819705005,0.09128762819705005
exact,pre_second,S,spf,joint_indicator_revision_dfm_full_kalman_em,2024:Q2,0.8658138402420287,0.9571014684390787
exact,pre_second,S,spf,joint_indicator_revision_dfm_full_kalman_em,2024:Q3,0.902595082651998,1.8596965510910768
exact,pre_second,S,spf,joint_indicator_revision_dfm_full_kalman_em,2024:Q4,0.1588476670843562,2.018544218175433
exact,pre_second,S,spf,midas_umidas,2024:Q1,0.5880281636133864,0.5880281636133864
exact,pre_second,S,spf,midas_umidas,2024:Q2,0.883799039331128,1.4718272029445143
exact,pre_second,S,spf,midas_umidas,2024:Q3,0.8792765513913686,2.351103754335883
exact,pre_second,S,spf,midas_umidas,2024:Q4,-3.0202278877680264,-0.6691241334321436
exact,pre_second,S,spf,monthly_mixed_frequency_kalman_em,2024:Q1,0.3732991282221009,0.3732991282221009
exact,pre_second,S,spf,monthly_mixed_frequency_kalman_em,2024:Q2,0.7803571682884375,1.1536562965105384
exact,pre_second,S,spf,monthly_mixed_frequency_kalman_em,2024:Q3,0.863942415670203,2.0175987121807415
exact,pre_second,S,spf,monthly_mixed_frequency_kalman_em,2024:Q4,0.1649142171155203,2.1825129292962617
exact,pre_second,S,spf,no_revision,2024:Q1,0.5933605900000003,0.5933605900000003
exact,pre_second,S,spf,no_revision,2024:Q2,0.8793148000000001,1.4726753900000005
exact,pre_second,S,spf,no_revision,2024:Q3,0.9280621200000001,2.400737510000001
exact,pre_second,S,spf,no_revision,2024:Q4,0.18548742999999981,2.5862249400000006
exact,pre_second,S,spf,release_dfm,2024:Q1,0.4870500585181773,0.4870500585181773
exact,pre_second,S,spf,release_dfm,2024:Q2,0.891482232377391,1.3785322908955684
exact,pre_second,S,spf,release_dfm,2024:Q3,0.9038157078856235,2.2823479987811917
exact,pre_second,S,spf,release_dfm,2024:Q4,0.18868060436518286,2.4710286031463746
exact,pre_second,S,spf,revision_dfm_kalman_em,2024:Q1,0.1324966276591104,0.1324966276591104
exact,pre_second,S,spf,revision_dfm_kalman_em,2024:Q2,0.8905572589561134,1.023053886615224
exact,pre_second,S,spf,revision_dfm_kalman_em,2024:Q3,0.9128174258183476,1.9358713124335716
exact,pre_second,S,spf,revision_dfm_kalman_em,2024:Q4,0.1831104810700755,2.118981793503647
exact,pre_second,S,spf,standard_dfm,2024:Q1,0.67828619497212,0.67828619497212
exact,pre_second,S,spf,standard_dfm,2024:Q2,0.6543684931644312,1.332654688136551
exact,pre_second,S,spf,standard_dfm,2024:Q3,0.6998287540577025,2.0324834421942537
exact,pre_second,S,spf,standard_dfm,2024:Q4,0.12274063819770714,2.1552240803919607
exact,pre_second,S,standard_dfm,ar,2024:Q1,-1.8332395700042057,-1.8332395700042057
exact,pre_second,S,standard_dfm,ar,2024:Q2,0.037845790848098415,-1.7953937791561072
exact,pre_second,S,standard_dfm,ar,2024:Q3,0.17223410911201745,-1.6231596700440898
exact,pre_second,S,standard_dfm,ar,2024:Q4,0.01080782132309071,-1.6123518487209991
exact,pre_second,S,standard_dfm,bridge,2024:Q1,0.02926636130434558,0.02926636130434558
exact,pre_second,S,standard_dfm,bridge,2024:Q2,0.23430833520730118,0.2635746965116468
exact,pre_second,S,standard_dfm,bridge,2024:Q3,0.13743413649295877,0.40100883300460555
exact,pre_second,S,standard_dfm,bridge,2024:Q4,0.06640270712794993,0.4674115401325555
exact,pre_second,S,standard_dfm,indicator_revision_only_dfm_kalman_em,2024:Q1,-0.32669737138364674,-0.32669737138364674
exact,pre_second,S,standard_dfm,indicator_revision_only_dfm_kalman_em,2024:Q2,0.2049864103391109,-0.12171096104453583
exact,pre_second,S,standard_dfm,indicator_revision_only_dfm_kalman_em,2024:Q3,0.1905669272145466,0.06885596617001077
exact,pre_second,S,standard_dfm,indicator_revision_only_dfm_kalman_em,2024:Q4,0.06783496192232781,0.13669092809233857
exact,pre_second,S,standard_dfm,joint_indicator_revision_dfm_full_kalman_em,2024:Q1,-0.5869985667750699,-0.5869985667750699
exact,pre_second,S,standard_dfm,joint_indicator_revision_dfm_full_kalman_em,2024:Q2,0.21144534707759738,-0.3755532196974725
exact,pre_second,S,standard_dfm,joint_indicator_revision_dfm_full_kalman_em,2024:Q3,0.20276632859429547,-0.17278689110317705
exact,pre_second,S,standard_dfm,joint_indicator_revision_dfm_full_kalman_em,2024:Q4,0.03610702888664905,-0.136679862216528
exact,pre_second,S,standard_dfm,midas_umidas,2024:Q1,-0.09025803135873357,-0.09025803135873357
exact,pre_second,S,standard_dfm,midas_umidas,2024:Q2,0.22943054616669675,0.13917251480796317
exact,pre_second,S,standard_dfm,midas_umidas,2024:Q3,0.17944779733366617,0.31862031214162934
exact,pre_second,S,standard_dfm,midas_umidas,2024:Q4,-3.142968525965734,-2.8243482138241047
exact,pre_second,S,standard_dfm,monthly_mixed_frequency_kalman_em,2024:Q1,-0.30498706675001913,-0.30498706675001913
exact,pre_second,S,standard_dfm,monthly_mixed_frequency_kalman_em,2024:Q2,0.1259886751240062,-0.17899839162601294
exact,pre_second,S,standard_dfm,monthly_mixed_frequency_kalman_em,2024:Q3,0.16411366161250057,-0.01488473001351237
exact,pre_second,S,standard_dfm,monthly_mixed_frequency_kalman_em,2024:Q4,0.04217357891781315,0.027288848904300778
exact,pre_second,S,standard_dfm,no_revision,2024:Q1,-0.0849256049721197,-0.0849256049721197
exact,pre_second,S,standard_dfm,no_revision,2024:Q2,0.22494630683556877,0.14002070186344906
exact,pre_second,S,standard_dfm,no_revision,2024:Q3,0.22823336594229757,0.36825406780574665
exact,pre_second,S,standard_dfm,no_revision,2024:Q4,0.06274679180229267,0.43100085960803936
exact,pre_second,S,standard_dfm,release_dfm,2024:Q1,-0.19123613645394275,-0.19123613645394275
exact,pre_second,S,standard_dfm,release_dfm,2024:Q2,0.2371137392129597,0.04587760275901695
exact,pre_second,S,standard_dfm,release_dfm,2024:Q3,0.20398695382792098,0.24986455658693793
exact,pre_second,S,standard_dfm,release_dfm,2024:Q4,0.0659399661674757,0.3158045227544136
exact,pre_second,S,standard_dfm,revision_dfm_kalman_em,2024:Q1,-0.5457895673130095,-0.5457895673130095
exact,pre_second,S,standard_dfm,revision_dfm_kalman_em,2024:Q2,0.23618876579168213,-0.3096008015213274
exact,pre_second,S,standard_dfm,revision_dfm_kalman_em,2024:Q3,0.21298867176064504,-0.09661212976068237
exact,pre_second,S,standard_dfm,revision_dfm_kalman_em,2024:Q4,0.06036984287236835,-0.03624228688831402
exact,pre_second,S,standard_dfm,spf,2024:Q1,-0.67828619497212,-0.67828619497212
exact,pre_second,S,standard_dfm,spf,2024:Q2,-0.6543684931644312,-1.332654688136551
exact,pre_second,S,standard_dfm,spf,2024:Q3,-0.6998287540577025,-2.0324834421942537
exact,pre_second,S,standard_dfm,spf,2024:Q4,-0.12274063819770714,-2.1552240803919607
exact,pre_second,S,release_dfm,ar,2024:Q1,-1.642003433550263,-1.642003433550263
exact,pre_second,S,release_dfm,ar,2024:Q2,-0.19926794836486128,-1.8412713819151243
exact,pre_second,S,release_dfm,ar,2024:Q3,-0.03175284471590353,-1.8730242266310277
exact,pre_second,S,release_dfm,ar,2024:Q4,-0.05513214484438499,-1.9281563714754126
exact,pre_second,S,release_dfm,bridge,2024:Q1,0.2205024977582883,0.2205024977582883
exact,pre_second,S,release_dfm,bridge,2024:Q2,-0.0028054040056585084,0.2176970937526298
exact,pre_second,S,release_dfm,bridge,2024:Q3,-0.06655281733496221,0.1511442764176676
exact,pre_second,S,release_dfm,bridge,2024:Q4,0.00046274096047422934,0.1516070173781418
exact,pre_second,S,release_dfm,indicator_revision_only_dfm_kalman_em,2024:Q1,-0.135461234929704,-0.135461234929704
exact,pre_second,S,release_dfm,indicator_revision_only_dfm_kalman_em,2024:Q2,-0.03212732887384877,-0.16758856380355275
exact,pre_second,S,release_dfm,indicator_revision_only_dfm_kalman_em,2024:Q3,-0.013420026613374384,-0.18100859041692713
exact,pre_second,S,release_dfm,indicator_revision_only_dfm_kalman_em,2024:Q4,0.0018949957548521057,-0.17911359466207502
exact,pre_second,S,release_dfm,joint_indicator_revision_dfm_full_kalman_em,2024:Q1,-0.39576243032112723,-0.39576243032112723
exact,pre_second,S,release_dfm,joint_indicator_revision_dfm_full_kalman_em,2024:Q2,-0.025668392135362327,-0.42143082245648955
exact,pre_second,S,release_dfm,joint_indicator_revision_dfm_full_kalman_em,2024:Q3,-0.0012206252336255177,-0.4226514476901151
exact,pre_second,S,release_dfm,joint_indicator_revision_dfm_full_kalman_em,2024:Q4,-0.02983293728082665,-0.45248438497094173
exact,pre_second,S,release_dfm,midas_umidas,2024:Q1,0.10097810509520916,0.10097810509520916
exact,pre_second,S,release_dfm,midas_umidas,2024:Q2,-0.007683193046262931,0.09329491204894623
exact,pre_second,S,release_dfm,midas_umidas,2024:Q3,-0.024539156494254828,0.0687557555546914
exact,pre_second,S,release_dfm,midas_umidas,2024:Q4,-3.2089084921332094,-3.140152736578518
exact,pre_second,S,release_dfm,monthly_mixed_frequency_kalman_em,2024:Q1,-0.11375093029607639,-0.11375093029607639
exact,pre_second,S,release_dfm,monthly_mixed_frequency_kalman_em,2024:Q2,-0.11112506408895352,-0.22487599438502992
exact,pre_second,S,release_dfm,monthly_mixed_frequency_kalman_em,2024:Q3,-0.039873292215420436,-0.2647492866004504
exact,pre_second,S,release_dfm,monthly_mixed_frequency_kalman_em,2024:Q4,-0.023766387249662554,-0.28851567385011295
exact,pre_second,S,release_dfm,no_revision,2024:Q1,0.10631053148182303,0.10631053148182303
exact,pre_second,S,release_dfm,no_revision,2024:Q2,-0.012167432377390925,0.0941430991044321
exact,pre_second,S,release_dfm,no_revision,2024:Q3,0.02424641211437659,0.11838951121880868
exact,pre_second,S,release_dfm,no_revision,2024:Q4,-0.003193174365183028,0.11519633685362565
exact,pre_second,S,release_dfm,revision_dfm_kalman_em,2024:Q1,-0.3545534308590669,-0.3545534308590669
exact,pre_second,S,release_dfm,revision_dfm_kalman_em,2024:Q2,-0.0009249734212775638,-0.35547840428034444
exact,pre_second,S,release_dfm,revision_dfm_kalman_em,2024:Q3,0.00900171793272404,-0.3464766863476204
exact,pre_second,S,release_dfm,revision_dfm_kalman_em,2024:Q4,-0.00557012329510735,-0.3520468096427278
exact,pre_second,S,release_dfm,spf,2024:Q1,-0.4870500585181773,-0.4870500585181773
exact,pre_second,S,release_dfm,spf,2024:Q2,-0.891482232377391,-1.3785322908955684
exact,pre_second,S,release_dfm,spf,2024:Q3,-0.9038157078856235,-2.2823479987811917
exact,pre_second,S,release_dfm,spf,2024:Q4,-0.18868060436518286,-2.4710286031463746
exact,pre_second,S,release_dfm,standard_dfm,2024:Q1,0.19123613645394275,0.19123613645394275
exact,pre_second,S,release_dfm,standard_dfm,2024:Q2,-0.2371137392129597,-0.04587760275901695
exact,pre_second,S,release_dfm,standard_dfm,2024:Q3,-0.20398695382792098,-0.24986455658693793
exact,pre_second,S,release_dfm,standard_dfm,2024:Q4,-0.0659399661674757,-0.3158045227544136
exact,pre_third,T,ar,bridge,2024:Q1,1.4397044832711763,1.4397044832711763
exact,pre_third,T,ar,bridge,2024:Q2,0.04938468605208607,1.4890891693232624
exact,pre_third,T,ar,bridge,2024:Q3,-0.3311676389905206,1.1579215303327417
exact,pre_third,T,ar,bridge,2024:Q4,0.04711271131803244,1.2050342416507742
exact,pre_third,T,ar,indicator_revision_only_dfm_kalman_em,2024:Q1,1.5967647501665605,1.5967647501665605
exact,pre_third,T,ar,indicator_revision_only_dfm_kalman_em,2024:Q2,0.1442720919411419,1.7410368421077025
exact,pre_third,T,ar,indicator_revision_only_dfm_kalman_em,2024:Q3,0.034585796625837356,1.7756226387335399
exact,pre_third,T,ar,indicator_revision_only_dfm_kalman_em,2024:Q4,0.04605362932579021,1.8216762680593301
exact,pre_third,T,ar,joint_indicator_revision_dfm_full_kalman_em,2024:Q1,1.547069433776265,1.547069433776265
exact,pre_third,T,ar,joint_indicator_revision_dfm_full_kalman_em,2024:Q2,0.15008090993052273,1.6971503437067876
exact,pre_third,T,ar,joint_indicator_revision_dfm_full_kalman_em,2024:Q3,0.05387585731975546,1.7510262010265432
exact,pre_third,T,ar,joint_indicator_revision_dfm_full_kalman_em,2024:Q4,0.0488770483316696,1.7999032493582128
exact,pre_third,T,ar,midas_umidas,2024:Q1,1.5647784500336006,1.5647784500336006
exact,pre_third,T,ar,midas_umidas,2024:Q2,-0.6798960816339414,0.8848823683996592
exact,pre_third,T,ar,midas_umidas,2024:Q3,-0.07207626284077517,0.812806105558884
exact,pre_third,T,ar,midas_umidas,2024:Q4,-2.0664133645845233,-1.2536072590256393
exact,pre_third,T,ar,monthly_mixed_frequency_kalman_em,2024:Q1,1.4606341812024124,1.4606341812024124
exact,pre_third,T,ar,monthly_mixed_frequency_kalman_em,2024:Q2,0.05693794263743078,1.5175721238398432
exact,pre_third,T,ar,monthly_mixed_frequency_kalman_em,2024:Q3,-0.03639301636118189,1.4811791074786613
exact,pre_third,T,ar,monthly_mixed_frequency_kalman_em,2024:Q4,0.04673725069514304,1.5279163581738044
exact,pre_third,T,ar,no_revision,2024:Q1,1.6135341740229943,1.6135341740229943
exact,pre_third,T,ar,no_revision,2024:Q2,0.163341856265736,1.7768760302887303
exact,pre_third,T,ar,no_revision,2024:Q3,0.10893601961242862,1.885812049901159
exact,pre_third,T,ar,no_revision,2024:Q4,0.038262134918035304,1.9240741848191942
exact,pre_third,T,ar,release_dfm,2024:Q1,1.6392277570060663,1.6392277570060663
exact,pre_third,T,ar,release_dfm,2024:Q2,0.16409197950919296,1.8033197365152591
exact,pre_third,T,ar,release_dfm,2024:Q3,0.14973833338396447,1.9530580698992237
exact,pre_third,T,ar,release_dfm,2024:Q4,0.04901731367299032,2.002075383572214
exact,pre_third,T,ar,revision_dfm_kalman_em,2024:Q1,1.5582026721654803,1.5582026721654803
exact,pre_third,T,ar,revision_dfm_kalman_em,2024:Q2,0.15919663063276315,1.7173993027982435
exact,pre_third,T,ar,revision_dfm_kalman_em,2024:Q3,0.05683861630183587,1.7742379191000794
exact,pre_third,T,ar,revision_dfm_kalman_em,2024:Q4,0.04889580414357231,1.8231337232436517
exact,pre_third,T,ar,spf,2024:Q1,1.174242654022994,1.174242654022994
exact,pre_third,T,ar,spf,2024:Q2,-0.8003162937342644,0.3739263602887296
exact,pre_third,T,ar,spf,2024:Q3,-1.2804794603875718,-0.9065531000988422
exact,pre_third,T,ar,spf,2024:Q4,-0.2480815450819646,-1.1546346451808067
exact,pre_third,T,ar,standard_dfm,2024:Q1,1.4663374224064802,1.4663374224064802
exact,pre_third,T,ar,standard_dfm,2024:Q2,-0.0953489473296466,1.3709884750768335
exact,pre_third,T,ar,standard_dfm,2024:Q3,-0.4261859344801944,0.9448025405966392
exact,pre_third,T,ar,standard_dfm,2024:Q4,-0.023264643348112145,0.921537897248527
exact,pre_third,T,no_revision,ar,2024:Q1,-1.6135341740229943,-1.6135341740229943
exact,pre_third,T,no_revision,ar,2024:Q2,-0.163341856265736,-1.7768760302887303
exact,pre_third,T,no_revision,ar,2024:Q3,-0.10893601961242862,-1.885812049901159
exact,pre_third,T,no_revision,ar,2024:Q4,-0.038262134918035304,-1.9240741848191942
exact,pre_third,T,no_revision,bridge,2024:Q1,-0.1738296907518181,-0.1738296907518181
exact,pre_third,T,no_revision,bridge,2024:Q2,-0.11395717021364991,-0.287786860965468
exact,pre_third,T,no_revision,bridge,2024:Q3,-0.44010365860294925,-0.7278905195684173
exact,pre_third,T,no_revision,bridge,2024:Q4,0.008850576399997137,-0.7190399431684202
exact,pre_third,T,no_revision,indicator_revision_only_dfm_kalman_em,2024:Q1,-0.016769423856433832,-0.016769423856433832
exact,pre_third,T,no_revision,indicator_revision_only_dfm_kalman_em,2024:Q2,-0.019069764324594094,-0.03583918818102792
exact,pre_third,T,no_revision,indicator_revision_only_dfm_kalman_em,2024:Q3,-0.07435022298659126,-0.11018941116761918
exact,pre_third,T,no_revision,indicator_revision_only_dfm_kalman_em,2024:Q4,0.007791494407754911,-0.10239791675986427
exact,pre_third,T,no_revision,joint_indicator_revision_dfm_full_kalman_em,2024:Q1,-0.0664647402467294,-0.0664647402467294
exact,pre_third,T,no_revision,joint_indicator_revision_dfm_full_kalman_em,2024:Q2,-0.013260946335213266,-0.07972568658194266
exact,pre_third,T,no_revision,joint_indicator_revision_dfm_full_kalman_em,2024:Q3,-0.05506016229267316,-0.1347858488746158
exact,pre_third,T,no_revision,joint_indicator_revision_dfm_full_kalman_em,2024:Q4,0.010614913413634299,-0.12417093546098151
exact,pre_third,T,no_revision,midas_umidas,2024:Q1,-0.04875572398939364,-0.04875572398939364
exact,pre_third,T,no_revision,midas_umidas,2024:Q2,-0.8432379378996774,-0.891993661889071
exact,pre_third,T,no_revision,midas_umidas,2024:Q3,-0.18101228245320378,-1.0730059443422748
exact,pre_third,T,no_revision,midas_umidas,2024:Q4,-2.1046754995025587,-3.1776814438448335
exact,pre_third,T,no_revision,monthly_mixed_frequency_kalman_em,2024:Q1,-0.15289999282058203,-0.15289999282058203
exact,pre_third,T,no_revision,monthly_mixed_frequency_kalman_em,2024:Q2,-0.1064039136283052,-0.25930390644888723
exact,pre_third,T,no_revision,monthly_mixed_frequency_kalman_em,2024:Q3,-0.14532903597361052,-0.40463294242249775
exact,pre_third,T,no_revision,monthly_mixed_frequency_kalman_em,2024:Q4,0.008475115777107736,-0.39615782664539
exact,pre_third,T,no_revision,release_dfm,2024:Q1,0.025693582983072,0.025693582983072
exact,pre_third,T,no_revision,release_dfm,2024:Q2,0.0007501232434569888,0.026443706226528987
exact,pre_third,T,no_revision,release_dfm,2024:Q3,0.04080231377153586,0.06724601999806484
exact,pre_third,T,no_revision,release_dfm,2024:Q4,0.01075517875495502,0.07800119875301986
exact,pre_third,T,no_revision,revision_dfm_kalman_em,2024:Q1,-0.055331501857514204,-0.055331501857514204
exact,pre_third,T,no_revision,revision_dfm_kalman_em,2024:Q2,-0.00414522563297283,-0.05947672749048703
exact,pre_third,T,no_revision,revision_dfm_kalman_em,2024:Q3,-0.052097403310592746,-0.11157413080107978
exact,pre_third,T,no_revision,revision_dfm_kalman_em,2024:Q4,0.010633669225537,-0.10094046157554278
exact,pre_third,T,no_revision,spf,2024:Q1,-0.43929152000000027,-0.43929152000000027
exact,pre_third,T,no_revision,spf,2024:Q2,-0.9636581500000003,-1.4029496700000006
exact,pre_third,T,no_revision,spf,2024:Q3,-1.3894154800000005,-2.792365150000001
exact,pre_third,T,no_revision,spf,2024:Q4,-0.2863436799999999,-3.078708830000001
exact,pre_third,T,no_revision,standard_dfm,2024:Q1,-0.14719675161651408,-0.14719675161651408
exact,pre_third,T,no_revision,standard_dfm,2024:Q2,-0.2586908035953826,-0.4058875552118967
exact,pre_third,T,no_revision,standard_dfm,2024:Q3,-0.535121954092623,-0.9410095093045197
exact,pre_third,T,no_revision,standard_dfm,2024:Q4,-0.06152677826614745,-1.0025362875706672
exact,pre_third,T,bridge,ar,2024:Q1,-1.4397044832711763,-1.4397044832711763
exact,pre_third,T,bridge,ar,2024:Q2,-0.04938468605208607,-1.4890891693232624
exact,pre_third,T,bridge,ar,2024:Q3,0.3311676389905206,-1.1579215303327417
exact,pre_third,T,bridge,ar,2024:Q4,-0.04711271131803244,-1.2050342416507742
exact,pre_third,T,bridge,indicator_revision_only_dfm_kalman_em,2024:Q1,0.15706026689538424,0.15706026689538424
exact,pre_third,T,bridge,indicator_revision_only_dfm_kalman_em,2024:Q2,0.09488740588905582,0.2519476727844401
exact,pre_third,T,bridge,indicator_revision_only_dfm_kalman_em,2024:Q3,0.365753435616358,0.6177011084007981
exact,pre_third,T,bridge,indicator_revision_only_dfm_kalman_em,2024:Q4,-0.0010590819922422254,0.6166420264085558
exact,pre_third,T,bridge,joint_indicator_revision_dfm_full_kalman_em,2024:Q1,0.10736495050508868,0.10736495050508868
exact,pre_third,T,bridge,joint_indicator_revision_dfm_full_kalman_em,2024:Q2,0.10069622387843666,0.20806117438352534
exact,pre_third,T,bridge,joint_indicator_revision_dfm_full_kalman_em,2024:Q3,0.38504349631027607,0.5931046706938015
exact,pre_third,T,bridge,joint_indicator_revision_dfm_full_kalman_em,2024:Q4,0.001764337013637162,0.5948690077074387
exact,pre_third,T,bridge,midas_umidas,2024:Q1,0.12507396676242444,0.12507396676242444
exact,pre_third,T,bridge,midas_umidas,2024:Q2,-0.7292807676860276,-0.6042068009236031
exact,pre_third,T,bridge,midas_umidas,2024:Q3,0.2590913761497454,-0.3451154247738577
exact,pre_third,T,bridge,midas_umidas,2024:Q4,-2.1135260759025556,-2.4586415006764133
exact,pre_third,T,bridge,monthly_mixed_frequency_kalman_em,2024:Q1,0.02092969793123603,0.02092969793123603
exact,pre_third,T,bridge,monthly_mixed_frequency_kalman_em,2024:Q2,0.0075532565853447114,0.02848295451658074
exact,pre_third,T,bridge,monthly_mixed_frequency_kalman_em,2024:Q3,0.29477462262933873,0.32325757714591946
exact,pre_third,T,bridge,monthly_mixed_frequency_kalman_em,2024:Q4,-0.00037546062288940085,0.32288211652303006
exact,pre_third,T,bridge,no_revision,2024:Q1,0.1738296907518181,0.1738296907518181
exact,pre_third,T,bridge,no_revision,2024:Q2,0.11395717021364991,0.287786860965468
exact,pre_third,T,bridge,no_revision,2024:Q3,0.44010365860294925,0.7278905195684173
exact,pre_third,T,bridge,no_revision,2024:Q4,-0.008850576399997137,0.7190399431684202
exact,pre_third,T,bridge,release_dfm,2024:Q1,0.19952327373489007,0.19952327373489007
exact,pre_third,T,bridge,release_dfm,2024:Q2,0.11470729345710691,0.314230567191997
exact,pre_third,T,bridge,release_dfm,2024:Q3,0.4809059723744851,0.7951365395664821
exact,pre_third,T,bridge,release_dfm,2024:Q4,0.0019046023549578823,0.79704114192144
exact,pre_third,T,bridge,revision_dfm_kalman_em,2024:Q1,0.11849818889430387,0.11849818889430387
exact,pre_third,T,bridge,revision_dfm_kalman_em,2024:Q2,0.10981194458067708,0.22831013347498097
exact,pre_third,T,bridge,revision_dfm_kalman_em,2024:Q3,0.3880062552923565,0.6163163887673375
exact,pre_third,T,bridge,revision_dfm_kalman_em,2024:Q4,0.0017830928255398635,0.6180994815928774
exact,pre_third,T,bridge,spf,2024:Q1,-0.2654618292481822,-0.2654618292481822
exact,pre_third,T,bridge,spf,2024:Q2,-0.8497009797863504,-1.1151628090345325
exact,pre_third,T,bridge,spf,2024:Q3,-0.9493118213970512,-2.0644746304315835
exact,pre_third,T,bridge,spf,2024:Q4,-0.295194256399997,-2.3596688868315807
exact,pre_third,T,bridge,standard_dfm,2024:Q1,0.026632939135303985,0.026632939135303985
exact,pre_third,T,bridge,standard_dfm,2024:Q2,-0.14473363338173267,-0.11810069424642869
exact,pre_third,T,bridge,standard_dfm,2024:Q3,-0.09501829548967378,-0.21311898973610247
exact,pre_third,T,bridge,standard_dfm,2024:Q4,-0.07037735466614459,-0.283496344402247
exact,pre_third,T,midas_umidas,ar,2024:Q1,-1.5647784500336006,-1.5647784500336006
exact,pre_third,T,midas_umidas,ar,2024:Q2,0.6798960816339414,-0.8848823683996592
exact,pre_third,T,midas_umidas,ar,2024:Q3,0.07207626284077517,-0.812806105558884
exact,pre_third,T,midas_umidas,ar,2024:Q4,2.0664133645845233,1.2536072590256393
exact,pre_third,T,midas_umidas,bridge,2024:Q1,-0.12507396676242444,-0.12507396676242444
exact,pre_third,T,midas_umidas,bridge,2024:Q2,0.7292807676860276,0.6042068009236031
exact,pre_third,T,midas_umidas,bridge,2024:Q3,-0.2590913761497454,0.3451154247738577
exact,pre_third,T,midas_umidas,bridge,2024:Q4,2.1135260759025556,2.4586415006764133
exact,pre_third,T,midas_umidas,indicator_revision_only_dfm_kalman_em,2024:Q1,0.031986300132959805,0.031986300132959805
exact,pre_third,T,midas_umidas,indicator_revision_only_dfm_kalman_em,2024:Q2,0.8241681735750833,0.8561544737080431
exact,pre_third,T,midas_umidas,indicator_revision_only_dfm_kalman_em,2024:Q3,0.10666205946661253,0.9628165331746557
exact,pre_third,T,midas_umidas,indicator_revision_only_dfm_kalman_em,2024:Q4,2.1124669939103136,3.075283527084969
exact,pre_third,T,midas_umidas,joint_indicator_revision_dfm_full_kalman_em,2024:Q1,-0.017709016257335758,-0.017709016257335758
exact,pre_third,T,midas_umidas,joint_indicator_revision_dfm_full_kalman_em,2024:Q2,0.8299769915644641,0.8122679753071284
exact,pre_third,T,midas_umidas,joint_indicator_revision_dfm_full_kalman_em,2024:Q3,0.12595212016053065,0.9382200954676589
exact,pre_third,T,midas_umidas,joint_indicator_revision_dfm_full_kalman_em,2024:Q4,2.1152904129161927,3.0535105083838516
exact,pre_third,T,midas_umidas,monthly_mixed_frequency_kalman_em,2024:Q1,-0.10414426883118841,-0.10414426883118841
exact,pre_third,T,midas_umidas,monthly_mixed_frequency_kalman_em,2024:Q2,0.7368340242713722,0.6326897554401838
exact,pre_third,T,midas_umidas,monthly_mixed_frequency_kalman_em,2024:Q3,0.035683246479593284,0.6683730019197771
exact,pre_third,T,midas_umidas,monthly_mixed_frequency_kalman_em,2024:Q4,2.1131506152796664,2.7815236171994435
exact,pre_third,T,midas_umidas,no_revision,2024:Q1,0.04875572398939364,0.04875572398939364
exact,pre_third,T,midas_umidas,no_revision,2024:Q2,0.8432379378996774,0.891993661889071
exact,pre_third,T,midas_umidas,no_revision,2024:Q3,0.18101228245320378,1.0730059443422748
exact,pre_third,T,midas_umidas,no_revision,2024:Q4,2.1046754995025587,3.1776814438448335
exact,pre_third,T,midas_umidas,release_dfm,2024:Q1,0.07444930697246563,0.07444930697246563
exact,pre_third,T,midas_umidas,release_dfm,2024:Q2,0.8439880611431344,0.9184373681156001
exact,pre_third,T,midas_umidas,release_dfm,2024:Q3,0.22181459622473965,1.1402519643403397
exact,pre_third,T,midas_umidas,release_dfm,2024:Q4,2.1154306782575136,3.2556826425978533
exact,pre_third,T,midas_umidas,revision_dfm_kalman_em,2024:Q1,-0.006575777868120566,-0.006575777868120566
exact,pre_third,T,midas_umidas,revision_dfm_kalman_em,2024:Q2,0.8390927122667046,0.832516934398584
exact,pre_third,T,midas_umidas,revision_dfm_kalman_em,2024:Q3,0.12891487914261104,0.961431813541195
exact,pre_third,T,midas_umidas,revision_dfm_kalman_em,2024:Q4,2.1153091687280954,3.0767409822692904
exact,pre_third,T,midas_umidas,spf,2024:Q1,-0.3905357960106066,-0.3905357960106066
exact,pre_third,T,midas_umidas,spf,2024:Q2,-0.12042021210032294,-0.5109560081109296
exact,pre_third,T,midas_umidas,spf,2024:Q3,-1.2084031975467966,-1.7193592056577263
exact,pre_third,T,midas_umidas,spf,2024:Q4,1.8183318195025586,0.09897261384483236
exact,pre_third,T,midas_umidas,standard_dfm,2024:Q1,-0.09844102762712045,-0.09844102762712045
exact,pre_third,T,midas_umidas,standard_dfm,2024:Q2,0.5845471343042948,0.48610610667717435
exact,pre_third,T,midas_umidas,standard_dfm,2024:Q3,-0.3541096716394192,0.13199643503775516
exact,pre_third,T,midas_umidas,standard_dfm,2024:Q4,2.043148721236411,2.175145156274166
exact,pre_third,T,spf,ar,2024:Q1,-1.174242654022994,-1.174242654022994
exact,pre_third,T,spf,ar,2024:Q2,0.8003162937342644,-0.3739263602887296
exact,pre_third,T,spf,ar,2024:Q3,1.2804794603875718,0.9065531000988422
exact,pre_third,T,spf,ar,2024:Q4,0.2480815450819646,1.1546346451808067
exact,pre_third,T,spf,bridge,2024:Q1,0.2654618292481822,0.2654618292481822
exact,pre_third,T,spf,bridge,2024:Q2,0.8497009797863504,1.1151628090345325
exact,pre_third,T,spf,bridge,2024:Q3,0.9493118213970512,2.0644746304315835
exact,pre_third,T,spf,bridge,2024:Q4,0.295194256399997,2.3596688868315807
exact,pre_third,T,spf,indicator_revision_only_dfm_kalman_em,2024:Q1,0.4225220961435664,0.4225220961435664
exact,pre_third,T,spf,indicator_revision_only_dfm_kalman_em,2024:Q2,0.9445883856754063,1.3671104818189725
exact,pre_third,T,spf,indicator_revision_only_dfm_kalman_em,2024:Q3,1.3150652570134092,2.682175738832382
exact,pre_third,T,spf,indicator_revision_only_dfm_kalman_em,2024:Q4,0.29413517440775483,2.9763109132401366
exact,pre_third,T,spf,joint_indicator_revision_dfm_full_kalman_em,2024:Q1,0.37282677975327083,0.37282677975327083
exact,pre_third,T,spf,joint_indicator_revision_dfm_full_kalman_em,2024:Q2,0.9503972036647871,1.323223983418058
exact,pre_third,T,spf,joint_indicator_revision_dfm_full_kalman_em,2024:Q3,1.3343553177073273,2.657579301125385
exact,pre_third,T,spf,joint_indicator_revision_dfm_full_kalman_em,2024:Q4,0.2969585934136342,2.9545378945390195
exact,pre_third,T,spf,midas_umidas,2024:Q1,0.3905357960106066,0.3905357960106066
exact,pre_third,T,spf,midas_umidas,2024:Q2,0.12042021210032294,0.5109560081109296
exact,pre_third,T,spf,midas_umidas,2024:Q3,1.2084031975467966,1.7193592056577263
exact,pre_third,T,spf,midas_umidas,2024:Q4,-1.8183318195025586,-0.09897261384483236
exact,pre_third,T,spf,monthly_mixed_frequency_kalman_em,2024:Q1,0.2863915271794182,0.2863915271794182
exact,pre_third,T,spf,monthly_mixed_frequency_kalman_em,2024:Q2,0.8572542363716952,1.1436457635511132
exact,pre_third,T,spf,monthly_mixed_frequency_kalman_em,2024:Q3,1.24408644402639,2.3877322075775034
exact,pre_third,T,spf,monthly_mixed_frequency_kalman_em,2024:Q4,0.2948187957771076,2.682551003354611
exact,pre_third,T,spf,no_revision,2024:Q1,0.43929152000000027,0.43929152000000027
exact,pre_third,T,spf,no_revision,2024:Q2,0.9636581500000003,1.4029496700000006
exact,pre_third,T,spf,no_revision,2024:Q3,1.3894154800000005,2.792365150000001
exact,pre_third,T,spf,no_revision,2024:Q4,0.2863436799999999,3.078708830000001
exact,pre_third,T,spf,release_dfm,2024:Q1,0.4649851029830723,0.4649851029830723
exact,pre_third,T,spf,release_dfm,2024:Q2,0.9644082732434573,1.4293933762265296
exact,pre_third,T,spf,release_dfm,2024:Q3,1.4302177937715363,2.859611169998066
exact,pre_third,T,spf,release_dfm,2024:Q4,0.2970988587549549,3.1567100287530208
exact,pre_third,T,spf,revision_dfm_kalman_em,2024:Q1,0.38396001814248604,0.38396001814248604
exact,pre_third,T,spf,revision_dfm_kalman_em,2024:Q2,0.9595129243670275,1.3434729425095135
exact,pre_third,T,spf,revision_dfm_kalman_em,2024:Q3,1.3373180766894077,2.6807910191989213
exact,pre_third,T,spf,revision_dfm_kalman_em,2024:Q4,0.2969773492255369,2.9777683684244582
exact,pre_third,T,spf,standard_dfm,2024:Q1,0.29209476838348614,0.29209476838348614
exact,pre_third,T,spf,standard_dfm,2024:Q2,0.7049673464046178,0.9970621147881039
exact,pre_third,T,spf,standard_dfm,2024:Q3,0.8542935259073774,1.8513556406954814
exact,pre_third,T,spf,standard_dfm,2024:Q4,0.22481690173385244,2.076172542429334
exact,pre_third,T,standard_dfm,ar,2024:Q1,-1.4663374224064802,-1.4663374224064802
exact,pre_third,T,standard_dfm,ar,2024:Q2,0.0953489473296466,-1.3709884750768335
exact,pre_third,T,standard_dfm,ar,2024:Q3,0.4261859344801944,-0.9448025405966392
exact,pre_third,T,standard_dfm,ar,2024:Q4,0.023264643348112145,-0.921537897248527
exact,pre_third,T,standard_dfm,bridge,2024:Q1,-0.026632939135303985,-0.026632939135303985
exact,pre_third,T,standard_dfm,bridge,2024:Q2,0.14473363338173267,0.11810069424642869
exact,pre_third,T,standard_dfm,bridge,2024:Q3,0.09501829548967378,0.21311898973610247
exact,pre_third,T,standard_dfm,bridge,2024:Q4,0.07037735466614459,0.283496344402247
exact,pre_third,T,standard_dfm,indicator_revision_only_dfm_kalman_em,2024:Q1,0.13042732776008026,0.13042732776008026
exact,pre_third,T,standard_dfm,indicator_revision_only_dfm_kalman_em,2024:Q2,0.2396210392707885,0.37004836703086874
exact,pre_third,T,standard_dfm,indicator_revision_only_dfm_kalman_em,2024:Q3,0.46077173110603176,0.8308200981369005
exact,pre_third,T,standard_dfm,indicator_revision_only_dfm_kalman_em,2024:Q4,0.06931827267390236,0.9001383708108028
exact,pre_third,T,standard_dfm,joint_indicator_revision_dfm_full_kalman_em,2024:Q1,0.0807320113697847,0.0807320113697847
exact,pre_third,T,standard_dfm,joint_indicator_revision_dfm_full_kalman_em,2024:Q2,0.24542985726016933,0.326161868629954
exact,pre_third,T,standard_dfm,joint_indicator_revision_dfm_full_kalman_em,2024:Q3,0.48006179179994984,0.8062236604299038
exact,pre_third,T,standard_dfm,joint_indicator_revision_dfm_full_kalman_em,2024:Q4,0.07214169167978175,0.8783653521096856
exact,pre_third,T,standard_dfm,midas_umidas,2024:Q1,0.09844102762712045,0.09844102762712045
exact,pre_third,T,standard_dfm,midas_umidas,2024:Q2,-0.5845471343042948,-0.48610610667717435
exact,pre_third,T,standard_dfm,midas_umidas,2024:Q3,0.3541096716394192,-0.13199643503775516
exact,pre_third,T,standard_dfm,midas_umidas,2024:Q4,-2.043148721236411,-2.175145156274166
exact,pre_third,T,standard_dfm,monthly_mixed_frequency_kalman_em,2024:Q1,-0.005703241204067955,-0.005703241204067955
exact,pre_third,T,standard_dfm,monthly_mixed_frequency_kalman_em,2024:Q2,0.1522868899670774,0.14658364876300944
exact,pre_third,T,standard_dfm,monthly_mixed_frequency_kalman_em,2024:Q3,0.3897929181190125,0.536376566882022
exact,pre_third,T,standard_dfm,monthly_mixed_frequency_kalman_em,2024:Q4,0.07000189404325519,0.6063784609252771
exact,pre_third,T,standard_dfm,no_revision,2024:Q1,0.14719675161651408,0.14719675161651408
exact,pre_third,T,standard_dfm,no_revision,2024:Q2,0.2586908035953826,0.4058875552118967
exact,pre_third,T,standard_dfm,no_revision,2024:Q3,0.535121954092623,0.9410095093045197
exact,pre_third,T,standard_dfm,no_revision,2024:Q4,0.06152677826614745,1.0025362875706672
exact,pre_third,T,standard_dfm,release_dfm,2024:Q1,0.17289033459958608,0.17289033459958608
exact,pre_third,T,standard_dfm,release_dfm,2024:Q2,0.25944092683883957,0.43233126143842565
exact,pre_third,T,standard_dfm,release_dfm,2024:Q3,0.5759242678641588,1.0082555293025846
exact,pre_third,T,standard_dfm,release_dfm,2024:Q4,0.07228195702110247,1.080537486323687
exact,pre_third,T,standard_dfm,revision_dfm_kalman_em,2024:Q1,0.09186524975899989,0.09186524975899989
exact,pre_third,T,standard_dfm,revision_dfm_kalman_em,2024:Q2,0.2545455779624098,0.3464108277214097
exact,pre_third,T,standard_dfm,revision_dfm_kalman_em,2024:Q3,0.48302455078203027,0.82943537850344
exact,pre_third,T,standard_dfm,revision_dfm_kalman_em,2024:Q4,0.07216044749168445,0.9015958259951244
exact,pre_third,T,standard_dfm,spf,2024:Q1,-0.29209476838348614,-0.29209476838348614
exact,pre_third,T,standard_dfm,spf,2024:Q2,-0.7049673464046178,-0.9970621147881039
exact,pre_third,T,standard_dfm,spf,2024:Q3,-0.8542935259073774,-1.8513556406954814
exact,pre_third,T,standard_dfm,spf,2024:Q4,-0.22481690173385244,-2.076172542429334
exact,pre_third,T,release_dfm,ar,2024:Q1,-1.6392277570060663,-1.6392277570060663
exact,pre_third,T,release_dfm,ar,2024:Q2,-0.16409197950919296,-1.8033197365152591
exact,pre_third,T,release_dfm,ar,2024:Q3,-0.14973833338396447,-1.9530580698992237
exact,pre_third,T,release_dfm,ar,2024:Q4,-0.04901731367299032,-2.002075383572214
exact,pre_third,T,release_dfm,bridge,2024:Q1,-0.19952327373489007,-0.19952327373489007
exact,pre_third,T,release_dfm,bridge,2024:Q2,-0.11470729345710691,-0.314230567191997
exact,pre_third,T,release_dfm,bridge,2024:Q3,-0.4809059723744851,-0.7951365395664821
exact,pre_third,T,release_dfm,bridge,2024:Q4,-0.0019046023549578823,-0.79704114192144
exact,pre_third,T,release_dfm,indicator_revision_only_dfm_kalman_em,2024:Q1,-0.04246300683950583,-0.04246300683950583
exact,pre_third,T,release_dfm,indicator_revision_only_dfm_kalman_em,2024:Q2,-0.019819887568051083,-0.06228289440755691
exact,pre_third,T,release_dfm,indicator_revision_only_dfm_kalman_em,2024:Q3,-0.11515253675812712,-0.17743543116568403
exact,pre_third,T,release_dfm,indicator_revision_only_dfm_kalman_em,2024:Q4,-0.002963684347200108,-0.18039911551288412
exact,pre_third,T,release_dfm,joint_indicator_revision_dfm_full_kalman_em,2024:Q1,-0.09215832322980139,-0.09215832322980139
exact,pre_third,T,release_dfm,joint_indicator_revision_dfm_full_kalman_em,2024:Q2,-0.014011069578670255,-0.10616939280847164
exact,pre_third,T,release_dfm,joint_indicator_revision_dfm_full_kalman_em,2024:Q3,-0.09586247606420903,-0.20203186887268065
exact,pre_third,T,release_dfm,joint_indicator_revision_dfm_full_kalman_em,2024:Q4,-0.0001402653413207203,-0.20217213421400138
exact,pre_third,T,release_dfm,midas_umidas,2024:Q1,-0.07444930697246563,-0.07444930697246563
exact,pre_third,T,release_dfm,midas_umidas,2024:Q2,-0.8439880611431344,-0.9184373681156001
exact,pre_third,T,release_dfm,midas_umidas,2024:Q3,-0.22181459622473965,-1.1402519643403397
exact,pre_third,T,release_dfm,midas_umidas,2024:Q4,-2.1154306782575136,-3.2556826425978533
exact,pre_third,T,release_dfm,monthly_mixed_frequency_kalman_em,2024:Q1,-0.17859357580365404,-0.17859357580365404
exact,pre_third,T,release_dfm,monthly_mixed_frequency_kalman_em,2024:Q2,-0.1071540368717622,-0.28574761267541626
exact,pre_third,T,release_dfm,monthly_mixed_frequency_kalman_em,2024:Q3,-0.18613134974514636,-0.4718789624205626
exact,pre_third,T,release_dfm,monthly_mixed_frequency_kalman_em,2024:Q4,-0.0022800629778472834,-0.4741590253984099
exact,pre_third,T,release_dfm,no_revision,2024:Q1,-0.025693582983072,-0.025693582983072
exact,pre_third,T,release_dfm,no_revision,2024:Q2,-0.0007501232434569888,-0.026443706226528987
exact,pre_third,T,release_dfm,no_revision,2024:Q3,-0.04080231377153586,-0.06724601999806484
exact,pre_third,T,release_dfm,no_revision,2024:Q4,-0.01075517875495502,-0.07800119875301986
exact,pre_third,T,release_dfm,revision_dfm_kalman_em,2024:Q1,-0.0810250848405862,-0.0810250848405862
exact,pre_third,T,release_dfm,revision_dfm_kalman_em,2024:Q2,-0.004895348876429818,-0.08592043371701602
exact,pre_third,T,release_dfm,revision_dfm_kalman_em,2024:Q3,-0.0928997170821286,-0.17882015079914462
exact,pre_third,T,release_dfm,revision_dfm_kalman_em,2024:Q4,-0.00012150952941801895,-0.17894166032856265
exact,pre_third,T,release_dfm,spf,2024:Q1,-0.4649851029830723,-0.4649851029830723
exact,pre_third,T,release_dfm,spf,2024:Q2,-0.9644082732434573,-1.4293933762265296
exact,pre_third,T,release_dfm,spf,2024:Q3,-1.4302177937715363,-2.859611169998066
exact,pre_third,T,release_dfm,spf,2024:Q4,-0.2970988587549549,-3.1567100287530208
exact,pre_third,T,release_dfm,standard_dfm,2024:Q1,-0.17289033459958608,-0.17289033459958608
exact,pre_third,T,release_dfm,standard_dfm,2024:Q2,-0.25944092683883957,-0.43233126143842565
exact,pre_third,T,release_dfm,standard_dfm,2024:Q3,-0.5759242678641588,-1.0082555293025846
exact,pre_third,T,release_dfm,standard_dfm,2024:Q4,-0.07228195702110247,-1.080537486323687
pseudo,pre_advance,A,ar,bridge,2024:Q1,0.8229715260263378,0.8229715260263378
pseudo,pre_advance,A,ar,bridge,2024:Q2,-0.560747100564498,0.2622244254618399
pseudo,pre_advance,A,ar,bridge,2024:Q3,-0.048988688159601446,0.21323573730223844
pseudo,pre_advance,A,ar,bridge,2024:Q4,-0.04518876846282488,0.16804696883941356
pseudo,pre_advance,A,ar,indicator_revision_only_dfm_kalman_em,2024:Q1,0.3744103671577095,0.3744103671577095
pseudo,pre_advance,A,ar,indicator_revision_only_dfm_kalman_em,2024:Q2,0.14620481647511696,0.5206151836328264
pseudo,pre_advance,A,ar,indicator_revision_only_dfm_kalman_em,2024:Q3,-0.17712578949968447,0.34348939413314195
pseudo,pre_advance,A,ar,indicator_revision_only_dfm_kalman_em,2024:Q4,-0.08909149737816821,0.2543978967549737
pseudo,pre_advance,A,ar,joint_indicator_revision_dfm_full_kalman_em,2024:Q1,0.6746441304654175,0.6746441304654175
pseudo,pre_advance,A,ar,joint_indicator_revision_dfm_full_kalman_em,2024:Q2,0.14805530632327443,0.822699436788692
pseudo,pre_advance,A,ar,joint_indicator_revision_dfm_full_kalman_em,2024:Q3,-0.4218128745334324,0.40088656225525954
pseudo,pre_advance,A,ar,joint_indicator_revision_dfm_full_kalman_em,2024:Q4,0.011285011897193171,0.4121715741524527
pseudo,pre_advance,A,ar,midas_umidas,2024:Q1,-6.764964868619531,-6.764964868619531
pseudo,pre_advance,A,ar,midas_umidas,2024:Q2,0.12618900290229862,-6.638775865717232
pseudo,pre_advance,A,ar,midas_umidas,2024:Q3,-3.637404849727072,-10.276180715444305
pseudo,pre_advance,A,ar,midas_umidas,2024:Q4,0.04694255449680947,-10.229238160947496
pseudo,pre_advance,A,ar,monthly_mixed_frequency_kalman_em,2024:Q1,0.8390366277110658,0.8390366277110658
pseudo,pre_advance,A,ar,monthly_mixed_frequency_kalman_em,2024:Q2,0.03911423494467228,0.878150862655738
pseudo,pre_advance,A,ar,monthly_mixed_frequency_kalman_em,2024:Q3,-0.5690598978476228,0.30909096480811526
pseudo,pre_advance,A,ar,monthly_mixed_frequency_kalman_em,2024:Q4,0.0028785268174461726,0.3119694916255614
pseudo,pre_advance,A,ar,no_revision,2024:Q1,-0.31218151521482485,-0.31218151521482485
pseudo,pre_advance,A,ar,no_revision,2024:Q2,0.0978852185130688,-0.21429629670175604
pseudo,pre_advance,A,ar,no_revision,2024:Q3,-0.06291573213851451,-0.2772120288402705
pseudo,pre_advance,A,ar,no_revision,2024:Q4,0.026146771737672124,-0.2510652571025984
pseudo,pre_advance,A,ar,release_dfm,2024:Q1,0.5656801969611298,0.5656801969611298
pseudo,pre_advance,A,ar,release_dfm,2024:Q2,0.13734666776257062,0.7030268647237005
pseudo,pre_advance,A,ar,release_dfm,2024:Q3,-0.6003102575938762,0.10271660712982422
pseudo,pre_advance,A,ar,release_dfm,2024:Q4,0.06241982636371904,0.16513643349354326
pseudo,pre_advance,A,ar,revision_dfm_kalman_em,2024:Q1,0.7427699481921305,0.7427699481921305
pseudo,pre_advance,A,ar,revision_dfm_kalman_em,2024:Q2,0.00863148318965945,0.7514014313817899
pseudo,pre_advance,A,ar,revision_dfm_kalman_em,2024:Q3,-0.4125829915786591,0.33881843980313087
pseudo,pre_advance,A,ar,revision_dfm_kalman_em,2024:Q4,0.05584338390408849,0.39466182370721936
pseudo,pre_advance,A,ar,spf,2024:Q1,0.6176035835239486,0.6176035835239486
pseudo,pre_advance,A,ar,spf,2024:Q2,-0.5427808169482209,0.07482276657572773
pseudo,pre_advance,A,ar,spf,2024:Q3,-0.8072172383919204,-0.7323944718161927
pseudo,pre_advance,A,ar,spf,2024:Q4,-0.05692555044772479,-0.7893200222639174
pseudo,pre_advance,A,ar,standard_dfm,2024:Q1,0.5656801969611298,0.5656801969611298
pseudo,pre_advance,A,ar,standard_dfm,2024:Q2,0.13734666776257062,0.7030268647237005
pseudo,pre_advance,A,ar,standard_dfm,2024:Q3,-0.6003102575938762,0.10271660712982422
pseudo,pre_advance,A,ar,standard_dfm,2024:Q4,0.06241982636371904,0.16513643349354326
pseudo,pre_advance,A,no_revision,ar,2024:Q1,0.31218151521482485,0.31218151521482485
pseudo,pre_advance,A,no_revision,ar,2024:Q2,-0.0978852185130688,0.21429629670175604
pseudo,pre_advance,A,no_revision,ar,2024:Q3,0.06291573213851451,0.2772120288402705
pseudo,pre_advance,A,no_revision,ar,2024:Q4,-0.026146771737672124,0.2510652571025984
pseudo,pre_advance,A,no_revision,bridge,2024:Q1,1.1351530412411626,1.1351530412411626
pseudo,pre_advance,A,no_revision,bridge,2024:Q2,-0.6586323190775668,0.47652072216359576
pseudo,pre_advance,A,no_revision,bridge,2024:Q3,0.013927043978913062,0.49044776614250885
pseudo,pre_advance,A,no_revision,bridge,2024:Q4,-0.07133554020049701,0.4191122259420118
pseudo,pre_advance,A,no_revision,indicator_revision_only_dfm_kalman_em,2024:Q1,0.6865918823725343,0.6865918823725343
pseudo,pre_advance,A,no_revision,indicator_revision_only_dfm_kalman_em,2024:Q2,0.048319597962048155,0.7349114803345824
pseudo,pre_advance,A,no_revision,indicator_revision_only_dfm_kalman_em,2024:Q3,-0.11421005736116996,0.6207014229734125
pseudo,pre_advance,A,no_revision,indicator_revision_only_dfm_kalman_em,2024:Q4,-0.11523826911584034,0.5054631538575721
pseudo,pre_advance,A,no_revision,joint_indicator_revision_dfm_full_kalman_em,2024:Q1,0.9868256456802423,0.9868256456802423
pseudo,pre_advance,A,no_revision,joint_indicator_revision_dfm_full_kalman_em,2024:Q2,0.050170087810205634,1.036995733490448
pseudo,pre_advance,A,no_revision,joint_indicator_revision_dfm_full_kalman_em,2024:Q3,-0.35889714239491793,0.6780985910955302
pseudo,pre_advance,A,no_revision,joint_indicator_revision_dfm_full_kalman_em,2024:Q4,-0.014861759840478952,0.6632368312550512
pseudo,pre_advance,A,no_revision,midas_umidas,2024:Q1,-6.4527833534047065,-6.4527833534047065
pseudo,pre_advance,A,no_revision,midas_umidas,2024:Q2,0.028303784389229824,-6.424479569015476
pseudo,pre_advance,A,no_revision,midas_umidas,2024:Q3,-3.5744891175885574,-9.998968686604034
pseudo,pre_advance,A,no_revision,midas_umidas,2024:Q4,0.02079578275913735,-9.978172903844897
pseudo,pre_advance,A,no_revision,monthly_mixed_frequency_kalman_em,2024:Q1,1.1512181429258905,1.1512181429258905
pseudo,pre_advance,A,no_revision,monthly_mixed_frequency_kalman_em,2024:Q2,-0.058770983568396516,1.092447159357494
pseudo,pre_advance,A,no_revision,monthly_mixed_frequency_kalman_em,2024:Q3,-0.5061441657091084,0.5863029936483857
pseudo,pre_advance,A,no_revision,monthly_mixed_frequency_kalman_em,2024:Q4,-0.02326824492022595,0.5630347487281597
pseudo,pre_advance,A,no_revision,release_dfm,2024:Q1,0.8778617121759547,0.8778617121759547
pseudo,pre_advance,A,no_revision,release_dfm,2024:Q2,0.03946144924950183,0.9173231614254564
pseudo,pre_advance,A,no_revision,release_dfm,2024:Q3,-0.5373945254553618,0.37992863597009463
pseudo,pre_advance,A,no_revision,release_dfm,2024:Q4,0.036273054626046915,0.41620169059614154
pseudo,pre_advance,A,no_revision,revision_dfm_kalman_em,2024:Q1,1.0549514634069552,1.0549514634069552
pseudo,pre_advance,A,no_revision,revision_dfm_kalman_em,2024:Q2,-0.08925373532340936,0.9656977280835459
pseudo,pre_advance,A,no_revision,revision_dfm_kalman_em,2024:Q3,-0.3496672594401446,0.6160304686434013
pseudo,pre_advance,A,no_revision,revision_dfm_kalman_em,2024:Q4,0.029696612166416368,0.6457270808098177
pseudo,pre_advance,A,no_revision,spf,2024:Q1,0.9297850987387735,0.9297850987387735
pseudo,pre_advance,A,no_revision,spf,2024:Q2,-0.6406660354612896,0.2891190632774838
pseudo,pre_advance,A,no_revision,spf,2024:Q3,-0.744301506253406,-0.45518244297592214
pseudo,pre_advance,A,no_revision,spf,2024:Q4,-0.08307232218539692,-0.5382547651613191
pseudo,pre_advance,A,no_revision,standard_dfm,2024:Q1,0.8778617121759547,0.8778617121759547
pseudo,pre_advance,A,no_revision,standard_dfm,2024:Q2,0.03946144924950183,0.9173231614254564
pseudo,pre_advance,A,no_revision,standard_dfm,2024:Q3,-0.5373945254553618,0.37992863597009463
pseudo,pre_advance,A,no_revision,standard_dfm,2024:Q4,0.036273054626046915,0.41620169059614154
pseudo,pre_advance,A,bridge,ar,2024:Q1,-0.8229715260263378,-0.8229715260263378
pseudo,pre_advance,A,bridge,ar,2024:Q2,0.560747100564498,-0.2622244254618399
pseudo,pre_advance,A,bridge,ar,2024:Q3,0.048988688159601446,-0.21323573730223844
pseudo,pre_advance,A,bridge,ar,2024:Q4,0.04518876846282488,-0.16804696883941356
pseudo,pre_advance,A,bridge,indicator_revision_only_dfm_kalman_em,2024:Q1,-0.44856115886862835,-0.44856115886862835
pseudo,pre_advance,A,bridge,indicator_revision_only_dfm_kalman_em,2024:Q2,0.7069519170396149,0.25839075817098656
pseudo,pre_advance,A,bridge,indicator_revision_only_dfm_kalman_em,2024:Q3,-0.12813710134008302,0.13025365683090354
pseudo,pre_advance,A,bridge,indicator_revision_only_dfm_kalman_em,2024:Q4,-0.04390272891534333,0.0863509279155602
pseudo,pre_advance,A,bridge,joint_indicator_revision_dfm_full_kalman_em,2024:Q1,-0.1483273955609203,-0.1483273955609203
pseudo,pre_advance,A,bridge,joint_indicator_revision_dfm_full_kalman_em,2024:Q2,0.7088024068877724,0.5604750113268521
pseudo,pre_advance,A,bridge,joint_indicator_revision_dfm_full_kalman_em,2024:Q3,-0.37282418637383097,0.1876508249530211
pseudo,pre_advance,A,bridge,joint_indicator_revision_dfm_full_kalman_em,2024:Q4,0.05647378036001805,0.24412460531303914
pseudo,pre_advance,A,bridge,midas_umidas,2024:Q1,-7.587936394645869,-7.587936394645869
pseudo,pre_advance,A,bridge,midas_umidas,2024:Q2,0.6869361034667967,-6.901000291179072
pseudo,pre_advance,A,bridge,midas_umidas,2024:Q3,-3.5884161615674706,-10.489416452746543
pseudo,pre_advance,A,bridge,midas_umidas,2024:Q4,0.09213132295963436,-10.397285129786908
pseudo,pre_advance,A,bridge,monthly_mixed_frequency_kalman_em,2024:Q1,0.016065101684727967,0.016065101684727967
pseudo,pre_advance,A,bridge,monthly_mixed_frequency_kalman_em,2024:Q2,0.5998613355091703,0.6159264371938983
pseudo,pre_advance,A,bridge,monthly_mixed_frequency_kalman_em,2024:Q3,-0.5200712096880213,0.09585522750587694
pseudo,pre_advance,A,bridge,monthly_mixed_frequency_kalman_em,2024:Q4,0.04806729528027105,0.14392252278614798
pseudo,pre_advance,A,bridge,no_revision,2024:Q1,-1.1351530412411626,-1.1351530412411626
pseudo,pre_advance,A,bridge,no_revision,2024:Q2,0.6586323190775668,-0.47652072216359576
pseudo,pre_advance,A,bridge,no_revision,2024:Q3,-0.013927043978913062,-0.49044776614250885
pseudo,pre_advance,A,bridge,no_revision,2024:Q4,0.07133554020049701,-0.4191122259420118
pseudo,pre_advance,A,bridge,release_dfm,2024:Q1,-0.2572913290652081,-0.2572913290652081
pseudo,pre_advance,A,bridge,release_dfm,2024:Q2,0.6980937683270686,0.4408024392618605
pseudo,pre_advance,A,bridge,release_dfm,2024:Q3,-0.5513215694342748,-0.11051913017241427
pseudo,pre_advance,A,bridge,release_dfm,2024:Q4,0.10760859482654392,-0.002910535345870352
pseudo,pre_advance,A,bridge,revision_dfm_kalman_em,2024:Q1,-0.08020157783420734,-0.08020157783420734
pseudo,pre_advance,A,bridge,revision_dfm_kalman_em,2024:Q2,0.5693785837541574,0.48917700591995006
pseudo,pre_advance,A,bridge,revision_dfm_kalman_em,2024:Q3,-0.36359430341905763,0.12558270250089243
pseudo,pre_advance,A,bridge,revision_dfm_kalman_em,2024:Q4,0.10103215236691337,0.2266148548678058
pseudo,pre_advance,A,bridge,spf,2024:Q1,-0.20536794250238918,-0.20536794250238918
pseudo,pre_advance,A,bridge,spf,2024:Q2,0.017966283616277168,-0.18740165888611202
pseudo,pre_advance,A,bridge,spf,2024:Q3,-0.7582285502323189,-0.945630209118431
pseudo,pre_advance,A,bridge,spf,2024:Q4,-0.011736781984899913,-0.9573669911033309
pseudo,pre_advance,A,bridge,standard_dfm,2024:Q1,-0.2572913290652081,-0.2572913290652081
pseudo,pre_advance,A,bridge,standard_dfm,2024:Q2,0.6980937683270686,0.4408024392618605
pseudo,pre_advance,A,bridge,standard_dfm,2024:Q3,-0.5513215694342748,-0.11051913017241427
pseudo,pre_advance,A,bridge,standard_dfm,2024:Q4,0.10760859482654392,-0.002910535345870352
pseudo,pre_advance,A,midas_umidas,ar,2024:Q1,6.764964868619531,6.764964868619531
pseudo,pre_advance,A,midas_umidas,ar,2024:Q2,-0.12618900290229862,6.638775865717232
pseudo,pre_advance,A,midas_umidas,ar,2024:Q3,3.637404849727072,10.276180715444305
pseudo,pre_advance,A,midas_umidas,ar,2024:Q4,-0.04694255449680947,10.229238160947496
pseudo,pre_advance,A,midas_umidas,bridge,2024:Q1,7.587936394645869,7.587936394645869
pseudo,pre_advance,A,midas_umidas,bridge,2024:Q2,-0.6869361034667967,6.901000291179072
pseudo,pre_advance,A,midas_umidas,bridge,2024:Q3,3.5884161615674706,10.489416452746543
pseudo,pre_advance,A,midas_umidas,bridge,2024:Q4,-0.09213132295963436,10.397285129786908
pseudo,pre_advance,A,midas_umidas,indicator_revision_only_dfm_kalman_em,2024:Q1,7.139375235777241,7.139375235777241
pseudo,pre_advance,A,midas_umidas,indicator_revision_only_dfm_kalman_em,2024:Q2,0.020015813572818328,7.1593910493500585
pseudo,pre_advance,A,midas_umidas,indicator_revision_only_dfm_kalman_em,2024:Q3,3.4602790602273874,10.619670109577445
pseudo,pre_advance,A,midas_umidas,indicator_revision_only_dfm_kalman_em,2024:Q4,-0.1360340518749777,10.483636057702467
pseudo,pre_advance,A,midas_umidas,joint_indicator_revision_dfm_full_kalman_em,2024:Q1,7.439608999084949,7.439608999084949
pseudo,pre_advance,A,midas_umidas,joint_indicator_revision_dfm_full_kalman_em,2024:Q2,0.02186630342097581,7.461475302505924
pseudo,pre_advance,A,midas_umidas,joint_indicator_revision_dfm_full_kalman_em,2024:Q3,3.2155919751936395,10.677067277699564
pseudo,pre_advance,A,midas_umidas,joint_indicator_revision_dfm_full_kalman_em,2024:Q4,-0.0356575425996163,10.641409735099948
pseudo,pre_advance,A,midas_umidas,monthly_mixed_frequency_kalman_em,2024:Q1,7.604001496330596,7.604001496330596
pseudo,pre_advance,A,midas_umidas,monthly_mixed_frequency_kalman_em,2024:Q2,-0.08707476795762634,7.51692672837297
pseudo,pre_advance,A,midas_umidas,monthly_mixed_frequency_kalman_em,2024:Q3,3.068344951879449,10.585271680252418
pseudo,pre_advance,A,midas_umidas,monthly_mixed_frequency_kalman_em,2024:Q4,-0.0440640276793633,10.541207652573055
pseudo,pre_advance,A,midas_umidas,no_revision,2024:Q1,6.4527833534047065,6.4527833534047065
pseudo,pre_advance,A,midas_umidas,no_revision,2024:Q2,-0.028303784389229824,6.424479569015476
pseudo,pre_advance,A,midas_umidas,no_revision,2024:Q3,3.5744891175885574,9.998968686604034
pseudo,pre_advance,A,midas_umidas,no_revision,2024:Q4,-0.02079578275913735,9.978172903844897
pseudo,pre_advance,A,midas_umidas,release_dfm,2024:Q1,7.3306450655806605,7.3306450655806605
pseudo,pre_advance,A,midas_umidas,release_dfm,2024:Q2,0.01115766486027201,7.341802730440932
pseudo,pre_advance,A,midas_umidas,release_dfm,2024:Q3,3.0370945921331955,10.378897322574128
pseudo,pre_advance,A,midas_umidas,release_dfm,2024:Q4,0.015477271866909566,10.394374594441038
pseudo,pre_advance,A,midas_umidas,revision_dfm_kalman_em,2024:Q1,7.507734816811661,7.507734816811661
pseudo,pre_advance,A,midas_umidas,revision_dfm_kalman_em,2024:Q2,-0.11755751971263917,7.390177297099022
pseudo,pre_advance,A,midas_umidas,revision_dfm_kalman_em,2024:Q3,3.2248218581484127,10.614999155247435
pseudo,pre_advance,A,midas_umidas,revision_dfm_kalman_em,2024:Q4,0.008900829407279019,10.623899984654715
pseudo,pre_advance,A,midas_umidas,spf,2024:Q1,7.382568452143479,7.382568452143479
pseudo,pre_advance,A,midas_umidas,spf,2024:Q2,-0.6689698198505195,6.7135986322929595
pseudo,pre_advance,A,midas_umidas,spf,2024:Q3,2.8301876113351514,9.54378624362811
pseudo,pre_advance,A,midas_umidas,spf,2024:Q4,-0.10386810494453427,9.439918138683575
pseudo,pre_advance,A,midas_umidas,standard_dfm,2024:Q1,7.3306450655806605,7.3306450655806605
pseudo,pre_advance,A,midas_umidas,standard_dfm,2024:Q2,0.01115766486027201,7.341802730440932
pseudo,pre_advance,A,midas_umidas,standard_dfm,2024:Q3,3.0370945921331955,10.378897322574128
pseudo,pre_advance,A,midas_umidas,standard_dfm,2024:Q4,0.015477271866909566,10.394374594441038
pseudo,pre_advance,A,spf,ar,2024:Q1,-0.6176035835239486,-0.6176035835239486
pseudo,pre_advance,A,spf,ar,2024:Q2,0.5427808169482209,-0.07482276657572773
pseudo,pre_advance,A,spf,ar,2024:Q3,0.8072172383919204,0.7323944718161927
pseudo,pre_advance,A,spf,ar,2024:Q4,0.05692555044772479,0.7893200222639174
pseudo,pre_advance,A,spf,bridge,2024:Q1,0.20536794250238918,0.20536794250238918
pseudo,pre_advance,A,spf,bridge,2024:Q2,-0.017966283616277168,0.18740165888611202
pseudo,pre_advance,A,spf,bridge,2024:Q3,0.7582285502323189,0.945630209118431
pseudo,pre_advance,A,spf,bridge,2024:Q4,0.011736781984899913,0.9573669911033309
pseudo,pre_advance,A,spf,indicator_revision_only_dfm_kalman_em,2024:Q1,-0.24319321636623914,-0.24319321636623914
pseudo,pre_advance,A,spf,indicator_revision_only_dfm_kalman_em,2024:Q2,0.6889856334233377,0.4457924170570986
pseudo,pre_advance,A,spf,indicator_revision_only_dfm_kalman_em,2024:Q3,0.630091448892236,1.0758838659493346
pseudo,pre_advance,A,spf,indicator_revision_only_dfm_kalman_em,2024:Q4,-0.03216594693044342,1.0437179190188912
pseudo,pre_advance,A,spf,joint_indicator_revision_dfm_full_kalman_em,2024:Q1,0.05704054694146887,0.05704054694146887
pseudo,pre_advance,A,spf,joint_indicator_revision_dfm_full_kalman_em,2024:Q2,0.6908361232714952,0.7478766702129641
pseudo,pre_advance,A,spf,joint_indicator_revision_dfm_full_kalman_em,2024:Q3,0.385404363858488,1.133281034071452
pseudo,pre_advance,A,spf,joint_indicator_revision_dfm_full_kalman_em,2024:Q4,0.06821056234491796,1.20149159641637
pseudo,pre_advance,A,spf,midas_umidas,2024:Q1,-7.382568452143479,-7.382568452143479
pseudo,pre_advance,A,spf,midas_umidas,2024:Q2,0.6689698198505195,-6.7135986322929595
pseudo,pre_advance,A,spf,midas_umidas,2024:Q3,-2.8301876113351514,-9.54378624362811
pseudo,pre_advance,A,spf,midas_umidas,2024:Q4,0.10386810494453427,-9.439918138683575
pseudo,pre_advance,A,spf,monthly_mixed_frequency_kalman_em,2024:Q1,0.22143304418711715,0.22143304418711715
pseudo,pre_advance,A,spf,monthly_mixed_frequency_kalman_em,2024:Q2,0.5818950518928931,0.8033280960800103
pseudo,pre_advance,A,spf,monthly_mixed_frequency_kalman_em,2024:Q3,0.2381573405442976,1.041485436624308
pseudo,pre_advance,A,spf,monthly_mixed_frequency_kalman_em,2024:Q4,0.059804077265170966,1.101289513889479
pseudo,pre_advance,A,spf,no_revision,2024:Q1,-0.9297850987387735,-0.9297850987387735
pseudo,pre_advance,A,spf,no_revision,2024:Q2,0.6406660354612896,-0.2891190632774838
pseudo,pre_advance,A,spf,no_revision,2024:Q3,0.744301506253406,0.45518244297592214
pseudo,pre_advance,A,spf,no_revision,2024:Q4,0.08307232218539692,0.5382547651613191
pseudo,pre_advance,A,spf,release_dfm,2024:Q1,-0.05192338656281886,-0.05192338656281886
pseudo,pre_advance,A,spf,release_dfm,2024:Q2,0.6801274847107914,0.6282040981479726
pseudo,pre_advance,A,spf,release_dfm,2024:Q3,0.20690698079804415,0.8351110789460168
pseudo,pre_advance,A,spf,release_dfm,2024:Q4,0.11934537681144383,0.9544564557574606
pseudo,pre_advance,A,spf,revision_dfm_kalman_em,2024:Q1,0.12516636466818185,0.12516636466818185
pseudo,pre_advance,A,spf,revision_dfm_kalman_em,2024:Q2,0.5514123001378803,0.6765786648060622
pseudo,pre_advance,A,spf,revision_dfm_kalman_em,2024:Q3,0.3946342468132613,1.0712129116193236
pseudo,pre_advance,A,spf,revision_dfm_kalman_em,2024:Q4,0.11276893435181329,1.1839818459711369
pseudo,pre_advance,A,spf,standard_dfm,2024:Q1,-0.05192338656281886,-0.05192338656281886
pseudo,pre_advance,A,spf,standard_dfm,2024:Q2,0.6801274847107914,0.6282040981479726
pseudo,pre_advance,A,spf,standard_dfm,2024:Q3,0.20690698079804415,0.8351110789460168
pseudo,pre_advance,A,spf,standard_dfm,2024:Q4,0.11934537681144383,0.9544564557574606
pseudo,pre_advance,A,standard_dfm,ar,2024:Q1,-0.5656801969611298,-0.5656801969611298
pseudo,pre_advance,A,standard_dfm,ar,2024:Q2,-0.13734666776257062,-0.7030268647237005
pseudo,pre_advance,A,standard_dfm,ar,2024:Q3,0.6003102575938762,-0.10271660712982422
pseudo,pre_advance,A,standard_dfm,ar,2024:Q4,-0.06241982636371904,-0.16513643349354326
pseudo,pre_advance,A,standard_dfm,bridge,2024:Q1,0.2572913290652081,0.2572913290652081
pseudo,pre_advance,A,standard_dfm,bridge,2024:Q2,-0.6980937683270686,-0.4408024392618605
pseudo,pre_advance,A,standard_dfm,bridge,2024:Q3,0.5513215694342748,0.11051913017241427
pseudo,pre_advance,A,standard_dfm,bridge,2024:Q4,-0.10760859482654392,0.002910535345870352
pseudo,pre_advance,A,standard_dfm,indicator_revision_only_dfm_kalman_em,2024:Q1,-0.19126982980342028,-0.19126982980342028
pseudo,pre_advance,A,standard_dfm,indicator_revision_only_dfm_kalman_em,2024:Q2,0.00885814871254632,-0.18241168109087397
