haminh109/Revision-Aware-DFM/outputs/full_state_space_release_revision_dfm/sensitivity_k2_max_iter2_journal_evidence/density_revision_records.csv
model_id,timing_mode,checkpoint_id,outcome_id,forecast_origin,forecast_origin_date,target_quarter,forecast_value,realized_value,forecast_error,calibration_n,predictive_variance,predictive_sd,log_score,crps,pit,prob_below_zero,prob_large_positive_revision_gt_0p2,prob_large_negative_revision_lt_minus_0p2,realized_below_zero,realized_large_positive_revision_gt_0p2,realized_large_negative_revision_lt_minus_0p2,lower_68,upper_68,covered_68,lower_90,upper_90,covered_90,density_method
indicator_revision_only_dfm_kalman_em,exact,pre_advance,DELTA_SA,2024:Q1:pre_advance:exact,2024-04-24,2024:Q1,0.0,-0.3404999999999998,0.3404999999999998,0,5.961123085839439,2.441541129254111,-1.8212926820230575,0.5894896273322011,0.4445428984721029,0.5,0.4673569644803688,0.4673569644803688,True,False,True,-2.441541129254111,2.441541129254111,True,-4.015977781804818,4.015977781804818,True,model_implied_state_space
indicator_revision_only_dfm_kalman_em,exact,pre_advance,DELTA_SA,2024:Q2:pre_advance:exact,2024-07-24,2024:Q2,0.0,0.1112999999999999,-0.1112999999999999,1,6.352380929982047,2.5203930110167434,-1.8443284223900958,0.5909636635181118,0.5176114790264633,0.5,0.46837604343749073,0.46837604343749073,False,False,False,-2.5203930110167434,2.5203930110167434,True,-4.145677585514032,4.145677585514032,True,model_implied_state_space
indicator_revision_only_dfm_kalman_em,exact,pre_advance,DELTA_SA,2024:Q3:pre_advance:exact,2024-10-29,2024:Q3,0.0,0.0087999999999999,-0.0087999999999999,2,6.33555501254733,2.5170528426211733,-1.8420333549651247,0.5882348807077888,0.5013947601163501,0.5,0.4683341661382907,0.4683341661382907,False,False,False,-2.5170528426211733,2.5170528426211733,True,-4.14018349741395,4.14018349741395,True,model_implied_state_space
indicator_revision_only_dfm_kalman_em,exact,pre_advance,DELTA_SA,2024:Q4:pre_advance:exact,2025-01-29,2024:Q4,0.0,0.0939000000000001,-0.0939000000000001,3,6.285595877611046,2.507109067753345,-1.838770238910704,0.5873016660190076,0.5149382906269646,0.5,0.468208837776281,0.46820883777628103,False,False,False,-2.507109067753345,2.507109067753345,True,-4.123827443257014,4.123827443257014,True,model_implied_state_space
indicator_revision_only_dfm_kalman_em,exact,pre_second,DELTA_TS,2024:Q1:pre_second:exact,2024-05-29,2024:Q1,0.0,0.1602999999999999,-0.1602999999999999,0,6.529635997482892,2.5553152442473497,-1.8590817835469324,0.6011747613617474,0.5250100367793491,0.5,0.46880734454698114,0.4688073445469811,False,False,False,-2.5553152442473497,2.5553152442473497,True,-4.20311954750464,4.20311954750464,True,model_implied_state_space
indicator_revision_only_dfm_kalman_em,exact,pre_second,DELTA_TS,2024:Q2:pre_second:exact,2024-08-28,2024:Q2,0.0,0.0381,-0.0381,1,6.511753091441864,2.5518136866632455,-1.8558543499965994,0.5965729772505151,0.5059562092084425,0.5,0.4687646299971009,0.46876462999710083,False,False,False,-2.5518136866632455,2.5518136866632455,True,-4.1973599978124465,4.1973599978124465,True,model_implied_state_space
indicator_revision_only_dfm_kalman_em,exact,pre_second,DELTA_TS,2024:Q3:pre_second:exact,2024-11-26,2024:Q3,0.0,0.2393999999999998,-0.2393999999999998,2,6.484341603096991,2.5464370408665107,-1.8580529655248799,0.6040618859036815,0.5374508680304062,0.5,0.4686988137847121,0.4686988137847121,False,True,False,-2.5464370408665107,2.5464370408665107,True,-4.188516202472854,4.188516202472854,True,model_implied_state_space
indicator_revision_only_dfm_kalman_em,exact,pre_second,DELTA_TS,2024:Q4:pre_second:exact,2025-02-26,2024:Q4,0.0,0.1044,-0.1044,3,6.431480184978188,2.5360363138129918,-1.8503882336032829,0.5943732780558509,0.5164184609619784,0.5,0.4685707075309582,0.46857070753095825,False,False,False,-2.5360363138129918,2.5360363138129918,True,-4.171408528855942,4.171408528855942,True,model_implied_state_space
indicator_revision_only_dfm_kalman_em,exact,pre_third,DELTA_MT,2024:Q1:pre_third:exact,2024-06-26,2024:Q1,0.0,-0.5680999999999999,0.5680999999999999,0,7.878122636882048,2.8067993581447976,-1.971466503657949,0.7016510139944937,0.4198014836608078,0.5,0.471597190148052,0.47159719014805207,True,False,True,-2.8067993581447976,2.8067993581447976,True,-4.616774104369535,4.616774104369535,True,model_implied_state_space
indicator_revision_only_dfm_kalman_em,exact,pre_third,DELTA_MT,2024:Q2:pre_third:exact,2024-09-25,2024:Q2,0.0,0.6000000000000001,-0.6000000000000001,1,7.845073406205787,2.8009058188746345,-1.9718257407872317,0.7056384262776171,0.5848108516089925,0.5,0.47153752763884893,0.47153752763884893,False,True,False,-2.8009058188746345,2.8009058188746345,True,-4.607080094925426,4.607080094925426,True,model_implied_state_space
indicator_revision_only_dfm_kalman_em,exact,pre_third,DELTA_MT,2024:Q3:pre_third:exact,2024-12-18,2024:Q3,0.0,0.2678000000000002,-0.2678000000000002,2,8.255492498234831,2.8732372854038406,-1.9787214846787107,0.6814116352075786,0.5371296376475496,0.5,0.47225287634139,0.47225287634138996,False,True,False,-2.8732372854038406,2.8732372854038406,True,-4.72605476998871,4.72605476998871,True,model_implied_state_space
indicator_revision_only_dfm_kalman_em,exact,pre_third,DELTA_MT,2024:Q4:pre_third:exact,2025-03-26,2024:Q4,0.0,-0.5985,0.5985,3,8.207407352362274,2.864857300523409,-1.9932789624058722,0.7192031603541603,0.417258886163278,0.5,0.4721718448945804,0.47217184489458036,True,False,True,-2.864857300523409,2.864857300523409,True,-4.7122709214643335,4.7122709214643335,True,model_implied_state_space
indicator_revision_only_dfm_kalman_em,pseudo,pre_advance,DELTA_SA,2024:Q1:pre_advance:pseudo,2024-04-30,2024:Q1,0.0,-0.3404999999999998,0.3404999999999998,0,5.961094534096697,2.4415352821732266,-1.8212903337663722,0.5894883060475828,0.44454276652014413,0.5,0.4673568864802937,0.4673568864802937,True,False,True,-2.4415352821732266,2.4415352821732266,True,-4.015968164212618,4.015968164212618,True,model_implied_state_space
indicator_revision_only_dfm_kalman_em,pseudo,pre_advance,DELTA_SA,2024:Q2:pre_advance:pseudo,2024-07-31,2024:Q2,0.0,0.1112999999999999,-0.1112999999999999,1,6.352104870615367,2.5203382452788685,-1.8443067354820377,0.5909509076266055,0.5176118614667298,0.5,0.4683753577053038,0.46837535770530386,False,False,False,-2.5203382452788685,2.5203382452788685,True,-4.145587503891456,4.145587503891456,True,model_implied_state_space
indicator_revision_only_dfm_kalman_em,pseudo,pre_advance,DELTA_SA,2024:Q3:pre_advance:pseudo,2024-10-31,2024:Q3,0.0,0.0087999999999999,-0.0087999999999999,2,6.335559371401281,2.5170537084856335,-1.8420336989601782,0.588235083051742,0.5013947596365557,0.5,0.46833417700840685,0.4683341770084069,False,False,False,-2.5170537084856335,2.5170537084856335,True,-4.140184921634248,4.140184921634248,True,model_implied_state_space
indicator_revision_only_dfm_kalman_em,pseudo,pre_advance,DELTA_SA,2024:Q4:pre_advance:pseudo,2025-01-31,2024:Q4,0.0,0.0939000000000001,-0.0939000000000001,3,6.28559415287444,2.5071087237841203,-1.8387701019055993,0.5873015858275529,0.5149382926755035,0.5,0.4682088334238552,0.4682088334238552,False,False,False,-2.5071087237841203,2.5071087237841203,True,-4.123826877477987,4.123826877477987,True,model_implied_state_space
indicator_revision_only_dfm_kalman_em,pseudo,pre_second,DELTA_TS,2024:Q1:pre_second:pseudo,2024-05-31,2024:Q1,0.0,0.1602999999999999,-0.1602999999999999,0,6.529576512365814,2.5553036047338513,-1.8590772464414935,0.6011720595215737,0.5250101505517385,0.5,0.468807202753043,0.46880720275304294,False,False,False,-2.5553036047338513,2.5553036047338513,True,-4.203100402208646,4.203100402208646,True,model_implied_state_space
indicator_revision_only_dfm_kalman_em,pseudo,pre_second,DELTA_TS,2024:Q2:pre_second:pseudo,2024-08-31,2024:Q2,0.0,0.0381,-0.0381,1,6.511755068241268,2.5518140739954522,-1.855854501749776,0.5965730677336616,0.5059562083044346,0.5,0.46876463472852414,0.46876463472852414,False,False,False,-2.5518140739954522,2.5518140739954522,True,-4.197360634917232,4.197360634917232,True,model_implied_state_space
indicator_revision_only_dfm_kalman_em,pseudo,pre_second,DELTA_TS,2024:Q3:pre_second:pseudo,2024-11-30,2024:Q3,0.0,0.2393999999999998,-0.2393999999999998,2,6.484402261249074,2.5464489512356367,-1.8580576014420822,0.6040646273930362,0.5374506933789335,0.5,0.4686989598872817,0.4686989598872817,False,True,False,-2.5464489512356367,2.5464489512356367,True,-4.18853579328671,4.18853579328671,True,model_implied_state_space
indicator_revision_only_dfm_kalman_em,pseudo,pre_second,DELTA_TS,2024:Q4:pre_second:pseudo,2025-02-28,2024:Q4,0.0,0.1044,-0.1044,3,6.431436162195998,2.536027634351802,-1.8503848169459856,0.594371255574938,0.5164185171218211,0.5,0.46857060018817653,0.46857060018817653,False,False,False,-2.536027634351802,2.536027634351802,True,-4.171394252412724,4.171394252412724,True,model_implied_state_space
indicator_revision_only_dfm_kalman_em,pseudo,pre_third,DELTA_MT,2024:Q1:pre_third:pseudo,2024-06-30,2024:Q1,0.0,-0.5680999999999999,0.5680999999999999,0,7.877775743365719,2.806737562253678,-1.9714453888824963,0.70163757229594,0.41979974191264086,0.5,0.47159656586157406,0.47159656586157406,True,False,True,-2.806737562253678,2.806737562253678,True,-4.616672459173896,4.616672459173896,True,model_implied_state_space
indicator_revision_only_dfm_kalman_em,pseudo,pre_third,DELTA_MT,2024:Q2:pre_third:pseudo,2024-09-30,2024:Q2,0.0,0.6000000000000001,-0.6000000000000001,1,7.845279998456046,2.800942698174321,-1.9718383034189337,0.7056463773330942,0.5848097519025116,0.5,0.47153790176049293,0.47153790176049293,False,True,False,-2.800942698174321,2.800942698174321,True,-4.607140755975275,4.607140755975275,True,model_implied_state_space
indicator_revision_only_dfm_kalman_em,pseudo,pre_third,DELTA_MT,2024:Q3:pre_third:pseudo,2024-12-31,2024:Q3,0.0,0.2678000000000002,-0.2678000000000002,2,8.255496035493099,2.873237900956532,-1.9787216970542152,0.6814117769304702,0.5371296297160301,0.5,0.4722528822762446,0.47225288227624457,False,True,False,-2.873237900956532,2.873237900956532,True,-4.726055782482787,4.726055782482787,True,model_implied_state_space
indicator_revision_only_dfm_kalman_em,pseudo,pre_third,DELTA_MT,2024:Q4:pre_third:pseudo,2025-03-31,2024:Q4,0.0,-0.5985,0.5985,3,8.207396450684467,2.864855397866438,-1.9932783272543815,0.7192027484817853,0.4172588320066164,0.5,0.4721718264428729,0.472171826442873,True,False,True,-2.864855397866438,2.864855397866438,True,-4.712267791872113,4.712267791872113,True,model_implied_state_space
joint_indicator_revision_dfm_full_kalman_em,exact,pre_advance,DELTA_SA,2024:Q1:pre_advance:exact,2024-04-24,2024:Q1,0.2551284240457967,-0.3404999999999998,0.5956284240457965,0,8.038651672082109,2.8352516064861173,-1.9831359283367367,0.7123206662632111,0.41680278719718794,0.4641498044490482,0.507756515656798,0.43623381215290913,True,False,True,-2.5801231824403206,3.090380030531914,True,-4.408445464202882,4.918702312294475,True,model_implied_state_space
joint_indicator_revision_dfm_full_kalman_em,exact,pre_advance,DELTA_SA,2024:Q2:pre_advance:exact,2024-07-24,2024:Q2,-0.0007021428057418,0.1112999999999999,-0.1120021428057418,1,8.362940170879034,2.891874853944934,-1.981593567547873,0.6775469582739165,0.515447149123044,0.500096862576524,0.4723347848891465,0.47252804730138154,False,False,False,-2.892576996750676,2.891172711139192,True,-4.757412985006825,4.756008699395341,True,model_implied_state_space
joint_indicator_revision_dfm_full_kalman_em,exact,pre_advance,DELTA_SA,2024:Q3:pre_advance:exact,2024-10-29,2024:Q3,0.1947060679535162,0.0087999999999999,0.1859060679535162,2,8.31987140203102,2.8844187286229817,-1.9803389515671461,0.6788526361282599,0.4743052303714465,0.4730907541345941,0.49926779974202407,0.44557833009959547,False,False,False,-2.6897126606694655,3.079124796576498,True,-4.549740539468749,4.939152675375782,True,model_implied_state_space
joint_indicator_revision_dfm_full_kalman_em,exact,pre_advance,DELTA_SA,2024:Q4:pre_advance:exact,2025-01-29,2024:Q4,0.1587745400359681,0.0939000000000001,0.064874540035968,3,8.286496655018336,2.8786275644859542,-1.976506123317853,0.6733040532636864,0.49100994981505625,0.47800695865002285,0.49428685494532265,0.45040670015671685,False,False,False,-2.719853024449986,3.0374021045219224,True,-4.576146450051237,4.893695530123173,True,model_implied_state_space
joint_indicator_revision_dfm_full_kalman_em,exact,pre_second,DELTA_TS,2024:Q1:pre_second:exact,2024-05-29,2024:Q1,0.0016758292853333,0.1602999999999999,-0.1586241707146665,0,6.499929927356754,2.549496014383383,-1.8567697620992731,0.599740406759937,0.524805327687933,0.499737768129568,0.46899772598324696,0.4684748735139578,False,False,False,-2.5478201850980495,2.5511718436687163,True,-4.191871936871497,4.1952235954421635,True,model_implied_state_space
joint_indicator_revision_dfm_full_kalman_em,exact,pre_second,DELTA_TS,2024:Q2:pre_second:exact,2024-08-28,2024:Q2,6.117730360388762e-05,0.0381,-0.0380388226963961,1,6.4796836258356905,2.5455222697583477,-1.8533860291886632,0.5951025356008365,0.5059613424248941,0.49999041209998585,0.4686971467241209,0.4686780300203011,False,False,False,-2.545461092454744,2.5455834470619516,True,-4.1869503605941585,4.187072715201365,True,model_implied_state_space
joint_indicator_revision_dfm_full_kalman_em,exact,pre_second,DELTA_TS,2024:Q3:pre_second:exact,2024-11-26,2024:Q3,0.0003199561440623,0.2393999999999998,-0.2390800438559375,2,6.451668668712928,2.540013517427206,-1.8555377409741933,0.6025593879753093,0.5374952681220031,0.49994974671098114,0.4686699164353241,0.46856972094255633,False,True,False,-2.5396935612831437,2.5403334735712684,True,-4.177630490501844,4.178270402789968,True,model_implied_state_space
joint_indicator_revision_dfm_full_kalman_em,exact,pre_second,DELTA_TS,2024:Q4:pre_second:exact,2025-02-26,2024:Q4,0.0011601343113252,0.1044,-0.1032398656886748,3,6.409280776228324,2.5316557380947997,-1.8486435510261703,0.5933145758048625,0.5162641919498687,0.49981718422273247,0.4686986872179615,0.46833419482915395,False,False,False,-2.5304956037834745,2.532815872406125,True,-4.163042988686413,4.165363257309063,True,model_implied_state_space
joint_indicator_revision_dfm_full_kalman_em,exact,pre_third,DELTA_MT,2024:Q1:pre_third:exact,2024-06-26,2024:Q1,0.1215168235622281,-0.5680999999999999,0.6896168235622281,0,8.792500647107573,2.965215109753013,-2.0329322598766786,0.7566527628594936,0.4080480887280249,0.48365560976879673,0.4894420469140768,0.45682749647595267,True,False,True,-2.843698286190785,3.086731933315241,True,-4.7558280044063235,4.998861651530779,True,model_implied_state_space
joint_indicator_revision_dfm_full_kalman_em,exact,pre_third,DELTA_MT,2024:Q2:pre_third:exact,2024-09-25,2024:Q2,0.0172291967469027,0.6000000000000001,-0.5827708032530974,1,8.75705366252089,2.959231937939453,-2.0232596159781755,0.7371955989669898,0.5780600657162112,0.4976772972340488,0.4753758166145343,0.4707410083739551,False,True,False,-2.9420027411925505,2.976461134686356,True,-4.850274189363441,4.8847325828572465,True,model_implied_state_space
joint_indicator_revision_dfm_full_kalman_em,exact,pre_third,DELTA_MT,2024:Q3:pre_third:exact,2024-12-18,2024:Q3,0.0359235833941453,0.2678000000000002,-0.2318764166058549,2,9.1798627330992,3.0298288290098503,-2.0303731708491064,0.7151318673965302,0.5305017510711626,0.4952699966532463,0.4784063575505795,0.46896693780254894,False,True,False,-2.993905245615705,3.0657524124039957,True,-4.947701355044839,5.019548521833129,True,model_implied_state_space
joint_indicator_revision_dfm_full_kalman_em,exact,pre_third,DELTA_MT,2024:Q4:pre_third:exact,2025-03-26,2024:Q4,0.0928557128641269,-0.5985,0.691355712864127,3,9.121234727962792,3.020138196831859,-2.050442221631655,0.7686542056702602,0.40946739084223466,0.48773624515180075,0.48584984564600264,0.46137604124038706,True,False,True,-2.927282483967732,3.112993909695986,True,-4.874829554089436,5.06054097981769,True,model_implied_state_space
joint_indicator_revision_dfm_full_kalman_em,pseudo,pre_advance,DELTA_SA,2024:Q1:pre_advance:pseudo,2024-04-30,2024:Q1,0.2542612347682111,-0.3404999999999998,0.594761234768211,0,8.03863001481004,2.8352477871978032,-1.9830704324388244,0.7121756480777465,0.4169220380287924,0.4642712854829963,0.5076345282663489,0.43635418843950247,True,False,True,-2.580986552429592,3.0895090219660144,True,-4.409306371310231,4.917828840846653,True,model_implied_state_space
joint_indicator_revision_dfm_full_kalman_em,pseudo,pre_advance,DELTA_SA,2024:Q2:pre_advance:pseudo,2024-07-31,2024:Q2,0.017541995644466,0.1112999999999999,-0.0937580043555339,1,8.362662150595483,2.8918267843346848,-1.981352524972602,0.6770179915052927,0.5129321300680447,0.49758000691321574,0.4748456766293403,0.4700172517118879,False,False,False,-2.8742847886902188,2.9093687799791508,True,-4.739089779083853,4.774173770372785,True,model_implied_state_space
joint_indicator_revision_dfm_full_kalman_em,pseudo,pre_advance,DELTA_SA,2024:Q3:pre_advance:pseudo,2024-10-31,2024:Q3,0.1932405294265269,0.0087999999999999,0.184440529426527,2,8.31987879221819,2.8844200096758086,-1.9803067757549235,0.6787779165149709,0.4745075221941732,0.47329300593853907,0.4990651028187134,0.4457791698458414,False,False,False,-2.6911794802492817,3.0776605391023355,True,-4.551208185140127,4.937689243993181,True,model_implied_state_space
joint_indicator_revision_dfm_full_kalman_em,pseudo,pre_advance,DELTA_SA,2024:Q4:pre_advance:pseudo,2025-01-31,2024:Q4,0.157718116751206,0.0939000000000001,0.0638181167512059,3,8.286489667573692,2.8786263508093044,-1.976497498567342,0.6732849299039694,0.49115631675284577,0.4781531356313448,0.49414046063694306,0.4505519572623412,False,False,False,-2.7209082340580983,3.0363444675605105,True,-4.577200877015559,4.892637110517971,True,model_implied_state_space
joint_indicator_revision_dfm_full_kalman_em,pseudo,pre_second,DELTA_TS,2024:Q1:pre_second:pseudo,2024-05-31,2024:Q1,0.0016759237610592,0.1602999999999999,-0.1586240762389406,0,6.499882163698165,2.54948664709156,-1.8567660998360118,0.5997382274361214,0.5248054039548907,0.49973775238257223,0.46899762704350634,0.4684747431888049,False,False,False,-2.5478107233305005,2.551162570852619,True,-4.191856434571841,4.19520828209396,True,model_implied_state_space
joint_indicator_revision_dfm_full_kalman_em,pseudo,pre_second,DELTA_TS,2024:Q2:pre_second:pseudo,2024-08-31,2024:Q2,6.124160017551006e-05,0.0381,-0.0380387583998245,1,6.479685319498194,2.5455226024331807,-1.8533861594722274,0.5951026125490521,0.5059613315702278,0.4999904020244787,0.4686971608524153,0.4686780240596673,False,False,False,-2.5454613608330052,2.5455838440333562,True,-4.186950843498993,4.187073326699343,True,model_implied_state_space
joint_indicator_revision_dfm_full_kalman_em,pseudo,pre_second,DELTA_TS,2024:Q3:pre_second:pseudo,2024-11-30,2024:Q3,0.0003196952806745,0.2393999999999998,-0.2390803047193253,2,6.451718065186554,2.5400232410721273,-1.855541544903881,0.6025616456126895,0.537495165797825,0.49994978787520256,0.4686699952799569,0.4685698818584352,False,True,False,-2.5397035457914527,2.540342936352802,True,-4.1776467453378485,4.178286135899197,True,model_implied_state_space
joint_indicator_revision_dfm_full_kalman_em,pseudo,pre_second,DELTA_TS,2024:Q4:pre_second:pseudo,2025-02-28,2024:Q4,0.0011615490308831,0.1044,-0.1032384509691168,3,6.409253068168636,2.5316502657690765,-1.848641370270424,0.5933132545605102,0.5162640043375678,0.49981696089337996,0.4686988419448177,0.4683339042938428,False,False,False,-2.5304887167381933,2.5328118147999596,True,-4.163032572792042,4.165355670853807,True,model_implied_state_space
joint_indicator_revision_dfm_full_kalman_em,pseudo,pre_third,DELTA_MT,2024:Q1:pre_third:pseudo,2024-06-30,2024:Q1,0.1215052114524295,-0.5680999999999999,0.6896052114524295,0,8.792157216717696,2.965157199326487,-2.03291287533953,0.7566383268243145,0.4080478456711436,0.4836568517577713,0.48944027897689346,0.4568282097783709,True,False,True,-2.8436519878740576,3.0866624107789162,True,-4.755744362341011,4.998754785245871,True,model_implied_state_space
joint_indicator_revision_dfm_full_kalman_em,pseudo,pre_third,DELTA_MT,2024:Q2:pre_third:pseudo,2024-09-30,2024:Q2,0.0169795754156378,0.6000000000000001,-0.5830204245843622,1,8.757265094256764,2.9592676618137745,-2.023287834877382,0.7372423787562599,0.578092140719335,0.4977109764500123,0.4753425259672297,0.47077492224927,False,True,False,-2.9422880863981367,2.9762472372294124,True,-4.850582571238951,4.884541722070227,True,model_implied_state_space
joint_indicator_revision_dfm_full_kalman_em,pseudo,pre_third,DELTA_MT,2024:Q3:pre_third:pseudo,2024-12-31,2024:Q3,0.0359278765863071,0.2678000000000002,-0.2318721234136931,2,9.179865886741048,3.029829349442151,-2.0303732331708138,0.7151317259073818,0.530501182203921,0.4952694322142153,0.47840692571902177,0.4689663795423077,False,True,False,-2.993901472855844,3.0657572260284582,True,-4.947697917887635,5.019553671060248,True,model_implied_state_space
joint_indicator_revision_dfm_full_kalman_em,pseudo,pre_third,DELTA_MT,2024:Q4:pre_third:pseudo,2025-03-31,2024:Q4,0.0928779973955657,-0.5985,0.6913779973955658,3,9.121219605234248,3.0201356931823855,-2.0504431252016664,0.7686577072609238,0.40946444956531525,0.4877332927234237,0.4858527757255917,0.46137307947328227,True,False,True,-2.9272576957868197,3.1130136905779513,True,-4.874803151421079,5.060559146212211,True,model_implied_state_space
monthly_mixed_frequency_kalman_em,exact,pre_advance,DELTA_SA,2024:Q1:pre_advance:exact,2024-04-24,2024:Q1,0.1329160301602709,-0.3404999999999998,0.4734160301602708,0,7.941948787980602,2.818146338993169,-1.9691279347793906,0.6902394933098362,0.4332961834846488,0.48119112166386,0.49050435945457616,0.45298114536029005,True,False,True,-2.685230308832898,2.95106236915344,True,-4.502522196812657,4.768354257133198,True,model_implied_state_space
monthly_mixed_frequency_kalman_em,exact,pre_advance,DELTA_SA,2024:Q2:pre_advance:exact,2024-07-24,2024:Q2,0.0489343479304724,0.1112999999999999,-0.0623656520695274,1,8.586640582081472,2.9302970126049463,-1.9942688046526342,0.6853252022472823,0.5084900667562959,0.4933381930388194,0.4794424282129425,0.46614980865574274,False,False,False,-2.881362664674474,2.979231360535419,True,-4.770975321297838,4.868844017158782,True,model_implied_state_space
monthly_mixed_frequency_kalman_em,exact,pre_advance,DELTA_SA,2024:Q3:pre_advance:exact,2024-10-29,2024:Q3,0.0915358912979686,0.0087999999999999,0.0827358912979687,2,8.550510740237502,2.9241256368763473,-1.9923343234399558,0.6842873152599886,0.4887137401878689,0.4875136780777027,0.48520549261554724,0.46029117352928767,False,False,False,-2.8325897455783786,3.015661528174316,True,-4.718222768179875,4.901294550775812,True,model_implied_state_space
monthly_mixed_frequency_kalman_em,exact,pre_advance,DELTA_SA,2024:Q4:pre_advance:exact,2025-01-29,2024:Q4,0.0974047556488217,0.0939000000000001,0.0035047556488216,3,8.507875057044455,2.916826195892456,-1.9894353610238547,0.6816493115281237,0.4995206451188908,0.4866801613826951,0.48597066125804544,0.45939351082821495,False,False,False,-2.819421440243634,3.0142309515412777,True,-4.70034739185195,4.895156903149593,True,model_implied_state_space
monthly_mixed_frequency_kalman_em,exact,pre_second,DELTA_TS,2024:Q1:pre_second:exact,2024-05-29,2024:Q1,0.1020473634554706,0.1602999999999999,-0.0582526365445292,0,8.148038334407879,2.8544768933042493,-1.9680353670713637,0.6675511542427832,0.5081408354540731,0.4857408767938044,0.4863128055552044,0.4578644438346831,False,False,False,-2.752429529848779,2.9565242567597196,True,-4.593149307545194,4.797244034456136,True,model_implied_state_space
monthly_mixed_frequency_kalman_em,exact,pre_second,DELTA_TS,2024:Q2:pre_second:exact,2024-08-28,2024:Q2,-0.0460252477657552,0.0381,-0.0841252477657552,1,9.028253751601111,3.004705268674635,-2.0195099555066522,0.703124106755744,0.5111680617751362,0.5061106490160467,0.46737107195588945,0.479565328617768,False,False,False,-3.05073051644039,2.9586800209088797,True,-4.988325606865426,4.8962751113339165,True,model_implied_state_space
monthly_mixed_frequency_kalman_em,exact,pre_second,DELTA_TS,2024:Q3:pre_second:exact,2024-11-26,2024:Q3,-0.0380932337185777,0.2393999999999998,-0.2774932337185776,2,8.989411942507893,2.9982348044320832,-2.0212452052373795,0.71091098585954,0.5368703410799746,0.5050685131992825,0.4683528054315945,0.47846730485293815,False,True,False,-3.036328038150661,2.9601415707135055,True,-4.9697506262408275,4.893564158803672,True,model_implied_state_space
monthly_mixed_frequency_kalman_em,exact,pre_second,DELTA_TS,2024:Q4:pre_second:exact,2025-02-26,2024:Q4,0.0460102882338531,0.1044,-0.0583897117661469,3,8.038088904627909,2.8351523600378004,-1.9612462866466078,0.6630405897742041,0.5082156001543612,0.49352604681670575,0.47834232267794796,0.46542658982392776,False,False,False,-2.7891420718039472,2.8811626482716535,True,-4.617400354134349,4.709420930602055,True,model_implied_state_space
monthly_mixed_frequency_kalman_em,exact,pre_third,DELTA_MT,2024:Q1:pre_third:exact,2024-06-26,2024:Q1,0.1049411150629386,-0.5680999999999999,0.6730411150629386,0,12.795375258093218,3.5770623782781894,-2.211181528471519,0.8863133883675008,0.4253776893759612,0.48829781572487085,0.4893995292209685,0.4660317041609696,True,False,True,-3.472121263215251,3.682003493341128,True,-5.7788029116796,5.988685141805478,True,model_implied_state_space
monthly_mixed_frequency_kalman_em,exact,pre_third,DELTA_MT,2024:Q2:pre_third:exact,2024-09-25,2024:Q2,-0.0529159970115098,0.6000000000000001,-0.6529159970115099,1,11.689195485445456,3.418946546152112,-2.166505767275588,0.8485830552514452,0.5757254256783808,0.5061742953398687,0.4705152056914129,0.48284268790682794,False,True,False,-3.471862543163622,3.366030549140602,True,-5.67658262380302,5.570750629780001,True,model_implied_state_space
monthly_mixed_frequency_kalman_em,exact,pre_third,DELTA_MT,2024:Q3:pre_third:exact,2024-12-18,2024:Q3,-0.0351166612503885,0.2678000000000002,-0.3029166612503888,2,12.6933012332819,3.5627659526387503,-2.1930901753823133,0.8428690218801669,0.5338784038930802,0.5039321398785759,0.4736918056470576,0.48154370433331434,False,True,False,-3.597882613889139,3.5276492913883617,True,-5.895345160427453,5.825111837926677,True,model_implied_state_space
monthly_mixed_frequency_kalman_em,exact,pre_third,DELTA_MT,2024:Q4:pre_third:exact,2025-03-26,2024:Q4,0.0789801026735741,-0.5985,0.6774801026735742,3,12.657192593267878,3.557694842628844,-2.2061825170197062,0.8827281138331271,0.424487386877202,0.4911442898306699,0.48643204471936285,0.46874858402438324,True,False,True,-3.47871473995527,3.6366749453024183,True,-5.772907162811027,5.930867368158175,True,model_implied_state_space
monthly_mixed_frequency_kalman_em,pseudo,pre_advance,DELTA_SA,2024:Q1:pre_advance:pseudo,2024-04-30,2024:Q1,0.1324365151345532,-0.3404999999999998,0.472936515134553,0,7.9418979044080995,2.8181373111344485,-1.969096252318838,0.6901735453954032,0.43336290296702623,0.48125886756539743,0.49043646711089195,0.45304840540067726,True,False,True,-2.6857007959998955,2.9505738262690016,True,-4.5029868623322145,4.7678598926013205,True,model_implied_state_space
monthly_mixed_frequency_kalman_em,pseudo,pre_advance,DELTA_SA,2024:Q2:pre_advance:pseudo,2024-07-31,2024:Q2,0.0470045440928559,0.1112999999999999,-0.064295455907144,1,8.586619157112285,2.9302933568351626,-1.994281790896145,0.6853576238435243,0.5087527474803148,0.4936008810136369,0.47918002447169705,0.4664115589841038,False,False,False,-2.8832888127423066,2.9772979009280185,True,-4.7728991119292665,4.8669082001149775,True,model_implied_state_space
monthly_mixed_frequency_kalman_em,pseudo,pre_advance,DELTA_SA,2024:Q3:pre_advance:pseudo,2024-10-31,2024:Q3,0.0917173259865347,0.0087999999999999,0.0829173259865347,2,8.550463568393852,2.924117570891063,-1.9923333247391575,0.6842895327940314,0.48868896555208396,0.48748890235574804,0.48523018826978737,0.4602664337155565,False,False,False,-2.8324002449045285,3.015834896877598,True,-4.718028066126159,4.9014627180992285,True,model_implied_state_space
monthly_mixed_frequency_kalman_em,pseudo,pre_advance,DELTA_SA,2024:Q4:pre_advance:pseudo,2025-01-31,2024:Q4,0.096746582300121,0.0939000000000001,0.0028465823001209,3,8.507867702162137,2.9168249351241733,-1.9894346831131084,0.6816484451450089,0.4996106650624721,0.4867701259902491,0.4858806910184488,0.45948304785053123,False,False,False,-2.8200783528240523,3.0135715174242943,True,-4.7010034914213685,4.89449665602161,True,model_implied_state_space
monthly_mixed_frequency_kalman_em,pseudo,pre_second,DELTA_TS,2024:Q1:pre_second:pseudo,2024-05-31,2024:Q1,0.1001083220065484,0.1602999999999999,-0.0601916779934514,0,8.147971690114124,2.8544652196364426,-1.9680453727620597,0.6675805244405632,0.5084118123593653,0.48601165058970663,0.48604191035096855,0.45813377080402423,False,False,False,-2.7543568976298944,2.954573541642991,True,-4.595069147519285,4.795285791532382,True,model_implied_state_space
monthly_mixed_frequency_kalman_em,pseudo,pre_second,DELTA_TS,2024:Q2:pre_second:pseudo,2024-08-31,2024:Q2,-0.0455977752956529,0.0381,-0.0836977752956529,1,9.028236637117365,3.004702420726113,-2.0195050353446304,0.7031139182603984,0.5111113378363892,0.5060539047544514,0.46742760813741624,0.47950862729627375,False,False,False,-3.050300196021766,2.95910464543046,True,-4.987893449936868,4.896697899345563,True,model_implied_state_space
monthly_mixed_frequency_kalman_em,pseudo,pre_second,DELTA_TS,2024:Q3:pre_second:pseudo,2024-11-30,2024:Q3,-0.0379591825622043,0.2393999999999998,-0.2773591825622041,2,8.989506612147576,2.998250591953177,-2.021246288756163,0.7109047388978121,0.536852387056749,0.5050506513207034,0.46837075222890556,0.478449607507752,False,True,False,-3.036209774515381,2.9602914093909725,True,-4.969642543245786,4.893724178121377,True,model_implied_state_space
monthly_mixed_frequency_kalman_em,pseudo,pre_second,DELTA_TS,2024:Q4:pre_second:pseudo,2025-02-28,2024:Q4,0.046700975271595,0.1044,-0.057699024728405,3,8.038075669632356,2.835150025947896,-1.9612404761541222,0.6630287629904048,0.5081184386833681,0.49342886587758966,0.4784393508559204,0.4653297390494784,False,False,False,-2.788449050676301,2.881851001219491,True,-4.616705827860361,4.710107778403552,True,model_implied_state_space
monthly_mixed_frequency_kalman_em,pseudo,pre_third,DELTA_MT,2024:Q1:pre_third:pseudo,2024-06-30,2024:Q1,0.1034068639093779,-0.5680999999999999,0.6715068639093779,0,12.797146572965586,3.577309963221748,-2.2111676915882477,0.8861390768215767,0.4255508984762812,0.48846965284200855,0.48922922410436054,0.46620453198800216,True,False,True,-3.4739030993123703,3.680716827131126,True,-5.780744403825553,5.987558131644308,True,model_implied_state_space
monthly_mixed_frequency_kalman_em,pseudo,pre_third,DELTA_MT,2024:Q2:pre_third:pseudo,2024-09-30,2024:Q2,-0.0506578797860499,0.6000000000000001,-0.65065787978605,1,11.690762281979351,3.4191756728748746,-2.1664444427285727,0.8482919109185793,0.5754616840141695,0.5059104394386653,0.4707799369214205,0.4825806119666425,False,True,False,-3.4698335526609245,3.3685177930888246,True,-5.674701386498527,5.573385626926428,True,model_implied_state_space
monthly_mixed_frequency_kalman_em,pseudo,pre_third,DELTA_MT,2024:Q3:pre_third:pseudo,2024-12-31,2024:Q3,-0.034825461370421,0.2678000000000002,-0.3026254613704213,2,12.693259197970791,3.562760053381478,-2.193081585580324,0.8428479388897386,0.5338459700980622,0.5038995406717571,0.47372429859884235,0.4815111014689136,False,True,False,-3.597585514751899,3.5279345920110567,True,-5.895044257132765,5.825393334391924,True,model_implied_state_space
monthly_mixed_frequency_kalman_em,pseudo,pre_third,DELTA_MT,2024:Q4:pre_third:pseudo,2025-03-31,2024:Q4,0.0773176544155793,-0.5985,0.6758176544155794,3,12.657220497509153,3.557698764301041,-2.2060947056751847,0.8824782070872237,0.4246705462412832,0.4913306731290084,0.48624575047044183,0.46893446804133687,True,False,True,-3.4803811098854616,3.6350164187166203,True,-5.774576061645758,5.929211370476917,True,model_implied_state_space
revision_dfm_kalman_em,exact,pre_advance,DELTA_SA,2024:Q1:pre_advance:exact,2024-04-24,2024:Q1,0.2314709666011203,-0.3404999999999998,0.5719709666011201,0,8.419750326285465,2.9016806037683516,-2.003656203289725,0.722941966560027,0.42186793744345696,0.468209557241277,0.5043267522366142,0.44089639612386927,True,False,True,-2.6702096371672313,3.133151570369472,True,-4.5413688987619905,5.00431083196423,True,model_implied_state_space
revision_dfm_kalman_em,exact,pre_advance,DELTA_SA,2024:Q2:pre_advance:exact,2024-07-24,2024:Q2,-0.0444600115436322,0.1112999999999999,-0.1557600115436321,1,8.038359156992707,2.8352000206321786,-1.9625601098177092,0.6659849477795066,0.5219060419120641,0.5062557319931684,0.4656444951889842,0.4781248710167259,False,False,False,-2.879660032175811,2.7907400090885464,True,-4.70794904861336,4.619029025526096,True,model_implied_state_space
revision_dfm_kalman_em,exact,pre_advance,DELTA_SA,2024:Q3:pre_advance:exact,2024-10-29,2024:Q3,0.2094388583701945,0.0087999999999999,0.2006388583701945,2,8.004188718107915,2.82916749559087,-1.961435710720828,0.6668363668663954,0.47173151467722507,0.4704938774416231,0.5013309755265225,0.44246573126006694,False,False,False,-2.6197286372206756,3.0386063539610646,True,-4.444127558005661,4.863005274746051,True,model_implied_state_space
revision_dfm_kalman_em,exact,pre_advance,DELTA_SA,2024:Q4:pre_advance:exact,2025-01-29,2024:Q4,0.1877508944093557,0.0939000000000001,0.0938508944093556,3,7.96781783352165,2.822732334728472,-1.9571965849620265,0.6609031046017207,0.48673831296923886,0.47348435170706754,0.49826881538840606,0.44537026991020423,False,False,False,-2.634981440319116,3.0104832291378276,True,-4.455230624281969,4.83073241310068,True,model_implied_state_space
revision_dfm_kalman_em,exact,pre_second,DELTA_TS,2024:Q1:pre_second:exact,2024-05-29,2024:Q1,0.0015617046354168,0.1602999999999999,-0.158738295364583,0,6.481613952772403,2.5459014027987026,-1.8553671004119288,0.5989115896273246,0.5248581541945677,0.4997552811869269,0.4689362125287435,0.46844828280858397,False,False,False,-2.5443396981632858,2.5474631074341194,True,-4.186073451618871,4.1891968608897034,True,model_implied_state_space
revision_dfm_kalman_em,exact,pre_second,DELTA_TS,2024:Q2:pre_second:exact,2024-08-28,2024:Q2,0.0002533032580909,0.0381,-0.0378466967419091,1,6.072412032576903,2.4642264572431047,-1.8209344219816521,0.5761092331286632,0.5061268938564503,0.49995899184551773,0.4676976829191801,0.4676159362934736,False,False,False,-2.463973153985014,2.4644797605011957,True,-4.0530385225680075,4.053545129084188,True,model_implied_state_space
revision_dfm_kalman_em,exact,pre_second,DELTA_TS,2024:Q3:pre_second:exact,2024-11-26,2024:Q3,0.0003848213650501,0.2393999999999998,-0.2390151786349497,2,6.045514855180499,2.458762870872362,-1.823321704820462,0.5838624862402008,0.5387199992629335,0.49993756148097396,0.4676473309216014,0.4675228663238663,False,True,False,-2.4583780495073118,2.459147692237412,True,-4.043920204602968,4.044689847333069,True,model_implied_state_space
revision_dfm_kalman_em,exact,pre_second,DELTA_TS,2024:Q4:pre_second:exact,2025-02-26,2024:Q4,0.0010269196843579,0.1044,-0.103373080315642,3,6.408167162282378,2.5314357906694727,-1.8485589604256492,0.593267657495419,0.516286580823399,0.4998381623302711,0.46867504386142333,0.4683523771434341,False,False,False,-2.5304088709851147,2.5324627103538306,True,-4.162814421993092,4.164868261361807,True,model_implied_state_space
revision_dfm_kalman_em,exact,pre_third,DELTA_MT,2024:Q1:pre_third:exact,2024-06-26,2024:Q1,0.1103723599769144,-0.5680999999999999,0.6784723599769144,0,8.738900926240374,2.956163210352293,-2.0291684274941497,0.7526913104211664,0.409235835353581,0.485108409172433,0.4879063586022525,0.4581912297186302,True,False,True,-2.8457908503753786,3.0665355703292074,True,-4.752083418431563,4.972828138385391,True,model_implied_state_space
revision_dfm_kalman_em,exact,pre_third,DELTA_MT,2024:Q2:pre_third:exact,2024-09-25,2024:Q2,0.0241050186212499,0.6000000000000001,-0.5758949813787502,1,8.743162707151408,2.9568839522631603,-2.022041064733331,0.7356148541888691,0.5772112044384861,0.49674779100609723,0.4762822679737343,0.4697927115198647,False,True,False,-2.9327789336419103,2.98098897088441,True,-4.839536274733413,4.887746311975913,True,model_implied_state_space
revision_dfm_kalman_em,exact,pre_third,DELTA_MT,2024:Q3:pre_third:exact,2024-12-18,2024:Q3,0.0368445722391768,0.2678000000000002,-0.2309554277608234,2,9.132402027961138,3.0219864374217726,-2.0277733022999826,0.7132612677129011,0.5304595247212552,0.49513614841752784,0.478471779282583,0.46876535546585446,False,True,False,-2.985141865182596,3.0588310096609495,True,-4.933880779952185,5.007569924430538,True,model_implied_state_space
revision_dfm_kalman_em,exact,pre_third,DELTA_MT,2024:Q4:pre_third:exact,2025-03-26,2024:Q4,0.0890664650497949,-0.5985,0.687566465049795,3,8.674675784721593,2.9452802557178823,-2.0263912302091707,0.7520422922288346,0.4077072096266816,0.4879376627308275,0.4849774514213251,0.46090831682476474,True,False,True,-2.8562137906680873,3.0343467207676773,True,-4.755488445956323,4.933621376055913,True,model_implied_state_space
revision_dfm_kalman_em,pseudo,pre_advance,DELTA_SA,2024:Q1:pre_advance:pseudo,2024-04-30,2024:Q1,0.2300413531635483,-0.3404999999999998,0.5705413531635481,0,8.419737584014417,2.9016784080966684,-2.0035584806406,0.7227183652864143,0.4220606596161643,0.4684054655719752,0.504130213674401,0.4410907507172876,True,False,True,-2.6716370549331203,3.1317197612602166,True,-4.542794900641031,5.002877606968127,True,model_implied_state_space
revision_dfm_kalman_em,pseudo,pre_advance,DELTA_SA,2024:Q2:pre_advance:pseudo,2024-07-31,2024:Q2,-0.0275054271672599,0.1112999999999999,-0.1388054271672598,1,8.03819581330024,2.835171214106873,-1.9622393236775337,0.6652758193409486,0.5195237732265728,0.5038702797403598,0.4680216052705308,0.47574292984908856,False,False,False,-2.862676641274133,2.807665786939613,True,-4.69094708171936,4.635936227384839,True,model_implied_state_space
revision_dfm_kalman_em,pseudo,pre_advance,DELTA_SA,2024:Q3:pre_advance:pseudo,2024-10-31,2024:Q3,0.2089363077974564,0.0087999999999999,0.2001363077974565,2,8.004186584584989,2.829167118532412,-1.9614229965880718,0.6668079023384641,0.4718021982915294,0.47056454497848116,0.5012601111682786,0.4425358512285433,False,False,False,-2.6202308107349555,3.0381034263298683,True,-4.444629488372427,4.86250210396734,True,model_implied_state_space
revision_dfm_kalman_em,pseudo,pre_advance,DELTA_SA,2024:Q4:pre_advance:pseudo,2025-01-31,2024:Q4,0.1862998175025683,0.0939000000000001,0.0923998175025682,3,7.967812922882365,2.8227314648904107,-1.95717931740574,0.660864711670312,0.48694328090344285,0.47368897748374134,0.4980637334238027,0.44557341810527107,False,False,False,-2.6364316473878424,3.009031282392979,True,-4.456680270432466,4.829279905437602,True,model_implied_state_space
revision_dfm_kalman_em,pseudo,pre_second,DELTA_TS,2024:Q1:pre_second:pseudo,2024-05-31,2024:Q1,0.0015604532924378,0.1602999999999999,-0.158739546707562,0,6.481543796981633,2.545887624578436,-1.8553617401611329,0.5989084532875111,0.5248584842569339,0.49975547594875913,0.4689358492616843,0.4684483078813913,False,False,False,-2.5443271712859983,2.547448077870874,True,-4.18605203980627,4.189172946391146,True,model_implied_state_space
revision_dfm_kalman_em,pseudo,pre_second,DELTA_TS,2024:Q2:pre_second:pseudo,2024-08-31,2024:Q2,0.0002534872177752,0.0381,-0.0378465127822247,1,6.072413131920385,2.4642266803036574,-1.8209345113332611,0.5761092829816077,0.5061268635235259,0.4999589620673529,0.46769771552096806,0.4676159095347141,False,False,False,-2.463973193085882,2.4644801675214327,True,-4.053038705510281,4.053545679945832,True,model_implied_state_space
revision_dfm_kalman_em,pseudo,pre_second,DELTA_TS,2024:Q3:pre_second:pseudo,2024-11-30,2024:Q3,0.0003853795655239,0.2393999999999998,-0.2390146204344758,2,6.045547830802866,2.458769576597788,-1.8233243842522737,0.5838639848875796,0.5387198038526155,0.4999374710816646,0.4676475092339606,0.4675228644324941,False,True,False,-2.458384197032264,2.459154956163312,True,-4.043930676339284,4.044701435470331,True,model_implied_state_space
revision_dfm_kalman_em,pseudo,pre_second,DELTA_TS,2024:Q4:pre_second:pseudo,2025-02-28,2024:Q4,0.0010265387661614,0.1044,-0.1033734612338386,3,6.408226317147285,2.5314474746964994,-1.8485635744361675,0.5932703926318891,0.5162865656742095,0.49983822310786125,0.46867512830040725,0.4683525827495212,False,False,False,-2.530420935930338,2.532474013462661,True,-4.162834021425521,4.164887098957843,True,model_implied_state_space
revision_dfm_kalman_em,pseudo,pre_third,DELTA_MT,2024:Q1:pre_third:pseudo,2024-06-30,2024:Q1,0.110620976174965,-0.5680999999999999,0.678720976174965,0,8.73972226618005,2.95630212701274,-2.0292322472800124,0.7527660304578735,0.409207348473515,0.4850755821731772,0.4879404611928366,0.4581598217841227,True,False,True,-2.845681150837775,3.0669231031877047,True,-4.752063299806292,4.973305252156222,True,model_implied_state_space
revision_dfm_kalman_em,pseudo,pre_third,DELTA_MT,2024:Q2:pre_third:pseudo,2024-09-30,2024:Q2,0.0241311113070188,0.6000000000000001,-0.5758688886929813,1,8.743310898821338,2.956909010913481,-2.0220474993065105,0.7356163054595398,0.5772071040808574,0.49674429829289474,0.4762859829039918,0.4697894567316968,False,True,False,-2.932777899606462,2.9810401222204996,True,-4.839551399859511,4.887813622473548,True,model_implied_state_space
revision_dfm_kalman_em,pseudo,pre_third,DELTA_MT,2024:Q3:pre_third:pseudo,2024-12-31,2024:Q3,0.036876939844503,0.2678000000000002,-0.2309230601554972,2,9.132393541031025,3.0219850332241927,-2.0277720218439703,0.7132589711594187,0.5304552783507638,0.4951318735203786,0.47847603602228084,0.4687610811318438,False,True,False,-2.9851080933796896,3.0588619730686957,True,-4.933846102647376,5.007599982336382,True,model_implied_state_space
revision_dfm_kalman_em,pseudo,pre_third,DELTA_MT,2024:Q4:pre_third:pseudo,2025-03-31,2024:Q4,0.0890722400770744,-0.5985,0.6875722400770745,3,8.674688971168123,2.945282494289491,-2.0263924065794447,0.7520438333497527,0.4077065173014997,0.4879368900188325,0.4849782445140658,0.4609075679648956,True,False,True,-2.8562102542124164,3.0343547343665653,True,-4.7554863530516736,4.9336308332058225,True,model_implied_state_space
