haminh109/Revision-Aware-DFM/outputs/full_state_space_release_revision_dfm/sensitivity_k2_max_iter2_journal_evidence/density_point_records.csv
model_id,timing_mode,checkpoint_id,outcome_id,forecast_origin,forecast_origin_date,target_quarter,forecast_value,realized_value,forecast_error,calibration_n,predictive_variance,predictive_sd,log_score,crps,pit,prob_below_zero,prob_large_positive_revision_gt_0p2,prob_large_negative_revision_lt_minus_0p2,realized_below_zero,realized_large_positive_revision_gt_0p2,realized_large_negative_revision_lt_minus_0p2,lower_68,upper_68,covered_68,lower_90,upper_90,covered_90,density_method
indicator_revision_only_dfm_kalman_em,exact,pre_advance,A,2024:Q1:pre_advance:exact,2024-04-24,2024:Q1,2.2883030571273077,1.5897,0.6986030571273079,0,8.032886303134811,2.834234694434251,-1.9910884967891358,0.7306972994595822,0.4026524899082374,0.20972393021040633,0.769382185936066,0.18998669935891044,False,True,False,-0.5459316373069432,5.122537751561559,True,-2.3735981596445677,6.950204273899184,True,model_implied_state_space
indicator_revision_only_dfm_kalman_em,exact,pre_advance,A,2024:Q2:pre_advance:exact,2024-07-24,2024:Q2,2.876630436996341,2.8401,0.0365304369963408,1,8.214260179907365,2.8660530664848767,-1.9719556073430304,0.6699679565568938,0.4949152577035867,0.15776389180072325,0.8248243735768757,0.14152948474452168,False,True,False,0.010577370511464235,5.742683503481217,True,-1.8376073444466972,7.590868218439379,True,model_implied_state_space
indicator_revision_only_dfm_kalman_em,exact,pre_advance,A,2024:Q3:pre_advance:exact,2024-10-29,2024:Q3,2.282102187292508,2.8248,-0.5426978127074924,2,8.208231815762844,2.8650011894871605,-1.9894478807928646,0.7104252976870666,0.5751194450083682,0.21285768417696574,0.7663064390775469,0.19314832293856488,False,True,False,-0.5828990021946527,5.147103376779668,True,-2.43040541045573,6.994609785040746,True,model_implied_state_space
indicator_revision_only_dfm_kalman_em,exact,pre_advance,A,2024:Q4:pre_advance:exact,2025-01-29,2024:Q4,2.6356300635879952,2.2512,0.3844300635879953,3,8.126011864614993,2.8506160500170825,-1.9755670817915723,0.6868260064658639,0.44636184004564056,0.17759152781332363,0.8035644916007484,0.15993066298810008,False,True,False,-0.21498598642908728,5.486246113605078,True,-2.053216085328682,7.324476212504672,True,model_implied_state_space
indicator_revision_only_dfm_kalman_em,exact,pre_second,S,2024:Q1:pre_second:exact,2024-05-29,2024:Q1,1.847290307906362,1.2492,0.598090307906362,0,5.155737471258315,2.2706249076539073,-1.7736842905980728,0.5931217376825034,0.3961198373336666,0.20794844099723364,0.7659208370394038,0.18362359182829413,False,True,False,-0.4233345997475453,4.117915215560269,True,-1.8875553068945192,5.582135922707243,True,model_implied_state_space
indicator_revision_only_dfm_kalman_em,exact,pre_second,S,2024:Q2:pre_second:exact,2024-08-28,2024:Q2,2.7715456519945714,2.9514,-0.1798543480054286,1,5.14538720996714,2.2683445968298424,-1.7411322040104338,0.5357868518417895,0.5315985474423399,0.11088477890717902,0.871532708495231,0.0950968566806862,False,True,False,0.503201055164729,5.039890248824413,True,-0.9595491852767699,6.502640489265913,True,model_implied_state_space
indicator_revision_only_dfm_kalman_em,exact,pre_second,S,2024:Q3:pre_second:exact,2024-11-26,2024:Q3,2.639322160996806,2.8336,-0.194277839003194,2,5.122269639441013,2.263243168429105,-1.7394216405461442,0.5355575987295615,0.5342033793941088,0.12177322800997632,0.8594383594684116,0.1048234537204776,False,True,False,0.37607899256770105,4.9025653294259115,True,-1.0833815732669492,6.362025895260562,True,model_implied_state_space
indicator_revision_only_dfm_kalman_em,exact,pre_second,S,2024:Q4:pre_second:exact,2025-02-26,2024:Q4,2.406165865096344,2.3451,0.061065865096344,3,5.076371023490181,2.25308034110863,-1.7316041474985298,0.5271938021082285,0.48918867972913055,0.14277266303289318,0.83625388977912,0.12369495031672745,False,True,False,0.15308552398771402,4.659246206204974,True,-1.2998215057892462,6.112153235981934,True,model_implied_state_space
indicator_revision_only_dfm_kalman_em,exact,pre_third,T,2024:Q1:pre_third:exact,2024-06-26,2024:Q1,1.6155716231227235,1.4095,0.2060716231227235,0,4.253035006982711,2.062288778755951,-1.6477473345403875,0.49015450038551933,0.46020243147744067,0.21669974413576262,0.7537720858102441,0.18933018000463334,False,True,False,-0.44671715563322745,3.6778604018786742,True,-1.7765915544353248,5.007734800680772,True,model_implied_state_space
indicator_revision_only_dfm_kalman_em,exact,pre_third,T,2024:Q2:pre_third:exact,2024-09-25,2024:Q2,2.846247166434328,2.9895,-0.1432528335656719,1,4.229320103020311,2.0565310848660445,-1.6423852415154676,0.4845802758636444,0.5277668689486725,0.08317862101352845,0.900909771335843,0.06926930361571983,False,True,False,0.7897160815682835,4.902778251300372,True,-0.536445447446031,6.228939780314687,True,model_implied_state_space
indicator_revision_only_dfm_kalman_em,exact,pre_third,T,2024:Q3:pre_third:exact,2024-12-18,2024:Q3,2.710146609514819,3.073,-0.3628533904851809,2,4.501847978575821,2.1217558715780243,-1.6858056911046655,0.5205393347672674,0.5678942572309474,0.10074586196357815,0.8816056445509702,0.0850979418126313,False,True,False,0.5883907379367947,4.831902481092843,True,-0.7798312313558764,6.200124450385514,True,model_implied_state_space
indicator_revision_only_dfm_kalman_em,exact,pre_third,T,2024:Q4:pre_third:exact,2025-03-26,2024:Q4,2.3937517660168046,2.4495,-0.0557482339831953,3,4.465854206212365,2.1132567771599278,-1.66751674570466,0.494444165766717,0.5105229750267113,0.12866358745121453,0.8503860360491,0.10984144098043085,False,True,False,0.28049498885687685,4.507008543176733,True,-1.0822463085744816,5.86974984060809,True,model_implied_state_space
indicator_revision_only_dfm_kalman_em,pseudo,pre_advance,A,2024:Q1:pre_advance:pseudo,2024-04-30,2024:Q1,2.29318852610845,1.5897,0.70348852610845,0,8.032803932544404,2.834220163033282,-1.9915100500435756,0.7316486903488403,0.40198504490386266,0.2092266841401224,0.7699071975029188,0.1895180897006109,False,True,False,-0.5410316369248322,5.127408689141732,True,-2.368688788635837,6.955065840852737,True,model_implied_state_space
indicator_revision_only_dfm_kalman_em,pseudo,pre_advance,A,2024:Q2:pre_advance:pseudo,2024-07-31,2024:Q2,2.7700759571528284,2.8401,-0.0700240428471716,1,8.21326476498676,2.8658794051716066,-1.9721122868688354,0.6704241573829774,0.5097466669115874,0.16687926581968082,0.8150830144343253,0.15001766721113866,False,True,False,-0.09580344801877816,5.6359553623244345,True,-1.9438761768492165,7.484028091154873,True,model_implied_state_space
indicator_revision_only_dfm_kalman_em,pseudo,pre_advance,A,2024:Q3:pre_advance:pseudo,2024-10-31,2024:Q3,2.2945456166067424,2.8248,-0.5302543833932578,2,8.208310548307018,2.865014929857612,-1.9886392310210752,0.7085800188023114,0.5734165027276766,0.21159930082154385,0.7676338427142506,0.19196117032442436,False,True,False,-0.5704693132508698,5.159560546464355,True,-2.417984582039669,7.007075815253154,True,model_implied_state_space
indicator_revision_only_dfm_kalman_em,pseudo,pre_advance,A,2024:Q4:pre_advance:pseudo,2025-01-31,2024:Q4,2.6417195986508784,2.2512,0.3905195986508785,3,8.12600907664232,2.8506155610047315,-1.9758572824194518,0.6874843009365718,0.44551744020225625,0.17703622530309931,0.8041555944676418,0.15941155416654681,False,True,False,-0.2088959623538531,5.49233515965561,True,-2.0471257459120595,7.330564943213816,True,model_implied_state_space
indicator_revision_only_dfm_kalman_em,pseudo,pre_second,S,2024:Q1:pre_second:pseudo,2024-05-31,2024:Q1,1.8478103754144612,1.2492,0.5986103754144612,0,5.155684886009354,2.270613328158133,-1.7737399018902353,0.5932274424620306,0.39603106307501384,0.20788162869907317,0.7659921979244635,0.18356152185515606,False,True,False,-0.42280295274367186,4.118423703572594,True,-1.8870161928107971,5.58263694363972,True,model_implied_state_space
indicator_revision_only_dfm_kalman_em,pseudo,pre_second,S,2024:Q2:pre_second:pseudo,2024-08-31,2024:Q2,2.771711374239935,2.9514,-0.1796886257600651,1,5.145389029278955,2.268344997851728,-1.7411265896250154,0.5357764762067965,0.531569487068293,0.11087100361313382,0.8715479944776541,0.09508453890770158,False,True,False,0.503366376388207,5.040056372091662,True,-0.959384122653709,6.502806871133579,True,model_implied_state_space
indicator_revision_only_dfm_kalman_em,pseudo,pre_second,S,2024:Q3:pre_second:pseudo,2024-11-30,2024:Q3,2.640637200109289,2.8336,-0.192962799890711,2,5.12227946993133,2.2632453401987442,-1.7393728850530017,0.5354684461241674,0.5339723914018765,0.12165605596530119,0.859567766591599,0.10471818522736313,False,True,False,0.3773918599105448,4.903882540308033,True,-1.0820701063976341,6.363344506616212,True,model_implied_state_space
indicator_revision_only_dfm_kalman_em,pseudo,pre_second,S,2024:Q4:pre_second:pseudo,2025-02-28,2024:Q4,2.4080710617375125,2.3451,0.0629710617375125,3,5.076335226735994,2.2530723971359627,-1.7316239003709573,0.5272337859649456,0.48885142405861903,0.14258117154511687,0.8364635255261659,0.12352140557905096,False,True,False,0.15499866460154976,4.661143458873475,True,-1.2979032424758237,6.114045365950849,True,model_implied_state_space
indicator_revision_only_dfm_kalman_em,pseudo,pre_third,T,2024:Q1:pre_third:pseudo,2024-06-30,2024:Q1,1.6213672196921434,1.4095,0.2118672196921434,0,4.252467383790886,2.0621511544479194,-1.6479660648706478,0.49059068225629643,0.4590843147636985,0.21586039515926897,0.7546715275329001,0.1885542455248248,False,True,False,-0.44078393475577604,3.683518374140063,True,-1.7705695860236825,5.013304025407969,True,model_implied_state_space
indicator_revision_only_dfm_kalman_em,pseudo,pre_third,T,2024:Q2:pre_third:pseudo,2024-09-30,2024:Q2,2.8468103599794987,2.9895,-0.1426896400205013,1,4.2294380133225165,2.0565597519455925,-1.642380075210851,0.4845557053657416,0.5276574949615949,0.08313965503018493,0.9009543778017143,0.06923558624179248,False,True,False,0.7902506080339062,4.903370111925091,True,-0.5359294070506291,6.2295501270096265,True,model_implied_state_space
indicator_revision_only_dfm_kalman_em,pseudo,pre_third,T,2024:Q3:pre_third:pseudo,2024-12-31,2024:Q3,2.710810781176061,3.073,-0.3621892188239388,2,4.501847398004322,2.1217557347640943,-1.6857521446043577,0.520449199229798,0.5677711905246161,0.10069062364522922,0.8816676741161532,0.08504918634241188,False,True,False,0.5890550464119668,4.832566515940155,True,-0.7791668346557454,6.200788397007868,True,model_implied_state_space
indicator_revision_only_dfm_kalman_em,pseudo,pre_third,T,2024:Q4:pre_third:pseudo,2025-03-31,2024:Q4,2.393094880176471,2.4495,-0.0564051198235291,3,4.4658402806886945,2.1132534823557476,-1.6675234360625055,0.4944573029405337,0.5106469553971603,0.128728515543534,0.850314050375594,0.10989948122001976,False,True,False,0.27984139782072326,4.5063483625322185,True,-1.0828977749442097,5.869087535297151,True,model_implied_state_space
joint_indicator_revision_dfm_full_kalman_em,exact,pre_advance,A,2024:Q1:pre_advance:exact,2024-04-24,2024:Q1,2.025121161186624,1.5897,0.4354211611866241,0,11.23230844149576,3.35146362676007,-2.136775251835983,0.8057566057149584,0.44831497757610084,0.27283879448983406,0.7069768536179434,0.25336909304197125,False,True,False,-1.326342465573446,5.376584787946694,True,-3.4875459408856124,7.537788263258861,True,model_implied_state_space
joint_indicator_revision_dfm_full_kalman_em,exact,pre_advance,A,2024:Q2:pre_advance:exact,2024-07-24,2024:Q2,2.909953061455499,2.8401,0.069853061455499,1,11.431119772429415,3.380993903045289,-2.1373216819853065,0.7906970262671013,0.49175823500546545,0.19470721846573608,0.7885862760806799,0.17882976297263023,False,True,False,-0.47104084158978976,6.2909469645007885,True,-2.651287022669359,8.471193145580358,True,model_implied_state_space
joint_indicator_revision_dfm_full_kalman_em,exact,pre_advance,A,2024:Q3:pre_advance:exact,2024-10-29,2024:Q3,2.085669136268908,2.8248,-0.7391308637310923,2,11.3974174236403,3.3760061350122426,-2.159598515987205,0.8532569531864879,0.5866502314430626,0.26835627233353876,0.7117656560613533,0.24919236048127325,False,True,False,-1.2903369987433346,5.46167527128115,True,-3.4673667995164004,7.638705072054217,True,model_implied_state_space
joint_indicator_revision_dfm_full_kalman_em,exact,pre_advance,A,2024:Q4:pre_advance:exact,2025-01-29,2024:Q4,2.472309378952229,2.2512,0.2211093789522289,3,11.31230175313672,3.3633765404927116,-2.1340448187957475,0.7918010604140292,0.47379229396993994,0.23114913938318174,0.7503538299300608,0.2134429724963968,False,True,False,-0.8910671615404828,5.83568591944494,True,-3.059952722480703,8.00457148038516,True,model_implied_state_space
joint_indicator_revision_dfm_full_kalman_em,exact,pre_second,S,2024:Q1:pre_second:exact,2024-05-29,2024:Q1,2.035338163303977,1.2492,0.7861381633039768,0,5.4649455241749845,2.3377222940663813,-1.8246590108719203,0.6507977695570591,0.36832842817890377,0.19197261447742803,0.7838015759240189,0.16948472425364655,False,True,False,-0.30238413076240445,4.373060457370358,True,-1.8098728308964267,5.8805491575043805,True,model_implied_state_space
joint_indicator_revision_dfm_full_kalman_em,exact,pre_second,S,2024:Q2:pre_second:exact,2024-08-28,2024:Q2,2.790500497956111,2.9514,-0.1608995020438888,1,5.4535633045970835,2.3352865572766617,-1.7694466930099884,0.5501656067115236,0.5274650938974375,0.11605748041126712,0.866346571489588,0.10017217649759154,False,True,False,0.45521394067944954,5.125787055232773,True,-1.0507040657514226,6.631705061663645,True,model_implied_state_space
joint_indicator_revision_dfm_full_kalman_em,exact,pre_second,S,2024:Q3:pre_second:exact,2024-11-26,2024:Q3,2.6737736024681715,2.8336,-0.1598263975318286,2,5.4282703345846635,2.329864874748032,-1.7671017167420573,0.5488499800263551,0.5273455920466881,0.12556503264792349,0.8558292592749153,0.10870381828750274,False,True,False,0.3439087277201396,5.003638477216203,True,-1.1585130870679663,6.506060292004309,True,model_implied_state_space
joint_indicator_revision_dfm_full_kalman_em,exact,pre_second,S,2024:Q4:pre_second:exact,2025-02-26,2024:Q4,2.5334002201688666,2.3451,0.1883002201688666,3,5.389255737609732,2.321477059462301,-1.7644317781497796,0.548607416634826,0.46767634312499246,0.1375730727301437,0.8425843219662537,0.11950994287894325,False,True,False,0.21192316070656547,4.854877279631168,True,-1.2850897409723379,6.351890181310071,True,model_implied_state_space
joint_indicator_revision_dfm_full_kalman_em,exact,pre_third,T,2024:Q1:pre_third:exact,2024-06-26,2024:Q1,1.713080022805733,1.4095,0.303580022805733,0,4.394843596571388,2.096388226586714,-1.6696396143419772,0.5074230032265461,0.4424300584357144,0.20691912330206913,0.7647776359837269,0.18073700208247206,False,True,False,-0.38330820378098096,3.809468249392447,True,-1.7351717551937882,5.161331800805254,True,model_implied_state_space
joint_indicator_revision_dfm_full_kalman_em,exact,pre_third,T,2024:Q2:pre_third:exact,2024-09-25,2024:Q2,2.86820467306935,2.9895,-0.12129532693065,1,4.374166878493012,2.091450902721126,-1.6584783254187616,0.49156719098873464,0.5231240051229205,0.08512597513981165,0.8989811050860359,0.0711850232191234,False,True,False,0.7767537703482241,4.959655575790476,True,-0.5719259298624246,6.308335276001125,True,model_implied_state_space
joint_indicator_revision_dfm_full_kalman_em,exact,pre_third,T,2024:Q3:pre_third:exact,2024-12-18,2024:Q3,2.7377798897848264,3.073,-0.3352201102151735,2,4.603984921081965,2.1456898473642374,-1.694603473616151,0.522287665147827,0.5620739483956012,0.10098767404032642,0.8815426663566645,0.08547556695488288,False,True,False,0.592090042420589,4.883469737149063,True,-0.7915658379651904,6.267125617534843,True,model_implied_state_space
joint_indicator_revision_dfm_full_kalman_em,exact,pre_third,T,2024:Q4:pre_third:exact,2025-03-26,2024:Q4,2.466365544354266,2.4495,0.0168655443542657,3,4.5748108577667255,2.138880748841956,-1.6792522992026673,0.499898742420761,0.49685428511875745,0.12443254551059067,0.8553374914604835,0.10626894476666018,False,True,False,0.3274847955123099,4.605246293196222,True,-1.0517802129951064,5.9845113017036375,True,model_implied_state_space
joint_indicator_revision_dfm_full_kalman_em,pseudo,pre_advance,A,2024:Q1:pre_advance:pseudo,2024-04-30,2024:Q1,2.030905556468333,1.5897,0.441205556468333,0,11.232196967097146,3.3514469960148774,-2.136996097464371,0.8063547159394471,0.4476320357907819,0.27226444249199283,0.7075711636342737,0.2528160020159804,False,True,False,-1.3205414395465445,5.38235255248321,True,-3.481734190462354,7.54354530339902,True,model_implied_state_space
joint_indicator_revision_dfm_full_kalman_em,pseudo,pre_advance,A,2024:Q2:pre_advance:pseudo,2024-07-31,2024:Q2,2.7848471563763,2.8401,-0.0552528436237,1,11.429797978187462,3.38079842318164,-2.1371839837042805,0.790435849329343,0.506519677145471,0.20504800165782414,0.7777353089081018,0.18864992841181547,False,True,False,-0.5959512668053399,6.16564557955794,True,-2.776071391985839,8.345765704738438,True,model_implied_state_space
joint_indicator_revision_dfm_full_kalman_em,pseudo,pre_advance,A,2024:Q3:pre_advance:pseudo,2024-10-31,2024:Q3,2.0996401582123347,2.8248,-0.7251598417876655,2,11.397531785901688,3.376023072477688,-2.1587058333927605,0.8508619446851526,0.5850372287169209,0.2669949101409172,0.713175563747558,0.24788247745494615,False,True,False,-1.276382914265353,5.475663230690023,True,-3.453423637224443,7.652703953649112,True,model_implied_state_space
joint_indicator_revision_dfm_full_kalman_em,pseudo,pre_advance,A,2024:Q4:pre_advance:pseudo,2025-01-31,2024:Q4,2.47951786538745,2.2512,0.2283178653874502,3,11.31228349783759,3.363373826656441,-2.134187208871375,0.7921844168129376,0.47293915384660024,0.23049687039990274,0.7510340664108726,0.21281972881973404,False,True,False,-0.8838559612689907,5.8428916920438905,True,-3.052739772182049,8.011775502956949,True,model_implied_state_space
joint_indicator_revision_dfm_full_kalman_em,pseudo,pre_second,S,2024:Q1:pre_second:pseudo,2024-05-31,2024:Q1,2.0357927376726463,1.2492,0.7865927376726463,0,5.4648984531955715,2.337712226343433,-1.824720601722326,0.6509156012505731,0.3682545738848585,0.1919184921195353,0.7838595631452756,0.1694345777290178,False,True,False,-0.3019194886707868,4.37350496401608,True,-1.8094016965971504,5.880987171942444,True,model_implied_state_space
joint_indicator_revision_dfm_full_kalman_em,pseudo,pre_second,S,2024:Q2:pre_second:pseudo,2024-08-31,2024:Q2,2.7906763137780195,2.9514,-0.1607236862219805,1,5.453565000476651,2.3352869203754496,-1.7694416633994607,0.5501560385525623,0.5274351257517425,0.11604280870502098,0.8663627675956482,0.10015898283962778,False,True,False,0.4553893934025699,5.125963234153469,True,-1.0505288471738727,6.631881474729912,True,model_implied_state_space
joint_indicator_revision_dfm_full_kalman_em,pseudo,pre_second,S,2024:Q3:pre_second:pseudo,2024-11-30,2024:Q3,2.674984414296276,2.8336,-0.1586155857037239,2,5.428263913933927,2.3298634968456686,-1.7670656127723003,0.5487836902767724,0.5271387645842691,0.1254576067193442,0.8559473620080564,0.10860682134686438,False,True,False,0.3451209174506076,5.004847911141945,True,-1.1573000087921619,6.507268837384714,True,model_implied_state_space
joint_indicator_revision_dfm_full_kalman_em,pseudo,pre_second,S,2024:Q4:pre_second:pseudo,2025-02-28,2024:Q4,2.535432097714886,2.3451,0.1903320977148861,3,5.38923230537374,2.3214720126190924,-1.7645009954745179,0.5487383132835021,0.4673282563656059,0.13738013863395193,0.8427954529537622,0.11933494106328217,False,True,False,0.21396008509579367,4.8569041103339785,True,-1.283049562107962,6.353913757537734,True,model_implied_state_space
joint_indicator_revision_dfm_full_kalman_em,pseudo,pre_third,T,2024:Q1:pre_third:pseudo,2024-06-30,2024:Q1,1.718989351309773,1.4095,0.3094893513097729,0,4.394423379789778,2.0962880002017323,-1.670005014235922,0.5080874220613557,0.44131468691349474,0.2061035405506272,0.7656540612381278,0.17998491673920086,False,True,False,-0.3772986488919594,3.8152773515115053,True,-1.7290975689568948,5.167076271576441,True,model_implied_state_space
joint_indicator_revision_dfm_full_kalman_em,pseudo,pre_third,T,2024:Q2:pre_third:pseudo,2024-09-30,2024:Q2,2.868701007979099,2.9895,-0.1207989920209011,1,4.374217274703762,2.0914629508322067,-1.6584703316607154,0.49154708296053345,0.5230293556295862,0.08509024218325521,0.899021757286472,0.0711539003293473,False,True,False,0.7772380571468922,4.960163958811306,True,-0.571449412331885,6.308851428290083,True,model_implied_state_space
joint_indicator_revision_dfm_full_kalman_em,pseudo,pre_third,T,2024:Q3:pre_third:pseudo,2024-12-31,2024:Q3,2.7384521292662987,3.073,-0.3345478707337013,2,4.603984620132739,2.1456897772354555,-1.6945545444687773,0.5222042753211651,0.5619504757836766,0.1009322988425997,0.8816047649599705,0.08542661437978068,False,True,False,0.5927623520308432,4.884141906501754,True,-0.7908934831321366,6.267797741664734,True,model_implied_state_space
joint_indicator_revision_dfm_full_kalman_em,pseudo,pre_third,T,2024:Q4:pre_third:pseudo,2025-03-31,2024:Q4,2.4657172681875226,2.4495,0.0162172681875225,3,4.574800430599062,2.1388783113115766,-1.6792488156292484,0.4998941726386338,0.4969751939934127,0.12449448102837708,0.8552687821466985,0.10632428826506425,False,True,False,0.326838956875946,4.604595579499099,True,-1.0524244797811644,5.9838590161562095,True,model_implied_state_space
monthly_mixed_frequency_kalman_em,exact,pre_advance,A,2024:Q1:pre_advance:exact,2024-04-24,2024:Q1,1.7601443625239162,1.5897,0.1704443625239162,0,13.774792671545946,3.7114407810910772,-2.2314131939532444,0.8704672385494532,0.48168539579979675,0.3176614384595084,0.6628890643650918,0.2987025782123294,False,True,False,-1.951296418567161,5.471585143614993,True,-4.3446324674693475,7.86492119251718,True,model_implied_state_space
monthly_mixed_frequency_kalman_em,exact,pre_advance,A,2024:Q2:pre_advance:exact,2024-07-24,2024:Q2,2.563638715252305,2.8401,-0.276461284747695,1,14.399483239531694,3.7946651024209888,-2.255188637021003,0.8948259809287644,0.5290393487597378,0.24965041928124623,0.7333198432336482,0.23321626166325488,False,True,False,-1.2310263871686837,6.358303817673294,True,-3.678029941531038,8.805307372035648,True,model_implied_state_space
monthly_mixed_frequency_kalman_em,exact,pre_advance,A,2024:Q3:pre_advance:exact,2024-10-29,2024:Q3,2.0088715789786695,2.8248,-0.8159284210213307,2,14.339285597503665,3.78672491706272,-2.273653860691384,0.9548060120855753,0.585299838908033,0.29788137221394406,0.683563718264456,0.2798390217063541,False,True,False,-1.7778533380840504,5.795596496041389,True,-4.2197366351194585,8.237479793076798,True,model_implied_state_space
monthly_mixed_frequency_kalman_em,exact,pre_advance,A,2024:Q4:pre_advance:exact,2025-01-29,2024:Q4,2.5055835556048067,2.2512,0.2543835556048068,3,14.282945539840842,3.7792784416923877,-2.250736959988577,0.8900267322777802,0.4731674239561713,0.25367189055974254,0.7290887013960748,0.23702670288783967,False,True,False,-1.273694886087581,6.284861997297194,True,-3.710776296472425,8.721943407682039,True,model_implied_state_space
monthly_mixed_frequency_kalman_em,exact,pre_second,S,2024:Q1:pre_second:exact,2024-05-29,2024:Q1,1.828856546394414,1.2492,0.5796565463944139,0,5.348370064818469,2.312654333189132,-1.7887460590790012,0.5981158148848816,0.4010440760094267,0.2145291562618514,0.7593842992589643,0.1901659769286617,False,True,False,-0.4837977867947181,4.141510879583546,True,-1.9751213214367682,5.632834414225596,True,model_implied_state_space
monthly_mixed_frequency_kalman_em,exact,pre_second,S,2024:Q2:pre_second:exact,2024-08-28,2024:Q2,2.617715535705418,2.9514,-0.3336844642945826,1,5.855964927707755,2.419910107360965,-1.8121759273554623,0.58384800839869,0.5548368227489476,0.13968385550175513,0.8411252077977189,0.12213329996133296,False,True,False,0.19780542834445303,5.037625643066383,True,-1.3626823812837916,6.598113452694627,True,model_implied_state_space
monthly_mixed_frequency_kalman_em,exact,pre_second,S,2024:Q3:pre_second:exact,2024-11-26,2024:Q3,2.5802284460919163,2.8336,-0.2533715539080838,2,5.830873853184185,2.4147202432547306,-1.806026905686291,0.5749044509846033,0.5417834947961114,0.14263819259972857,0.8378637589050902,0.12479070639939356,False,True,False,0.1655082028371857,4.994948689346646,True,-1.3916329040987687,6.552089796282601,True,model_implied_state_space
monthly_mixed_frequency_kalman_em,exact,pre_second,S,2024:Q4:pre_second:exact,2025-02-26,2024:Q4,2.1736636477158955,2.3451,-0.1714363522841044,3,5.27696832877803,2.29716528111889,-1.7533991924860255,0.5419377731288207,0.5297452587071765,0.17201376328200085,0.8048776128898549,0.1507314823124432,False,True,False,-0.12350163340299458,4.470828928834786,True,-1.6048369966395089,5.9521642920713,True,model_implied_state_space
monthly_mixed_frequency_kalman_em,exact,pre_third,T,2024:Q1:pre_third:exact,2024-06-26,2024:Q1,1.8321062976584497,1.4095,0.4226062976584495,0,6.491259079264688,2.5477949445088175,-1.8679234502205184,0.623308113536316,0.4341290801637074,0.2360412311568512,0.7391072789666177,0.21255302865122794,False,True,False,-0.7156886468503678,4.379901242167267,True,-2.3586434575455035,6.022856052862402,True,model_implied_state_space
monthly_mixed_frequency_kalman_em,exact,pre_third,T,2024:Q2:pre_third:exact,2024-09-25,2024:Q2,2.6610863528592255,2.9895,-0.3284136471407746,1,5.8573665529499435,2.420199692783623,-1.8119954148675312,0.5833400326755646,0.5539695591557542,0.13576810106603804,0.8453980520050254,0.11856921846994638,False,True,False,0.24088666007560233,5.081286045642848,True,-1.3197878897627557,6.641960595481207,True,model_implied_state_space
monthly_mixed_frequency_kalman_em,exact,pre_third,T,2024:Q3:pre_third:exact,2024-12-18,2024:Q3,2.6228429207780795,3.073,-0.4501570792219205,2,6.434481892200309,2.536628055549396,-1.8655207151199389,0.6245838127300815,0.5704275527428606,0.15057089112316158,0.8302473457451152,0.13289012114348484,False,True,False,0.08621486522868338,5.1594709763274755,True,-1.549538936619205,6.795224778175363,True,model_implied_state_space
monthly_mixed_frequency_kalman_em,exact,pre_third,T,2024:Q4:pre_third:exact,2025-03-26,2024:Q4,2.4987366146571053,2.4495,0.0492366146571052,3,6.402362807816049,2.5302890759389625,-1.8474614128649813,0.5916980585305935,0.49223751626508305,0.16169141813442897,0.8181897069712641,0.14308247368921143,False,True,False,-0.03155246128185718,5.029025690596068,True,-1.663218549136786,6.660691778450996,True,model_implied_state_space
monthly_mixed_frequency_kalman_em,pseudo,pre_advance,A,2024:Q1:pre_advance:pseudo,2024-04-30,2024:Q1,1.7636823146554932,1.5897,0.1739823146554933,0,13.774366763692193,3.7113834029499286,-2.231441999708464,0.8705848162509685,0.4813052221703278,0.31731905259338977,0.6632395083454335,0.2983690354061524,False,True,False,-1.9477010882944354,5.475065717605422,True,-4.341000136694194,7.86836476600518,True,model_implied_state_space
monthly_mixed_frequency_kalman_em,pseudo,pre_advance,A,2024:Q2:pre_advance:pseudo,2024-07-31,2024:Q2,2.505445031252923,2.8401,-0.3346549687470772,1,14.39899371923173,3.7946006007525654,-2.2564066454862637,0.8985458689499878,0.5351381247853351,0.25454163402436203,0.7282601120757846,0.23793145607476493,False,True,False,-1.2891555694996426,6.300045632005489,True,-3.73611752972717,8.747007592233015,True,model_implied_state_space
monthly_mixed_frequency_kalman_em,pseudo,pre_advance,A,2024:Q3:pre_advance:pseudo,2024-10-31,2024:Q3,2.004370954039472,2.8248,-0.8204290459605281,2,14.338570475075244,3.7866304909609605,-2.2738868939664774,0.955555582942527,0.5857651584168984,0.2982888384885216,0.6831448017028403,0.28023424610743863,False,True,False,-1.7822595369214884,5.791001445000433,True,-4.224081942942697,8.232823851021642,True,model_implied_state_space
monthly_mixed_frequency_kalman_em,pseudo,pre_advance,A,2024:Q4:pre_advance:pseudo,2025-01-31,2024:Q4,2.4972396974775184,2.2512,0.2460396974775185,3,14.282255814287808,3.7791871896332165,-2.2505667472194464,0.8895651196927205,0.47404565105586155,0.2543742965072088,0.7283618504705773,0.23770358739810774,False,True,False,-1.2819474921556981,6.276426887110735,True,-3.718970058319219,8.713449453274256,True,model_implied_state_space
monthly_mixed_frequency_kalman_em,pseudo,pre_second,S,2024:Q1:pre_second:pseudo,2024-05-31,2024:Q1,1.8222025812674552,1.2492,0.5730025812674551,0,5.348297117915222,2.312638561884503,-1.7880226402864248,0.596803014314362,0.4021561630289052,0.21536815838750592,0.7584891912305758,0.1909465302580404,False,True,False,-0.49043598061704796,4.1348411431519585,True,-1.9817493450761063,5.626154507611017,True,model_implied_state_space
monthly_mixed_frequency_kalman_em,pseudo,pre_second,S,2024:Q2:pre_second:pseudo,2024-08-31,2024:Q2,2.618370178208089,2.9514,-0.3330298217919112,1,5.855938665302156,2.419904681036457,-1.8121364612229995,0.5837750540542124,0.554730040619063,0.13962320548296434,0.8411912596567018,0.12207798913873008,False,True,False,0.19846549717163198,5.038274859244545,True,-1.3620188132715727,6.59875916968775,True,model_implied_state_space
monthly_mixed_frequency_kalman_em,pseudo,pre_second,S,2024:Q3:pre_second:pseudo,2024-11-30,2024:Q3,2.576615431577459,2.8336,-0.2569845684225411,2,5.830908781384873,2.414727475593234,-1.8061879841646566,0.5752101820180372,0.5423769602069318,0.14297645433790312,0.8374955448087594,0.12509932781852987,False,True,False,0.16188795598422479,4.991342907170694,True,-1.395257814751445,6.548488677906363,True,model_implied_state_space
monthly_mixed_frequency_kalman_em,pseudo,pre_second,S,2024:Q4:pre_second:pseudo,2025-02-28,2024:Q4,2.170726635011031,2.3451,-0.1743733649889689,3,5.276897327615576,2.297149826984643,-1.7534887377467425,0.5421104153017838,0.5302540818036316,0.1723383225852503,0.8045263740568072,0.151029123813074,False,True,False,-0.12642319197361207,4.467876461995674,True,-1.607748589555606,5.949201859577668,True,model_implied_state_space
monthly_mixed_frequency_kalman_em,pseudo,pre_third,T,2024:Q1:pre_third:pseudo,2024-06-30,2024:Q1,1.8407407210334212,1.4095,0.4312407210334212,0,6.491785096373285,2.5478981722928578,-1.8685306824751324,0.6244800929434418,0.4327986190951044,0.23500751826133595,0.7401988318999286,0.21158010534133886,False,True,False,-0.7071574512594365,4.388638893326279,True,-2.350178828765513,6.031660270832356,True,model_implied_state_space
monthly_mixed_frequency_kalman_em,pseudo,pre_third,T,2024:Q2:pre_third:pseudo,2024-09-30,2024:Q2,2.675014440578629,2.9895,-0.3144855594213709,1,5.858459660092508,2.420425512196669,-1.8113227742790796,0.5819195978374955,0.5516890420431344,0.13454003339592904,0.8467404840145758,0.11745341945629094,False,True,False,0.25458892838196023,5.095439952775298,True,-1.3062312419239364,6.656260123081195,True,model_implied_state_space
monthly_mixed_frequency_kalman_em,pseudo,pre_third,T,2024:Q3:pre_third:pseudo,2024-12-31,2024:Q3,2.6241546523825576,3.073,-0.4488453476174423,2,6.434447777546191,2.5366213311304846,-1.8654265120020321,0.6243978269031151,0.5702246511779111,0.15044940694056105,0.8303786896189209,0.1327784528758184,False,True,False,0.08753332125207303,5.160775983513043,True,-1.5482161443298912,6.796525449095006,True,model_implied_state_space
monthly_mixed_frequency_kalman_em,pseudo,pre_third,T,2024:Q4:pre_third:pseudo,2025-03-31,2024:Q4,2.4941511507289373,2.4495,0.0446511507289373,3,6.4023930442293135,2.5302950508249653,-1.8474301515910314,0.5916315794966035,0.4929603832502913,0.16213636094029782,0.8177102261393459,0.14349279473411314,False,True,False,-0.03614390009602797,5.024446201553903,True,-1.6678138408778667,6.656116142335741,True,model_implied_state_space
revision_dfm_kalman_em,exact,pre_advance,A,2024:Q1:pre_advance:exact,2024-04-24,2024:Q1,1.9365989888372657,1.5897,0.3468989888372655,0,12.290285154425629,3.505750298356349,-2.1782387882205465,0.8329592257555825,0.460588418860666,0.29033496485342414,0.6898260334804877,0.2711112623652646,False,True,False,-1.5691513095190832,5.442349287193615,True,-3.829847104600381,7.703045082274912,True,model_implied_state_space
revision_dfm_kalman_em,exact,pre_advance,A,2024:Q2:pre_advance:exact,2024-07-24,2024:Q2,3.329211354788327,2.8401,0.489111354788327,1,11.89525697338954,3.448950126254298,-2.16706409183748,0.8336279162764113,0.44361324038114613,0.16720165608635754,0.8178742961469663,0.15308981699793625,False,True,False,-0.119738771465971,6.778161481042625,True,-2.3438067695557927,9.002229479132447,True,model_implied_state_space
revision_dfm_kalman_em,exact,pre_advance,A,2024:Q3:pre_advance:exact,2024-10-29,2024:Q3,2.1028955751861567,2.8248,-0.7219044248138435,2,11.85978196565524,3.4438034156518342,-2.1774861837477095,0.8649508395740331,0.5830194922052473,0.2707217118462246,0.7097163936637072,0.2518411891325356,False,True,False,-1.3409078404656776,5.5466989908379905,True,-3.561656963556631,7.767448113928944,True,model_implied_state_space
revision_dfm_kalman_em,exact,pre_advance,A,2024:Q4:pre_advance:exact,2025-01-29,2024:Q4,2.3291031191688676,2.2512,0.0779031191688677,3,11.80332641096062,3.435596951180482,-2.1533863128317376,0.8035864427175172,0.4909546476592996,0.2489072194844081,0.7322784456165469,0.23082073368027906,False,True,False,-1.1064938320116142,5.764700070349349,True,-3.3219509867237678,7.980157225061503,True,model_implied_state_space
revision_dfm_kalman_em,exact,pre_second,S,2024:Q1:pre_second:exact,2024-05-29,2024:Q1,2.008676275034902,1.2492,0.7594762750349018,0,5.541301086650524,2.3539968323365525,-1.8270991151486133,0.6470316028558508,0.37348672565379637,0.19674521083524185,0.7788581927530281,0.17405374577335014,False,True,False,-0.3453205573016507,4.362673107371455,True,-1.8633039524661532,5.880656502535957,True,model_implied_state_space
revision_dfm_kalman_em,exact,pre_second,S,2024:Q2:pre_second:exact,2024-08-28,2024:Q2,2.9175587375547747,2.9514,-0.0338412624452253,1,5.2907949094185645,2.3001727999040775,-1.7520310123477547,0.5377374556001807,0.5058692213791253,0.10232605334664477,0.881289687590169,0.08765168374053275,False,True,False,0.6173859376506972,5.217731537458852,True,-0.8658888349825702,6.7010063100921196,True,model_implied_state_space
revision_dfm_kalman_em,exact,pre_second,S,2024:Q3:pre_second:exact,2024-11-26,2024:Q3,2.709817391441073,2.8336,-0.123782608558927,2,5.266092767139578,2.2947968901712366,-1.7510376633040596,0.5389455599381249,0.5215087356519782,0.1188305972658378,0.8629565247951124,0.10239781322863191,False,True,False,0.4150205012698365,5.00461428161231,True,-1.0647875964740448,6.484422379356191,True,model_implied_state_space
revision_dfm_kalman_em,exact,pre_second,S,2024:Q4:pre_second:exact,2025-02-26,2024:Q4,2.450902452381428,2.3451,0.105802452381428,3,5.4791772946506025,2.3407642543944065,-1.770437531917802,0.5489323728196287,0.48197396277560595,0.14753774289227425,0.8318772415928498,0.1287133148823694,False,True,False,0.11013819798702151,4.7916667067758345,True,-1.3993121212975699,6.301117026060426,True,model_implied_state_space
revision_dfm_kalman_em,exact,pre_third,T,2024:Q1:pre_third:exact,2024-06-26,2024:Q1,1.694153459240379,1.4095,0.2846534592403791,0,4.401458963557292,2.0979654343094625,-1.669111196297329,0.50566833370788,0.44603684525206644,0.20968287278548325,0.7618269458076228,0.18330207621887165,False,True,False,-0.4038119750690834,3.7921188935498416,True,-1.7566925946023608,5.144999513083119,True,model_implied_state_space
revision_dfm_kalman_em,exact,pre_third,T,2024:Q2:pre_third:exact,2024-09-25,2024:Q2,2.9146879980686733,2.9895,-0.0748120019313267,1,4.394091943639595,2.096208945606233,-1.6597058416697605,0.49093855666695824,0.5142349053966763,0.08219510326786855,0.9023479005675825,0.06865713294690368,False,True,False,0.8184790524624401,5.010896943674906,True,-0.5332688889598605,6.3626448850972075,True,model_implied_state_space
revision_dfm_kalman_em,exact,pre_third,T,2024:Q3:pre_third:exact,2024-12-18,2024:Q3,2.742228533106931,3.073,-0.330771466893069,2,4.615568354545565,2.1483873846551895,-1.6955082927832013,0.5223440206979449,0.5611804168460799,0.10090486822520088,0.8816587122068588,0.08542064429690227,False,True,False,0.5938411484517414,4.890615917762121,True,-0.7915542486399452,6.2760113148538075,True,model_implied_state_space
revision_dfm_kalman_em,exact,pre_third,T,2024:Q4:pre_third:exact,2025-03-26,2024:Q4,2.4331999762434835,2.4495,-0.0163000237565165,3,4.351772934669004,2.086090346717755,-1.6542607265594833,0.48755964636494764,0.503117172029219,0.12172791008982389,0.857807186641149,0.10342662450164632,False,True,False,0.34710962952572855,4.519290322961238,True,-0.9981132967036701,5.864513249190637,True,model_implied_state_space
revision_dfm_kalman_em,pseudo,pre_advance,A,2024:Q1:pre_advance:pseudo,2024-04-30,2024:Q1,1.9454197286232775,1.5897,0.3557197286232778,0,12.290185225994568,3.505736046252565,-2.1784868995051303,0.8336600421179331,0.45958951293216066,0.28947306320592986,0.6907140656300874,0.27027744052202124,False,True,False,-1.5603163176292876,5.451155774875843,True,-3.821002922189768,7.711842379436323,True,model_implied_state_space
revision_dfm_kalman_em,pseudo,pre_advance,A,2024:Q2:pre_advance:pseudo,2024-07-31,2024:Q2,3.2175608587153377,2.8401,0.3774608587153376,1,11.894767697284031,3.4488791943592387,-2.1629768895471426,0.822450024432501,0.45642496993684567,0.17542820615400712,0.8091966048058656,0.16086250066020974,False,True,False,-0.23131833564390103,6.666440053074576,True,-2.4553405930439274,8.890462310474604,True,model_implied_state_space
revision_dfm_kalman_em,pseudo,pre_advance,A,2024:Q3:pre_advance:pseudo,2024-10-31,2024:Q3,2.1060323649560044,2.8248,-0.7187676350439958,2,11.859766192128337,3.4438011255193492,-2.1772950262789577,0.8644306294994469,0.5826640324872597,0.27042009043017057,0.710028371763317,0.2515505624561248,False,True,False,-1.3377687605633448,5.549833490475354,True,-3.5585164068540593,7.770581136766069,True,model_implied_state_space
revision_dfm_kalman_em,pseudo,pre_advance,A,2024:Q4:pre_advance:pseudo,2025-01-31,2024:Q4,2.3382096296290618,2.2512,0.0870096296290618,3,11.803316374634536,3.4355954905422923,-2.1534495047543776,0.8037604719446112,0.48989749817576494,0.24806753274312277,0.7331505136721154,0.23001496117632006,False,True,False,-1.0973858609132305,5.773805120171354,True,-3.31284207372755,7.989261332985674,True,model_implied_state_space
revision_dfm_kalman_em,pseudo,pre_second,S,2024:Q1:pre_second:pseudo,2024-05-31,2024:Q1,2.0088109081461836,1.2492,0.7596109081461835,0,5.541237192295985,2.353983260835978,-1.8271124042682876,0.6470630492886196,0.37346436159003077,0.19672799325094756,0.7788764928387667,0.1740376641709961,False,True,False,-0.3451723526897945,4.362794168982162,True,-1.8631469962229286,5.880768812515296,True,model_implied_state_space
revision_dfm_kalman_em,pseudo,pre_second,S,2024:Q2:pre_second:pseudo,2024-08-31,2024:Q2,2.917890160117228,2.9514,-0.0335098398827717,1,5.290795362641263,2.3001728984233476,-1.7520289456877531,0.5377336072792948,0.5058117453164597,0.10230035124344258,0.8813182791881047,0.087628753136172,False,True,False,0.6177172616938802,5.218063058540576,True,-0.8655575744698956,6.701337894704351,True,model_implied_state_space
revision_dfm_kalman_em,pseudo,pre_second,S,2024:Q3:pre_second:pseudo,2024-11-30,2024:Q3,2.7130951819022537,2.8336,-0.1205048180977463,2,5.2661091650971485,2.294800463024432,-1.7509631896556401,0.5388072538340222,0.5209396775198629,0.11854743977337522,0.8632692354171454,0.1021433560630663,False,True,False,0.41829471887782166,5.007895644926686,True,-1.061515682833401,6.487706046637909,True,model_implied_state_space
revision_dfm_kalman_em,pseudo,pre_second,S,2024:Q4:pre_second:pseudo,2025-02-28,2024:Q4,2.453220777462219,2.3451,0.108120777462219,3,5.47923011337126,2.340775536733768,-1.7704875986828792,0.549019495338929,0.4815793458962188,0.14731064171216054,0.8321248052211866,0.12850650019691265,False,True,False,0.11244524072845108,4.7939963141959865,True,-1.3970123540135981,6.303453908938036,True,model_implied_state_space
revision_dfm_kalman_em,pseudo,pre_third,T,2024:Q1:pre_third:pseudo,2024-06-30,2024:Q1,1.7043610532826927,1.4095,0.2948610532826927,0,4.401804136940192,2.098047696536042,-1.669821618799376,0.5068082083692373,0.44411640608449443,0.2082937724504243,0.7633219002167553,0.18202301196066975,False,True,False,-0.39368664325334923,3.802408749818735,True,-1.7466203098817974,5.155342416447183,True,model_implied_state_space
revision_dfm_kalman_em,pseudo,pre_third,T,2024:Q2:pre_third:pseudo,2024-09-30,2024:Q2,2.916508054544455,2.9895,-0.072991945455545,1,4.3941641465355215,2.0962261677919014,-1.659683436952727,0.4908913864609055,0.5138886205211615,0.08206517008431129,0.9024957341982381,0.06854396768180868,False,True,False,0.8202818867525536,5.0127342223363565,True,-0.5314771604586395,6.36449326954755,True,model_implied_state_space
revision_dfm_kalman_em,pseudo,pre_third,T,2024:Q3:pre_third:pseudo,2024-12-31,2024:Q3,2.743456684239379,3.073,-0.3295433157606209,2,4.615562334405364,2.1483859835712398,-1.6954198047810103,0.5221937055498492,0.560955073364984,0.10080377076364035,0.8817720641656023,0.08533125454537914,False,True,False,0.5950707006681393,4.891842667810619,True,-0.7903237929294806,6.277237161408239,True,model_implied_state_space
revision_dfm_kalman_em,pseudo,pre_third,T,2024:Q4:pre_third:pseudo,2025-03-31,2024:Q4,2.4320318608454183,2.4495,-0.0174681391545816,3,4.351777966697966,2.0860915528082575,-1.6542658367507719,0.4875674715581233,0.5033405522500928,0.12184122956521644,0.8576810563888981,0.10352750284905275,False,True,False,0.3459403080371608,4.518123413653676,True,-0.9992833959440728,5.863347117634909,True,model_implied_state_space
