haminh109/Revision-Aware-DFM/outputs/full_state_space_release_revision_dfm/sensitivity_window_rolling_max_iter2_journal_evidence/common_sample_spf_revision.csv
timing_mode,checkpoint_id,outcome_id,anchor_model,model_id,n_common_forecasts,RMSE,MAE,bias,first_target_quarter,last_target_quarter
exact,pre_advance,DELTA_SA,spf,ar,4,0.27631086416435663,0.23318986906015665,0.23318986906015665,2024:Q1,2024:Q4
exact,pre_advance,DELTA_SA,spf,bridge,4,0.2511904928155969,0.2336727309705402,-0.14590796175849127,2024:Q1,2024:Q4
exact,pre_advance,DELTA_SA,spf,indicator_revision_only_dfm_kalman_em,4,0.18521783796384184,0.13862499999999994,0.03162499999999998,2024:Q1,2024:Q4
exact,pre_advance,DELTA_SA,spf,joint_indicator_revision_dfm_full_kalman_em,4,0.3465459412158572,0.29073521579475686,0.2082268113705616,2024:Q1,2024:Q4
exact,pre_advance,DELTA_SA,spf,midas_umidas,4,0.8867275868534378,0.7535059124397611,-0.7307356150629661,2024:Q1,2024:Q4
exact,pre_advance,DELTA_SA,spf,monthly_mixed_frequency_kalman_em,4,0.23514679282776912,0.15931574397492687,0.10742623063445908,2024:Q1,2024:Q4
exact,pre_advance,DELTA_SA,spf,no_revision,4,0.18521783796384184,0.13862499999999994,0.03162499999999998,2024:Q1,2024:Q4
exact,pre_advance,DELTA_SA,spf,release_dfm,4,0.23558087708625758,0.15030205480001857,0.12381944965781153,2024:Q1,2024:Q4
exact,pre_advance,DELTA_SA,spf,revision_dfm_kalman_em,4,0.34826280414409166,0.2942351911265505,0.17491586256055655,2024:Q1,2024:Q4
exact,pre_advance,DELTA_SA,spf,spf,4,0.18521783796384184,0.13862499999999994,0.03162499999999998,2024:Q1,2024:Q4
exact,pre_advance,DELTA_SA,spf,standard_dfm,4,0.23558087708625758,0.15030205480001857,0.12381944965781153,2024:Q1,2024:Q4
exact,pre_second,DELTA_TS,spf,ar,4,0.42872944892155945,0.37676967564752134,0.37676967564752134,2024:Q1,2024:Q4
exact,pre_second,DELTA_TS,spf,bridge,4,0.28248451159643784,0.21591351394865282,-0.15167051311469432,2024:Q1,2024:Q4
exact,pre_second,DELTA_TS,spf,indicator_revision_only_dfm_kalman_em,4,0.15440160297095354,0.13554999999999992,-0.13554999999999992,2024:Q1,2024:Q4
exact,pre_second,DELTA_TS,spf,joint_indicator_revision_dfm_full_kalman_em,4,0.15330669701521057,0.13421891025936902,-0.13421891025936902,2024:Q1,2024:Q4
exact,pre_second,DELTA_TS,spf,midas_umidas,4,0.5553022019085411,0.3943147017892684,-0.3943147017892684,2024:Q1,2024:Q4
exact,pre_second,DELTA_TS,spf,monthly_mixed_frequency_kalman_em,4,0.1754780194536897,0.14339463170562472,-0.14339463170562472,2024:Q1,2024:Q4
exact,pre_second,DELTA_TS,spf,no_revision,4,0.15440160297095354,0.13554999999999992,-0.13554999999999992,2024:Q1,2024:Q4
exact,pre_second,DELTA_TS,spf,release_dfm,4,0.09234050546476173,0.07588894105354416,-0.055328411263188,2024:Q1,2024:Q4
exact,pre_second,DELTA_TS,spf,revision_dfm_kalman_em,4,0.15350772219430298,0.1345409434972644,-0.1345409434972644,2024:Q1,2024:Q4
exact,pre_second,DELTA_TS,spf,spf,4,0.15440160297095354,0.13554999999999992,-0.13554999999999992,2024:Q1,2024:Q4
exact,pre_second,DELTA_TS,spf,standard_dfm,4,0.073863857214427,0.06381283373778066,-0.019339672618658998,2024:Q1,2024:Q4
exact,pre_third,DELTA_MT,spf,ar,4,23.126767719300748,15.18047327993915,-15.18047327993915,2024:Q1,2024:Q4
exact,pre_third,DELTA_MT,spf,bridge,4,1.3287434726419107,1.230391041832349,1.0080872329459474,2024:Q1,2024:Q4
exact,pre_third,DELTA_MT,spf,indicator_revision_only_dfm_kalman_em,4,0.5274127178974736,0.5086,0.07469999999999992,2024:Q1,2024:Q4
exact,pre_third,DELTA_MT,spf,joint_indicator_revision_dfm_full_kalman_em,4,0.5749887914436079,0.5456264752486306,0.12774451555765778,2024:Q1,2024:Q4
exact,pre_third,DELTA_MT,spf,midas_umidas,4,1.845948771247558,1.6146279650527928,-0.4121979880650616,2024:Q1,2024:Q4
exact,pre_third,DELTA_MT,spf,monthly_mixed_frequency_kalman_em,4,0.5711914811593725,0.5566791598224675,0.05647476946261652,2024:Q1,2024:Q4
exact,pre_third,DELTA_MT,spf,no_revision,4,0.5274127178974736,0.5086,0.07469999999999992,2024:Q1,2024:Q4
exact,pre_third,DELTA_MT,spf,release_dfm,4,0.996337942245552,0.7963326822394464,0.6934573505691234,2024:Q1,2024:Q4
exact,pre_third,DELTA_MT,spf,revision_dfm_kalman_em,4,0.5727434088167739,0.5455530734695091,0.12535132026690718,2024:Q1,2024:Q4
exact,pre_third,DELTA_MT,spf,spf,4,0.5274127178974736,0.5086,0.07469999999999992,2024:Q1,2024:Q4
exact,pre_third,DELTA_MT,spf,standard_dfm,4,0.7277688506660407,0.5862114210453362,0.472116581906732,2024:Q1,2024:Q4
pseudo,pre_advance,DELTA_SA,spf,ar,4,0.27631086416435663,0.23318986906015665,0.23318986906015665,2024:Q1,2024:Q4
pseudo,pre_advance,DELTA_SA,spf,bridge,4,0.25970260985841104,0.2455812976726594,-0.16030295077281287,2024:Q1,2024:Q4
pseudo,pre_advance,DELTA_SA,spf,indicator_revision_only_dfm_kalman_em,4,0.18521783796384184,0.13862499999999994,0.03162499999999998,2024:Q1,2024:Q4
pseudo,pre_advance,DELTA_SA,spf,joint_indicator_revision_dfm_full_kalman_em,4,0.34397416596254693,0.2857389844831699,0.21189788050708167,2024:Q1,2024:Q4
pseudo,pre_advance,DELTA_SA,spf,midas_umidas,4,0.8438572172710181,0.7325068056359733,-0.6638037339084378,2024:Q1,2024:Q4
pseudo,pre_advance,DELTA_SA,spf,monthly_mixed_frequency_kalman_em,4,0.23516744342343843,0.15974418274648067,0.10624043940204508,2024:Q1,2024:Q4
pseudo,pre_advance,DELTA_SA,spf,no_revision,4,0.18521783796384184,0.13862499999999994,0.03162499999999998,2024:Q1,2024:Q4
pseudo,pre_advance,DELTA_SA,spf,release_dfm,4,0.23509943555822987,0.14903643845762068,0.12463320622148567,2024:Q1,2024:Q4
pseudo,pre_advance,DELTA_SA,spf,revision_dfm_kalman_em,4,0.34419027254111256,0.2884259924978747,0.17882142495802045,2024:Q1,2024:Q4
pseudo,pre_advance,DELTA_SA,spf,spf,4,0.18521783796384184,0.13862499999999994,0.03162499999999998,2024:Q1,2024:Q4
pseudo,pre_advance,DELTA_SA,spf,standard_dfm,4,0.23509943555822987,0.14903643845762068,0.12463320622148567,2024:Q1,2024:Q4
pseudo,pre_second,DELTA_TS,spf,ar,4,0.42872944892155945,0.37676967564752134,0.37676967564752134,2024:Q1,2024:Q4
pseudo,pre_second,DELTA_TS,spf,bridge,4,0.28462474211377353,0.21525329092654402,-0.16106133296586608,2024:Q1,2024:Q4
pseudo,pre_second,DELTA_TS,spf,indicator_revision_only_dfm_kalman_em,4,0.15440160297095354,0.13554999999999992,-0.13554999999999992,2024:Q1,2024:Q4
pseudo,pre_second,DELTA_TS,spf,joint_indicator_revision_dfm_full_kalman_em,4,0.15330593450101818,0.13421805285110136,-0.13421805285110136,2024:Q1,2024:Q4
pseudo,pre_second,DELTA_TS,spf,midas_umidas,4,0.5563990505792591,0.38199190540398786,-0.38199190540398786,2024:Q1,2024:Q4
pseudo,pre_second,DELTA_TS,spf,monthly_mixed_frequency_kalman_em,4,0.17573960080837836,0.14364170218721006,-0.14364170218721006,2024:Q1,2024:Q4
pseudo,pre_second,DELTA_TS,spf,no_revision,4,0.15440160297095354,0.13554999999999992,-0.13554999999999992,2024:Q1,2024:Q4
pseudo,pre_second,DELTA_TS,spf,release_dfm,4,0.09246259907788834,0.07595577554770208,-0.05539060096469633,2024:Q1,2024:Q4
pseudo,pre_second,DELTA_TS,spf,revision_dfm_kalman_em,4,0.1535078795756849,0.13454109747246398,-0.13454109747246398,2024:Q1,2024:Q4
pseudo,pre_second,DELTA_TS,spf,spf,4,0.15440160297095354,0.13554999999999992,-0.13554999999999992,2024:Q1,2024:Q4
pseudo,pre_second,DELTA_TS,spf,standard_dfm,4,0.0739241508456071,0.06385596463371807,-0.019409475514478025,2024:Q1,2024:Q4
pseudo,pre_third,DELTA_MT,spf,ar,4,23.126767719300748,15.18047327993915,-15.18047327993915,2024:Q1,2024:Q4
pseudo,pre_third,DELTA_MT,spf,bridge,4,1.324650235876123,1.2032818744537366,1.043268876697019,2024:Q1,2024:Q4
pseudo,pre_third,DELTA_MT,spf,indicator_revision_only_dfm_kalman_em,4,0.5274127178974736,0.5086,0.07469999999999992,2024:Q1,2024:Q4
pseudo,pre_third,DELTA_MT,spf,joint_indicator_revision_dfm_full_kalman_em,4,0.5748705604445629,0.5455190042262873,0.1277508788233745,2024:Q1,2024:Q4
pseudo,pre_third,DELTA_MT,spf,midas_umidas,4,1.803477501657227,1.5501201532533573,-0.34110454230341036,2024:Q1,2024:Q4
pseudo,pre_third,DELTA_MT,spf,monthly_mixed_frequency_kalman_em,4,0.5706360297519565,0.5561775696368202,0.05722398325551824,2024:Q1,2024:Q4
pseudo,pre_third,DELTA_MT,spf,no_revision,4,0.5274127178974736,0.5086,0.07469999999999992,2024:Q1,2024:Q4
pseudo,pre_third,DELTA_MT,spf,release_dfm,4,0.9940019918682901,0.7983489518633105,0.6875616261865318,2024:Q1,2024:Q4
pseudo,pre_third,DELTA_MT,spf,revision_dfm_kalman_em,4,0.572588189072171,0.5454232609715456,0.12518356164435124,2024:Q1,2024:Q4
pseudo,pre_third,DELTA_MT,spf,spf,4,0.5274127178974736,0.5086,0.07469999999999992,2024:Q1,2024:Q4
pseudo,pre_third,DELTA_MT,spf,standard_dfm,4,0.7229214113386053,0.5787850819726297,0.4746230722135994,2024:Q1,2024:Q4
