haminh109/Revision-Aware-DFM/outputs/full_state_space_release_revision_dfm/sensitivity_window_rolling_max_iter2_journal_evidence/cumulative_loss_point.csv
timing_mode,checkpoint_id,outcome_id,baseline_model,model_id,target_quarter,loss_diff_baseline_minus_model,cumulative_loss_diff
exact,pre_advance,A,ar,bridge,2024:Q1,-1.6417210783616851,-1.6417210783616851
exact,pre_advance,A,ar,bridge,2024:Q2,-0.2242714593466668,-1.865992537708352
exact,pre_advance,A,ar,bridge,2024:Q3,0.02773765090626812,-1.8382548868020838
exact,pre_advance,A,ar,bridge,2024:Q4,0.2298013620855716,-1.6084535247165122
exact,pre_advance,A,ar,indicator_revision_only_dfm_kalman_em,2024:Q1,0.12712262427709406,0.12712262427709406
exact,pre_advance,A,ar,indicator_revision_only_dfm_kalman_em,2024:Q2,1.1700788064253769,1.2972014307024708
exact,pre_advance,A,ar,indicator_revision_only_dfm_kalman_em,2024:Q3,0.2076911321591257,1.5048925628615966
exact,pre_advance,A,ar,indicator_revision_only_dfm_kalman_em,2024:Q4,0.22768553778436498,1.7325781006459615
exact,pre_advance,A,ar,joint_indicator_revision_dfm_full_kalman_em,2024:Q1,0.16579721285141139,0.16579721285141139
exact,pre_advance,A,ar,joint_indicator_revision_dfm_full_kalman_em,2024:Q2,1.1178782421488733,1.2836754550002847
exact,pre_advance,A,ar,joint_indicator_revision_dfm_full_kalman_em,2024:Q3,-0.6940946541582595,0.5895808008420251
exact,pre_advance,A,ar,joint_indicator_revision_dfm_full_kalman_em,2024:Q4,0.20922815831662742,0.7988089591586526
exact,pre_advance,A,ar,midas_umidas,2024:Q1,-5.474509064891416,-5.474509064891416
exact,pre_advance,A,ar,midas_umidas,2024:Q2,0.347468893358192,-5.127040171533224
exact,pre_advance,A,ar,midas_umidas,2024:Q3,1.4236640789366064,-3.703376092596618
exact,pre_advance,A,ar,midas_umidas,2024:Q4,-1.986401810094372,-5.68977790269099
exact,pre_advance,A,ar,monthly_mixed_frequency_kalman_em,2024:Q1,0.10025239428705894,0.10025239428705894
exact,pre_advance,A,ar,monthly_mixed_frequency_kalman_em,2024:Q2,1.2602350767417216,1.3604874710287806
exact,pre_advance,A,ar,monthly_mixed_frequency_kalman_em,2024:Q3,0.9115748292129345,2.272062300241715
exact,pre_advance,A,ar,monthly_mixed_frequency_kalman_em,2024:Q4,-0.10882831190440215,2.163233988337313
exact,pre_advance,A,ar,no_revision,2024:Q1,6.142999547931183e-08,6.142999547931183e-08
exact,pre_advance,A,ar,no_revision,2024:Q2,1.5426049060351943e-07,2.1569048608283126e-07
exact,pre_advance,A,ar,no_revision,2024:Q3,1.8705413040720487e-07,4.027446164900361e-07
exact,pre_advance,A,ar,no_revision,2024:Q4,8.528527142837028e-08,4.880298879184064e-07
exact,pre_advance,A,ar,release_dfm,2024:Q1,-3.7043166732036195,-3.7043166732036195
exact,pre_advance,A,ar,release_dfm,2024:Q2,0.628587486938977,-3.0757291862646423
exact,pre_advance,A,ar,release_dfm,2024:Q3,-1.4579144464381402,-4.533643632702782
exact,pre_advance,A,ar,release_dfm,2024:Q4,0.0311501311606098,-4.5024935015421725
exact,pre_advance,A,ar,revision_dfm_kalman_em,2024:Q1,0.1111445952775454,0.1111445952775454
exact,pre_advance,A,ar,revision_dfm_kalman_em,2024:Q2,0.7015201795693827,0.8126647748469281
exact,pre_advance,A,ar,revision_dfm_kalman_em,2024:Q3,0.15203063233740433,0.9646954071843324
exact,pre_advance,A,ar,revision_dfm_kalman_em,2024:Q4,0.21397213777158058,1.178667544955913
exact,pre_advance,A,ar,spf,2024:Q1,-0.08136774660866822,-0.08136774660866822
exact,pre_advance,A,ar,spf,2024:Q2,0.5871872774716679,0.5058195308629997
exact,pre_advance,A,ar,spf,2024:Q3,0.72430498743891,1.2301245183019098
exact,pre_advance,A,ar,spf,2024:Q4,0.1098942321030077,1.3400187504049175
exact,pre_advance,A,ar,standard_dfm,2024:Q1,-3.7043166732036195,-3.7043166732036195
exact,pre_advance,A,ar,standard_dfm,2024:Q2,0.628587486938977,-3.0757291862646423
exact,pre_advance,A,ar,standard_dfm,2024:Q3,-1.4579144464381402,-4.533643632702782
exact,pre_advance,A,ar,standard_dfm,2024:Q4,0.0311501311606098,-4.5024935015421725
exact,pre_advance,A,no_revision,ar,2024:Q1,-6.142999547931183e-08,-6.142999547931183e-08
exact,pre_advance,A,no_revision,ar,2024:Q2,-1.5426049060351943e-07,-2.1569048608283126e-07
exact,pre_advance,A,no_revision,ar,2024:Q3,-1.8705413040720487e-07,-4.027446164900361e-07
exact,pre_advance,A,no_revision,ar,2024:Q4,-8.528527142837028e-08,-4.880298879184064e-07
exact,pre_advance,A,no_revision,bridge,2024:Q1,-1.6417211397916807,-1.6417211397916807
exact,pre_advance,A,no_revision,bridge,2024:Q2,-0.22427161360715742,-1.865992753398838
exact,pre_advance,A,no_revision,bridge,2024:Q3,0.02773746385213771,-1.8382552895467004
exact,pre_advance,A,no_revision,bridge,2024:Q4,0.22980127680030016,-1.6084540127464002
exact,pre_advance,A,no_revision,indicator_revision_only_dfm_kalman_em,2024:Q1,0.12712256284709858,0.12712256284709858
exact,pre_advance,A,no_revision,indicator_revision_only_dfm_kalman_em,2024:Q2,1.1700786521648863,1.297201215011985
exact,pre_advance,A,no_revision,indicator_revision_only_dfm_kalman_em,2024:Q3,0.2076909451049953,1.5048921601169802
exact,pre_advance,A,no_revision,indicator_revision_only_dfm_kalman_em,2024:Q4,0.22768545249909355,1.732577612616074
exact,pre_advance,A,no_revision,joint_indicator_revision_dfm_full_kalman_em,2024:Q1,0.1657971514214159,0.1657971514214159
exact,pre_advance,A,no_revision,joint_indicator_revision_dfm_full_kalman_em,2024:Q2,1.1178780878883827,1.2836752393097985
exact,pre_advance,A,no_revision,joint_indicator_revision_dfm_full_kalman_em,2024:Q3,-0.69409484121239,0.5895803980974086
exact,pre_advance,A,no_revision,joint_indicator_revision_dfm_full_kalman_em,2024:Q4,0.209228073031356,0.7988084711287646
exact,pre_advance,A,no_revision,midas_umidas,2024:Q1,-5.474509126321411,-5.474509126321411
exact,pre_advance,A,no_revision,midas_umidas,2024:Q2,0.3474687390977014,-5.12704038722371
exact,pre_advance,A,no_revision,midas_umidas,2024:Q3,1.423663891882476,-3.7033764953412343
exact,pre_advance,A,no_revision,midas_umidas,2024:Q4,-1.9864018953796432,-5.689778390720877
exact,pre_advance,A,no_revision,monthly_mixed_frequency_kalman_em,2024:Q1,0.10025233285706346,0.10025233285706346
exact,pre_advance,A,no_revision,monthly_mixed_frequency_kalman_em,2024:Q2,1.260234922481231,1.3604872553382945
exact,pre_advance,A,no_revision,monthly_mixed_frequency_kalman_em,2024:Q3,0.9115746421588041,2.2720618974970987
exact,pre_advance,A,no_revision,monthly_mixed_frequency_kalman_em,2024:Q4,-0.10882839718967358,2.1632335003074252
exact,pre_advance,A,no_revision,release_dfm,2024:Q1,-3.7043167346336148,-3.7043167346336148
exact,pre_advance,A,no_revision,release_dfm,2024:Q2,0.6285873326784864,-3.0757294019551282
exact,pre_advance,A,no_revision,release_dfm,2024:Q3,-1.4579146334922706,-4.533644035447399
exact,pre_advance,A,no_revision,release_dfm,2024:Q4,0.031150045875338372,-4.50249398957206
exact,pre_advance,A,no_revision,revision_dfm_kalman_em,2024:Q1,0.11114453384754992,0.11114453384754992
exact,pre_advance,A,no_revision,revision_dfm_kalman_em,2024:Q2,0.7015200253088921,0.8126645591564421
exact,pre_advance,A,no_revision,revision_dfm_kalman_em,2024:Q3,0.15203044528327392,0.964695004439716
exact,pre_advance,A,no_revision,revision_dfm_kalman_em,2024:Q4,0.21397205248630916,1.1786670569260251
exact,pre_advance,A,no_revision,spf,2024:Q1,-0.0813678080386637,-0.0813678080386637
exact,pre_advance,A,no_revision,spf,2024:Q2,0.5871871232111773,0.5058193151725136
exact,pre_advance,A,no_revision,spf,2024:Q3,0.7243048003847796,1.230124115557293
exact,pre_advance,A,no_revision,spf,2024:Q4,0.10989414681773627,1.3400182623750294
exact,pre_advance,A,no_revision,standard_dfm,2024:Q1,-3.7043167346336148,-3.7043167346336148
exact,pre_advance,A,no_revision,standard_dfm,2024:Q2,0.6285873326784864,-3.0757294019551282
exact,pre_advance,A,no_revision,standard_dfm,2024:Q3,-1.4579146334922706,-4.533644035447399
exact,pre_advance,A,no_revision,standard_dfm,2024:Q4,0.031150045875338372,-4.50249398957206
exact,pre_advance,A,bridge,ar,2024:Q1,1.6417210783616851,1.6417210783616851
exact,pre_advance,A,bridge,ar,2024:Q2,0.2242714593466668,1.865992537708352
exact,pre_advance,A,bridge,ar,2024:Q3,-0.02773765090626812,1.8382548868020838
exact,pre_advance,A,bridge,ar,2024:Q4,-0.2298013620855716,1.6084535247165122
exact,pre_advance,A,bridge,indicator_revision_only_dfm_kalman_em,2024:Q1,1.768843702638779,1.768843702638779
exact,pre_advance,A,bridge,indicator_revision_only_dfm_kalman_em,2024:Q2,1.3943502657720437,3.163193968410823
exact,pre_advance,A,bridge,indicator_revision_only_dfm_kalman_em,2024:Q3,0.1799534812528576,3.3431474496636806
exact,pre_advance,A,bridge,indicator_revision_only_dfm_kalman_em,2024:Q4,-0.0021158243012066235,3.341031625362474
exact,pre_advance,A,bridge,joint_indicator_revision_dfm_full_kalman_em,2024:Q1,1.8075182912130965,1.8075182912130965
exact,pre_advance,A,bridge,joint_indicator_revision_dfm_full_kalman_em,2024:Q2,1.3421497014955401,3.1496679927086366
exact,pre_advance,A,bridge,joint_indicator_revision_dfm_full_kalman_em,2024:Q3,-0.7218323050645277,2.4278356876441087
exact,pre_advance,A,bridge,joint_indicator_revision_dfm_full_kalman_em,2024:Q4,-0.020573203768944174,2.4072624838751646
exact,pre_advance,A,bridge,midas_umidas,2024:Q1,-3.8327879865297314,-3.8327879865297314
exact,pre_advance,A,bridge,midas_umidas,2024:Q2,0.5717403527048588,-3.2610476338248726
exact,pre_advance,A,bridge,midas_umidas,2024:Q3,1.3959264280303383,-1.8651212057945343
exact,pre_advance,A,bridge,midas_umidas,2024:Q4,-2.2162031721799433,-4.081324377974478
exact,pre_advance,A,bridge,monthly_mixed_frequency_kalman_em,2024:Q1,1.7419734726487441,1.7419734726487441
exact,pre_advance,A,bridge,monthly_mixed_frequency_kalman_em,2024:Q2,1.4845065360883885,3.2264800087371324
exact,pre_advance,A,bridge,monthly_mixed_frequency_kalman_em,2024:Q3,0.8838371783066664,4.1103171870437984
exact,pre_advance,A,bridge,monthly_mixed_frequency_kalman_em,2024:Q4,-0.33862967398997373,3.7716875130538248
exact,pre_advance,A,bridge,no_revision,2024:Q1,1.6417211397916807,1.6417211397916807
exact,pre_advance,A,bridge,no_revision,2024:Q2,0.22427161360715742,1.865992753398838
exact,pre_advance,A,bridge,no_revision,2024:Q3,-0.02773746385213771,1.8382552895467004
exact,pre_advance,A,bridge,no_revision,2024:Q4,-0.22980127680030016,1.6084540127464002
exact,pre_advance,A,bridge,release_dfm,2024:Q1,-2.062595594841934,-2.062595594841934
exact,pre_advance,A,bridge,release_dfm,2024:Q2,0.8528589462856438,-1.20973664855629
exact,pre_advance,A,bridge,release_dfm,2024:Q3,-1.4856520973444083,-2.695388745900698
exact,pre_advance,A,bridge,release_dfm,2024:Q4,-0.19865123092496179,-2.8940399768256597
exact,pre_advance,A,bridge,revision_dfm_kalman_em,2024:Q1,1.7528656736392305,1.7528656736392305
exact,pre_advance,A,bridge,revision_dfm_kalman_em,2024:Q2,0.9257916389160495,2.67865731255528
exact,pre_advance,A,bridge,revision_dfm_kalman_em,2024:Q3,0.1242929814311362,2.8029502939864166
exact,pre_advance,A,bridge,revision_dfm_kalman_em,2024:Q4,-0.015829224313991024,2.7871210696724256
exact,pre_advance,A,bridge,spf,2024:Q1,1.560353331753017,1.560353331753017
exact,pre_advance,A,bridge,spf,2024:Q2,0.8114587368183347,2.3718120685713515
exact,pre_advance,A,bridge,spf,2024:Q3,0.6965673365326419,3.068379405103993
exact,pre_advance,A,bridge,spf,2024:Q4,-0.1199071299825639,2.9484722751214294
exact,pre_advance,A,bridge,standard_dfm,2024:Q1,-2.062595594841934,-2.062595594841934
exact,pre_advance,A,bridge,standard_dfm,2024:Q2,0.8528589462856438,-1.20973664855629
exact,pre_advance,A,bridge,standard_dfm,2024:Q3,-1.4856520973444083,-2.695388745900698
exact,pre_advance,A,bridge,standard_dfm,2024:Q4,-0.19865123092496179,-2.8940399768256597
exact,pre_advance,A,midas_umidas,ar,2024:Q1,5.474509064891416,5.474509064891416
exact,pre_advance,A,midas_umidas,ar,2024:Q2,-0.347468893358192,5.127040171533224
exact,pre_advance,A,midas_umidas,ar,2024:Q3,-1.4236640789366064,3.703376092596618
exact,pre_advance,A,midas_umidas,ar,2024:Q4,1.986401810094372,5.68977790269099
exact,pre_advance,A,midas_umidas,bridge,2024:Q1,3.8327879865297314,3.8327879865297314
exact,pre_advance,A,midas_umidas,bridge,2024:Q2,-0.5717403527048588,3.2610476338248726
exact,pre_advance,A,midas_umidas,bridge,2024:Q3,-1.3959264280303383,1.8651212057945343
exact,pre_advance,A,midas_umidas,bridge,2024:Q4,2.2162031721799433,4.081324377974478
exact,pre_advance,A,midas_umidas,indicator_revision_only_dfm_kalman_em,2024:Q1,5.60163168916851,5.60163168916851
exact,pre_advance,A,midas_umidas,indicator_revision_only_dfm_kalman_em,2024:Q2,0.8226099130671849,6.4242416022356945
exact,pre_advance,A,midas_umidas,indicator_revision_only_dfm_kalman_em,2024:Q3,-1.2159729467774807,5.208268655458214
exact,pre_advance,A,midas_umidas,indicator_revision_only_dfm_kalman_em,2024:Q4,2.2140873478787366,7.422356003336951
exact,pre_advance,A,midas_umidas,joint_indicator_revision_dfm_full_kalman_em,2024:Q1,5.640306277742828,5.640306277742828
exact,pre_advance,A,midas_umidas,joint_indicator_revision_dfm_full_kalman_em,2024:Q2,0.7704093487906813,6.410715626533509
exact,pre_advance,A,midas_umidas,joint_indicator_revision_dfm_full_kalman_em,2024:Q3,-2.117758733094866,4.292956893438643
exact,pre_advance,A,midas_umidas,joint_indicator_revision_dfm_full_kalman_em,2024:Q4,2.1956299684109992,6.488586861849642
exact,pre_advance,A,midas_umidas,monthly_mixed_frequency_kalman_em,2024:Q1,5.574761459178475,5.574761459178475
exact,pre_advance,A,midas_umidas,monthly_mixed_frequency_kalman_em,2024:Q2,0.9127661833835296,6.4875276425620045
exact,pre_advance,A,midas_umidas,monthly_mixed_frequency_kalman_em,2024:Q3,-0.5120892497236718,5.975438392838333
exact,pre_advance,A,midas_umidas,monthly_mixed_frequency_kalman_em,2024:Q4,1.8775734981899697,7.853011891028302
exact,pre_advance,A,midas_umidas,no_revision,2024:Q1,5.474509126321411,5.474509126321411
exact,pre_advance,A,midas_umidas,no_revision,2024:Q2,-0.3474687390977014,5.12704038722371
exact,pre_advance,A,midas_umidas,no_revision,2024:Q3,-1.423663891882476,3.7033764953412343
exact,pre_advance,A,midas_umidas,no_revision,2024:Q4,1.9864018953796432,5.689778390720877
exact,pre_advance,A,midas_umidas,release_dfm,2024:Q1,1.770192391687797,1.770192391687797
exact,pre_advance,A,midas_umidas,release_dfm,2024:Q2,0.28111859358078506,2.0513109852685822
exact,pre_advance,A,midas_umidas,release_dfm,2024:Q3,-2.8815785253747466,-0.8302675401061643
exact,pre_advance,A,midas_umidas,release_dfm,2024:Q4,2.0175519412549816,1.1872844011488173
exact,pre_advance,A,midas_umidas,revision_dfm_kalman_em,2024:Q1,5.585653660168962,5.585653660168962
exact,pre_advance,A,midas_umidas,revision_dfm_kalman_em,2024:Q2,0.35405128621119075,5.939704946380153
exact,pre_advance,A,midas_umidas,revision_dfm_kalman_em,2024:Q3,-1.271633446599202,4.66807149978095
exact,pre_advance,A,midas_umidas,revision_dfm_kalman_em,2024:Q4,2.2003739478659523,6.868445447646902
exact,pre_advance,A,midas_umidas,spf,2024:Q1,5.393141318282748,5.393141318282748
exact,pre_advance,A,midas_umidas,spf,2024:Q2,0.2397183841134759,5.632859702396224
exact,pre_advance,A,midas_umidas,spf,2024:Q3,-0.6993590914976963,4.933500610898528
exact,pre_advance,A,midas_umidas,spf,2024:Q4,2.0962960421973795,7.029796653095907
exact,pre_advance,A,midas_umidas,standard_dfm,2024:Q1,1.770192391687797,1.770192391687797
exact,pre_advance,A,midas_umidas,standard_dfm,2024:Q2,0.28111859358078506,2.0513109852685822
exact,pre_advance,A,midas_umidas,standard_dfm,2024:Q3,-2.8815785253747466,-0.8302675401061643
exact,pre_advance,A,midas_umidas,standard_dfm,2024:Q4,2.0175519412549816,1.1872844011488173
exact,pre_advance,A,spf,ar,2024:Q1,0.08136774660866822,0.08136774660866822
exact,pre_advance,A,spf,ar,2024:Q2,-0.5871872774716679,-0.5058195308629997
exact,pre_advance,A,spf,ar,2024:Q3,-0.72430498743891,-1.2301245183019098
exact,pre_advance,A,spf,ar,2024:Q4,-0.1098942321030077,-1.3400187504049175
exact,pre_advance,A,spf,bridge,2024:Q1,-1.560353331753017,-1.560353331753017
exact,pre_advance,A,spf,bridge,2024:Q2,-0.8114587368183347,-2.3718120685713515
exact,pre_advance,A,spf,bridge,2024:Q3,-0.6965673365326419,-3.068379405103993
exact,pre_advance,A,spf,bridge,2024:Q4,0.1199071299825639,-2.9484722751214294
exact,pre_advance,A,spf,indicator_revision_only_dfm_kalman_em,2024:Q1,0.20849037088576228,0.20849037088576228
exact,pre_advance,A,spf,indicator_revision_only_dfm_kalman_em,2024:Q2,0.582891528953709,0.7913818998394713
exact,pre_advance,A,spf,indicator_revision_only_dfm_kalman_em,2024:Q3,-0.5166138552797843,0.27476804455968695
exact,pre_advance,A,spf,indicator_revision_only_dfm_kalman_em,2024:Q4,0.11779130568135728,0.3925593502410442
exact,pre_advance,A,spf,joint_indicator_revision_dfm_full_kalman_em,2024:Q1,0.2471649594600796,0.2471649594600796
exact,pre_advance,A,spf,joint_indicator_revision_dfm_full_kalman_em,2024:Q2,0.5306909646772056,0.7778559241372851
exact,pre_advance,A,spf,joint_indicator_revision_dfm_full_kalman_em,2024:Q3,-1.4183996415971696,-0.6405437174598845
exact,pre_advance,A,spf,joint_indicator_revision_dfm_full_kalman_em,2024:Q4,0.09933392621361972,-0.5412097912462648
exact,pre_advance,A,spf,midas_umidas,2024:Q1,-5.393141318282748,-5.393141318282748
exact,pre_advance,A,spf,midas_umidas,2024:Q2,-0.2397183841134759,-5.632859702396224
exact,pre_advance,A,spf,midas_umidas,2024:Q3,0.6993590914976963,-4.933500610898528
exact,pre_advance,A,spf,midas_umidas,2024:Q4,-2.0962960421973795,-7.029796653095907
exact,pre_advance,A,spf,monthly_mixed_frequency_kalman_em,2024:Q1,0.18162014089572714,0.18162014089572714
exact,pre_advance,A,spf,monthly_mixed_frequency_kalman_em,2024:Q2,0.6730477992700536,0.8546679401657808
exact,pre_advance,A,spf,monthly_mixed_frequency_kalman_em,2024:Q3,0.1872698417740245,1.0419377819398052
exact,pre_advance,A,spf,monthly_mixed_frequency_kalman_em,2024:Q4,-0.21872254400740984,0.8232152379323954
exact,pre_advance,A,spf,no_revision,2024:Q1,0.0813678080386637,0.0813678080386637
exact,pre_advance,A,spf,no_revision,2024:Q2,-0.5871871232111773,-0.5058193151725136
exact,pre_advance,A,spf,no_revision,2024:Q3,-0.7243048003847796,-1.230124115557293
exact,pre_advance,A,spf,no_revision,2024:Q4,-0.10989414681773627,-1.3400182623750294
exact,pre_advance,A,spf,release_dfm,2024:Q1,-3.622948926594951,-3.622948926594951
exact,pre_advance,A,spf,release_dfm,2024:Q2,0.04140020946730916,-3.581548717127642
exact,pre_advance,A,spf,release_dfm,2024:Q3,-2.18221943387705,-5.763768151004692
exact,pre_advance,A,spf,release_dfm,2024:Q4,-0.0787441009423979,-5.84251225194709
exact,pre_advance,A,spf,revision_dfm_kalman_em,2024:Q1,0.19251234188621363,0.19251234188621363
exact,pre_advance,A,spf,revision_dfm_kalman_em,2024:Q2,0.11433290209771485,0.3068452439839285
exact,pre_advance,A,spf,revision_dfm_kalman_em,2024:Q3,-0.5722743551015057,-0.2654291111175772
exact,pre_advance,A,spf,revision_dfm_kalman_em,2024:Q4,0.10407790566857288,-0.16135120544900433
exact,pre_advance,A,spf,standard_dfm,2024:Q1,-3.622948926594951,-3.622948926594951
exact,pre_advance,A,spf,standard_dfm,2024:Q2,0.04140020946730916,-3.581548717127642
exact,pre_advance,A,spf,standard_dfm,2024:Q3,-2.18221943387705,-5.763768151004692
exact,pre_advance,A,spf,standard_dfm,2024:Q4,-0.0787441009423979,-5.84251225194709
exact,pre_advance,A,standard_dfm,ar,2024:Q1,3.7043166732036195,3.7043166732036195
exact,pre_advance,A,standard_dfm,ar,2024:Q2,-0.628587486938977,3.0757291862646423
exact,pre_advance,A,standard_dfm,ar,2024:Q3,1.4579144464381402,4.533643632702782
exact,pre_advance,A,standard_dfm,ar,2024:Q4,-0.0311501311606098,4.5024935015421725
exact,pre_advance,A,standard_dfm,bridge,2024:Q1,2.062595594841934,2.062595594841934
exact,pre_advance,A,standard_dfm,bridge,2024:Q2,-0.8528589462856438,1.20973664855629
exact,pre_advance,A,standard_dfm,bridge,2024:Q3,1.4856520973444083,2.695388745900698
exact,pre_advance,A,standard_dfm,bridge,2024:Q4,0.19865123092496179,2.8940399768256597
exact,pre_advance,A,standard_dfm,indicator_revision_only_dfm_kalman_em,2024:Q1,3.8314392974807134,3.8314392974807134
exact,pre_advance,A,standard_dfm,indicator_revision_only_dfm_kalman_em,2024:Q2,0.5414913194863998,4.372930616967113
exact,pre_advance,A,standard_dfm,indicator_revision_only_dfm_kalman_em,2024:Q3,1.6656055785972659,6.0385361955643795
exact,pre_advance,A,standard_dfm,indicator_revision_only_dfm_kalman_em,2024:Q4,0.19653540662375518,6.2350716021881345
exact,pre_advance,A,standard_dfm,joint_indicator_revision_dfm_full_kalman_em,2024:Q1,3.8701138860550306,3.8701138860550306
exact,pre_advance,A,standard_dfm,joint_indicator_revision_dfm_full_kalman_em,2024:Q2,0.48929075520989634,4.359404641264927
exact,pre_advance,A,standard_dfm,joint_indicator_revision_dfm_full_kalman_em,2024:Q3,0.7638197922798806,5.123224433544808
exact,pre_advance,A,standard_dfm,joint_indicator_revision_dfm_full_kalman_em,2024:Q4,0.17807802715601762,5.301302460700825
exact,pre_advance,A,standard_dfm,midas_umidas,2024:Q1,-1.770192391687797,-1.770192391687797
exact,pre_advance,A,standard_dfm,midas_umidas,2024:Q2,-0.28111859358078506,-2.0513109852685822
exact,pre_advance,A,standard_dfm,midas_umidas,2024:Q3,2.8815785253747466,0.8302675401061643
exact,pre_advance,A,standard_dfm,midas_umidas,2024:Q4,-2.0175519412549816,-1.1872844011488173
exact,pre_advance,A,standard_dfm,monthly_mixed_frequency_kalman_em,2024:Q1,3.8045690674906782,3.8045690674906782
exact,pre_advance,A,standard_dfm,monthly_mixed_frequency_kalman_em,2024:Q2,0.6316475898027445,4.436216657293423
exact,pre_advance,A,standard_dfm,monthly_mixed_frequency_kalman_em,2024:Q3,2.3694892756510746,6.805705932944498
exact,pre_advance,A,standard_dfm,monthly_mixed_frequency_kalman_em,2024:Q4,-0.13997844306501195,6.665727489879487
exact,pre_advance,A,standard_dfm,no_revision,2024:Q1,3.7043167346336148,3.7043167346336148
exact,pre_advance,A,standard_dfm,no_revision,2024:Q2,-0.6285873326784864,3.0757294019551282
exact,pre_advance,A,standard_dfm,no_revision,2024:Q3,1.4579146334922706,4.533644035447399
exact,pre_advance,A,standard_dfm,no_revision,2024:Q4,-0.031150045875338372,4.50249398957206
exact,pre_advance,A,standard_dfm,release_dfm,2024:Q1,0.0,0.0
exact,pre_advance,A,standard_dfm,release_dfm,2024:Q2,0.0,0.0
exact,pre_advance,A,standard_dfm,release_dfm,2024:Q3,0.0,0.0
exact,pre_advance,A,standard_dfm,release_dfm,2024:Q4,0.0,0.0
exact,pre_advance,A,standard_dfm,revision_dfm_kalman_em,2024:Q1,3.815461268481165,3.815461268481165
exact,pre_advance,A,standard_dfm,revision_dfm_kalman_em,2024:Q2,0.0729326926304057,3.8883939611115705
exact,pre_advance,A,standard_dfm,revision_dfm_kalman_em,2024:Q3,1.6099450787755445,5.4983390398871155
exact,pre_advance,A,standard_dfm,revision_dfm_kalman_em,2024:Q4,0.18282200661097078,5.681161046498087
exact,pre_advance,A,standard_dfm,spf,2024:Q1,3.622948926594951,3.622948926594951
exact,pre_advance,A,standard_dfm,spf,2024:Q2,-0.04140020946730916,3.581548717127642
exact,pre_advance,A,standard_dfm,spf,2024:Q3,2.18221943387705,5.763768151004692
exact,pre_advance,A,standard_dfm,spf,2024:Q4,0.0787441009423979,5.84251225194709
exact,pre_advance,A,release_dfm,ar,2024:Q1,3.7043166732036195,3.7043166732036195
exact,pre_advance,A,release_dfm,ar,2024:Q2,-0.628587486938977,3.0757291862646423
exact,pre_advance,A,release_dfm,ar,2024:Q3,1.4579144464381402,4.533643632702782
exact,pre_advance,A,release_dfm,ar,2024:Q4,-0.0311501311606098,4.5024935015421725
exact,pre_advance,A,release_dfm,bridge,2024:Q1,2.062595594841934,2.062595594841934
exact,pre_advance,A,release_dfm,bridge,2024:Q2,-0.8528589462856438,1.20973664855629
exact,pre_advance,A,release_dfm,bridge,2024:Q3,1.4856520973444083,2.695388745900698
exact,pre_advance,A,release_dfm,bridge,2024:Q4,0.19865123092496179,2.8940399768256597
exact,pre_advance,A,release_dfm,indicator_revision_only_dfm_kalman_em,2024:Q1,3.8314392974807134,3.8314392974807134
exact,pre_advance,A,release_dfm,indicator_revision_only_dfm_kalman_em,2024:Q2,0.5414913194863998,4.372930616967113
exact,pre_advance,A,release_dfm,indicator_revision_only_dfm_kalman_em,2024:Q3,1.6656055785972659,6.0385361955643795
exact,pre_advance,A,release_dfm,indicator_revision_only_dfm_kalman_em,2024:Q4,0.19653540662375518,6.2350716021881345
exact,pre_advance,A,release_dfm,joint_indicator_revision_dfm_full_kalman_em,2024:Q1,3.8701138860550306,3.8701138860550306
exact,pre_advance,A,release_dfm,joint_indicator_revision_dfm_full_kalman_em,2024:Q2,0.48929075520989634,4.359404641264927
exact,pre_advance,A,release_dfm,joint_indicator_revision_dfm_full_kalman_em,2024:Q3,0.7638197922798806,5.123224433544808
exact,pre_advance,A,release_dfm,joint_indicator_revision_dfm_full_kalman_em,2024:Q4,0.17807802715601762,5.301302460700825
exact,pre_advance,A,release_dfm,midas_umidas,2024:Q1,-1.770192391687797,-1.770192391687797
exact,pre_advance,A,release_dfm,midas_umidas,2024:Q2,-0.28111859358078506,-2.0513109852685822
exact,pre_advance,A,release_dfm,midas_umidas,2024:Q3,2.8815785253747466,0.8302675401061643
exact,pre_advance,A,release_dfm,midas_umidas,2024:Q4,-2.0175519412549816,-1.1872844011488173
exact,pre_advance,A,release_dfm,monthly_mixed_frequency_kalman_em,2024:Q1,3.8045690674906782,3.8045690674906782
exact,pre_advance,A,release_dfm,monthly_mixed_frequency_kalman_em,2024:Q2,0.6316475898027445,4.436216657293423
exact,pre_advance,A,release_dfm,monthly_mixed_frequency_kalman_em,2024:Q3,2.3694892756510746,6.805705932944498
exact,pre_advance,A,release_dfm,monthly_mixed_frequency_kalman_em,2024:Q4,-0.13997844306501195,6.665727489879487
exact,pre_advance,A,release_dfm,no_revision,2024:Q1,3.7043167346336148,3.7043167346336148
exact,pre_advance,A,release_dfm,no_revision,2024:Q2,-0.6285873326784864,3.0757294019551282
exact,pre_advance,A,release_dfm,no_revision,2024:Q3,1.4579146334922706,4.533644035447399
exact,pre_advance,A,release_dfm,no_revision,2024:Q4,-0.031150045875338372,4.50249398957206
exact,pre_advance,A,release_dfm,revision_dfm_kalman_em,2024:Q1,3.815461268481165,3.815461268481165
exact,pre_advance,A,release_dfm,revision_dfm_kalman_em,2024:Q2,0.0729326926304057,3.8883939611115705
exact,pre_advance,A,release_dfm,revision_dfm_kalman_em,2024:Q3,1.6099450787755445,5.4983390398871155
exact,pre_advance,A,release_dfm,revision_dfm_kalman_em,2024:Q4,0.18282200661097078,5.681161046498087
exact,pre_advance,A,release_dfm,spf,2024:Q1,3.622948926594951,3.622948926594951
exact,pre_advance,A,release_dfm,spf,2024:Q2,-0.04140020946730916,3.581548717127642
exact,pre_advance,A,release_dfm,spf,2024:Q3,2.18221943387705,5.763768151004692
exact,pre_advance,A,release_dfm,spf,2024:Q4,0.0787441009423979,5.84251225194709
exact,pre_advance,A,release_dfm,standard_dfm,2024:Q1,0.0,0.0
exact,pre_advance,A,release_dfm,standard_dfm,2024:Q2,0.0,0.0
exact,pre_advance,A,release_dfm,standard_dfm,2024:Q3,0.0,0.0
exact,pre_advance,A,release_dfm,standard_dfm,2024:Q4,0.0,0.0
exact,pre_second,S,ar,bridge,2024:Q1,-1.5046776290054913,-1.5046776290054913
exact,pre_second,S,ar,bridge,2024:Q2,0.8086969260163426,-0.6959807029891487
exact,pre_second,S,ar,bridge,2024:Q3,-0.9971980754740326,-1.6931787784631813
exact,pre_second,S,ar,bridge,2024:Q4,0.02833581953816658,-1.6648429589250147
exact,pre_second,S,ar,indicator_revision_only_dfm_kalman_em,2024:Q1,-0.20954095286244612,-0.20954095286244612
exact,pre_second,S,ar,indicator_revision_only_dfm_kalman_em,2024:Q2,0.8620707222534927,0.6525297693910466
exact,pre_second,S,ar,indicator_revision_only_dfm_kalman_em,2024:Q3,0.6184501017647221,1.2709798711557687
exact,pre_second,S,ar,indicator_revision_only_dfm_kalman_em,2024:Q4,0.1551641321577787,1.4261440033135475
exact,pre_second,S,ar,joint_indicator_revision_dfm_full_kalman_em,2024:Q1,-0.28641948390274186,-0.28641948390274186
exact,pre_second,S,ar,joint_indicator_revision_dfm_full_kalman_em,2024:Q2,0.8632607511209066,0.5768412672181648
exact,pre_second,S,ar,joint_indicator_revision_dfm_full_kalman_em,2024:Q3,0.6035429763014475,1.1803842435196121
exact,pre_second,S,ar,joint_indicator_revision_dfm_full_kalman_em,2024:Q4,0.1631451039636681,1.3435293474832801
exact,pre_second,S,ar,midas_umidas,2024:Q1,-0.27632001435181164,-0.27632001435181164
exact,pre_second,S,ar,midas_umidas,2024:Q2,0.7100151599031519,0.43369514555134026
exact,pre_second,S,ar,midas_umidas,2024:Q3,1.1970901418817326,1.6307852874330728
exact,pre_second,S,ar,midas_umidas,2024:Q4,0.15873086939664507,1.789516156829718
exact,pre_second,S,ar,monthly_mixed_frequency_kalman_em,2024:Q1,-0.30454175220426866,-0.30454175220426866
exact,pre_second,S,ar,monthly_mixed_frequency_kalman_em,2024:Q2,0.7821117321956166,0.4775699799913479
exact,pre_second,S,ar,monthly_mixed_frequency_kalman_em,2024:Q3,1.0615429228935223,1.5391129028848702
exact,pre_second,S,ar,monthly_mixed_frequency_kalman_em,2024:Q4,0.13818709576200924,1.6772999986468795
exact,pre_second,S,ar,no_revision,2024:Q1,-0.11189601888115208,-0.11189601888115208
exact,pre_second,S,ar,no_revision,2024:Q2,0.8514569716926184,0.7395609528114663
exact,pre_second,S,ar,no_revision,2024:Q3,1.2110062800551569,1.9505672328666233
exact,pre_second,S,ar,no_revision,2024:Q4,0.15455435347566812,2.105121586342291
exact,pre_second,S,ar,release_dfm,2024:Q1,-0.2479516174788287,-0.2479516174788287
exact,pre_second,S,ar,release_dfm,2024:Q2,0.8637846541178098,0.615833036638981
exact,pre_second,S,ar,release_dfm,2024:Q3,1.1982691426899312,1.8141021793289123
exact,pre_second,S,ar,release_dfm,2024:Q4,0.1632454023456996,1.9773475816746118
exact,pre_second,S,ar,revision_dfm_kalman_em,2024:Q1,-0.19704270973369206,-0.19704270973369206
exact,pre_second,S,ar,revision_dfm_kalman_em,2024:Q2,0.8618561421573097,0.6648134324236176
exact,pre_second,S,ar,revision_dfm_kalman_em,2024:Q3,0.8873999503363232,1.5522133827599407
exact,pre_second,S,ar,revision_dfm_kalman_em,2024:Q4,0.16007261447010473,1.7122859972300455
exact,pre_second,S,ar,spf,2024:Q1,-0.7052566088811524,-0.7052566088811524
exact,pre_second,S,ar,spf,2024:Q2,-0.027857828307381705,-0.7331144371885341
exact,pre_second,S,ar,spf,2024:Q3,0.2829441600551569,-0.4501702771333772
exact,pre_second,S,ar,spf,2024:Q4,-0.030933076524331693,-0.4811033536577089
exact,pre_second,S,ar,standard_dfm,2024:Q1,-2.5126088173041934,-2.5126088173041934
exact,pre_second,S,ar,standard_dfm,2024:Q2,-1.3296524376891816,-3.842261254993375
exact,pre_second,S,ar,standard_dfm,2024:Q3,-1.2856876746904893,-5.127948929683864
exact,pre_second,S,ar,standard_dfm,2024:Q4,-0.2225186302484187,-5.350467559932283
exact,pre_second,S,no_revision,ar,2024:Q1,0.11189601888115208,0.11189601888115208
exact,pre_second,S,no_revision,ar,2024:Q2,-0.8514569716926184,-0.7395609528114663
exact,pre_second,S,no_revision,ar,2024:Q3,-1.2110062800551569,-1.9505672328666233
exact,pre_second,S,no_revision,ar,2024:Q4,-0.15455435347566812,-2.105121586342291
exact,pre_second,S,no_revision,bridge,2024:Q1,-1.392781610124339,-1.392781610124339
exact,pre_second,S,no_revision,bridge,2024:Q2,-0.04276004567627575,-1.4355416558006149
exact,pre_second,S,no_revision,bridge,2024:Q3,-2.2082043555291895,-3.6437460113298044
exact,pre_second,S,no_revision,bridge,2024:Q4,-0.12621853393750154,-3.769964545267306
exact,pre_second,S,no_revision,indicator_revision_only_dfm_kalman_em,2024:Q1,-0.09764493398129402,-0.09764493398129402
exact,pre_second,S,no_revision,indicator_revision_only_dfm_kalman_em,2024:Q2,0.010613750560874336,-0.08703118342041968
exact,pre_second,S,no_revision,indicator_revision_only_dfm_kalman_em,2024:Q3,-0.5925561782904348,-0.6795873617108545
exact,pre_second,S,no_revision,indicator_revision_only_dfm_kalman_em,2024:Q4,0.0006097786821105591,-0.678977583028744
exact,pre_second,S,no_revision,joint_indicator_revision_dfm_full_kalman_em,2024:Q1,-0.17452346502158977,-0.17452346502158977
exact,pre_second,S,no_revision,joint_indicator_revision_dfm_full_kalman_em,2024:Q2,0.011803779428288287,-0.1627196855933015
exact,pre_second,S,no_revision,joint_indicator_revision_dfm_full_kalman_em,2024:Q3,-0.6074633037537095,-0.770182989347011
exact,pre_second,S,no_revision,joint_indicator_revision_dfm_full_kalman_em,2024:Q4,0.008590750487999977,-0.7615922388590111
exact,pre_second,S,no_revision,midas_umidas,2024:Q1,-0.16442399547065956,-0.16442399547065956
exact,pre_second,S,no_revision,midas_umidas,2024:Q2,-0.14144181178946644,-0.305865807260126
exact,pre_second,S,no_revision,midas_umidas,2024:Q3,-0.013916138173424492,-0.31978194543355054
exact,pre_second,S,no_revision,midas_umidas,2024:Q4,0.004176515920976952,-0.3156054295125736
exact,pre_second,S,no_revision,monthly_mixed_frequency_kalman_em,2024:Q1,-0.19264573332311657,-0.19264573332311657
exact,pre_second,S,no_revision,monthly_mixed_frequency_kalman_em,2024:Q2,-0.06934523949700175,-0.2619909728201183
exact,pre_second,S,no_revision,monthly_mixed_frequency_kalman_em,2024:Q3,-0.14946335716163459,-0.4114543299817529
exact,pre_second,S,no_revision,monthly_mixed_frequency_kalman_em,2024:Q4,-0.016367257713658878,-0.4278215876954118
exact,pre_second,S,no_revision,release_dfm,2024:Q1,-0.13605559859767663,-0.13605559859767663
exact,pre_second,S,no_revision,release_dfm,2024:Q2,0.012327682425191498,-0.12372791617248513
exact,pre_second,S,no_revision,release_dfm,2024:Q3,-0.01273713736522572,-0.13646505353771085
exact,pre_second,S,no_revision,release_dfm,2024:Q4,0.00869104887003148,-0.12777400466767938
exact,pre_second,S,no_revision,revision_dfm_kalman_em,2024:Q1,-0.08514669085253997,-0.08514669085253997
exact,pre_second,S,no_revision,revision_dfm_kalman_em,2024:Q2,0.010399170464691292,-0.07474752038784868
exact,pre_second,S,no_revision,revision_dfm_kalman_em,2024:Q3,-0.3236063297188338,-0.39835385010668245
exact,pre_second,S,no_revision,revision_dfm_kalman_em,2024:Q4,0.005518260994436619,-0.3928355891122458
exact,pre_second,S,no_revision,spf,2024:Q1,-0.5933605900000003,-0.5933605900000003
exact,pre_second,S,no_revision,spf,2024:Q2,-0.8793148000000001,-1.4726753900000005
exact,pre_second,S,no_revision,spf,2024:Q3,-0.9280621200000001,-2.400737510000001
exact,pre_second,S,no_revision,spf,2024:Q4,-0.18548742999999981,-2.5862249400000006
exact,pre_second,S,no_revision,standard_dfm,2024:Q1,-2.4007127984230414,-2.4007127984230414
exact,pre_second,S,no_revision,standard_dfm,2024:Q2,-2.1811094093817998,-4.581822207804841
exact,pre_second,S,no_revision,standard_dfm,2024:Q3,-2.496693954745646,-7.078516162550487
exact,pre_second,S,no_revision,standard_dfm,2024:Q4,-0.3770729837240868,-7.4555891462745745
exact,pre_second,S,bridge,ar,2024:Q1,1.5046776290054913,1.5046776290054913
exact,pre_second,S,bridge,ar,2024:Q2,-0.8086969260163426,0.6959807029891487
exact,pre_second,S,bridge,ar,2024:Q3,0.9971980754740326,1.6931787784631813
exact,pre_second,S,bridge,ar,2024:Q4,-0.02833581953816658,1.6648429589250147
exact,pre_second,S,bridge,indicator_revision_only_dfm_kalman_em,2024:Q1,1.2951366761430452,1.2951366761430452
exact,pre_second,S,bridge,indicator_revision_only_dfm_kalman_em,2024:Q2,0.053373796237150085,1.3485104723801953
exact,pre_second,S,bridge,indicator_revision_only_dfm_kalman_em,2024:Q3,1.6156481772387548,2.96415864961895
exact,pre_second,S,bridge,indicator_revision_only_dfm_kalman_em,2024:Q4,0.1268283126196121,3.090986962238562
exact,pre_second,S,bridge,joint_indicator_revision_dfm_full_kalman_em,2024:Q1,1.2182581451027494,1.2182581451027494
exact,pre_second,S,bridge,joint_indicator_revision_dfm_full_kalman_em,2024:Q2,0.054563825104564034,1.2728219702073136
exact,pre_second,S,bridge,joint_indicator_revision_dfm_full_kalman_em,2024:Q3,1.60074105177548,2.8735630219827937
exact,pre_second,S,bridge,joint_indicator_revision_dfm_full_kalman_em,2024:Q4,0.13480928442550152,3.0083723064082952
exact,pre_second,S,bridge,midas_umidas,2024:Q1,1.2283576146536797,1.2283576146536797
exact,pre_second,S,bridge,midas_umidas,2024:Q2,-0.09868176611319068,1.129675848540489
exact,pre_second,S,bridge,midas_umidas,2024:Q3,2.194288217355765,3.323964065896254
exact,pre_second,S,bridge,midas_umidas,2024:Q4,0.1303950498584785,3.454359115754732
exact,pre_second,S,bridge,monthly_mixed_frequency_kalman_em,2024:Q1,1.2001358768012227,1.2001358768012227
exact,pre_second,S,bridge,monthly_mixed_frequency_kalman_em,2024:Q2,-0.026585193820726,1.1735506829804967
exact,pre_second,S,bridge,monthly_mixed_frequency_kalman_em,2024:Q3,2.058740998367555,3.232291681348052
exact,pre_second,S,bridge,monthly_mixed_frequency_kalman_em,2024:Q4,0.10985127622384266,3.3421429575718946
exact,pre_second,S,bridge,no_revision,2024:Q1,1.392781610124339,1.392781610124339
exact,pre_second,S,bridge,no_revision,2024:Q2,0.04276004567627575,1.4355416558006149
exact,pre_second,S,bridge,no_revision,2024:Q3,2.2082043555291895,3.6437460113298044
exact,pre_second,S,bridge,no_revision,2024:Q4,0.12621853393750154,3.769964545267306
exact,pre_second,S,bridge,release_dfm,2024:Q1,1.2567260115266625,1.2567260115266625
exact,pre_second,S,bridge,release_dfm,2024:Q2,0.05508772810146725,1.3118137396281297
exact,pre_second,S,bridge,release_dfm,2024:Q3,2.195467218163964,3.507280957792094
exact,pre_second,S,bridge,release_dfm,2024:Q4,0.134909582807533,3.6421905405996267
exact,pre_second,S,bridge,revision_dfm_kalman_em,2024:Q1,1.3076349192717993,1.3076349192717993
exact,pre_second,S,bridge,revision_dfm_kalman_em,2024:Q2,0.05315921614096704,1.3607941354127664
exact,pre_second,S,bridge,revision_dfm_kalman_em,2024:Q3,1.8845980258103558,3.2453921612231222
exact,pre_second,S,bridge,revision_dfm_kalman_em,2024:Q4,0.13173679493193816,3.3771289561550604
exact,pre_second,S,bridge,spf,2024:Q1,0.7994210201243389,0.7994210201243389
exact,pre_second,S,bridge,spf,2024:Q2,-0.8365547543237243,-0.03713373419938537
exact,pre_second,S,bridge,spf,2024:Q3,1.2801422355291896,1.2430085013298042
exact,pre_second,S,bridge,spf,2024:Q4,-0.05926889606249827,1.183739605267306
exact,pre_second,S,bridge,standard_dfm,2024:Q1,-1.0079311882987023,-1.0079311882987023
exact,pre_second,S,bridge,standard_dfm,2024:Q2,-2.138349363705524,-3.1462805520042263
exact,pre_second,S,bridge,standard_dfm,2024:Q3,-0.28848959921645667,-3.434770151220683
exact,pre_second,S,bridge,standard_dfm,2024:Q4,-0.2508544497865853,-3.685624601007268
exact,pre_second,S,midas_umidas,ar,2024:Q1,0.27632001435181164,0.27632001435181164
exact,pre_second,S,midas_umidas,ar,2024:Q2,-0.7100151599031519,-0.43369514555134026
exact,pre_second,S,midas_umidas,ar,2024:Q3,-1.1970901418817326,-1.6307852874330728
exact,pre_second,S,midas_umidas,ar,2024:Q4,-0.15873086939664507,-1.789516156829718
exact,pre_second,S,midas_umidas,bridge,2024:Q1,-1.2283576146536797,-1.2283576146536797
exact,pre_second,S,midas_umidas,bridge,2024:Q2,0.09868176611319068,-1.129675848540489
exact,pre_second,S,midas_umidas,bridge,2024:Q3,-2.194288217355765,-3.323964065896254
exact,pre_second,S,midas_umidas,bridge,2024:Q4,-0.1303950498584785,-3.454359115754732
exact,pre_second,S,midas_umidas,indicator_revision_only_dfm_kalman_em,2024:Q1,0.06677906148936552,0.06677906148936552
exact,pre_second,S,midas_umidas,indicator_revision_only_dfm_kalman_em,2024:Q2,0.1520555623503408,0.2188346238397063
exact,pre_second,S,midas_umidas,indicator_revision_only_dfm_kalman_em,2024:Q3,-0.5786400401170103,-0.359805416277304
exact,pre_second,S,midas_umidas,indicator_revision_only_dfm_kalman_em,2024:Q4,-0.003566737238866393,-0.3633721535161704
exact,pre_second,S,midas_umidas,joint_indicator_revision_dfm_full_kalman_em,2024:Q1,-0.010099469550930218,-0.010099469550930218
exact,pre_second,S,midas_umidas,joint_indicator_revision_dfm_full_kalman_em,2024:Q2,0.15324559121775472,0.1431461216668245
exact,pre_second,S,midas_umidas,joint_indicator_revision_dfm_full_kalman_em,2024:Q3,-0.593547165580285,-0.4504010439134605
exact,pre_second,S,midas_umidas,joint_indicator_revision_dfm_full_kalman_em,2024:Q4,0.004414234567023024,-0.4459868093464375
exact,pre_second,S,midas_umidas,monthly_mixed_frequency_kalman_em,2024:Q1,-0.02822173785245702,-0.02822173785245702
exact,pre_second,S,midas_umidas,monthly_mixed_frequency_kalman_em,2024:Q2,0.07209657229246469,0.04387483444000767
exact,pre_second,S,midas_umidas,monthly_mixed_frequency_kalman_em,2024:Q3,-0.1355472189882101,-0.09167238454820242
exact,pre_second,S,midas_umidas,monthly_mixed_frequency_kalman_em,2024:Q4,-0.020543773634635828,-0.11221615818283825
exact,pre_second,S,midas_umidas,no_revision,2024:Q1,0.16442399547065956,0.16442399547065956
exact,pre_second,S,midas_umidas,no_revision,2024:Q2,0.14144181178946644,0.305865807260126
exact,pre_second,S,midas_umidas,no_revision,2024:Q3,0.013916138173424492,0.31978194543355054
exact,pre_second,S,midas_umidas,no_revision,2024:Q4,-0.004176515920976952,0.3156054295125736
exact,pre_second,S,midas_umidas,release_dfm,2024:Q1,0.028368396872982926,0.028368396872982926
exact,pre_second,S,midas_umidas,release_dfm,2024:Q2,0.15376949421465794,0.18213789108764086
exact,pre_second,S,midas_umidas,release_dfm,2024:Q3,0.0011790008081987713,0.18331689189583963
exact,pre_second,S,midas_umidas,release_dfm,2024:Q4,0.0045145329490545285,0.18783142484489415
exact,pre_second,S,midas_umidas,revision_dfm_kalman_em,2024:Q1,0.07927730461811958,0.07927730461811958
exact,pre_second,S,midas_umidas,revision_dfm_kalman_em,2024:Q2,0.15184098225415774,0.2311182868722773
exact,pre_second,S,midas_umidas,revision_dfm_kalman_em,2024:Q3,-0.3096901915454093,-0.07857190467313196
exact,pre_second,S,midas_umidas,revision_dfm_kalman_em,2024:Q4,0.001341745073459666,-0.0772301595996723
exact,pre_second,S,midas_umidas,spf,2024:Q1,-0.42893659452934074,-0.42893659452934074
exact,pre_second,S,midas_umidas,spf,2024:Q2,-0.7378729882105336,-1.1668095827398743
exact,pre_second,S,midas_umidas,spf,2024:Q3,-0.9141459818265756,-2.08095556456645
exact,pre_second,S,midas_umidas,spf,2024:Q4,-0.18966394592097677,-2.2706195104874265
exact,pre_second,S,midas_umidas,standard_dfm,2024:Q1,-2.236288802952382,-2.236288802952382
exact,pre_second,S,midas_umidas,standard_dfm,2024:Q2,-2.0396675975923335,-4.2759564005447155
exact,pre_second,S,midas_umidas,standard_dfm,2024:Q3,-2.482777816572222,-6.758734217116937
exact,pre_second,S,midas_umidas,standard_dfm,2024:Q4,-0.38124949964506377,-7.139983716762001
exact,pre_second,S,spf,ar,2024:Q1,0.7052566088811524,0.7052566088811524
exact,pre_second,S,spf,ar,2024:Q2,0.027857828307381705,0.7331144371885341
exact,pre_second,S,spf,ar,2024:Q3,-0.2829441600551569,0.4501702771333772
exact,pre_second,S,spf,ar,2024:Q4,0.030933076524331693,0.4811033536577089
exact,pre_second,S,spf,bridge,2024:Q1,-0.7994210201243389,-0.7994210201243389
exact,pre_second,S,spf,bridge,2024:Q2,0.8365547543237243,0.03713373419938537
exact,pre_second,S,spf,bridge,2024:Q3,-1.2801422355291896,-1.2430085013298042
exact,pre_second,S,spf,bridge,2024:Q4,0.05926889606249827,-1.183739605267306
exact,pre_second,S,spf,indicator_revision_only_dfm_kalman_em,2024:Q1,0.49571565601870626,0.49571565601870626
exact,pre_second,S,spf,indicator_revision_only_dfm_kalman_em,2024:Q2,0.8899285505608744,1.3856442065795807
exact,pre_second,S,spf,indicator_revision_only_dfm_kalman_em,2024:Q3,0.33550594170956527,1.721150148289146
exact,pre_second,S,spf,indicator_revision_only_dfm_kalman_em,2024:Q4,0.18609720868211038,1.9072473569712565
exact,pre_second,S,spf,joint_indicator_revision_dfm_full_kalman_em,2024:Q1,0.4188371249784105,0.4188371249784105
exact,pre_second,S,spf,joint_indicator_revision_dfm_full_kalman_em,2024:Q2,0.8911185794282883,1.3099557044066987
exact,pre_second,S,spf,joint_indicator_revision_dfm_full_kalman_em,2024:Q3,0.3205988162462906,1.6305545206529892
exact,pre_second,S,spf,joint_indicator_revision_dfm_full_kalman_em,2024:Q4,0.1940781804879998,1.824632701140989
exact,pre_second,S,spf,midas_umidas,2024:Q1,0.42893659452934074,0.42893659452934074
exact,pre_second,S,spf,midas_umidas,2024:Q2,0.7378729882105336,1.1668095827398743
exact,pre_second,S,spf,midas_umidas,2024:Q3,0.9141459818265756,2.08095556456645
exact,pre_second,S,spf,midas_umidas,2024:Q4,0.18966394592097677,2.2706195104874265
exact,pre_second,S,spf,monthly_mixed_frequency_kalman_em,2024:Q1,0.4007148566768837,0.4007148566768837
exact,pre_second,S,spf,monthly_mixed_frequency_kalman_em,2024:Q2,0.8099695605029983,1.210684417179882
exact,pre_second,S,spf,monthly_mixed_frequency_kalman_em,2024:Q3,0.7785987628383655,1.9892831800182476
exact,pre_second,S,spf,monthly_mixed_frequency_kalman_em,2024:Q4,0.16912017228634094,2.1584033523045885
exact,pre_second,S,spf,no_revision,2024:Q1,0.5933605900000003,0.5933605900000003
exact,pre_second,S,spf,no_revision,2024:Q2,0.8793148000000001,1.4726753900000005
exact,pre_second,S,spf,no_revision,2024:Q3,0.9280621200000001,2.400737510000001
exact,pre_second,S,spf,no_revision,2024:Q4,0.18548742999999981,2.5862249400000006
exact,pre_second,S,spf,release_dfm,2024:Q1,0.45730499140232367,0.45730499140232367
exact,pre_second,S,spf,release_dfm,2024:Q2,0.8916424824251915,1.3489474738275151
exact,pre_second,S,spf,release_dfm,2024:Q3,0.9153249826347744,2.2642724564622894
exact,pre_second,S,spf,release_dfm,2024:Q4,0.19417847887003128,2.4584509353323205
exact,pre_second,S,spf,revision_dfm_kalman_em,2024:Q1,0.5082138991474603,0.5082138991474603
exact,pre_second,S,spf,revision_dfm_kalman_em,2024:Q2,0.8897139704646914,1.3979278696121518
exact,pre_second,S,spf,revision_dfm_kalman_em,2024:Q3,0.6044557902811662,2.002383659893318
exact,pre_second,S,spf,revision_dfm_kalman_em,2024:Q4,0.19100569099443643,2.193389350887754
exact,pre_second,S,spf,standard_dfm,2024:Q1,-1.8073522084230413,-1.8073522084230413
exact,pre_second,S,spf,standard_dfm,2024:Q2,-1.3017946093817998,-3.109146817804841
exact,pre_second,S,spf,standard_dfm,2024:Q3,-1.5686318347456463,-4.677778652550487
exact,pre_second,S,spf,standard_dfm,2024:Q4,-0.191585553724087,-4.869364206274574
exact,pre_second,S,standard_dfm,ar,2024:Q1,2.5126088173041934,2.5126088173041934
exact,pre_second,S,standard_dfm,ar,2024:Q2,1.3296524376891816,3.842261254993375
exact,pre_second,S,standard_dfm,ar,2024:Q3,1.2856876746904893,5.127948929683864
exact,pre_second,S,standard_dfm,ar,2024:Q4,0.2225186302484187,5.350467559932283
exact,pre_second,S,standard_dfm,bridge,2024:Q1,1.0079311882987023,1.0079311882987023
exact,pre_second,S,standard_dfm,bridge,2024:Q2,2.138349363705524,3.1462805520042263
exact,pre_second,S,standard_dfm,bridge,2024:Q3,0.28848959921645667,3.434770151220683
exact,pre_second,S,standard_dfm,bridge,2024:Q4,0.2508544497865853,3.685624601007268
exact,pre_second,S,standard_dfm,indicator_revision_only_dfm_kalman_em,2024:Q1,2.3030678644417475,2.3030678644417475
exact,pre_second,S,standard_dfm,indicator_revision_only_dfm_kalman_em,2024:Q2,2.1917231599426743,4.494791024384422
exact,pre_second,S,standard_dfm,indicator_revision_only_dfm_kalman_em,2024:Q3,1.9041377764552114,6.3989288008396334
exact,pre_second,S,standard_dfm,indicator_revision_only_dfm_kalman_em,2024:Q4,0.37768276240619736,6.776611563245831
exact,pre_second,S,standard_dfm,joint_indicator_revision_dfm_full_kalman_em,2024:Q1,2.226189333401452,2.226189333401452
exact,pre_second,S,standard_dfm,joint_indicator_revision_dfm_full_kalman_em,2024:Q2,2.1929131888100883,4.41910252221154
exact,pre_second,S,standard_dfm,joint_indicator_revision_dfm_full_kalman_em,2024:Q3,1.8892306509919368,6.3083331732034775
exact,pre_second,S,standard_dfm,joint_indicator_revision_dfm_full_kalman_em,2024:Q4,0.3856637342120868,6.693996907415564
exact,pre_second,S,standard_dfm,midas_umidas,2024:Q1,2.236288802952382,2.236288802952382
exact,pre_second,S,standard_dfm,midas_umidas,2024:Q2,2.0396675975923335,4.2759564005447155
exact,pre_second,S,standard_dfm,midas_umidas,2024:Q3,2.482777816572222,6.758734217116937
exact,pre_second,S,standard_dfm,midas_umidas,2024:Q4,0.38124949964506377,7.139983716762001
exact,pre_second,S,standard_dfm,monthly_mixed_frequency_kalman_em,2024:Q1,2.208067065099925,2.208067065099925
exact,pre_second,S,standard_dfm,monthly_mixed_frequency_kalman_em,2024:Q2,2.111764169884798,4.319831234984723
exact,pre_second,S,standard_dfm,monthly_mixed_frequency_kalman_em,2024:Q3,2.3472305975840118,6.667061832568734
exact,pre_second,S,standard_dfm,monthly_mixed_frequency_kalman_em,2024:Q4,0.36070572601042794,7.027767558579162
exact,pre_second,S,standard_dfm,no_revision,2024:Q1,2.4007127984230414,2.4007127984230414
exact,pre_second,S,standard_dfm,no_revision,2024:Q2,2.1811094093817998,4.581822207804841
exact,pre_second,S,standard_dfm,no_revision,2024:Q3,2.496693954745646,7.078516162550487
exact,pre_second,S,standard_dfm,no_revision,2024:Q4,0.3770729837240868,7.4555891462745745
exact,pre_second,S,standard_dfm,release_dfm,2024:Q1,2.264657199825365,2.264657199825365
exact,pre_second,S,standard_dfm,release_dfm,2024:Q2,2.1934370918069916,4.4580942916323565
exact,pre_second,S,standard_dfm,release_dfm,2024:Q3,2.4839568173804207,6.942051109012777
exact,pre_second,S,standard_dfm,release_dfm,2024:Q4,0.3857640325941183,7.327815141606895
exact,pre_second,S,standard_dfm,revision_dfm_kalman_em,2024:Q1,2.3155661075705014,2.3155661075705014
exact,pre_second,S,standard_dfm,revision_dfm_kalman_em,2024:Q2,2.191508579846491,4.507074687416992
exact,pre_second,S,standard_dfm,revision_dfm_kalman_em,2024:Q3,2.1730876250268123,6.680162312443804
exact,pre_second,S,standard_dfm,revision_dfm_kalman_em,2024:Q4,0.38259124471852346,7.062753557162328
exact,pre_second,S,standard_dfm,spf,2024:Q1,1.8073522084230413,1.8073522084230413
exact,pre_second,S,standard_dfm,spf,2024:Q2,1.3017946093817998,3.109146817804841
exact,pre_second,S,standard_dfm,spf,2024:Q3,1.5686318347456463,4.677778652550487
exact,pre_second,S,standard_dfm,spf,2024:Q4,0.191585553724087,4.869364206274574
exact,pre_second,S,release_dfm,ar,2024:Q1,0.2479516174788287,0.2479516174788287
exact,pre_second,S,release_dfm,ar,2024:Q2,-0.8637846541178098,-0.615833036638981
exact,pre_second,S,release_dfm,ar,2024:Q3,-1.1982691426899312,-1.8141021793289123
exact,pre_second,S,release_dfm,ar,2024:Q4,-0.1632454023456996,-1.9773475816746118
exact,pre_second,S,release_dfm,bridge,2024:Q1,-1.2567260115266625,-1.2567260115266625
exact,pre_second,S,release_dfm,bridge,2024:Q2,-0.05508772810146725,-1.3118137396281297
exact,pre_second,S,release_dfm,bridge,2024:Q3,-2.195467218163964,-3.507280957792094
exact,pre_second,S,release_dfm,bridge,2024:Q4,-0.134909582807533,-3.6421905405996267
exact,pre_second,S,release_dfm,indicator_revision_only_dfm_kalman_em,2024:Q1,0.038410664616382595,0.038410664616382595
exact,pre_second,S,release_dfm,indicator_revision_only_dfm_kalman_em,2024:Q2,-0.0017139318643171612,0.036696732752065434
exact,pre_second,S,release_dfm,indicator_revision_only_dfm_kalman_em,2024:Q3,-0.5798190409252091,-0.5431223081731437
exact,pre_second,S,release_dfm,indicator_revision_only_dfm_kalman_em,2024:Q4,-0.008081270187920922,-0.5512035783610646
exact,pre_second,S,release_dfm,joint_indicator_revision_dfm_full_kalman_em,2024:Q1,-0.038467866423913144,-0.038467866423913144
exact,pre_second,S,release_dfm,joint_indicator_revision_dfm_full_kalman_em,2024:Q2,-0.0005239029969032113,-0.038991769420816356
exact,pre_second,S,release_dfm,joint_indicator_revision_dfm_full_kalman_em,2024:Q3,-0.5947261663884837,-0.6337179358093001
exact,pre_second,S,release_dfm,joint_indicator_revision_dfm_full_kalman_em,2024:Q4,-0.00010029838203150452,-0.6338182341913317
exact,pre_second,S,release_dfm,midas_umidas,2024:Q1,-0.028368396872982926,-0.028368396872982926
exact,pre_second,S,release_dfm,midas_umidas,2024:Q2,-0.15376949421465794,-0.18213789108764086
exact,pre_second,S,release_dfm,midas_umidas,2024:Q3,-0.0011790008081987713,-0.18331689189583963
exact,pre_second,S,release_dfm,midas_umidas,2024:Q4,-0.0045145329490545285,-0.18783142484489415
exact,pre_second,S,release_dfm,monthly_mixed_frequency_kalman_em,2024:Q1,-0.056590134725439944,-0.056590134725439944
exact,pre_second,S,release_dfm,monthly_mixed_frequency_kalman_em,2024:Q2,-0.08167292192219325,-0.1382630566476332
exact,pre_second,S,release_dfm,monthly_mixed_frequency_kalman_em,2024:Q3,-0.13672621979640887,-0.27498927644404203
exact,pre_second,S,release_dfm,monthly_mixed_frequency_kalman_em,2024:Q4,-0.02505830658369036,-0.3000475830277324
exact,pre_second,S,release_dfm,no_revision,2024:Q1,0.13605559859767663,0.13605559859767663
exact,pre_second,S,release_dfm,no_revision,2024:Q2,-0.012327682425191498,0.12372791617248513
exact,pre_second,S,release_dfm,no_revision,2024:Q3,0.01273713736522572,0.13646505353771085
exact,pre_second,S,release_dfm,no_revision,2024:Q4,-0.00869104887003148,0.12777400466767938
exact,pre_second,S,release_dfm,revision_dfm_kalman_em,2024:Q1,0.05090890774513665,0.05090890774513665
exact,pre_second,S,release_dfm,revision_dfm_kalman_em,2024:Q2,-0.0019285119605002073,0.04898039578463644
exact,pre_second,S,release_dfm,revision_dfm_kalman_em,2024:Q3,-0.31086919235360805,-0.2618887965689716
exact,pre_second,S,release_dfm,revision_dfm_kalman_em,2024:Q4,-0.003172787875594863,-0.2650615844445665
exact,pre_second,S,release_dfm,spf,2024:Q1,-0.45730499140232367,-0.45730499140232367
exact,pre_second,S,release_dfm,spf,2024:Q2,-0.8916424824251915,-1.3489474738275151
exact,pre_second,S,release_dfm,spf,2024:Q3,-0.9153249826347744,-2.2642724564622894
exact,pre_second,S,release_dfm,spf,2024:Q4,-0.19417847887003128,-2.4584509353323205
exact,pre_second,S,release_dfm,standard_dfm,2024:Q1,-2.264657199825365,-2.264657199825365
exact,pre_second,S,release_dfm,standard_dfm,2024:Q2,-2.1934370918069916,-4.4580942916323565
exact,pre_second,S,release_dfm,standard_dfm,2024:Q3,-2.4839568173804207,-6.942051109012777
exact,pre_second,S,release_dfm,standard_dfm,2024:Q4,-0.3857640325941183,-7.327815141606895
exact,pre_third,T,ar,bridge,2024:Q1,-2.1572923709146923,-2.1572923709146923
exact,pre_third,T,ar,bridge,2024:Q2,-0.09576674112928976,-2.253059112043982
exact,pre_third,T,ar,bridge,2024:Q3,-1.5859623263226992,-3.8390214383666814
exact,pre_third,T,ar,bridge,2024:Q4,0.006009515405387127,-3.8330119229612944
exact,pre_third,T,ar,indicator_revision_only_dfm_kalman_em,2024:Q1,0.36184946404419566,0.36184946404419566
exact,pre_third,T,ar,indicator_revision_only_dfm_kalman_em,2024:Q2,0.08943465123405282,0.45128411527824847
exact,pre_third,T,ar,indicator_revision_only_dfm_kalman_em,2024:Q3,0.1361231698779426,0.5874072851561911
exact,pre_third,T,ar,indicator_revision_only_dfm_kalman_em,2024:Q4,0.04133399959113068,0.6287412847473218
exact,pre_third,T,ar,joint_indicator_revision_dfm_full_kalman_em,2024:Q1,0.35465101262177456,0.35465101262177456
exact,pre_third,T,ar,joint_indicator_revision_dfm_full_kalman_em,2024:Q2,0.09145889395656809,0.44610990657834265
exact,pre_third,T,ar,joint_indicator_revision_dfm_full_kalman_em,2024:Q3,0.1747627314850615,0.6208726380634042
exact,pre_third,T,ar,joint_indicator_revision_dfm_full_kalman_em,2024:Q4,0.054740764216456496,0.6756134022798607
exact,pre_third,T,ar,midas_umidas,2024:Q1,0.3766446754629824,0.3766446754629824
exact,pre_third,T,ar,midas_umidas,2024:Q2,0.03128143792454488,0.40792611338752727
exact,pre_third,T,ar,midas_umidas,2024:Q3,0.7970731402171736,1.2049992536047007
exact,pre_third,T,ar,midas_umidas,2024:Q4,-0.9204074232735072,0.2845918303311935
exact,pre_third,T,ar,monthly_mixed_frequency_kalman_em,2024:Q1,0.31580677720563205,0.31580677720563205
exact,pre_third,T,ar,monthly_mixed_frequency_kalman_em,2024:Q2,-0.031025826462826256,0.2847809507428058
exact,pre_third,T,ar,monthly_mixed_frequency_kalman_em,2024:Q3,0.48674871612443915,0.7715296668672449
exact,pre_third,T,ar,monthly_mixed_frequency_kalman_em,2024:Q4,-0.033586662726668395,0.7379430041405765
exact,pre_third,T,ar,no_revision,2024:Q1,0.3559154731468114,0.3559154731468114
exact,pre_third,T,ar,no_revision,2024:Q2,0.10326538778445903,0.4591808609312704
exact,pre_third,T,ar,no_revision,2024:Q3,0.7634571209579816,1.2226379818892519
exact,pre_third,T,ar,no_revision,2024:Q4,0.05241742212528131,1.2750554040145332
exact,pre_third,T,ar,release_dfm,2024:Q1,0.31904438718431005,0.31904438718431005
exact,pre_third,T,ar,release_dfm,2024:Q2,0.10146494651835505,0.4205093337026651
exact,pre_third,T,ar,release_dfm,2024:Q3,0.7897761036084114,1.2102854373110765
exact,pre_third,T,ar,release_dfm,2024:Q4,0.06328262731625738,1.273568064627334
exact,pre_third,T,ar,revision_dfm_kalman_em,2024:Q1,0.3655502590535846,0.3655502590535846
exact,pre_third,T,ar,revision_dfm_kalman_em,2024:Q2,0.10093972137751174,0.46648998043109635
exact,pre_third,T,ar,revision_dfm_kalman_em,2024:Q3,0.3741083413964452,0.8405983218275416
exact,pre_third,T,ar,revision_dfm_kalman_em,2024:Q4,0.053101268480094686,0.8936995903076362
exact,pre_third,T,ar,spf,2024:Q1,-0.08337604685318889,-0.08337604685318889
exact,pre_third,T,ar,spf,2024:Q2,-0.8603927622155414,-0.9437688090687303
exact,pre_third,T,ar,spf,2024:Q3,-0.6259583590420188,-1.5697271681107492
exact,pre_third,T,ar,spf,2024:Q4,-0.2339262578747186,-1.8036534259854677
exact,pre_third,T,ar,standard_dfm,2024:Q1,-2.5661221431320977,-2.5661221431320977
exact,pre_third,T,ar,standard_dfm,2024:Q2,-2.1737482037956157,-4.739870346927713
exact,pre_third,T,ar,standard_dfm,2024:Q3,-2.393732896193761,-7.133603243121474
exact,pre_third,T,ar,standard_dfm,2024:Q4,-0.1976157543292083,-7.331218997450682
exact,pre_third,T,no_revision,ar,2024:Q1,-0.3559154731468114,-0.3559154731468114
exact,pre_third,T,no_revision,ar,2024:Q2,-0.10326538778445903,-0.4591808609312704
exact,pre_third,T,no_revision,ar,2024:Q3,-0.7634571209579816,-1.2226379818892519
exact,pre_third,T,no_revision,ar,2024:Q4,-0.05241742212528131,-1.2750554040145332
exact,pre_third,T,no_revision,bridge,2024:Q1,-2.5132078440615038,-2.5132078440615038
exact,pre_third,T,no_revision,bridge,2024:Q2,-0.1990321289137488,-2.7122399729752527
exact,pre_third,T,no_revision,bridge,2024:Q3,-2.3494194472806806,-5.061659420255934
exact,pre_third,T,no_revision,bridge,2024:Q4,-0.046407906719894185,-5.108067326975828
exact,pre_third,T,no_revision,indicator_revision_only_dfm_kalman_em,2024:Q1,0.005933990897384271,0.005933990897384271
exact,pre_third,T,no_revision,indicator_revision_only_dfm_kalman_em,2024:Q2,-0.013830736550406212,-0.00789674565302194
exact,pre_third,T,no_revision,indicator_revision_only_dfm_kalman_em,2024:Q3,-0.627333951080039,-0.6352306967330609
exact,pre_third,T,no_revision,indicator_revision_only_dfm_kalman_em,2024:Q4,-0.011083422534150627,-0.6463141192672115
exact,pre_third,T,no_revision,joint_indicator_revision_dfm_full_kalman_em,2024:Q1,-0.0012644605250368215,-0.0012644605250368215
exact,pre_third,T,no_revision,joint_indicator_revision_dfm_full_kalman_em,2024:Q2,-0.011806493827890946,-0.013070954352927768
exact,pre_third,T,no_revision,joint_indicator_revision_dfm_full_kalman_em,2024:Q3,-0.5886943894729201,-0.6017653438258479
exact,pre_third,T,no_revision,joint_indicator_revision_dfm_full_kalman_em,2024:Q4,0.002323342091175183,-0.5994420017346728
exact,pre_third,T,no_revision,midas_umidas,2024:Q1,0.020729202316171057,0.020729202316171057
exact,pre_third,T,no_revision,midas_umidas,2024:Q2,-0.07198394985991415,-0.05125474754374309
exact,pre_third,T,no_revision,midas_umidas,2024:Q3,0.033616019259191984,-0.017638728284551104
exact,pre_third,T,no_revision,midas_umidas,2024:Q4,-0.9728248453987886,-0.9904635736833397
exact,pre_third,T,no_revision,monthly_mixed_frequency_kalman_em,2024:Q1,-0.040108695941179315,-0.040108695941179315
exact,pre_third,T,no_revision,monthly_mixed_frequency_kalman_em,2024:Q2,-0.1342912142472853,-0.17439991018846462
exact,pre_third,T,no_revision,monthly_mixed_frequency_kalman_em,2024:Q3,-0.2767084048335425,-0.4511083150220071
exact,pre_third,T,no_revision,monthly_mixed_frequency_kalman_em,2024:Q4,-0.08600408485194971,-0.5371123998739569
exact,pre_third,T,no_revision,release_dfm,2024:Q1,-0.03687108596250134,-0.03687108596250134
exact,pre_third,T,no_revision,release_dfm,2024:Q2,-0.0018004412661039788,-0.03867152722860532
exact,pre_third,T,no_revision,release_dfm,2024:Q3,0.026318982650429836,-0.012352544578175483
exact,pre_third,T,no_revision,release_dfm,2024:Q4,0.010865205190976068,-0.0014873393871994156
exact,pre_third,T,no_revision,revision_dfm_kalman_em,2024:Q1,0.009634785906773264,0.009634785906773264
exact,pre_third,T,no_revision,revision_dfm_kalman_em,2024:Q2,-0.0023256664069472846,0.007309119499825979
exact,pre_third,T,no_revision,revision_dfm_kalman_em,2024:Q3,-0.3893487795615364,-0.3820396600617104
exact,pre_third,T,no_revision,revision_dfm_kalman_em,2024:Q4,0.0006838463548133732,-0.38135581370689703
exact,pre_third,T,no_revision,spf,2024:Q1,-0.43929152000000027,-0.43929152000000027
exact,pre_third,T,no_revision,spf,2024:Q2,-0.9636581500000003,-1.4029496700000006
exact,pre_third,T,no_revision,spf,2024:Q3,-1.3894154800000005,-2.792365150000001
exact,pre_third,T,no_revision,spf,2024:Q4,-0.2863436799999999,-3.078708830000001
exact,pre_third,T,no_revision,standard_dfm,2024:Q1,-2.9220376162789092,-2.9220376162789092
exact,pre_third,T,no_revision,standard_dfm,2024:Q2,-2.2770135915800744,-5.199051207858984
exact,pre_third,T,no_revision,standard_dfm,2024:Q3,-3.157190017151742,-8.356241225010727
exact,pre_third,T,no_revision,standard_dfm,2024:Q4,-0.2500331764544896,-8.606274401465217
exact,pre_third,T,bridge,ar,2024:Q1,2.1572923709146923,2.1572923709146923
exact,pre_third,T,bridge,ar,2024:Q2,0.09576674112928976,2.253059112043982
exact,pre_third,T,bridge,ar,2024:Q3,1.5859623263226992,3.8390214383666814
exact,pre_third,T,bridge,ar,2024:Q4,-0.006009515405387127,3.8330119229612944
exact,pre_third,T,bridge,indicator_revision_only_dfm_kalman_em,2024:Q1,2.519141834958888,2.519141834958888
exact,pre_third,T,bridge,indicator_revision_only_dfm_kalman_em,2024:Q2,0.18520139236334257,2.7043432273222305
exact,pre_third,T,bridge,indicator_revision_only_dfm_kalman_em,2024:Q3,1.7220854962006418,4.426428723522872
exact,pre_third,T,bridge,indicator_revision_only_dfm_kalman_em,2024:Q4,0.03532448418574356,4.4617532077086155
exact,pre_third,T,bridge,joint_indicator_revision_dfm_full_kalman_em,2024:Q1,2.5119433835364666,2.5119433835364666
exact,pre_third,T,bridge,joint_indicator_revision_dfm_full_kalman_em,2024:Q2,0.18722563508585785,2.6991690186223245
exact,pre_third,T,bridge,joint_indicator_revision_dfm_full_kalman_em,2024:Q3,1.7607250578077607,4.459894076430086
exact,pre_third,T,bridge,joint_indicator_revision_dfm_full_kalman_em,2024:Q4,0.04873124881106937,4.508625325241155
exact,pre_third,T,bridge,midas_umidas,2024:Q1,2.533937046377675,2.533937046377675
exact,pre_third,T,bridge,midas_umidas,2024:Q2,0.12704817905383464,2.6609852254315096
exact,pre_third,T,bridge,midas_umidas,2024:Q3,2.383035466539873,5.044020691971383
exact,pre_third,T,bridge,midas_umidas,2024:Q4,-0.9264169386788944,4.117603753292489
exact,pre_third,T,bridge,monthly_mixed_frequency_kalman_em,2024:Q1,2.4730991481203244,2.4730991481203244
exact,pre_third,T,bridge,monthly_mixed_frequency_kalman_em,2024:Q2,0.0647409146664635,2.537840062786788
exact,pre_third,T,bridge,monthly_mixed_frequency_kalman_em,2024:Q3,2.072711042447138,4.610551105233926
exact,pre_third,T,bridge,monthly_mixed_frequency_kalman_em,2024:Q4,-0.03959617813205552,4.57095492710187
exact,pre_third,T,bridge,no_revision,2024:Q1,2.5132078440615038,2.5132078440615038
exact,pre_third,T,bridge,no_revision,2024:Q2,0.1990321289137488,2.7122399729752527
exact,pre_third,T,bridge,no_revision,2024:Q3,2.3494194472806806,5.061659420255934
exact,pre_third,T,bridge,no_revision,2024:Q4,0.046407906719894185,5.108067326975828
exact,pre_third,T,bridge,release_dfm,2024:Q1,2.476336758099002,2.476336758099002
exact,pre_third,T,bridge,release_dfm,2024:Q2,0.19723168764764482,2.673568445746647
exact,pre_third,T,bridge,release_dfm,2024:Q3,2.375738429931111,5.0493068756777575
exact,pre_third,T,bridge,release_dfm,2024:Q4,0.057273111910870256,5.106579987588628
exact,pre_third,T,bridge,revision_dfm_kalman_em,2024:Q1,2.522842629968277,2.522842629968277
exact,pre_third,T,bridge,revision_dfm_kalman_em,2024:Q2,0.19670646250680152,2.7195490924750785
exact,pre_third,T,bridge,revision_dfm_kalman_em,2024:Q3,1.9600706677191444,4.679619760194223
exact,pre_third,T,bridge,revision_dfm_kalman_em,2024:Q4,0.04709175307470756,4.72671151326893
exact,pre_third,T,bridge,spf,2024:Q1,2.0739163240615035,2.0739163240615035
exact,pre_third,T,bridge,spf,2024:Q2,-0.7646260210862516,1.3092903029752518
exact,pre_third,T,bridge,spf,2024:Q3,0.9600039672806804,2.2692942702559322
exact,pre_third,T,bridge,spf,2024:Q4,-0.2399357732801057,2.0293584969758265
exact,pre_third,T,bridge,standard_dfm,2024:Q1,-0.40882977221740546,-0.40882977221740546
exact,pre_third,T,bridge,standard_dfm,2024:Q2,-2.077981462666326,-2.4868112348837315
exact,pre_third,T,bridge,standard_dfm,2024:Q3,-0.8077705698710616,-3.294581804754793
exact,pre_third,T,bridge,standard_dfm,2024:Q4,-0.2036252697345954,-3.4982070744893883
exact,pre_third,T,midas_umidas,ar,2024:Q1,-0.3766446754629824,-0.3766446754629824
exact,pre_third,T,midas_umidas,ar,2024:Q2,-0.03128143792454488,-0.40792611338752727
exact,pre_third,T,midas_umidas,ar,2024:Q3,-0.7970731402171736,-1.2049992536047007
exact,pre_third,T,midas_umidas,ar,2024:Q4,0.9204074232735072,-0.2845918303311935
exact,pre_third,T,midas_umidas,bridge,2024:Q1,-2.533937046377675,-2.533937046377675
exact,pre_third,T,midas_umidas,bridge,2024:Q2,-0.12704817905383464,-2.6609852254315096
exact,pre_third,T,midas_umidas,bridge,2024:Q3,-2.383035466539873,-5.044020691971383
exact,pre_third,T,midas_umidas,bridge,2024:Q4,0.9264169386788944,-4.117603753292489
exact,pre_third,T,midas_umidas,indicator_revision_only_dfm_kalman_em,2024:Q1,-0.014795211418786786,-0.014795211418786786
exact,pre_third,T,midas_umidas,indicator_revision_only_dfm_kalman_em,2024:Q2,0.05815321330950794,0.04335800189072116
exact,pre_third,T,midas_umidas,indicator_revision_only_dfm_kalman_em,2024:Q3,-0.660949970339231,-0.6175919684485098
exact,pre_third,T,midas_umidas,indicator_revision_only_dfm_kalman_em,2024:Q4,0.9617414228646379,0.3441494544161281
exact,pre_third,T,midas_umidas,joint_indicator_revision_dfm_full_kalman_em,2024:Q1,-0.02199366284120788,-0.02199366284120788
exact,pre_third,T,midas_umidas,joint_indicator_revision_dfm_full_kalman_em,2024:Q2,0.06017745603202321,0.03818379319081533
exact,pre_third,T,midas_umidas,joint_indicator_revision_dfm_full_kalman_em,2024:Q3,-0.6223104087321121,-0.5841266155412967
exact,pre_third,T,midas_umidas,joint_indicator_revision_dfm_full_kalman_em,2024:Q4,0.9751481874899638,0.39102157194866705
exact,pre_third,T,midas_umidas,monthly_mixed_frequency_kalman_em,2024:Q1,-0.06083789825735037,-0.06083789825735037
exact,pre_third,T,midas_umidas,monthly_mixed_frequency_kalman_em,2024:Q2,-0.062307264387371136,-0.1231451626447215
exact,pre_third,T,midas_umidas,monthly_mixed_frequency_kalman_em,2024:Q3,-0.3103244240927344,-0.43346958673745595
exact,pre_third,T,midas_umidas,monthly_mixed_frequency_kalman_em,2024:Q4,0.8868207605468389,0.45335117380938295
exact,pre_third,T,midas_umidas,no_revision,2024:Q1,-0.020729202316171057,-0.020729202316171057
exact,pre_third,T,midas_umidas,no_revision,2024:Q2,0.07198394985991415,0.05125474754374309
exact,pre_third,T,midas_umidas,no_revision,2024:Q3,-0.033616019259191984,0.017638728284551104
exact,pre_third,T,midas_umidas,no_revision,2024:Q4,0.9728248453987886,0.9904635736833397
exact,pre_third,T,midas_umidas,release_dfm,2024:Q1,-0.0576002882786724,-0.0576002882786724
exact,pre_third,T,midas_umidas,release_dfm,2024:Q2,0.07018350859381017,0.012583220315137776
exact,pre_third,T,midas_umidas,release_dfm,2024:Q3,-0.007297036608762148,0.005286183706375628
exact,pre_third,T,midas_umidas,release_dfm,2024:Q4,0.9836900505897647,0.9889762342961403
exact,pre_third,T,midas_umidas,revision_dfm_kalman_em,2024:Q1,-0.011094416409397793,-0.011094416409397793
exact,pre_third,T,midas_umidas,revision_dfm_kalman_em,2024:Q2,0.06965828345296686,0.05856386704356907
exact,pre_third,T,midas_umidas,revision_dfm_kalman_em,2024:Q3,-0.42296479882072835,-0.36440093177715926
exact,pre_third,T,midas_umidas,revision_dfm_kalman_em,2024:Q4,0.973508691753602,0.6091077599764427
exact,pre_third,T,midas_umidas,spf,2024:Q1,-0.4600207223161713,-0.4600207223161713
exact,pre_third,T,midas_umidas,spf,2024:Q2,-0.8916742001400862,-1.3516949224562576
exact,pre_third,T,midas_umidas,spf,2024:Q3,-1.4230314992591924,-2.77472642171545
exact,pre_third,T,midas_umidas,spf,2024:Q4,0.6864811653987887,-2.0882452563166614
exact,pre_third,T,midas_umidas,standard_dfm,2024:Q1,-2.9427668185950804,-2.9427668185950804
exact,pre_third,T,midas_umidas,standard_dfm,2024:Q2,-2.2050296417201602,-5.147796460315241
exact,pre_third,T,midas_umidas,standard_dfm,2024:Q3,-3.1908060364109345,-8.338602496726175
exact,pre_third,T,midas_umidas,standard_dfm,2024:Q4,0.722791668944299,-7.615810827781876
exact,pre_third,T,spf,ar,2024:Q1,0.08337604685318889,0.08337604685318889
exact,pre_third,T,spf,ar,2024:Q2,0.8603927622155414,0.9437688090687303
exact,pre_third,T,spf,ar,2024:Q3,0.6259583590420188,1.5697271681107492
exact,pre_third,T,spf,ar,2024:Q4,0.2339262578747186,1.8036534259854677
exact,pre_third,T,spf,bridge,2024:Q1,-2.0739163240615035,-2.0739163240615035
exact,pre_third,T,spf,bridge,2024:Q2,0.7646260210862516,-1.3092903029752518
exact,pre_third,T,spf,bridge,2024:Q3,-0.9600039672806804,-2.2692942702559322
exact,pre_third,T,spf,bridge,2024:Q4,0.2399357732801057,-2.0293584969758265
exact,pre_third,T,spf,indicator_revision_only_dfm_kalman_em,2024:Q1,0.44522551089738455,0.44522551089738455
exact,pre_third,T,spf,indicator_revision_only_dfm_kalman_em,2024:Q2,0.9498274134495942,1.3950529243469787
exact,pre_third,T,spf,indicator_revision_only_dfm_kalman_em,2024:Q3,0.7620815289199614,2.15713445326694
exact,pre_third,T,spf,indicator_revision_only_dfm_kalman_em,2024:Q4,0.27526025746584926,2.4323947107327895
exact,pre_third,T,spf,joint_indicator_revision_dfm_full_kalman_em,2024:Q1,0.43802705947496345,0.43802705947496345
exact,pre_third,T,spf,joint_indicator_revision_dfm_full_kalman_em,2024:Q2,0.9518516561721094,1.3898787156470729
exact,pre_third,T,spf,joint_indicator_revision_dfm_full_kalman_em,2024:Q3,0.8007210905270803,2.190599806174153
exact,pre_third,T,spf,joint_indicator_revision_dfm_full_kalman_em,2024:Q4,0.28866702209117506,2.479266828265328
exact,pre_third,T,spf,midas_umidas,2024:Q1,0.4600207223161713,0.4600207223161713
exact,pre_third,T,spf,midas_umidas,2024:Q2,0.8916742001400862,1.3516949224562576
exact,pre_third,T,spf,midas_umidas,2024:Q3,1.4230314992591924,2.77472642171545
exact,pre_third,T,spf,midas_umidas,2024:Q4,-0.6864811653987887,2.0882452563166614
exact,pre_third,T,spf,monthly_mixed_frequency_kalman_em,2024:Q1,0.39918282405882094,0.39918282405882094
exact,pre_third,T,spf,monthly_mixed_frequency_kalman_em,2024:Q2,0.8293669357527151,1.228549759811536
exact,pre_third,T,spf,monthly_mixed_frequency_kalman_em,2024:Q3,1.1127070751664578,2.341256834977994
exact,pre_third,T,spf,monthly_mixed_frequency_kalman_em,2024:Q4,0.2003395951480502,2.541596430126044
exact,pre_third,T,spf,no_revision,2024:Q1,0.43929152000000027,0.43929152000000027
exact,pre_third,T,spf,no_revision,2024:Q2,0.9636581500000003,1.4029496700000006
exact,pre_third,T,spf,no_revision,2024:Q3,1.3894154800000005,2.792365150000001
exact,pre_third,T,spf,no_revision,2024:Q4,0.2863436799999999,3.078708830000001
exact,pre_third,T,spf,release_dfm,2024:Q1,0.40242043403749894,0.40242043403749894
exact,pre_third,T,spf,release_dfm,2024:Q2,0.9618577087338964,1.3642781427713953
exact,pre_third,T,spf,release_dfm,2024:Q3,1.4157344626504302,2.7800126054218257
exact,pre_third,T,spf,release_dfm,2024:Q4,0.297208885190976,3.0772214906128017
exact,pre_third,T,spf,revision_dfm_kalman_em,2024:Q1,0.4489263059067735,0.4489263059067735
exact,pre_third,T,spf,revision_dfm_kalman_em,2024:Q2,0.9613324835930531,1.4102587894998266
exact,pre_third,T,spf,revision_dfm_kalman_em,2024:Q3,1.000066700438464,2.4103254899382907
exact,pre_third,T,spf,revision_dfm_kalman_em,2024:Q4,0.28702752635481327,2.697353016293104
exact,pre_third,T,spf,standard_dfm,2024:Q1,-2.482746096278909,-2.482746096278909
exact,pre_third,T,spf,standard_dfm,2024:Q2,-1.3133554415800743,-3.7961015378589833
exact,pre_third,T,spf,standard_dfm,2024:Q3,-1.767774537151742,-5.563876075010725
exact,pre_third,T,spf,standard_dfm,2024:Q4,0.0363105035455103,-5.527565571465215
exact,pre_third,T,standard_dfm,ar,2024:Q1,2.5661221431320977,2.5661221431320977
exact,pre_third,T,standard_dfm,ar,2024:Q2,2.1737482037956157,4.739870346927713
exact,pre_third,T,standard_dfm,ar,2024:Q3,2.393732896193761,7.133603243121474
exact,pre_third,T,standard_dfm,ar,2024:Q4,0.1976157543292083,7.331218997450682
exact,pre_third,T,standard_dfm,bridge,2024:Q1,0.40882977221740546,0.40882977221740546
exact,pre_third,T,standard_dfm,bridge,2024:Q2,2.077981462666326,2.4868112348837315
exact,pre_third,T,standard_dfm,bridge,2024:Q3,0.8077705698710616,3.294581804754793
exact,pre_third,T,standard_dfm,bridge,2024:Q4,0.2036252697345954,3.4982070744893883
exact,pre_third,T,standard_dfm,indicator_revision_only_dfm_kalman_em,2024:Q1,2.9279716071762936,2.9279716071762936
exact,pre_third,T,standard_dfm,indicator_revision_only_dfm_kalman_em,2024:Q2,2.2631828550296684,5.1911544622059616
exact,pre_third,T,standard_dfm,indicator_revision_only_dfm_kalman_em,2024:Q3,2.5298560660717033,7.721010528277665
exact,pre_third,T,standard_dfm,indicator_revision_only_dfm_kalman_em,2024:Q4,0.238949753920339,7.959960282198004
exact,pre_third,T,standard_dfm,joint_indicator_revision_dfm_full_kalman_em,2024:Q1,2.920773155753872,2.920773155753872
exact,pre_third,T,standard_dfm,joint_indicator_revision_dfm_full_kalman_em,2024:Q2,2.2652070977521834,5.185980253506056
exact,pre_third,T,standard_dfm,joint_indicator_revision_dfm_full_kalman_em,2024:Q3,2.5684956276788222,7.754475881184878
exact,pre_third,T,standard_dfm,joint_indicator_revision_dfm_full_kalman_em,2024:Q4,0.25235651854566477,8.006832399730543
exact,pre_third,T,standard_dfm,midas_umidas,2024:Q1,2.9427668185950804,2.9427668185950804
exact,pre_third,T,standard_dfm,midas_umidas,2024:Q2,2.2050296417201602,5.147796460315241
exact,pre_third,T,standard_dfm,midas_umidas,2024:Q3,3.1908060364109345,8.338602496726175
exact,pre_third,T,standard_dfm,midas_umidas,2024:Q4,-0.722791668944299,7.615810827781876
exact,pre_third,T,standard_dfm,monthly_mixed_frequency_kalman_em,2024:Q1,2.88192892033773,2.88192892033773
exact,pre_third,T,standard_dfm,monthly_mixed_frequency_kalman_em,2024:Q2,2.1427223773327895,5.02465129767052
exact,pre_third,T,standard_dfm,monthly_mixed_frequency_kalman_em,2024:Q3,2.8804816123181998,7.905132909988719
exact,pre_third,T,standard_dfm,monthly_mixed_frequency_kalman_em,2024:Q4,0.1640290916025399,8.069162001591259
exact,pre_third,T,standard_dfm,no_revision,2024:Q1,2.9220376162789092,2.9220376162789092
exact,pre_third,T,standard_dfm,no_revision,2024:Q2,2.2770135915800744,5.199051207858984
exact,pre_third,T,standard_dfm,no_revision,2024:Q3,3.157190017151742,8.356241225010727
exact,pre_third,T,standard_dfm,no_revision,2024:Q4,0.2500331764544896,8.606274401465217
exact,pre_third,T,standard_dfm,release_dfm,2024:Q1,2.8851665303164076,2.8851665303164076
exact,pre_third,T,standard_dfm,release_dfm,2024:Q2,2.2752131503139705,5.160379680630378
exact,pre_third,T,standard_dfm,release_dfm,2024:Q3,3.1835089998021724,8.34388868043255
exact,pre_third,T,standard_dfm,release_dfm,2024:Q4,0.2608983816454657,8.604787062078016
exact,pre_third,T,standard_dfm,revision_dfm_kalman_em,2024:Q1,2.9316724021856824,2.9316724021856824
exact,pre_third,T,standard_dfm,revision_dfm_kalman_em,2024:Q2,2.274687925173127,5.2063603273588095
exact,pre_third,T,standard_dfm,revision_dfm_kalman_em,2024:Q3,2.767841237590206,7.974201564949015
exact,pre_third,T,standard_dfm,revision_dfm_kalman_em,2024:Q4,0.25071702280930297,8.224918587758319
exact,pre_third,T,standard_dfm,spf,2024:Q1,2.482746096278909,2.482746096278909
exact,pre_third,T,standard_dfm,spf,2024:Q2,1.3133554415800743,3.7961015378589833
exact,pre_third,T,standard_dfm,spf,2024:Q3,1.767774537151742,5.563876075010725
exact,pre_third,T,standard_dfm,spf,2024:Q4,-0.0363105035455103,5.527565571465215
exact,pre_third,T,release_dfm,ar,2024:Q1,-0.31904438718431005,-0.31904438718431005
exact,pre_third,T,release_dfm,ar,2024:Q2,-0.10146494651835505,-0.4205093337026651
exact,pre_third,T,release_dfm,ar,2024:Q3,-0.7897761036084114,-1.2102854373110765
exact,pre_third,T,release_dfm,ar,2024:Q4,-0.06328262731625738,-1.273568064627334
exact,pre_third,T,release_dfm,bridge,2024:Q1,-2.476336758099002,-2.476336758099002
exact,pre_third,T,release_dfm,bridge,2024:Q2,-0.19723168764764482,-2.673568445746647
exact,pre_third,T,release_dfm,bridge,2024:Q3,-2.375738429931111,-5.0493068756777575
exact,pre_third,T,release_dfm,bridge,2024:Q4,-0.057273111910870256,-5.106579987588628
exact,pre_third,T,release_dfm,indicator_revision_only_dfm_kalman_em,2024:Q1,0.04280507685988561,0.04280507685988561
exact,pre_third,T,release_dfm,indicator_revision_only_dfm_kalman_em,2024:Q2,-0.012030295284302234,0.030774781575583377
exact,pre_third,T,release_dfm,indicator_revision_only_dfm_kalman_em,2024:Q3,-0.6536529337304688,-0.6228781521548855
exact,pre_third,T,release_dfm,indicator_revision_only_dfm_kalman_em,2024:Q4,-0.021948627725126693,-0.6448267798800122
exact,pre_third,T,release_dfm,joint_indicator_revision_dfm_full_kalman_em,2024:Q1,0.03560662543746452,0.03560662543746452
exact,pre_third,T,release_dfm,joint_indicator_revision_dfm_full_kalman_em,2024:Q2,-0.010006052561786969,0.02560057287567755
exact,pre_third,T,release_dfm,joint_indicator_revision_dfm_full_kalman_em,2024:Q3,-0.6150133721233499,-0.5894127992476724
exact,pre_third,T,release_dfm,joint_indicator_revision_dfm_full_kalman_em,2024:Q4,-0.008541863099800885,-0.5979546623474733
exact,pre_third,T,release_dfm,midas_umidas,2024:Q1,0.0576002882786724,0.0576002882786724
exact,pre_third,T,release_dfm,midas_umidas,2024:Q2,-0.07018350859381017,-0.012583220315137776
exact,pre_third,T,release_dfm,midas_umidas,2024:Q3,0.007297036608762148,-0.005286183706375628
exact,pre_third,T,release_dfm,midas_umidas,2024:Q4,-0.9836900505897647,-0.9889762342961403
exact,pre_third,T,release_dfm,monthly_mixed_frequency_kalman_em,2024:Q1,-0.0032376099786779744,-0.0032376099786779744
exact,pre_third,T,release_dfm,monthly_mixed_frequency_kalman_em,2024:Q2,-0.1324907729811813,-0.13572838295985928
exact,pre_third,T,release_dfm,monthly_mixed_frequency_kalman_em,2024:Q3,-0.3030273874839723,-0.43875577044383157
exact,pre_third,T,release_dfm,monthly_mixed_frequency_kalman_em,2024:Q4,-0.09686929004292577,-0.5356250604867574
exact,pre_third,T,release_dfm,no_revision,2024:Q1,0.03687108596250134,0.03687108596250134
exact,pre_third,T,release_dfm,no_revision,2024:Q2,0.0018004412661039788,0.03867152722860532
exact,pre_third,T,release_dfm,no_revision,2024:Q3,-0.026318982650429836,0.012352544578175483
exact,pre_third,T,release_dfm,no_revision,2024:Q4,-0.010865205190976068,0.0014873393871994156
exact,pre_third,T,release_dfm,revision_dfm_kalman_em,2024:Q1,0.0465058718692746,0.0465058718692746
exact,pre_third,T,release_dfm,revision_dfm_kalman_em,2024:Q2,-0.000525225140843306,0.045980646728431294
exact,pre_third,T,release_dfm,revision_dfm_kalman_em,2024:Q3,-0.4156677622119662,-0.36968711548353494
exact,pre_third,T,release_dfm,revision_dfm_kalman_em,2024:Q4,-0.010181358836162694,-0.3798684743196976
exact,pre_third,T,release_dfm,spf,2024:Q1,-0.40242043403749894,-0.40242043403749894
exact,pre_third,T,release_dfm,spf,2024:Q2,-0.9618577087338964,-1.3642781427713953
exact,pre_third,T,release_dfm,spf,2024:Q3,-1.4157344626504302,-2.7800126054218257
exact,pre_third,T,release_dfm,spf,2024:Q4,-0.297208885190976,-3.0772214906128017
exact,pre_third,T,release_dfm,standard_dfm,2024:Q1,-2.8851665303164076,-2.8851665303164076
exact,pre_third,T,release_dfm,standard_dfm,2024:Q2,-2.2752131503139705,-5.160379680630378
exact,pre_third,T,release_dfm,standard_dfm,2024:Q3,-3.1835089998021724,-8.34388868043255
exact,pre_third,T,release_dfm,standard_dfm,2024:Q4,-0.2608983816454657,-8.604787062078016
pseudo,pre_advance,A,ar,bridge,2024:Q1,-1.4812402722948308,-1.4812402722948308
pseudo,pre_advance,A,ar,bridge,2024:Q2,0.08257423721867552,-1.3986660350761553
pseudo,pre_advance,A,ar,bridge,2024:Q3,0.08691061741543371,-1.3117554176607216
pseudo,pre_advance,A,ar,bridge,2024:Q4,0.21772622982501907,-1.0940291878357025
pseudo,pre_advance,A,ar,indicator_revision_only_dfm_kalman_em,2024:Q1,0.12581709201310468,0.12581709201310468
pseudo,pre_advance,A,ar,indicator_revision_only_dfm_kalman_em,2024:Q2,1.2169249996230211,1.342742091636126
pseudo,pre_advance,A,ar,indicator_revision_only_dfm_kalman_em,2024:Q3,0.22137441678955594,1.5641165084256818
pseudo,pre_advance,A,ar,indicator_revision_only_dfm_kalman_em,2024:Q4,0.22728270323828312,1.791399211663965
pseudo,pre_advance,A,ar,joint_indicator_revision_dfm_full_kalman_em,2024:Q1,0.16629851323795722,0.16629851323795722
pseudo,pre_advance,A,ar,joint_indicator_revision_dfm_full_kalman_em,2024:Q2,1.1875948374584304,1.3538933506963877
pseudo,pre_advance,A,ar,joint_indicator_revision_dfm_full_kalman_em,2024:Q3,-0.6726749437998005,0.6812184068965872
pseudo,pre_advance,A,ar,joint_indicator_revision_dfm_full_kalman_em,2024:Q4,0.2105742666085426,0.8917926735051298
pseudo,pre_advance,A,ar,midas_umidas,2024:Q1,-5.531444056832137,-5.531444056832137
pseudo,pre_advance,A,ar,midas_umidas,2024:Q2,1.2423277781591504,-4.289116278672987
pseudo,pre_advance,A,ar,midas_umidas,2024:Q3,1.2149909684475326,-3.074125310225454
pseudo,pre_advance,A,ar,midas_umidas,2024:Q4,-1.5868540108370583,-4.660979321062513
pseudo,pre_advance,A,ar,monthly_mixed_frequency_kalman_em,2024:Q1,0.10261068761845885,0.10261068761845885
pseudo,pre_advance,A,ar,monthly_mixed_frequency_kalman_em,2024:Q2,1.2467499667669995,1.3493606543854584
pseudo,pre_advance,A,ar,monthly_mixed_frequency_kalman_em,2024:Q3,0.9058719667421822,2.2552326211276403
pseudo,pre_advance,A,ar,monthly_mixed_frequency_kalman_em,2024:Q4,-0.1104326632718223,2.144799957855818
pseudo,pre_advance,A,ar,no_revision,2024:Q1,6.142999547931183e-08,6.142999547931183e-08
pseudo,pre_advance,A,ar,no_revision,2024:Q2,1.5426049060351943e-07,2.1569048608283126e-07
pseudo,pre_advance,A,ar,no_revision,2024:Q3,1.8705413040720487e-07,4.027446164900361e-07
pseudo,pre_advance,A,ar,no_revision,2024:Q4,8.528527142837028e-08,4.880298879184064e-07
pseudo,pre_advance,A,ar,release_dfm,2024:Q1,-3.5510652253212025,-3.5510652253212025
pseudo,pre_advance,A,ar,release_dfm,2024:Q2,0.06271374958053078,-3.4883514757406715
pseudo,pre_advance,A,ar,release_dfm,2024:Q3,-1.4090882511698102,-4.8974397269104815
pseudo,pre_advance,A,ar,release_dfm,2024:Q4,0.06776251254479909,-4.829677214365683
pseudo,pre_advance,A,ar,revision_dfm_kalman_em,2024:Q1,0.11518633141507194,0.11518633141507194
pseudo,pre_advance,A,ar,revision_dfm_kalman_em,2024:Q2,0.8551614998216887,0.9703478312367606
pseudo,pre_advance,A,ar,revision_dfm_kalman_em,2024:Q3,0.1595345272914841,1.1298823585282447
pseudo,pre_advance,A,ar,revision_dfm_kalman_em,2024:Q4,0.21645471789344237,1.346337076421687
pseudo,pre_advance,A,ar,spf,2024:Q1,-0.08136774660866822,-0.08136774660866822
pseudo,pre_advance,A,ar,spf,2024:Q2,0.5871872774716679,0.5058195308629997
pseudo,pre_advance,A,ar,spf,2024:Q3,0.72430498743891,1.2301245183019098
pseudo,pre_advance,A,ar,spf,2024:Q4,0.1098942321030077,1.3400187504049175
pseudo,pre_advance,A,ar,standard_dfm,2024:Q1,-3.5510652253212025,-3.5510652253212025
pseudo,pre_advance,A,ar,standard_dfm,2024:Q2,0.06271374958053078,-3.4883514757406715
pseudo,pre_advance,A,ar,standard_dfm,2024:Q3,-1.4090882511698102,-4.8974397269104815
pseudo,pre_advance,A,ar,standard_dfm,2024:Q4,0.06776251254479909,-4.829677214365683
pseudo,pre_advance,A,no_revision,ar,2024:Q1,-6.142999547931183e-08,-6.142999547931183e-08
pseudo,pre_advance,A,no_revision,ar,2024:Q2,-1.5426049060351943e-07,-2.1569048608283126e-07
pseudo,pre_advance,A,no_revision,ar,2024:Q3,-1.8705413040720487e-07,-4.027446164900361e-07
pseudo,pre_advance,A,no_revision,ar,2024:Q4,-8.528527142837028e-08,-4.880298879184064e-07
pseudo,pre_advance,A,no_revision,bridge,2024:Q1,-1.4812403337248263,-1.4812403337248263
pseudo,pre_advance,A,no_revision,bridge,2024:Q2,0.08257408295818491,-1.3986662507666414
pseudo,pre_advance,A,no_revision,bridge,2024:Q3,0.0869104303613033,-1.3117558204053381
pseudo,pre_advance,A,no_revision,bridge,2024:Q4,0.21772614453974765,-1.0940296758655905
pseudo,pre_advance,A,no_revision,indicator_revision_only_dfm_kalman_em,2024:Q1,0.1258170305831092,0.1258170305831092
pseudo,pre_advance,A,no_revision,indicator_revision_only_dfm_kalman_em,2024:Q2,1.2169248453625305,1.3427418759456398
pseudo,pre_advance,A,no_revision,indicator_revision_only_dfm_kalman_em,2024:Q3,0.22137422973542553,1.5641161056810653
pseudo,pre_advance,A,no_revision,indicator_revision_only_dfm_kalman_em,2024:Q4,0.2272826179530117,1.791398723634077
pseudo,pre_advance,A,no_revision,joint_indicator_revision_dfm_full_kalman_em,2024:Q1,0.16629845180796174,0.16629845180796174
pseudo,pre_advance,A,no_revision,joint_indicator_revision_dfm_full_kalman_em,2024:Q2,1.1875946831979398,1.3538931350059016
pseudo,pre_advance,A,no_revision,joint_indicator_revision_dfm_full_kalman_em,2024:Q3,-0.6726751308539309,0.6812180041519706
pseudo,pre_advance,A,no_revision,joint_indicator_revision_dfm_full_kalman_em,2024:Q4,0.21057418132327116,0.8917921854752417
pseudo,pre_advance,A,no_revision,midas_umidas,2024:Q1,-5.531444118262132,-5.531444118262132
pseudo,pre_advance,A,no_revision,midas_umidas,2024:Q2,1.2423276238986598,-4.289116494363473
pseudo,pre_advance,A,no_revision,midas_umidas,2024:Q3,1.2149907813934022,-3.0741257129700705
pseudo,pre_advance,A,no_revision,midas_umidas,2024:Q4,-1.5868540961223299,-4.6609798090924
pseudo,pre_advance,A,no_revision,monthly_mixed_frequency_kalman_em,2024:Q1,0.10261062618846337,0.10261062618846337
pseudo,pre_advance,A,no_revision,monthly_mixed_frequency_kalman_em,2024:Q2,1.2467498125065088,1.3493604386949722
pseudo,pre_advance,A,no_revision,monthly_mixed_frequency_kalman_em,2024:Q3,0.9058717796880518,2.255232218383024
pseudo,pre_advance,A,no_revision,monthly_mixed_frequency_kalman_em,2024:Q4,-0.11043274855709373,2.14479946982593
pseudo,pre_advance,A,no_revision,release_dfm,2024:Q1,-3.551065286751198,-3.551065286751198
pseudo,pre_advance,A,no_revision,release_dfm,2024:Q2,0.06271359532004017,-3.4883516914311574
pseudo,pre_advance,A,no_revision,release_dfm,2024:Q3,-1.4090884382239406,-4.897440129655098
pseudo,pre_advance,A,no_revision,release_dfm,2024:Q4,0.06776242725952766,-4.82967770239557
pseudo,pre_advance,A,no_revision,revision_dfm_kalman_em,2024:Q1,0.11518626998507646,0.11518626998507646
pseudo,pre_advance,A,no_revision,revision_dfm_kalman_em,2024:Q2,0.855161345561198,0.9703476155462745
pseudo,pre_advance,A,no_revision,revision_dfm_kalman_em,2024:Q3,0.1595343402373537,1.1298819557836282
pseudo,pre_advance,A,no_revision,revision_dfm_kalman_em,2024:Q4,0.21645463260817094,1.346336588391799
pseudo,pre_advance,A,no_revision,spf,2024:Q1,-0.0813678080386637,-0.0813678080386637
pseudo,pre_advance,A,no_revision,spf,2024:Q2,0.5871871232111773,0.5058193151725136
pseudo,pre_advance,A,no_revision,spf,2024:Q3,0.7243048003847796,1.230124115557293
pseudo,pre_advance,A,no_revision,spf,2024:Q4,0.10989414681773627,1.3400182623750294
pseudo,pre_advance,A,no_revision,standard_dfm,2024:Q1,-3.551065286751198,-3.551065286751198
pseudo,pre_advance,A,no_revision,standard_dfm,2024:Q2,0.06271359532004017,-3.4883516914311574
pseudo,pre_advance,A,no_revision,standard_dfm,2024:Q3,-1.4090884382239406,-4.897440129655098
pseudo,pre_advance,A,no_revision,standard_dfm,2024:Q4,0.06776242725952766,-4.82967770239557
pseudo,pre_advance,A,bridge,ar,2024:Q1,1.4812402722948308,1.4812402722948308
pseudo,pre_advance,A,bridge,ar,2024:Q2,-0.08257423721867552,1.3986660350761553
pseudo,pre_advance,A,bridge,ar,2024:Q3,-0.08691061741543371,1.3117554176607216
pseudo,pre_advance,A,bridge,ar,2024:Q4,-0.21772622982501907,1.0940291878357025
pseudo,pre_advance,A,bridge,indicator_revision_only_dfm_kalman_em,2024:Q1,1.6070573643079356,1.6070573643079356
pseudo,pre_advance,A,bridge,indicator_revision_only_dfm_kalman_em,2024:Q2,1.1343507624043456,2.7414081267122814
pseudo,pre_advance,A,bridge,indicator_revision_only_dfm_kalman_em,2024:Q3,0.13446379937412223,2.8758719260864036
pseudo,pre_advance,A,bridge,indicator_revision_only_dfm_kalman_em,2024:Q4,0.009556473413264047,2.8854283994996677
pseudo,pre_advance,A,bridge,joint_indicator_revision_dfm_full_kalman_em,2024:Q1,1.647538785532788,1.647538785532788
pseudo,pre_advance,A,bridge,joint_indicator_revision_dfm_full_kalman_em,2024:Q2,1.105020600239755,2.752559385772543
pseudo,pre_advance,A,bridge,joint_indicator_revision_dfm_full_kalman_em,2024:Q3,-0.7595855612152342,1.9929738245573088
pseudo,pre_advance,A,bridge,joint_indicator_revision_dfm_full_kalman_em,2024:Q4,-0.007151963216476464,1.9858218613408323
pseudo,pre_advance,A,bridge,midas_umidas,2024:Q1,-4.050203784537306,-4.050203784537306
pseudo,pre_advance,A,bridge,midas_umidas,2024:Q2,1.159753540940475,-2.890450243596831
pseudo,pre_advance,A,bridge,midas_umidas,2024:Q3,1.128080351032099,-1.7623698925647322
pseudo,pre_advance,A,bridge,midas_umidas,2024:Q4,-1.8045802406620775,-3.5669501332268094
pseudo,pre_advance,A,bridge,monthly_mixed_frequency_kalman_em,2024:Q1,1.5838509599132897,1.5838509599132897
pseudo,pre_advance,A,bridge,monthly_mixed_frequency_kalman_em,2024:Q2,1.164175729548324,2.7480266894616134
pseudo,pre_advance,A,bridge,monthly_mixed_frequency_kalman_em,2024:Q3,0.8189613493267485,3.566988038788362
pseudo,pre_advance,A,bridge,monthly_mixed_frequency_kalman_em,2024:Q4,-0.3281588930968414,3.2388291456915206
pseudo,pre_advance,A,bridge,no_revision,2024:Q1,1.4812403337248263,1.4812403337248263
pseudo,pre_advance,A,bridge,no_revision,2024:Q2,-0.08257408295818491,1.3986662507666414
pseudo,pre_advance,A,bridge,no_revision,2024:Q3,-0.0869104303613033,1.3117558204053381
pseudo,pre_advance,A,bridge,no_revision,2024:Q4,-0.21772614453974765,1.0940296758655905
pseudo,pre_advance,A,bridge,release_dfm,2024:Q1,-2.0698249530263713,-2.0698249530263713
pseudo,pre_advance,A,bridge,release_dfm,2024:Q2,-0.01986048763814474,-2.089685440664516
pseudo,pre_advance,A,bridge,release_dfm,2024:Q3,-1.495998868585244,-3.5856843092497597
pseudo,pre_advance,A,bridge,release_dfm,2024:Q4,-0.14996371728021998,-3.73564802652998
pseudo,pre_advance,A,bridge,revision_dfm_kalman_em,2024:Q1,1.5964266037099029,1.5964266037099029
pseudo,pre_advance,A,bridge,revision_dfm_kalman_em,2024:Q2,0.7725872626030131,2.369013866312916
pseudo,pre_advance,A,bridge,revision_dfm_kalman_em,2024:Q3,0.07262390987605039,2.4416377761889665
pseudo,pre_advance,A,bridge,revision_dfm_kalman_em,2024:Q4,-0.0012715119315766955,2.44036626425739
pseudo,pre_advance,A,bridge,spf,2024:Q1,1.3998725256861626,1.3998725256861626
pseudo,pre_advance,A,bridge,spf,2024:Q2,0.5046130402529924,1.9044855659391549
pseudo,pre_advance,A,bridge,spf,2024:Q3,0.6373943700234763,2.541879935962631
pseudo,pre_advance,A,bridge,spf,2024:Q4,-0.10783199772201137,2.43404793824062
pseudo,pre_advance,A,bridge,standard_dfm,2024:Q1,-2.0698249530263713,-2.0698249530263713
pseudo,pre_advance,A,bridge,standard_dfm,2024:Q2,-0.01986048763814474,-2.089685440664516
pseudo,pre_advance,A,bridge,standard_dfm,2024:Q3,-1.495998868585244,-3.5856843092497597
pseudo,pre_advance,A,bridge,standard_dfm,2024:Q4,-0.14996371728021998,-3.73564802652998
pseudo,pre_advance,A,midas_umidas,ar,2024:Q1,5.531444056832137,5.531444056832137
pseudo,pre_advance,A,midas_umidas,ar,2024:Q2,-1.2423277781591504,4.289116278672987
pseudo,pre_advance,A,midas_umidas,ar,2024:Q3,-1.2149909684475326,3.074125310225454
pseudo,pre_advance,A,midas_umidas,ar,2024:Q4,1.5868540108370583,4.660979321062513
pseudo,pre_advance,A,midas_umidas,bridge,2024:Q1,4.050203784537306,4.050203784537306
pseudo,pre_advance,A,midas_umidas,bridge,2024:Q2,-1.159753540940475,2.890450243596831
pseudo,pre_advance,A,midas_umidas,bridge,2024:Q3,-1.128080351032099,1.7623698925647322
pseudo,pre_advance,A,midas_umidas,bridge,2024:Q4,1.8045802406620775,3.5669501332268094
pseudo,pre_advance,A,midas_umidas,indicator_revision_only_dfm_kalman_em,2024:Q1,5.657261148845242,5.657261148845242
pseudo,pre_advance,A,midas_umidas,indicator_revision_only_dfm_kalman_em,2024:Q2,-0.025402778536129184,5.6318583703091125
pseudo,pre_advance,A,midas_umidas,indicator_revision_only_dfm_kalman_em,2024:Q3,-0.9936165516579767,4.638241818651136
pseudo,pre_advance,A,midas_umidas,indicator_revision_only_dfm_kalman_em,2024:Q4,1.8141367140753415,6.4523785327264775
pseudo,pre_advance,A,midas_umidas,joint_indicator_revision_dfm_full_kalman_em,2024:Q1,5.697742570070094,5.697742570070094
pseudo,pre_advance,A,midas_umidas,joint_indicator_revision_dfm_full_kalman_em,2024:Q2,-0.05473294070071999,5.643009629369374
pseudo,pre_advance,A,midas_umidas,joint_indicator_revision_dfm_full_kalman_em,2024:Q3,-1.8876659122473332,3.7553437171220407
pseudo,pre_advance,A,midas_umidas,joint_indicator_revision_dfm_full_kalman_em,2024:Q4,1.797428277445601,5.5527719945676415
pseudo,pre_advance,A,midas_umidas,monthly_mixed_frequency_kalman_em,2024:Q1,5.634054744450596,5.634054744450596
pseudo,pre_advance,A,midas_umidas,monthly_mixed_frequency_kalman_em,2024:Q2,0.0044221886078490424,5.638476933058445
pseudo,pre_advance,A,midas_umidas,monthly_mixed_frequency_kalman_em,2024:Q3,-0.3091190017053504,5.329357931353095
pseudo,pre_advance,A,midas_umidas,monthly_mixed_frequency_kalman_em,2024:Q4,1.476421347565236,6.805779278918331
pseudo,pre_advance,A,midas_umidas,no_revision,2024:Q1,5.531444118262132,5.531444118262132
pseudo,pre_advance,A,midas_umidas,no_revision,2024:Q2,-1.2423276238986598,4.289116494363473
pseudo,pre_advance,A,midas_umidas,no_revision,2024:Q3,-1.2149907813934022,3.0741257129700705
pseudo,pre_advance,A,midas_umidas,no_revision,2024:Q4,1.5868540961223299,4.6609798090924
pseudo,pre_advance,A,midas_umidas,release_dfm,2024:Q1,1.9803788315109347,1.9803788315109347
pseudo,pre_advance,A,midas_umidas,release_dfm,2024:Q2,-1.1796140285786196,0.8007648029323151
pseudo,pre_advance,A,midas_umidas,release_dfm,2024:Q3,-2.6240792196173426,-1.8233144166850275
pseudo,pre_advance,A,midas_umidas,release_dfm,2024:Q4,1.6546165233818575,-0.16869789330316998
pseudo,pre_advance,A,midas_umidas,revision_dfm_kalman_em,2024:Q1,5.646630388247209,5.646630388247209
pseudo,pre_advance,A,midas_umidas,revision_dfm_kalman_em,2024:Q2,-0.38716627833746164,5.2594641099097466
pseudo,pre_advance,A,midas_umidas,revision_dfm_kalman_em,2024:Q3,-1.0554564411560485,4.2040076687536985
pseudo,pre_advance,A,midas_umidas,revision_dfm_kalman_em,2024:Q4,1.8033087287305007,6.0073163974842
pseudo,pre_advance,A,midas_umidas,spf,2024:Q1,5.450076310223469,5.450076310223469
pseudo,pre_advance,A,midas_umidas,spf,2024:Q2,-0.6551405006874824,4.794935809535987
pseudo,pre_advance,A,midas_umidas,spf,2024:Q3,-0.49068598100862254,4.3042498285273645
pseudo,pre_advance,A,midas_umidas,spf,2024:Q4,1.696748242940066,6.00099807146743
pseudo,pre_advance,A,midas_umidas,standard_dfm,2024:Q1,1.9803788315109347,1.9803788315109347
pseudo,pre_advance,A,midas_umidas,standard_dfm,2024:Q2,-1.1796140285786196,0.8007648029323151
pseudo,pre_advance,A,midas_umidas,standard_dfm,2024:Q3,-2.6240792196173426,-1.8233144166850275
pseudo,pre_advance,A,midas_umidas,standard_dfm,2024:Q4,1.6546165233818575,-0.16869789330316998
pseudo,pre_advance,A,spf,ar,2024:Q1,0.08136774660866822,0.08136774660866822
pseudo,pre_advance,A,spf,ar,2024:Q2,-0.5871872774716679,-0.5058195308629997
pseudo,pre_advance,A,spf,ar,2024:Q3,-0.72430498743891,-1.2301245183019098
pseudo,pre_advance,A,spf,ar,2024:Q4,-0.1098942321030077,-1.3400187504049175
pseudo,pre_advance,A,spf,bridge,2024:Q1,-1.3998725256861626,-1.3998725256861626
pseudo,pre_advance,A,spf,bridge,2024:Q2,-0.5046130402529924,-1.9044855659391549
pseudo,pre_advance,A,spf,bridge,2024:Q3,-0.6373943700234763,-2.541879935962631
pseudo,pre_advance,A,spf,bridge,2024:Q4,0.10783199772201137,-2.43404793824062
pseudo,pre_advance,A,spf,indicator_revision_only_dfm_kalman_em,2024:Q1,0.2071848386217729,0.2071848386217729
pseudo,pre_advance,A,spf,indicator_revision_only_dfm_kalman_em,2024:Q2,0.6297377221513533,0.8369225607731261
pseudo,pre_advance,A,spf,indicator_revision_only_dfm_kalman_em,2024:Q3,-0.5029305706493541,0.333991990123772
pseudo,pre_advance,A,spf,indicator_revision_only_dfm_kalman_em,2024:Q4,0.11738847113527541,0.4513804612590474
pseudo,pre_advance,A,spf,joint_indicator_revision_dfm_full_kalman_em,2024:Q1,0.24766625984662544,0.24766625984662544
pseudo,pre_advance,A,spf,joint_indicator_revision_dfm_full_kalman_em,2024:Q2,0.6004075599867624,0.8480738198333879
pseudo,pre_advance,A,spf,joint_indicator_revision_dfm_full_kalman_em,2024:Q3,-1.3969799312387106,-0.5489061114053226
pseudo,pre_advance,A,spf,joint_indicator_revision_dfm_full_kalman_em,2024:Q4,0.10068003450553491,-0.4482260768997877
pseudo,pre_advance,A,spf,midas_umidas,2024:Q1,-5.450076310223469,-5.450076310223469
pseudo,pre_advance,A,spf,midas_umidas,2024:Q2,0.6551405006874824,-4.794935809535987
pseudo,pre_advance,A,spf,midas_umidas,2024:Q3,0.49068598100862254,-4.3042498285273645
pseudo,pre_advance,A,spf,midas_umidas,2024:Q4,-1.696748242940066,-6.00099807146743
pseudo,pre_advance,A,spf,monthly_mixed_frequency_kalman_em,2024:Q1,0.18397843422712706,0.18397843422712706
pseudo,pre_advance,A,spf,monthly_mixed_frequency_kalman_em,2024:Q2,0.6595626892953315,0.8435411235224586
pseudo,pre_advance,A,spf,monthly_mixed_frequency_kalman_em,2024:Q3,0.18156697930327215,1.0251081028257307
pseudo,pre_advance,A,spf,monthly_mixed_frequency_kalman_em,2024:Q4,-0.22032689537483,0.8047812074509008
pseudo,pre_advance,A,spf,no_revision,2024:Q1,0.0813678080386637,0.0813678080386637
pseudo,pre_advance,A,spf,no_revision,2024:Q2,-0.5871871232111773,-0.5058193151725136
pseudo,pre_advance,A,spf,no_revision,2024:Q3,-0.7243048003847796,-1.230124115557293
pseudo,pre_advance,A,spf,no_revision,2024:Q4,-0.10989414681773627,-1.3400182623750294
pseudo,pre_advance,A,spf,release_dfm,2024:Q1,-3.469697478712534,-3.469697478712534
pseudo,pre_advance,A,spf,release_dfm,2024:Q2,-0.5244735278911371,-3.994171006603671
pseudo,pre_advance,A,spf,release_dfm,2024:Q3,-2.13339323860872,-6.127564245212391
pseudo,pre_advance,A,spf,release_dfm,2024:Q4,-0.0421317195582086,-6.1696959647706
pseudo,pre_advance,A,spf,revision_dfm_kalman_em,2024:Q1,0.19655407802374014,0.19655407802374014
pseudo,pre_advance,A,spf,revision_dfm_kalman_em,2024:Q2,0.2679742223500208,0.4645283003737609
pseudo,pre_advance,A,spf,revision_dfm_kalman_em,2024:Q3,-0.5647704601474259,-0.10024215977366502
pseudo,pre_advance,A,spf,revision_dfm_kalman_em,2024:Q4,0.10656048579043467,0.006318326016769654
pseudo,pre_advance,A,spf,standard_dfm,2024:Q1,-3.469697478712534,-3.469697478712534
pseudo,pre_advance,A,spf,standard_dfm,2024:Q2,-0.5244735278911371,-3.994171006603671
pseudo,pre_advance,A,spf,standard_dfm,2024:Q3,-2.13339323860872,-6.127564245212391
pseudo,pre_advance,A,spf,standard_dfm,2024:Q4,-0.0421317195582086,-6.1696959647706
pseudo,pre_advance,A,standard_dfm,ar,2024:Q1,3.5510652253212025,3.5510652253212025
pseudo,pre_advance,A,standard_dfm,ar,2024:Q2,-0.06271374958053078,3.4883514757406715
pseudo,pre_advance,A,standard_dfm,ar,2024:Q3,1.4090882511698102,4.8974397269104815
pseudo,pre_advance,A,standard_dfm,ar,2024:Q4,-0.06776251254479909,4.829677214365683
pseudo,pre_advance,A,standard_dfm,bridge,2024:Q1,2.0698249530263713,2.0698249530263713
pseudo,pre_advance,A,standard_dfm,bridge,2024:Q2,0.01986048763814474,2.089685440664516
pseudo,pre_advance,A,standard_dfm,bridge,2024:Q3,1.495998868585244,3.5856843092497597
pseudo,pre_advance,A,standard_dfm,bridge,2024:Q4,0.14996371728021998,3.73564802652998
pseudo,pre_advance,A,standard_dfm,indicator_revision_only_dfm_kalman_em,2024:Q1,3.676882317334307,3.676882317334307
pseudo,pre_advance,A,standard_dfm,indicator_revision_only_dfm_kalman_em,2024:Q2,1.1542112500424904,4.831093567376797
pseudo,pre_advance,A,standard_dfm,indicator_revision_only_dfm_kalman_em,2024:Q3,1.6304626679593661,6.461556235336163
pseudo,pre_advance,A,standard_dfm,indicator_revision_only_dfm_kalman_em,2024:Q4,0.15952019069348403,6.621076426029647
pseudo,pre_advance,A,standard_dfm,joint_indicator_revision_dfm_full_kalman_em,2024:Q1,3.7173637385591594,3.7173637385591594
pseudo,pre_advance,A,standard_dfm,joint_indicator_revision_dfm_full_kalman_em,2024:Q2,1.1248810878778996,4.842244826437059
pseudo,pre_advance,A,standard_dfm,joint_indicator_revision_dfm_full_kalman_em,2024:Q3,0.7364133073700097,5.578658133807069
pseudo,pre_advance,A,standard_dfm,joint_indicator_revision_dfm_full_kalman_em,2024:Q4,0.1428117540637435,5.721469887870813
