haminh109/Revision-Aware-DFM/outputs/full_state_space_release_revision_dfm/sensitivity_window_rolling_max_iter2_journal_evidence/density_revision_records.csv
model_id,timing_mode,checkpoint_id,outcome_id,forecast_origin,forecast_origin_date,target_quarter,forecast_value,realized_value,forecast_error,calibration_n,predictive_variance,predictive_sd,log_score,crps,pit,prob_below_zero,prob_large_positive_revision_gt_0p2,prob_large_negative_revision_lt_minus_0p2,realized_below_zero,realized_large_positive_revision_gt_0p2,realized_large_negative_revision_lt_minus_0p2,lower_68,upper_68,covered_68,lower_90,upper_90,covered_90,density_method
indicator_revision_only_dfm_kalman_em,exact,pre_advance,DELTA_SA,2024:Q1:pre_advance:exact,2024-04-24,2024:Q1,0.0,-0.3404999999999998,0.3404999999999998,0,17.05182722084802,4.129385816419679,-2.3404668593846187,0.9762114347592656,0.4671413440838794,0.5,0.48068543940669994,0.4806854394066999,True,False,True,-4.129385816419679,4.129385816419679,True,-6.792235237219875,6.792235237219875,True,model_implied_state_space
indicator_revision_only_dfm_kalman_em,exact,pre_advance,DELTA_SA,2024:Q2:pre_advance:exact,2024-07-24,2024:Q2,0.0,0.1112999999999999,-0.1112999999999999,1,17.01160140097427,4.124512262192255,-2.336250401883926,0.9650759224039093,0.5107641545684818,0.5,0.4806626350503136,0.48066263505031354,False,False,False,-4.124512262192255,4.124512262192255,True,-6.7842189538727515,6.7842189538727515,True,model_implied_state_space
indicator_revision_only_dfm_kalman_em,exact,pre_advance,DELTA_SA,2024:Q3:pre_advance:exact,2024-10-29,2024:Q3,0.0,0.0087999999999999,-0.0087999999999999,2,21.73826149557864,4.6624308569220245,-2.458477269641264,1.0895932992365345,0.5007529741653791,0.5,0.48289218739270223,0.48289218739270223,False,False,False,-4.6624308569220245,4.6624308569220245,True,-7.669016305418652,7.669016305418652,True,model_implied_state_space
indicator_revision_only_dfm_kalman_em,exact,pre_advance,DELTA_SA,2024:Q4:pre_advance:exact,2025-01-29,2024:Q4,0.0,0.0939000000000001,-0.0939000000000001,3,21.670497010462412,4.655158107998311,-2.457117846667343,1.0886426684114334,0.5080465881299181,0.5,0.48286547630185395,0.48286547630185395,False,False,False,-4.655158107998311,4.655158107998311,True,-7.657053697973574,7.657053697973574,True,model_implied_state_space
indicator_revision_only_dfm_kalman_em,exact,pre_second,DELTA_TS,2024:Q1:pre_second:exact,2024-05-29,2024:Q1,0.0,0.1602999999999999,-0.1602999999999999,0,16.76929020704924,4.095032381685063,-2.3294793231993025,0.9594915192882025,0.5156126040387603,0.5,0.4805235368310563,0.48052353683105636,False,False,False,-4.095032381685063,4.095032381685063,True,-6.735728865498401,6.735728865498401,True,model_implied_state_space
indicator_revision_only_dfm_kalman_em,exact,pre_second,DELTA_TS,2024:Q2:pre_second:exact,2024-08-28,2024:Q2,0.0,0.0381,-0.0381,1,16.713490029542065,4.088213549894632,-2.3270900492723303,0.955536624749036,0.5037178784029777,0.5,0.48049107744534414,0.48049107744534414,False,False,False,-4.088213549894632,4.088213549894632,True,-6.724512885296338,6.724512885296338,True,model_implied_state_space
indicator_revision_only_dfm_kalman_em,exact,pre_second,DELTA_TS,2024:Q3:pre_second:exact,2024-11-26,2024:Q3,0.0,0.2393999999999998,-0.2393999999999998,2,16.705962350188628,4.087292789877993,-2.3285367010396025,0.9607721987478686,0.5233534044383301,0.5,0.48048668610213907,0.48048668610213907,False,True,False,-4.087292789877993,4.087292789877993,True,-6.722998369843419,6.722998369843419,True,model_implied_state_space
indicator_revision_only_dfm_kalman_em,exact,pre_second,DELTA_TS,2024:Q4:pre_second:exact,2025-02-26,2024:Q4,0.0,0.1044,-0.1044,3,16.57843095274481,4.07166193988951,-2.3233185094471085,0.9525948074795951,0.5102280128951899,0.5,0.480411835849768,0.48041183584976793,False,False,False,-4.07166193988951,4.07166193988951,True,-6.697287909547527,6.697287909547527,True,model_implied_state_space
indicator_revision_only_dfm_kalman_em,exact,pre_third,DELTA_MT,2024:Q1:pre_third:exact,2024-06-26,2024:Q1,0.0,-0.5680999999999999,0.5680999999999999,0,22.549087858869697,4.748587985798483,-2.4839421749505135,1.1368029655716954,0.4523859231778261,0.5,0.48320240184339536,0.48320240184339536,True,False,True,-4.748587985798483,4.748587985798483,True,-7.810732171338821,7.810732171338821,True,model_implied_state_space
indicator_revision_only_dfm_kalman_em,exact,pre_third,DELTA_MT,2024:Q2:pre_third:exact,2024-09-25,2024:Q2,0.0,0.6000000000000001,-0.6000000000000001,1,22.540300742884803,4.747662661024349,-2.4845766552477477,1.1397152307677914,0.5502836326970455,0.5,0.48319912990864267,0.4831991299086427,False,True,False,-4.747662661024349,4.747662661024349,True,-7.8092101475279785,7.8092101475279785,True,model_implied_state_space
indicator_revision_only_dfm_kalman_em,exact,pre_third,DELTA_MT,2024:Q3:pre_third:exact,2024-12-18,2024:Q3,0.0,0.2678000000000002,-0.2678000000000002,2,22.440053881005316,4.737093400071959,-2.475960239056446,1.1130730805325257,0.5225412196508761,0.5,0.48316166655330695,0.48316166655330695,False,True,False,-4.737093400071959,4.737093400071959,True,-7.7918252603162435,7.7918252603162435,True,model_implied_state_space
indicator_revision_only_dfm_kalman_em,exact,pre_third,DELTA_MT,2024:Q4:pre_third:exact,2025-03-26,2024:Q4,0.0,-0.5985,0.5985,3,17.100851245709965,4.135317550770432,-2.348975883202871,1.0008992284491203,0.44246245645116045,0.5,0.48071312276519884,0.4807131227651988,True,False,True,-4.135317550770432,4.135317550770432,True,-6.801992071980823,6.801992071980823,True,model_implied_state_space
indicator_revision_only_dfm_kalman_em,pseudo,pre_advance,DELTA_SA,2024:Q1:pre_advance:pseudo,2024-04-30,2024:Q1,0.0,-0.3404999999999998,0.3404999999999998,0,17.051599912206687,4.1293582930289165,-2.340460239431331,0.9762050772126428,0.4671411255671794,0.5,0.4806853107700908,0.48068531077009075,True,False,True,-4.1293582930289165,4.1293582930289165,True,-6.792189965270754,6.792189965270754,True,model_implied_state_space
indicator_revision_only_dfm_kalman_em,pseudo,pre_advance,DELTA_SA,2024:Q2:pre_advance:pseudo,2024-07-31,2024:Q2,0.0,0.1112999999999999,-0.1112999999999999,1,17.0113300713639,4.124479369734306,-2.336242432787279,0.9650682451554916,0.5107642403910877,0.5,0.480662480956904,0.480662480956904,False,False,False,-4.124479369734306,4.124479369734306,True,-6.784164850593996,6.784164850593996,True,model_implied_state_space
indicator_revision_only_dfm_kalman_em,pseudo,pre_advance,DELTA_SA,2024:Q3:pre_advance:pseudo,2024-10-31,2024:Q3,0.0,0.0087999999999999,-0.0087999999999999,2,21.737952081263455,4.662397675152073,-2.4584701528022506,1.0895855448707177,0.5007529795242069,0.5,0.4828920657129485,0.48289206571294857,False,False,False,-4.662397675152073,4.662397675152073,True,-7.6689617262639995,7.6689617262639995,True,model_implied_state_space
indicator_revision_only_dfm_kalman_em,pseudo,pre_advance,DELTA_SA,2024:Q4:pre_advance:pseudo,2025-01-31,2024:Q4,0.0,0.0939000000000001,-0.0939000000000001,3,21.67024774420218,4.655131334796279,-2.4571120976927805,1.0886364159940056,0.5080466344022352,0.5,0.48286537781615224,0.4828653778161522,False,False,False,-4.655131334796279,4.655131334796279,True,-7.657009659975107,7.657009659975107,True,model_implied_state_space
indicator_revision_only_dfm_kalman_em,pseudo,pre_second,DELTA_TS,2024:Q1:pre_second:pseudo,2024-05-31,2024:Q1,0.0,0.1602999999999999,-0.1602999999999999,0,16.771314631832826,4.0952795547841205,-2.3295395881496725,0.9595491313672359,0.515611662211674,0.5,0.4805247114106135,0.48052471141061354,False,False,False,-4.0952795547841205,4.0952795547841205,True,-6.736135429066871,6.736135429066871,True,model_implied_state_space
indicator_revision_only_dfm_kalman_em,pseudo,pre_second,DELTA_TS,2024:Q2:pre_second:pseudo,2024-08-31,2024:Q2,0.0,0.0381,-0.0381,1,16.713495432976384,4.088214210749772,-2.3270902109071576,0.955536779164666,0.5037178778020043,0.5,0.4804910805964241,0.4804910805964241,False,False,False,-4.088214210749772,4.088214210749772,True,-6.724513972306313,6.724513972306313,True,model_implied_state_space
indicator_revision_only_dfm_kalman_em,pseudo,pre_second,DELTA_TS,2024:Q3:pre_second:pseudo,2024-11-30,2024:Q3,0.0,0.2393999999999998,-0.2393999999999998,2,16.70625583481474,4.087328691800397,-2.328545454657499,0.9607805397528185,0.5233531995431924,0.5,0.4804868573647376,0.4804868573647377,False,True,False,-4.087328691800397,4.087328691800397,True,-6.723057423250698,6.723057423250698,True,model_implied_state_space
indicator_revision_only_dfm_kalman_em,pseudo,pre_second,DELTA_TS,2024:Q4:pre_second:pseudo,2025-02-28,2024:Q4,0.0,0.1044,-0.1044,3,16.579091045405896,4.071742998447458,-2.3233384041393927,0.952613729201209,0.5102278093248003,0.5,0.480412225489241,0.480412225489241,False,False,False,-4.071742998447458,4.071742998447458,True,-6.697421239010564,6.697421239010564,True,model_implied_state_space
indicator_revision_only_dfm_kalman_em,pseudo,pre_third,DELTA_MT,2024:Q1:pre_third:pseudo,2024-06-30,2024:Q1,0.0,-0.5680999999999999,0.5680999999999999,0,22.543758094932382,4.748026758026158,-2.4838256715076397,1.1366750029675279,0.45238032188808724,0.5,0.48320041750231424,0.48320041750231424,True,False,True,-4.748026758026158,4.748026758026158,True,-7.809809033801965,7.809809033801965,True,model_implied_state_space
indicator_revision_only_dfm_kalman_em,pseudo,pre_third,DELTA_MT,2024:Q2:pre_third:pseudo,2024-09-30,2024:Q2,0.0,0.6000000000000001,-0.6000000000000001,1,22.535543928330668,4.747161670759768,-2.4844728117450163,1.1396013316232223,0.5502889111689863,0.5,0.4831973578826725,0.48319735788267243,False,True,False,-4.747161670759768,4.747161670759768,True,-7.8083860918742145,7.8083860918742145,True,model_implied_state_space
indicator_revision_only_dfm_kalman_em,pseudo,pre_third,DELTA_MT,2024:Q3:pre_third:pseudo,2024-12-31,2024:Q3,0.0,0.2678000000000002,-0.2678000000000002,2,22.44006689347808,4.737094773537688,-2.475960528068276,1.1130733997548095,0.5225412131222701,0.5,0.48316167143248645,0.48316167143248645,False,True,False,-4.737094773537688,4.737094773537688,True,-7.791827519466329,7.791827519466329,True,model_implied_state_space
indicator_revision_only_dfm_kalman_em,pseudo,pre_third,DELTA_MT,2024:Q4:pre_third:pseudo,2025-03-31,2024:Q4,0.0,-0.5985,0.5985,3,17.100939536801697,4.135328226005972,-2.348978410605938,1.0009016344569592,0.4424626039485665,0.5,0.48071317251493206,0.48071317251493206,True,False,True,-4.135328226005972,4.135328226005972,True,-6.80200963118072,6.80200963118072,True,model_implied_state_space
joint_indicator_revision_dfm_full_kalman_em,exact,pre_advance,DELTA_SA,2024:Q1:pre_advance:exact,2024-04-24,2024:Q1,0.2489838307741783,-0.3404999999999998,0.5894838307741781,0,21.46327373762345,4.632847260338231,-2.4602051896147965,1.1125558804715066,0.44937519411507826,0.4785698996691628,0.5042180015786195,0.46139768209056287,True,False,True,-4.383863429564053,4.881831091112409,True,-7.3713717885053525,7.869339450053709,True,model_implied_state_space
joint_indicator_revision_dfm_full_kalman_em,exact,pre_advance,DELTA_SA,2024:Q2:pre_advance:exact,2024-07-24,2024:Q2,-0.0537168088483905,0.1112999999999999,-0.1650168088483905,1,21.481623692488228,4.634827255949053,-2.45317127231038,1.0854794691531995,0.5142008046179793,0.504623565299422,0.47817225382970574,0.48741077947973166,False,False,False,-4.688544064797443,4.581110447100662,True,-7.677329231089729,7.569895613392948,True,model_implied_state_space
joint_indicator_revision_dfm_full_kalman_em,exact,pre_advance,DELTA_SA,2024:Q3:pre_advance:exact,2024-10-29,2024:Q3,0.3184784339643101,0.0087999999999999,0.3096784339643101,2,25.296965607831055,5.0296088921337665,-2.5361762579821807,1.1829986595041044,0.47545220540976757,0.47475556012144876,0.5093966920141884,0.4589476601487762,False,False,False,-4.711130458169457,5.348087326098076,True,-7.954491994409292,8.591448862337913,True,model_implied_state_space
joint_indicator_revision_dfm_full_kalman_em,exact,pre_advance,DELTA_SA,2024:Q4:pre_advance:exact,2025-01-29,2024:Q4,0.1926617895921487,0.0939000000000001,0.0987617895921486,3,25.233296264525165,5.023275451786928,-2.5332140087867105,1.1746888593817748,0.4921569669569797,0.48470279110795056,0.4994172086756895,0.4688470186494301,False,False,False,-4.8306136621947795,5.215937241379076,True,-8.069891056455875,8.455214635640173,True,model_implied_state_space
joint_indicator_revision_dfm_full_kalman_em,exact,pre_second,DELTA_TS,2024:Q1:pre_second:exact,2024-05-29,2024:Q1,0.0027419274212774,0.1602999999999999,-0.1575580725787224,0,16.453622631869656,4.0563065258766695,-2.3199657494272685,0.9503796762461763,0.5154921167926136,0.4997303283941049,0.48060709202622487,0.4800684040081007,False,False,False,-4.0535645984553925,4.0590484532979465,True,-6.669288573693889,6.674772428536443,True,model_implied_state_space
joint_indicator_revision_dfm_full_kalman_em,exact,pre_second,DELTA_TS,2024:Q2:pre_second:exact,2024-08-28,2024:Q2,0.000278716148268,0.0381,-0.037821283851732,1,16.4305548769832,4.053462085302291,-2.318553415200598,0.9474145138400235,0.5037223218023903,0.4999725687194435,0.48035135505691895,0.4802965592363201,False,False,False,-4.0531833691540236,4.053740801450559,True,-6.6670730965714835,6.667630528868019,True,model_implied_state_space
joint_indicator_revision_dfm_full_kalman_em,exact,pre_second,DELTA_TS,2024:Q3:pre_second:exact,2024-11-26,2024:Q3,-7.558024404197283e-05,0.2393999999999998,-0.2394755802440418,2,16.417534467169247,4.051855681927633,-2.319860066581041,0.9525431683768187,0.5235648429383932,0.5000074415668465,0.48030873014195397,0.48032359515590806,False,True,False,-4.051931262171675,4.051780101683591,True,-6.66478509454664,6.664633934058556,True,model_implied_state_space
joint_indicator_revision_dfm_full_kalman_em,exact,pre_second,DELTA_TS,2024:Q4:pre_second:exact,2025-02-26,2024:Q4,0.0023792956370201,0.1044,-0.1020207043629799,3,16.32787069476346,4.040776001557555,-2.315694012028875,0.9453365960574189,0.5100713448999732,0.49976509423636295,0.48049685580619617,0.48002761939843797,False,False,False,-4.038396705920535,4.043155297194575,True,-6.644105766223392,6.648864357497432,True,model_implied_state_space
joint_indicator_revision_dfm_full_kalman_em,exact,pre_third,DELTA_MT,2024:Q1:pre_third:exact,2024-06-26,2024:Q1,0.0899434264693925,-0.5680999999999999,0.6580434264693925,0,26.54660712662518,5.1523399661343365,-2.566545373236557,1.2375590114294992,0.4491863127401448,0.4930360935959869,0.4914790401879481,0.47756171546515425,True,False,True,-5.062396539664944,5.242283392603729,True,-8.384901654113696,8.564788507052482,True,model_implied_state_space
joint_indicator_revision_dfm_full_kalman_em,exact,pre_third,DELTA_MT,2024:Q2:pre_third:exact,2024-09-25,2024:Q2,0.0006367386593821,0.6000000000000001,-0.5993632613406179,1,26.557809267390805,5.153426944023831,-2.56536374236875,1.2321082514453476,0.5462941225464741,0.499950708145297,0.4845705389369377,0.4844720294404284,False,True,False,-5.152790205364449,5.154063682683213,True,-8.475996261447657,8.477269738766422,True,model_implied_state_space
joint_indicator_revision_dfm_full_kalman_em,exact,pre_third,DELTA_MT,2024:Q3:pre_third:exact,2024-12-18,2024:Q3,0.0313993419586724,0.2678000000000002,-0.2364006580413278,2,26.440233469659177,5.142006755116059,-2.557438778334062,1.2059962434895684,0.5183346715732361,0.4975638991094892,0.4869214717514654,0.48205295397649883,False,True,False,-5.110607413157386,5.173406097074731,True,-8.426449119002948,8.489247802920291,True,model_implied_state_space
joint_indicator_revision_dfm_full_kalman_em,exact,pre_third,DELTA_MT,2024:Q4:pre_third:exact,2025-03-26,2024:Q4,0.0901985551431843,-0.5985,0.6886985551431843,3,20.956059852669007,4.577778921340458,-2.4514691337527554,1.111060741559097,0.4402072350345674,0.4921399242551036,0.49043198903116003,0.47472683140968264,True,False,True,-4.487580366197274,4.6679774764836415,True,-7.439577707005666,7.619974817292034,True,model_implied_state_space
joint_indicator_revision_dfm_full_kalman_em,pseudo,pre_advance,DELTA_SA,2024:Q1:pre_advance:pseudo,2024-04-30,2024:Q1,0.2483065861039688,-0.3404999999999998,0.5888065861039686,0,21.462983432278723,4.632815929030499,-2.460179946287477,1.1124802280091344,0.44943270300463845,0.47862799001837664,0.5041597142448038,0.4614554680948706,True,False,True,-4.38450934292653,4.881122515134467,True,-7.371997497760401,7.868610669968338,True,model_implied_state_space
joint_indicator_revision_dfm_full_kalman_em,pseudo,pre_advance,DELTA_SA,2024:Q2:pre_advance:pseudo,2024-07-31,2024:Q2,-0.0363822079521765,0.1112999999999999,-0.1476822079521764,1,21.48110221218542,4.634770998893626,-2.453032980393788,1.084999863618323,0.5127097344269335,0.5031316006655941,0.47966199631144923,0.4859193691167371,False,False,False,-4.671153206845802,4.59838879094145,True,-7.659902095571855,7.587137679667503,True,model_implied_state_space
joint_indicator_revision_dfm_full_kalman_em,pseudo,pre_advance,DELTA_SA,2024:Q3:pre_advance:pseudo,2024-10-31,2024:Q3,0.3172996811280375,0.0087999999999999,0.3084996811280376,2,25.296784073006226,5.029590845486959,-2.536158280891115,1.1829367075911137,0.47554543859048665,0.47484878063584046,0.5093032538695312,0.45904051656241757,False,False,False,-4.712291164358922,5.346890526614997,True,-7.955641063153109,8.590240425409185,True,model_implied_state_space
joint_indicator_revision_dfm_full_kalman_em,pseudo,pre_advance,DELTA_SA,2024:Q4:pre_advance:pseudo,2025-01-31,2024:Q4,0.1918674627484971,0.0939000000000001,0.0979674627484969,3,25.23307750318176,5.023253676968919,-2.533206579190394,1.1746713642566595,0.49222000559168566,0.48476576336045113,0.4993541215021404,0.46890977655159327,False,False,False,-4.831386214220421,5.215121139717416,True,-8.070649566911147,8.454384492408142,True,model_implied_state_space
joint_indicator_revision_dfm_full_kalman_em,pseudo,pre_second,DELTA_TS,2024:Q1:pre_second:pseudo,2024-05-31,2024:Q1,0.0027421956694315,0.1602999999999999,-0.1575578043305683,0,16.455433181881148,4.056529696906106,-2.320020680628156,0.9504316876135177,0.5154912385571607,0.49973031684910746,0.4806081844412521,0.480069473289134,False,False,False,-4.053787501236675,4.059271892575538,True,-6.669655389122934,6.675139780461797,True,model_implied_state_space
joint_indicator_revision_dfm_full_kalman_em,pseudo,pre_second,DELTA_TS,2024:Q2:pre_second:pseudo,2024-08-31,2024:Q2,0.0002789659447377,0.0381,-0.0378210340552622,1,16.43056044259301,4.0534627718276885,-2.3185535839784994,0.9474146723940775,0.5037222965880401,0.49997254413909176,0.48035138293724466,0.48029653801572386,False,False,False,-4.053183805882951,4.053741737772426,True,-6.667073976008804,6.667631907898278,True,model_implied_state_space
joint_indicator_revision_dfm_full_kalman_em,pseudo,pre_second,DELTA_TS,2024:Q3:pre_second:pseudo,2024-11-30,2024:Q3,-7.471566276029407e-05,0.2393999999999998,-0.2394747156627601,2,16.417766619750367,4.051884329512673,-2.319867099486235,0.952549782539565,0.5235645915476244,0.500007356388894,0.48030895427145015,0.48032364913715525,False,True,False,-4.051959045175433,4.051809613849914,True,-6.664831351049516,6.664681919723995,True,model_implied_state_space
joint_indicator_revision_dfm_full_kalman_em,pseudo,pre_second,DELTA_TS,2024:Q4:pre_second:pseudo,2025-02-28,2024:Q4,0.0023813426441852,0.1044,-0.1020186573558148,3,16.32848281163365,4.040851743337492,-2.3157127314802213,0.9453542360417317,0.5100709541316153,0.49976489654403544,0.48049742293593845,0.4800277916059702,False,False,False,-4.038470400693307,4.043233085981677,True,-6.644228303357668,6.648990988646037,True,model_implied_state_space
joint_indicator_revision_dfm_full_kalman_em,pseudo,pre_third,DELTA_MT,2024:Q1:pre_third:pseudo,2024-06-30,2024:Q1,0.0897380531318368,-0.5680999999999999,0.6578380531318367,0,26.54121470417956,5.151816641164508,-2.566440363688054,1.2374192345895456,0.4491969534321306,0.4930512873887971,0.49146227485288074,0.4775753169629556,True,False,True,-5.062078588032671,5.241554694296346,True,-8.384246234476555,8.56372234074023,True,model_implied_state_space
joint_indicator_revision_dfm_full_kalman_em,pseudo,pre_third,DELTA_MT,2024:Q2:pre_third:pseudo,2024-09-30,2024:Q2,0.0008713520661083,0.6000000000000001,-0.5991286479338918,1,26.55362662008964,5.153021115820276,-2.5652807607983186,1.23199387428149,0.5462797108896144,0.49993254070363463,0.48458747437703864,0.4844526573657575,False,True,False,-5.152149763754168,5.153892467886384,True,-8.475094120048395,8.47683682418061,True,model_implied_state_space
joint_indicator_revision_dfm_full_kalman_em,pseudo,pre_third,DELTA_MT,2024:Q3:pre_third:pseudo,2024-12-31,2024:Q3,0.0313923971280662,0.2678000000000002,-0.2364076028719339,2,26.440245217945485,5.14200789749933,-2.557439062125501,1.2059967641620857,0.518335205747743,0.49756443845479886,0.4869209361314758,0.48205349622988514,False,True,False,-5.1106155003712646,5.173400294627396,True,-8.426457942886822,8.489242737142954,True,model_implied_state_space
joint_indicator_revision_dfm_full_kalman_em,pseudo,pre_third,DELTA_MT,2024:Q4:pre_third:pseudo,2025-03-31,2024:Q4,0.0902017129674868,-0.5985,0.6887017129674868,3,20.956156552646657,4.577789483216399,-2.4514714925141234,1.1110634926169722,0.44020709985147866,0.4921396672448801,0.49043228621915347,0.47472661499821767,True,False,True,-4.487587770248911,4.667991196183886,True,-7.439591921921313,7.619995347856285,True,model_implied_state_space
monthly_mixed_frequency_kalman_em,exact,pre_advance,DELTA_SA,2024:Q1:pre_advance:exact,2024-04-24,2024:Q1,0.1148618374233729,-0.3404999999999998,0.4553618374233728,0,20.88918706741567,4.570469020507159,-2.4435175625894927,1.086180029351616,0.46031851597665047,0.48997511632200047,0.4925689796020829,0.4725383953340287,True,False,True,-4.455607183083786,4.6853308579305315,True,-7.4028907078271695,7.632614382673915,True,model_implied_state_space
monthly_mixed_frequency_kalman_em,exact,pre_advance,DELTA_SA,2024:Q2:pre_advance:exact,2024-07-24,2024:Q2,0.0075209733190644,0.1112999999999999,-0.1037790266809355,1,28.093986915342697,5.300376110743717,-2.5869079951011122,1.2394818785466855,0.5078106148607957,0.4994339206921924,0.4855159055601592,0.48438455263649915,False,False,False,-5.292855137424653,5.307897084062781,True,-8.710821896644678,8.725863843282806,True,model_implied_state_space
monthly_mixed_frequency_kalman_em,exact,pre_advance,DELTA_SA,2024:Q3:pre_advance:exact,2024-10-29,2024:Q3,0.0479936692910567,0.0087999999999999,0.0391936692910568,2,28.090908173071767,5.3000856760123956,-2.5866888612821577,1.2387190279165214,0.4970498836711836,0.49638752213060944,0.4885599132632359,0.4813400995348019,False,False,False,-5.252092006721339,5.348079345303452,True,-8.669871478051478,8.76585881663359,True,model_implied_state_space
monthly_mixed_frequency_kalman_em,exact,pre_advance,DELTA_SA,2024:Q4:pre_advance:exact,2025-01-29,2024:Q4,0.1328284425043424,0.0939000000000001,0.0389284425043423,3,20.836673985230945,4.564720581287637,-2.4373322007960825,1.0668847148961464,0.49659781730290703,0.4883928482701825,0.4941296281457741,0.470937589871811,False,False,False,-4.431892138783295,4.6975490237919795,True,-7.37546876164666,7.641125646655345,True,model_implied_state_space
monthly_mixed_frequency_kalman_em,exact,pre_second,DELTA_TS,2024:Q1:pre_second:exact,2024-05-29,2024:Q1,0.0639343450038361,0.1602999999999999,-0.0963656549961637,0,29.72043615919239,5.451645270851029,-2.6150122090644135,1.2747016586666216,0.5070515101975606,0.49532149883700016,0.49004397667101984,0.4806932686173971,False,False,False,-5.387710925847193,5.515579615854865,True,-8.903224151608319,9.031092841615992,True,model_implied_state_space
monthly_mixed_frequency_kalman_em,exact,pre_second,DELTA_TS,2024:Q2:pre_second:exact,2024-08-28,2024:Q2,-0.0540127923413424,0.0381,-0.0921127923413425,1,29.701103175517005,5.449871849458206,-2.614673463624087,1.2742287661803424,0.5067425324652319,0.5039537872431716,0.4814124502498468,0.489314701934593,False,False,False,-5.503884641799548,5.395859057116864,True,-9.0182542703434,8.910228685660714,True,model_implied_state_space
monthly_mixed_frequency_kalman_em,exact,pre_second,DELTA_TS,2024:Q3:pre_second:exact,2024-11-26,2024:Q3,-0.0781460389987231,0.2393999999999998,-0.317546038998723,2,29.685163715959035,5.448409283080617,-2.6159606401546887,1.2806471490409241,0.5232381326392889,0.5057217966764003,0.47964249211853927,0.49107837862143416,False,True,False,-5.526555322079339,5.370263244081894,True,-9.039981809389944,8.883689731392499,True,model_implied_state_space
monthly_mixed_frequency_kalman_em,exact,pre_second,DELTA_TS,2024:Q4:pre_second:exact,2025-02-26,2024:Q4,0.0368459595137302,0.1044,-0.0675540404862697,3,29.60878424912389,5.441395432159281,-2.6130511385392357,1.2719613593530736,0.5049526763892227,0.4972986159592893,0.48803996249852455,0.48264084256503714,False,False,False,-5.4045494726455505,5.478241391673011,True,-8.913453052750636,8.987144971778097,True,model_implied_state_space
monthly_mixed_frequency_kalman_em,exact,pre_third,DELTA_MT,2024:Q1:pre_third:exact,2024-06-26,2024:Q1,0.0560203257617579,-0.5680999999999999,0.6241203257617579,0,40.10051835992765,6.332497008284145,-2.7694900358022125,1.504392739049896,0.46074447861471224,0.4964708100173428,0.4909301763682832,0.48387531577695103,True,False,True,-6.276476682522387,6.388517334045903,True,-10.360010345973766,10.47205099749728,True,model_implied_state_space
monthly_mixed_frequency_kalman_em,exact,pre_third,DELTA_MT,2024:Q2:pre_third:exact,2024-09-25,2024:Q2,-0.0621827262982841,0.6000000000000001,-0.6621827262982842,1,40.19960670034176,6.340315977957389,-2.7713209980747138,1.50926514739266,0.5415899174461978,0.5039125685583361,0.48350776623853486,0.4913290113071269,False,True,False,-6.402498704255673,6.2781332516591055,True,-10.491074458659865,10.366709006063298,True,model_implied_state_space
monthly_mixed_frequency_kalman_em,exact,pre_third,DELTA_MT,2024:Q3:pre_third:exact,2024-12-18,2024:Q3,-0.0704260544214174,0.2678000000000002,-0.3382260544214177,2,28.475968864701063,5.336287929328876,-2.595477456350239,1.2556131637482708,0.5252689482261629,0.5052649173991361,0.47979152755210064,0.49031396978226605,False,True,False,-5.406713983750293,5.265861874907459,True,-8.84783860943538,8.706986500592544,True,model_implied_state_space
monthly_mixed_frequency_kalman_em,exact,pre_third,DELTA_MT,2024:Q4:pre_third:exact,2025-03-26,2024:Q4,0.00368753280841,-0.5985,0.6021875328084101,3,28.534825343160705,5.341799822453169,-2.600855337124571,1.2754054704316224,0.45512183031674636,0.49972460356439813,0.4853420718627237,0.4847916649057826,True,False,True,-5.338112289644759,5.345487355261579,True,-8.782791279602415,8.790166345219236,True,model_implied_state_space
monthly_mixed_frequency_kalman_em,pseudo,pre_advance,DELTA_SA,2024:Q1:pre_advance:pseudo,2024-04-30,2024:Q1,0.1142312060685906,-0.3404999999999998,0.4547312060685904,0,20.889020364973952,4.570450783563253,-2.4434998743442398,1.0861258250771726,0.4603731321139769,0.49003010514840084,0.49251391347061135,0.4725932018277512,True,False,True,-4.456219577494662,4.6846819896318435,True,-7.403491342078623,7.631953754215805,True,model_implied_state_space
monthly_mixed_frequency_kalman_em,pseudo,pre_advance,DELTA_SA,2024:Q2:pre_advance:pseudo,2024-07-31,2024:Q2,0.0042925133111286,0.1112999999999999,-0.1070074866888712,1,28.093604862639047,5.3003400704708605,-2.5869133096947294,1.2395246788397833,0.5080536173900567,0.499676914152859,0.4852729725259264,0.484627260681211,False,False,False,-5.296047557159732,5.304632583781989,True,-8.713991075679088,8.722576102301344,True,model_implied_state_space
monthly_mixed_frequency_kalman_em,pseudo,pre_advance,DELTA_SA,2024:Q3:pre_advance:pseudo,2024-10-31,2024:Q3,0.0481177789120403,0.0087999999999999,0.0393177789120404,2,28.09174699343214,5.300164808138718,-2.5867039641349603,1.2387382523947517,0.4970405862673758,0.49637823474302006,0.4885694218852501,0.48133104644672303,False,False,False,-5.252047029226678,5.348282587050758,True,-8.669877529195483,8.766113087019564,True,model_implied_state_space
monthly_mixed_frequency_kalman_em,pseudo,pre_advance,DELTA_SA,2024:Q4:pre_advance:pseudo,2025-01-31,2024:Q4,0.1318202593164208,0.0939000000000001,0.0379202593164207,3,20.836614263718893,4.564714039643545,-2.4373289086428938,1.0668764151099959,0.4966859214844558,0.4884809068054097,0.4940415172381194,0.47102542727565316,False,False,False,-4.432893780327124,4.696534298959966,True,-7.37646618478757,7.640106703420412,True,model_implied_state_space
monthly_mixed_frequency_kalman_em,pseudo,pre_second,DELTA_TS,2024:Q1:pre_second:pseudo,2024-05-31,2024:Q1,0.0623599697653975,0.1602999999999999,-0.0979400302346023,0,29.72264133809265,5.451847516034601,-2.6150544408720826,1.2747712811139635,0.5071664362184103,0.4954368705297165,0.4899291763483362,0.4808090560219755,False,False,False,-5.389487546269203,5.514207485799998,True,-8.90513119057049,9.029851130101285,True,model_implied_state_space
monthly_mixed_frequency_kalman_em,pseudo,pre_second,DELTA_TS,2024:Q2:pre_second:pseudo,2024-08-31,2024:Q2,-0.0536653055692237,0.0381,-0.0917653055692238,1,29.70190670385625,5.449945568889312,-2.6146859108798086,1.2742413086595408,0.5067170084581651,0.5039282985734821,0.48143811035052675,0.4892894191509127,False,False,False,-5.503610874458536,5.396280263320088,True,-9.018028041244913,8.910697430106465,True,model_implied_state_space
monthly_mixed_frequency_kalman_em,pseudo,pre_second,DELTA_TS,2024:Q3:pre_second:pseudo,2024-11-30,2024:Q3,-0.0784606604577389,0.2393999999999998,-0.3178606604577387,2,29.687222761590128,5.448598238225142,-2.6159985695260333,1.2807056802340178,0.5232603248818426,0.505744632229165,0.4796201911788367,0.49110171857013485,False,True,False,-5.527058898682881,5.370137577767403,True,-9.040607234403765,8.88368591348829,True,model_implied_state_space
monthly_mixed_frequency_kalman_em,pseudo,pre_second,DELTA_TS,2024:Q4:pre_second:pseudo,2025-02-28,2024:Q4,0.0373991875127246,0.1044,-0.0670008124872754,3,29.611230867215525,5.441620242833519,-2.6130911892648956,1.2720084254008392,0.504911916005484,0.4972581696210284,0.4880809971763367,0.48260103888049777,False,False,False,-5.404221055320795,5.479019430346243,True,-8.91326960540454,8.988067980429989,True,model_implied_state_space
monthly_mixed_frequency_kalman_em,pseudo,pre_third,DELTA_MT,2024:Q1:pre_third:pseudo,2024-06-30,2024:Q1,0.0569968670029867,-0.5680999999999999,0.6250968670029867,0,40.125356314871816,6.334457854850075,-2.769811830927704,1.5049201064723055,0.4606953869656022,0.4964104026270022,0.490994469971025,0.48381885261990454,True,False,True,-6.277460987847088,6.391454721853061,True,-10.362259110318401,10.476252844324375,True,model_implied_state_space
monthly_mixed_frequency_kalman_em,pseudo,pre_third,DELTA_MT,2024:Q2:pre_third:pseudo,2024-09-30,2024:Q2,-0.059882235404741,0.6000000000000001,-0.6598822354047411,1,40.19905400793863,6.340272392250874,-2.7712763694325155,1.5090641262111646,0.5414462355406205,0.5037678507963261,0.48365228166693974,0.491184235110021,False,True,False,-6.400154627655615,6.280390156846133,True,-10.488702275658879,10.368937804849397,True,model_implied_state_space
monthly_mixed_frequency_kalman_em,pseudo,pre_third,DELTA_MT,2024:Q3:pre_third:pseudo,2024-12-31,2024:Q3,-0.0702249373578625,0.2678000000000002,-0.3380249373578627,2,28.475177410748422,5.336213771087926,-2.5954612269684807,1.2555857909173078,0.5252542933040022,0.5052499560947994,0.4798062634443724,0.4902988038660634,False,True,False,-5.406438708445789,5.265988833730063,True,-8.84751551292023,8.707065638204506,True,model_implied_state_space
monthly_mixed_frequency_kalman_em,pseudo,pre_third,DELTA_MT,2024:Q4:pre_third:pseudo,2025-03-31,2024:Q4,0.00320623878169,-0.5985,0.60170623878169,3,28.53522436342434,5.341837171182246,-2.6008520871990712,1.2753708281907943,0.45515785956754545,0.499760549770933,0.48530625433628116,0.4848276894161517,True,False,True,-5.338630932400556,5.345043409963936,True,-8.78333400682162,8.789746484385,True,model_implied_state_space
revision_dfm_kalman_em,exact,pre_advance,DELTA_SA,2024:Q1:pre_advance:exact,2024-04-24,2024:Q1,0.2616903084721818,-0.3404999999999998,0.6021903084721816,0,25.036245612659172,5.003623248472968,-2.5363429963878046,1.1981997617422122,0.4521026123680057,0.47914476196053085,0.5049184855907314,0.4632412859343209,True,False,True,-4.741932940000786,5.2653135569451495,True,-7.968537539677286,8.49191815662165,True,model_implied_state_space
revision_dfm_kalman_em,exact,pre_advance,DELTA_SA,2024:Q2:pre_advance:exact,2024-07-24,2024:Q2,-0.1273386571319879,0.1112999999999999,-0.2386386571319878,1,21.061355329302867,4.589265227604836,-2.444010427812498,1.0774376113773882,0.5207353811624107,0.5110680585907799,0.47156874171549146,0.49368385366260964,False,False,False,-4.7166038847368235,4.461926570472848,True,-7.676008211800076,7.4213308975361,True,model_implied_state_space
revision_dfm_kalman_em,exact,pre_advance,DELTA_SA,2024:Q3:pre_advance:exact,2024-10-29,2024:Q3,0.2442383008072453,0.0087999999999999,0.2354383008072453,2,25.003819788179484,5.000381964228281,-2.5295612900739277,1.1729857640724735,0.48122311445682137,0.48052183689234834,0.5035293900569159,0.46460418693033045,False,False,False,-4.756143663421036,5.244620265035526,True,-7.980658109196369,8.46913471081086,True,model_implied_state_space
revision_dfm_kalman_em,exact,pre_advance,DELTA_SA,2024:Q4:pre_advance:exact,2025-01-29,2024:Q4,0.1945734980947873,0.0939000000000001,0.1006734980947872,3,20.94014065241514,4.576039843840429,-2.4400144973653335,1.0702810811709014,0.49122392359701367,0.48304205950507473,0.499526913966845,0.46564339118803194,False,False,False,-4.3814663457456415,4.770613341935217,True,-7.332342236120592,7.721489232310166,True,model_implied_state_space
revision_dfm_kalman_em,exact,pre_second,DELTA_TS,2024:Q1:pre_second:exact,2024-05-29,2024:Q1,0.0024572186484483,0.1602999999999999,-0.1578427813515515,0,20.126440692769975,4.486250181696287,-2.420574682780185,1.0506294274487389,0.5140333613371079,0.4997814904826213,0.48243907383058104,0.48200248885362146,False,False,False,-4.483792963047839,4.488707400344736,True,-7.376767664126391,7.381682101423288,True,model_implied_state_space
revision_dfm_kalman_em,exact,pre_second,DELTA_TS,2024:Q2:pre_second:exact,2024-08-28,2024:Q2,-0.0001706928292812,0.0381,-0.0382706928292813,1,20.126381991008444,4.486243639283141,-2.4199906650785636,1.0485428490931714,0.5034032062278211,0.500015178976449,0.4822055888788114,0.48223591667937077,False,False,False,-4.486414332112422,4.48607294645386,True,-7.379384814292128,7.379043428633566,True,model_implied_state_space
revision_dfm_kalman_em,exact,pre_second,DELTA_TS,2024:Q3:pre_second:exact,2024-11-26,2024:Q3,-0.0001097822651687,0.2393999999999998,-0.2395097822651686,2,15.668172201050156,3.958304207744796,-2.2965848562914037,0.930815640046851,0.5241245493305046,0.5000110645329185,0.4798402910681897,0.47986239190489083,False,True,False,-3.958413990009965,3.9581944254796273,True,-6.51094081495147,6.510721250421133,True,model_implied_state_space
revision_dfm_kalman_em,exact,pre_second,DELTA_TS,2024:Q4:pre_second:exact,2025-02-26,2024:Q4,0.0018594824569437,0.1044,-0.1025405175430562,3,15.535085284116835,3.9414572538741095,-2.290827462782897,0.9221629547351511,0.5103776677409428,0.4998117888647677,0.47995326512328096,0.4795773271501794,False,False,False,-3.9395977714171657,3.9433167363310533,True,-6.481260777052075,6.484979741965962,True,model_implied_state_space
revision_dfm_kalman_em,exact,pre_third,DELTA_MT,2024:Q1:pre_third:exact,2024-06-26,2024:Q1,0.0992203979535217,-0.5680999999999999,0.6673203979535217,0,25.89683024978738,5.08889283143076,-2.554596717860488,1.2241092134719347,0.4478351558678169,0.49222213842031576,0.4920999286650629,0.4765562129584987,True,False,True,-4.989672433477239,5.188113229384282,True,-8.271263432992711,8.469704228899754,True,model_implied_state_space
revision_dfm_kalman_em,exact,pre_third,DELTA_MT,2024:Q2:pre_third:exact,2024-09-25,2024:Q2,0.0084069963469275,0.6000000000000001,-0.5915930036530725,1,20.03399248360326,4.475934816728597,-2.426388472031121,1.0771522461096812,0.5525758538722092,0.4992506807048655,0.48292843445021716,0.48143129120745,False,True,False,-4.46752782038167,4.484341813075525,True,-7.353850620947479,7.370664613641334,True,model_implied_state_space
revision_dfm_kalman_em,exact,pre_third,DELTA_MT,2024:Q3:pre_third:exact,2024-12-18,2024:Q3,0.018989497247869,0.2678000000000002,-0.2488105027521312,2,25.78965331462532,5.078351436699248,-2.545125444717301,1.1916474800255792,0.5195380987510778,0.4985082372152109,0.4857832889365463,0.48280207619767446,False,True,False,-5.059361939451379,5.097340933947117,True,-8.334155282341108,8.372134276836846,True,model_implied_state_space
revision_dfm_kalman_em,exact,pre_third,DELTA_MT,2024:Q4:pre_third:exact,2025-03-26,2024:Q4,0.0759883895193107,-0.5985,0.6744883895193108,3,19.89834291327803,4.460755867930684,-2.425688231174137,1.0830654221885208,0.43990702092327705,0.4932043993904735,0.4889106007805817,0.4753330520148583,True,False,True,-4.384767478411373,4.536744257449994,True,-7.2613020787915366,7.413278857830158,True,model_implied_state_space
revision_dfm_kalman_em,pseudo,pre_advance,DELTA_SA,2024:Q1:pre_advance:pseudo,2024-04-30,2024:Q1,0.2602160319527726,-0.3404999999999998,0.6007160319527725,0,25.035903413639083,5.003589053233597,-2.5363008437900567,1.198050910466474,0.452218986324088,0.4792620056828421,0.5048009820529309,0.46335808355875435,True,False,True,-4.743373021280824,5.26380508518637,True,-7.969955570033193,8.490387633938738,True,model_implied_state_space
revision_dfm_kalman_em,pseudo,pre_advance,DELTA_SA,2024:Q2:pre_advance:pseudo,2024-07-31,2024:Q2,-0.1079091350797085,0.1112999999999999,-0.2192091350797085,1,21.061207818767492,4.589249156318219,-2.44379574698759,1.0766608875622925,0.51904855152818,0.5093796497852754,0.47325360416242734,0.4919951013905715,False,False,False,-4.697158291397928,4.481340021238511,True,-7.6565522548337155,7.440733984674298,True,model_implied_state_space
revision_dfm_kalman_em,pseudo,pre_advance,DELTA_SA,2024:Q3:pre_advance:pseudo,2024-10-31,2024:Q3,0.2437012910571618,0.0087999999999999,0.2349012910571619,2,25.00381460652317,5.000381446102204,-2.529556135918067,1.1729654996858319,0.4812659090668733,0.4805646278216335,0.5034865481686568,0.4646468586422439,False,False,False,-4.756680155045042,5.244082737159366,True,-7.981194266704895,8.46859684881922,True,model_implied_state_space
revision_dfm_kalman_em,pseudo,pre_advance,DELTA_SA,2024:Q4:pre_advance:pseudo,2025-01-31,2024:Q4,0.192777511901856,0.0939000000000001,0.0988775119018559,3,20.93998663696074,4.5760230153443,-2.4400022640432395,1.0702459092857943,0.4913804299914612,0.48319843288158765,0.499370336498292,0.46579926267987354,False,False,False,-4.383245503442444,4.768800527246157,True,-7.334110541900628,7.719665565704341,True,model_implied_state_space
revision_dfm_kalman_em,pseudo,pre_second,DELTA_TS,2024:Q1:pre_second:pseudo,2024-05-31,2024:Q1,0.0024487456167099,0.1602999999999999,-0.1578512543832899,0,20.12868217320737,4.486499991441811,-2.4206303621686054,1.050687921212122,0.5140333332383544,0.49978225607627036,0.48243929829971954,0.482004242941104,False,False,False,-4.484051245825101,4.488948737058521,True,-7.377187037624101,7.382084528857521,True,model_implied_state_space
revision_dfm_kalman_em,pseudo,pre_second,DELTA_TS,2024:Q2:pre_second:pseudo,2024-08-31,2024:Q2,-0.0001703086894648,0.0381,-0.0382703086894649,1,20.12639618568722,4.4862452213055874,-2.419991016960943,1.0485432161433432,0.5034031708691082,0.5000151448112128,0.48220562927553856,0.4822358888135145,False,False,False,-4.486415529995052,4.486074912616123,True,-7.379387032347671,7.379046414968741,True,model_implied_state_space
revision_dfm_kalman_em,pseudo,pre_second,DELTA_TS,2024:Q3:pre_second:pseudo,2024-11-30,2024:Q3,-0.000106425057853,0.2393999999999998,-0.2395064250578529,2,15.66903075632455,3.958412656144449,-2.2966121019863204,0.9308406636634452,0.5241235514658511,0.5000107258790214,0.4798411808309083,0.4798626052253271,False,True,False,-3.958519081202302,3.958306231086596,True,-6.51111583948766,6.510902989371955,True,model_implied_state_space
revision_dfm_kalman_em,pseudo,pre_second,DELTA_TS,2024:Q4:pre_second:pseudo,2025-02-28,2024:Q4,0.0018635982407517,0.1044,-0.1025364017592482,3,15.536044124339416,3.9415788872404183,-2.290858274255361,0.9221912615855709,0.5103769311349604,0.49981137809860293,0.4799542992737127,0.47957754079531306,False,False,False,-3.9397152889996665,3.94344248548117,True,-6.481456730351998,6.485183926833501,True,model_implied_state_space
revision_dfm_kalman_em,pseudo,pre_third,DELTA_MT,2024:Q1:pre_third:pseudo,2024-06-30,2024:Q1,0.0986201925213454,-0.5680999999999999,0.6667201925213454,0,25.898566838622813,5.0890634539788175,-2.554614210848339,1.2240853325088934,0.44788354374527073,0.49226944162364544,0.49205315142503814,0.4766039683169057,True,False,True,-4.9904432614574725,5.187683646500163,True,-8.272144287541899,8.469384672584589,True,model_implied_state_space
revision_dfm_kalman_em,pseudo,pre_third,DELTA_MT,2024:Q2:pre_third:pseudo,2024-09-30,2024:Q2,0.008341377543517,0.6000000000000001,-0.591658622456483,1,20.03075961076985,4.4755736627576415,-2.426311128683726,1.0770772533318438,0.5525858700281088,0.49925646933708934,0.48292121396137455,0.48143563667060013,False,True,False,-4.467232285214124,4.4839150403011585,True,-7.3533221943318745,7.370004949418909,True,model_implied_state_space
revision_dfm_kalman_em,pseudo,pre_third,DELTA_MT,2024:Q3:pre_third:pseudo,2024-12-31,2024:Q3,0.0189792238020944,0.2678000000000002,-0.2488207761979057,2,25.78956643962408,5.078342883227173,-2.5451238635754,1.191645890764511,0.5195389377216812,0.4985090417539451,0.48578245845701773,0.4828028535560519,False,True,False,-5.059363659425079,5.097322107029267,True,-8.334151486577317,8.372109934181507,True,model_implied_state_space
revision_dfm_kalman_em,pseudo,pre_third,DELTA_MT,2024:Q4:pre_third:pseudo,2025-03-31,2024:Q4,0.0759934527104482,-0.5985,0.6744934527104482,3,19.89846587386747,4.46076965039302,-2.425691421869406,1.0830691266120605,0.43990675751015734,0.4932039676315965,0.4889110876787319,0.4753326761781694,True,False,True,-4.384776197682572,4.5367631031034685,True,-7.261319685733562,7.413306591154458,True,model_implied_state_space
