haminh109/Revision-Aware-DFM/outputs/full_state_space_release_revision_dfm/sensitivity_window_rolling_max_iter2_journal_evidence/density_point_records.csv
model_id,timing_mode,checkpoint_id,outcome_id,forecast_origin,forecast_origin_date,target_quarter,forecast_value,realized_value,forecast_error,calibration_n,predictive_variance,predictive_sd,log_score,crps,pit,prob_below_zero,prob_large_positive_revision_gt_0p2,prob_large_negative_revision_lt_minus_0p2,realized_below_zero,realized_large_positive_revision_gt_0p2,realized_large_negative_revision_lt_minus_0p2,lower_68,upper_68,covered_68,lower_90,upper_90,covered_90,density_method
indicator_revision_only_dfm_kalman_em,exact,pre_advance,A,2024:Q1:pre_advance:exact,2024-04-24,2024:Q1,1.797576211034928,1.5897,0.2078762110349281,0,14.162994368996287,3.7633753957048035,-2.2457803427142955,0.8840615713654345,0.47797496958434466,0.3164496730076112,0.6644016598564956,0.2977808491536452,False,True,False,-1.9657991846698755,5.5609516067397315,True,-4.39262545817005,7.987777880239905,True,model_implied_state_space
indicator_revision_only_dfm_kalman_em,exact,pre_advance,A,2024:Q2:pre_advance:exact,2024-07-24,2024:Q2,3.173262829628834,2.8401,0.3331628296288338,1,14.163567308858257,3.763451515412183,-2.248193440834384,0.8912582543673664,0.4647293608245266,0.19956420450895385,0.7852466781148248,0.18504051688557085,False,True,False,-0.5901886857833492,6.9367143450410165,True,-3.01706404535291,9.363589704610577,True,model_implied_state_space
indicator_revision_only_dfm_kalman_em,exact,pre_advance,A,2024:Q3:pre_advance:exact,2024-10-29,2024:Q3,1.6298627567609318,2.8248,-1.1949372432390684,2,16.63763201241233,4.078925350188739,-2.3676830971944494,1.0918884499714363,0.6152213199654082,0.34473242422087425,0.6370365973193775,0.32685508937933117,False,True,False,-2.4490625934278074,5.708788106949671,True,-5.07937239956132,8.339097913083183,True,model_implied_state_space
indicator_revision_only_dfm_kalman_em,exact,pre_advance,A,2024:Q4:pre_advance:exact,2025-01-29,2024:Q4,2.3016807321524015,2.2512,0.0504807321524016,3,16.484815210602445,4.060149653719977,-2.3202356591356446,0.9490869690987406,0.4950399908207745,0.28539257710874744,0.6976439653977315,0.26889617574555286,False,True,False,-1.7584689215675753,6.361830385872379,True,-4.376671151734666,8.98003261603947,True,model_implied_state_space
indicator_revision_only_dfm_kalman_em,exact,pre_second,S,2024:Q1:pre_second:exact,2024-05-29,2024:Q1,1.711352771257832,1.2492,0.4621527712578319,0,11.642168921301137,3.4120622680867267,-2.1554283244846437,0.8223163330378577,0.4461293287129102,0.3079886528322249,0.6710969074538966,0.2876799597823625,False,True,False,-1.7007094968288947,5.123415039344559,True,-3.900990225788887,7.323695768304551,True,model_implied_state_space
indicator_revision_only_dfm_kalman_em,exact,pre_second,S,2024:Q2:pre_second:exact,2024-08-28,2024:Q2,2.909281839556723,2.9514,-0.0421181604432772,1,11.620882348960876,3.4089415291202747,-2.145416699803399,0.7968601114048502,0.5049288869720726,0.19671135035559908,0.7866227105789354,0.18085909912413986,False,True,False,-0.4996596895635519,6.318223368676998,True,-2.6979279986822586,8.516491677795704,True,model_implied_state_space
indicator_revision_only_dfm_kalman_em,exact,pre_second,S,2024:Q3:pre_second:exact,2024-11-26,2024:Q3,2.063772994569277,2.8336,-0.7698270054307232,2,11.63163131281356,3.4105177484970755,-2.1712777314757945,0.8660508169218589,0.5892909623589936,0.2725495849477789,0.7076313045356956,0.2534212395350436,False,True,False,-1.3467447539277986,5.474290743066352,True,-3.546029493828507,7.673575482967061,True,model_implied_state_space
indicator_revision_only_dfm_kalman_em,exact,pre_second,S,2024:Q4:pre_second:exact,2025-02-26,2024:Q4,2.2545051253221824,2.3451,-0.0905948746778175,3,11.521790694809074,3.394376333703892,-2.1414147458812183,0.7942132652193368,0.510646384457484,0.25328489301626145,0.7274993098759519,0.23480636525779477,False,True,False,-1.1398712083817095,5.648881459026074,True,-3.3287470984089045,7.83775734905327,True,model_implied_state_space
indicator_revision_only_dfm_kalman_em,exact,pre_third,T,2024:Q1:pre_third:exact,2024-06-26,2024:Q1,1.550077733310136,1.4095,0.1405777333101359,0,13.511438161401529,3.6757908212249415,-2.221438142147007,0.8611584183797768,0.4847464842207864,0.33662232554572535,0.6432982909615014,0.3169983006117199,False,True,False,-2.1257130879148054,5.225868554535078,True,-4.496060130896639,7.5962155975169114,True,model_implied_state_space
indicator_revision_only_dfm_kalman_em,exact,pre_third,T,2024:Q2:pre_third:exact,2024-09-25,2024:Q2,2.865878211667982,2.9895,-0.1236217883320178,1,13.484580282767457,3.672135656912399,-2.2202786089591746,0.8598197822514585,0.5134277839461376,0.217566233222613,0.7660729122991441,0.201886075713644,False,True,False,-0.8062574452444169,6.538013868580381,True,-3.174247442262204,8.90600386559817,True,model_implied_state_space
indicator_revision_only_dfm_kalman_em,exact,pre_third,T,2024:Q3:pre_third:exact,2024-12-18,2024:Q3,2.245566431016943,3.073,-0.8274335689830568,2,13.458388325992138,3.6685676122966764,-2.24417549503804,0.9314643878754364,0.5892230266455163,0.2702325350817922,0.7114387204890213,0.2525051909233126,False,True,False,-1.4230011812797332,5.91413404331362,True,-3.788690311785947,8.279823173819834,True,model_implied_state_space
indicator_revision_only_dfm_kalman_em,exact,pre_third,T,2024:Q4:pre_third:exact,2025-03-26,2024:Q4,2.3012340816837846,2.4495,-0.1482659183162153,3,10.649587014320325,3.2633704990883774,-2.102731185448035,0.7653201954650418,0.5181190583624738,0.24035192801183594,0.7401748729113447,0.2217021303002826,False,True,False,-0.9621364174045928,5.564604580772162,True,-3.0665327198281687,7.6690008831957375,True,model_implied_state_space
indicator_revision_only_dfm_kalman_em,pseudo,pre_advance,A,2024:Q1:pre_advance:pseudo,2024-04-30,2024:Q1,1.8006930126289191,1.5897,0.2109930126289194,0,14.162719616297167,3.7633388920341955,-2.2458167629976895,0.8841914098898015,0.4776448629633879,0.3161532989516835,0.6647050432859305,0.2974921391903621,False,True,False,-1.9626458794052764,5.564031904663114,True,-4.389448613381062,7.9908346386389,True,model_implied_state_space
indicator_revision_only_dfm_kalman_em,pseudo,pre_advance,A,2024:Q2:pre_advance:pseudo,2024-07-31,2024:Q2,3.0933810254414,2.8401,0.2532810254413999,1,14.162428770753914,3.763300249880936,-2.246499671926984,0.8862623891003681,0.4731702835953008,0.2055423639095498,0.779006265147884,0.19075129295990303,False,True,False,-0.669919224439536,6.856681275322336,True,-3.0966970398826392,9.28345909076544,True,model_implied_state_space
indicator_revision_only_dfm_kalman_em,pseudo,pre_advance,A,2024:Q3:pre_advance:pseudo,2024-10-31,2024:Q3,1.635602064141821,2.8248,-1.1891979358581792,2,16.637373661107816,4.078893681025263,-2.367264778114033,1.090562606097865,0.6146843156546968,0.3442131577323029,0.6375653772016712,0.32634638965469764,False,True,False,-2.4432916168834415,5.714495745167084,True,-5.073581001042023,8.344785129325665,True,model_implied_state_space
indicator_revision_only_dfm_kalman_em,pseudo,pre_advance,A,2024:Q4:pre_advance:pseudo,2025-01-31,2024:Q4,2.305524385543919,2.2512,0.0543243855439192,3,16.4847477958625,4.06014135170963,-2.3202458330967337,0.9491246101794802,0.49466234159042205,0.28507066070313414,0.6979745691782482,0.268583478113551,False,True,False,-1.754616966165711,6.365665737253549,True,-4.372813842751318,8.983862613839158,True,model_implied_state_space
indicator_revision_only_dfm_kalman_em,pseudo,pre_second,S,2024:Q1:pre_second:pseudo,2024-05-31,2024:Q1,1.7111636670331625,1.2492,0.4619636670331624,0,11.64342148688448,3.4122458127873028,-2.155473624712439,0.8223375202655784,0.446154116063225,0.3080176403241246,0.6710682467573372,0.28770913446404955,False,True,False,-1.7010821457541403,5.123409479820465,True,-3.901481234180007,7.323808568246331,True,model_implied_state_space
indicator_revision_only_dfm_kalman_em,pseudo,pre_second,S,2024:Q2:pre_second:pseudo,2024-08-31,2024:Q2,2.9094921995623033,2.9514,-0.0419078004376967,1,11.62088567103099,3.4089420163785404,-2.1454160822025323,0.7968581567421603,0.5049042700885121,0.19669428063400102,0.7866406283504506,0.18084289319268182,False,True,False,-0.4994498168162371,6.318434215940844,True,-2.6977184401452035,8.51670283926981,True,model_implied_state_space
indicator_revision_only_dfm_kalman_em,pseudo,pre_second,S,2024:Q3:pre_second:pseudo,2024-11-30,2024:Q3,2.064998402964403,2.8336,-0.7686015970355973,2,11.631771765217152,3.4105383395026,-2.171202424541361,0.8658365524345153,0.5891506919469175,0.27243145233427624,0.7077536170376526,0.2533075357666631,False,True,False,-1.3455399365381973,5.475536742467003,True,-3.5448379546235,7.674834760552306,True,model_implied_state_space
indicator_revision_only_dfm_kalman_em,pseudo,pre_second,S,2024:Q4:pre_second:pseudo,2025-02-28,2024:Q4,2.255921311996661,2.3451,-0.0891786880033391,3,11.522324172697957,3.3944549154021706,-2.1414268318672347,0.7942016888313658,0.5104797553187242,0.25315633453511177,0.7276332218800328,0.23468337541282494,False,True,False,-1.1385336034055098,5.650376227398832,True,-3.3274601671258526,7.839302791119174,True,model_implied_state_space
indicator_revision_only_dfm_kalman_em,pseudo,pre_third,T,2024:Q1:pre_third:pseudo,2024-06-30,2024:Q1,1.5661842803819566,1.4095,0.1566842803819566,0,13.50752367599442,3.67525831418615,-2.221470704433581,0.8615538563380559,0.4829973707432204,0.33500195561154417,0.6449510821928954,0.31541441763063693,False,True,False,-2.1090740338041933,5.241442594568106,True,-4.479077687690685,7.611446248454598,True,model_implied_state_space
indicator_revision_only_dfm_kalman_em,pseudo,pre_third,T,2024:Q2:pre_third:pseudo,2024-09-30,2024:Q2,2.8685877609617143,2.9895,-0.1209122390382857,1,13.481847352343568,3.671763520754512,-2.220152805236213,0.8596610075023929,0.5131349111806119,0.21732593315497287,0.7663215897051477,0.2016545691900236,False,True,False,-0.8031757597927975,6.540351281716227,True,-3.170925783459452,8.90810130538288,True,model_implied_state_space
indicator_revision_only_dfm_kalman_em,pseudo,pre_third,T,2024:Q3:pre_third:pseudo,2024-12-31,2024:Q3,2.2463709769860714,3.073,-0.8266290230139286,2,13.458349352857692,3.668562300528327,-2.244124680490971,0.9313197533502775,0.589137857559159,0.2701597022958101,0.7115138864238828,0.2524348283121884,False,True,False,-1.4221913235422559,5.914933277514399,True,-3.7878770287353847,8.280618982707526,True,model_implied_state_space
indicator_revision_only_dfm_kalman_em,pseudo,pre_third,T,2024:Q4:pre_third:pseudo,2025-03-31,2024:Q4,2.300316088364048,2.4495,-0.1491839116359519,3,10.6496659446419,3.2633825924402275,-2.1027477035550577,0.7653563808060786,0.5182310977091131,0.2404402687346483,0.7400828781630546,0.22178664405043613,False,True,False,-0.9630665040761794,5.563698680804276,True,-3.0674706049415583,7.6681027816696545,True,model_implied_state_space
joint_indicator_revision_dfm_full_kalman_em,exact,pre_advance,A,2024:Q1:pre_advance:exact,2024-04-24,2024:Q1,1.5223358363822377,1.5897,-0.0673641636177622,0,19.077406572837017,4.367769061298573,-2.393309834349007,1.0211401676700218,0.5061526484753704,0.36371788898151663,0.6189592598209579,0.3466692610247538,False,True,False,-2.8454332249163357,5.890104897680811,True,-5.662004945781147,8.706676618545623,True,model_implied_state_space
joint_indicator_revision_dfm_full_kalman_em,exact,pre_advance,A,2024:Q2:pre_advance:exact,2024-07-24,2024:Q2,3.2440777658767805,2.8401,0.4039777658767804,1,19.078677007897515,4.367914491825306,-2.397501170044877,1.0356547098265405,0.4631553361564625,0.22882974661347447,0.75707291044774,0.2152036760549158,False,True,False,-1.1238367259485251,7.611992257702086,True,-3.94050222821597,10.428657759969532,True,model_implied_state_space
joint_indicator_revision_dfm_full_kalman_em,exact,pre_advance,A,2024:Q3:pre_advance:exact,2024-10-29,2024:Q3,1.298477359927735,2.8248,-1.5263226400722651,2,21.326187530046937,4.618028532831617,-2.5035261431634592,1.2786525664204869,0.629494155822684,0.3892878246278515,0.5940079388282792,0.3727857357495937,False,True,False,-3.319551172903882,5.916505892759352,True,-6.297503621665736,8.894458341521206,True,model_implied_state_space
joint_indicator_revision_dfm_full_kalman_em,exact,pre_advance,A,2024:Q4:pre_advance:exact,2025-01-29,2024:Q4,2.1062666229387443,2.2512,-0.1449333770612555,3,21.10487768645958,4.594004537052568,-2.4441882750519484,1.0754197631862448,0.5125838931011283,0.32330323375454817,0.6609095072085662,0.3078279155854884,False,True,False,-2.4877379141138234,6.700271159991312,True,-5.450198402063691,9.662731647941179,True,model_implied_state_space
joint_indicator_revision_dfm_full_kalman_em,exact,pre_second,S,2024:Q1:pre_second:exact,2024-05-29,2024:Q1,1.7881468573260166,1.2492,0.5389468573260165,0,11.883582259530192,3.447257208206285,-2.168738654625384,0.8391530178091727,0.43788220955014506,0.3019794632044865,0.6774926001445013,0.28205993127435036,False,True,False,-1.6591103508802685,5.235404065532302,True,-3.882086664626698,7.458380379278731,True,model_implied_state_space
joint_indicator_revision_dfm_full_kalman_em,exact,pre_second,S,2024:Q2:pre_second:exact,2024-08-28,2024:Q2,2.9272357584081004,2.9514,-0.0241642415918996,1,11.897559529040723,3.4492839154005175,-2.157129721040904,0.8061478606552807,0.5027948000305167,0.1980379602560617,0.785430898123832,0.1823003654099277,False,True,False,-0.5220481569924171,6.376519673808618,True,-2.7463314002238155,8.600802917040017,True,model_implied_state_space
joint_indicator_revision_dfm_full_kalman_em,exact,pre_second,S,2024:Q3:pre_second:exact,2024-11-26,2024:Q3,2.05415099990204,2.8336,-0.7794490000979599,2,11.908236625369902,3.450831294828813,-2.183062955927465,0.8763811643115123,0.5893498314468888,0.2758339572440198,0.7044717331207873,0.256807324297671,False,True,False,-1.3966802949267727,5.504982294730853,True,-3.621961371394778,7.730263371198858,True,model_implied_state_space
joint_indicator_revision_dfm_full_kalman_em,exact,pre_second,S,2024:Q4:pre_second:exact,2025-02-26,2024:Q4,2.330051428240526,2.3451,-0.0150485717594741,3,11.81618990687892,3.437468531765625,-2.153683424354471,0.8033454125154011,0.5017464864922196,0.24893677979141318,0.7322581834944265,0.2308587463087144,False,True,False,-1.107417103525099,5.767519960006151,True,-3.3240811537657144,7.984184010246766,True,model_implied_state_space
joint_indicator_revision_dfm_full_kalman_em,exact,pre_third,T,2024:Q1:pre_third:exact,2024-06-26,2024:Q1,1.573696682442237,1.4095,0.1641966824422369,0,13.182459396514988,3.630765676343626,-2.2094046811898242,0.8514535762370166,0.4819644991384475,0.3323498130220025,0.6474143376162178,0.31259126570971124,False,True,False,-2.057068993901389,5.204462358785863,True,-4.398381408902491,7.545774773786965,True,model_implied_state_space
joint_indicator_revision_dfm_full_kalman_em,exact,pre_third,T,2024:Q2:pre_third:exact,2024-09-25,2024:Q2,2.874356160269466,2.9895,-0.1151438397305342,1,13.177705327713166,3.6301109249874397,-2.2087047894124137,0.8497956082725738,0.5126519672374239,0.21423589364005421,0.7693520738906154,0.19852426282849275,False,True,False,-0.7557547647179739,6.5044670852569055,True,-3.096644960932288,8.84535728147122,True,model_implied_state_space
joint_indicator_revision_dfm_full_kalman_em,exact,pre_third,T,2024:Q3:pre_third:exact,2024-12-18,2024:Q3,2.2692545493298764,3.073,-0.8037454506701236,2,13.149945650551478,3.626285379083047,-2.231710441790077,0.9182249612179528,0.5877045995362313,0.2657298353120475,0.7158735758365231,0.2479571901470047,False,True,False,-1.3570308297531706,5.895539928412923,True,-3.695454108815968,8.233963207475721,True,model_implied_state_space
joint_indicator_revision_dfm_full_kalman_em,exact,pre_third,T,2024:Q4:pre_third:exact,2025-03-26,2024:Q4,2.3568932080848017,2.4495,-0.0926067919151982,3,10.754617415067738,3.279423335750927,-2.1070048411686573,0.7674279662431699,0.5112641313516615,0.2361655548471132,0.7446361537027648,0.2177903072201379,False,True,False,-0.9225301276661253,5.636316543835729,True,-3.0372781600344063,7.75106457620401,True,model_implied_state_space
joint_indicator_revision_dfm_full_kalman_em,pseudo,pre_advance,A,2024:Q1:pre_advance:pseudo,2024-04-30,2024:Q1,1.5261655199645514,1.5897,-0.0635344800354484,0,19.07696173443404,4.367718138162539,-2.393285039316052,1.0210824855434582,0.5058029606532508,0.3633872295867754,0.6192946900721524,0.3463439874811457,False,True,False,-2.841552618197988,5.89388365812709,True,-5.658091501093833,8.710422541022936,True,model_implied_state_space
joint_indicator_revision_dfm_full_kalman_em,pseudo,pre_advance,A,2024:Q2:pre_advance:pseudo,2024-07-31,2024:Q2,3.1458473466986066,2.8401,0.3057473466986065,1,19.07738253674335,4.367766309767883,-2.395640329083832,1.0292599550578425,0.47209649223957056,0.23568810262608209,0.7499879035727459,0.22182872736231218,False,True,False,-1.2219189630692764,7.5136136564664895,True,-4.038488909599543,10.330183602996756,True,model_implied_state_space
joint_indicator_revision_dfm_full_kalman_em,pseudo,pre_advance,A,2024:Q3:pre_advance:pseudo,2024-10-31,2024:Q3,1.3055103333337943,2.8248,-1.5192896666662057,2,21.325877649209055,4.617994981505399,-2.5030174715370817,1.2768287245069805,0.628919645021713,0.3887031464872787,0.5945991230647664,0.37220857568995974,False,True,False,-3.312484648171605,5.923505314839193,True,-6.290415461239058,8.901436127906646,True,model_implied_state_space
joint_indicator_revision_dfm_full_kalman_em,pseudo,pre_advance,A,2024:Q4:pre_advance:pseudo,2025-01-31,2024:Q4,2.110987391813486,2.2512,-0.140212608186514,3,21.10480871757712,4.593997030645222,-2.4441547516868263,1.0753011348029808,0.5121741599125088,0.32293400066356337,0.6612858098432317,0.3074663052351819,False,True,False,-2.4830096388317364,6.704984422458708,True,-5.445465286247602,9.667440069874573,True,model_implied_state_space
joint_indicator_revision_dfm_full_kalman_em,pseudo,pre_second,S,2024:Q1:pre_second:pseudo,2024-05-31,2024:Q1,1.787890094591676,1.2492,0.5386900945916759,0,11.88463503669477,3.4474099026217884,-2.168770224561853,0.8391553317824063,0.4379142910217084,0.30201344910157263,0.6774585569045724,0.2820937224079038,False,True,False,-1.6595198080301123,5.235299997213464,True,-3.8825945873241947,7.458374776507546,True,model_implied_state_space
joint_indicator_revision_dfm_full_kalman_em,pseudo,pre_second,S,2024:Q2:pre_second:pseudo,2024-08-31,2024:Q2,2.9274595130389836,2.9514,-0.0239404869610164,1,11.897562972299776,3.4492844145271313,-2.157129413391126,0.8061467323806533,0.5027689209215,0.19801994140057375,0.7854497965094924,0.1822832428152159,False,True,False,-0.5218249014881478,6.376743927566115,True,-2.746108466583154,8.601027492661121,True,model_implied_state_space
joint_indicator_revision_dfm_full_kalman_em,pseudo,pre_second,S,2024:Q3:pre_second:pseudo,2024-11-30,2024:Q3,2.055357450299746,2.8336,-0.7782425497002547,2,11.908326981729092,3.4508443867739227,-2.1829876501880747,0.8761685332978068,0.5892135314017446,0.2757178948933261,0.7045917449762197,0.2566954579130477,False,True,False,-1.3954869364741769,5.506201837073668,True,-3.6207764553304695,7.731491355929961,True,model_implied_state_space
joint_indicator_revision_dfm_full_kalman_em,pseudo,pre_second,S,2024:Q4:pre_second:pseudo,2025-02-28,2024:Q4,2.3315292254304594,2.3451,-0.0135707745695405,3,11.816692494349606,3.437541635289616,-2.1537029008254662,0.8033575875343908,0.501574945779588,0.24880506584771092,0.7323953730332071,0.2307327178796754,False,True,False,-1.1060124098591566,5.769070860720076,True,-3.32272360117236,7.985782052033279,True,model_implied_state_space
joint_indicator_revision_dfm_full_kalman_em,pseudo,pre_third,T,2024:Q1:pre_third:pseudo,2024-06-30,2024:Q1,1.5895158119370296,1.4095,0.1800158119370296,0,13.178580485766712,3.630231464489105,-2.2094644271957478,0.8519273356356314,0.4802253663666012,0.330745617782179,0.6490519984361789,0.3110246191070828,False,True,False,-2.0407156525520755,5.219747276426135,True,-4.38168357910123,7.560715202975288,True,model_implied_state_space
joint_indicator_revision_dfm_full_kalman_em,pseudo,pre_third,T,2024:Q2:pre_third:pseudo,2024-09-30,2024:Q2,2.877292128257326,2.9895,-0.1122078717426742,1,13.175122779104717,3.629755195478714,-2.208581557370251,0.8496392669483988,0.5123306760639541,0.21397750445716912,0.7696199408530685,0.1982757807955185,False,True,False,-0.7524630672213881,6.50704732373604,True,-3.093123869971787,8.847708126486438,True,model_implied_state_space
joint_indicator_revision_dfm_full_kalman_em,pseudo,pre_third,T,2024:Q3:pre_third:pseudo,2024-12-31,2024:Q3,2.270053486722735,3.073,-0.8029465132772651,2,13.149914908996983,3.62628114036915,-2.231660522166986,0.918083980102501,0.5876189365288313,0.2656573356523727,0.7159484859492896,0.24788723649483926,False,True,False,-1.3562276536464153,5.8963346270918855,True,-3.6946481993591824,8.234755172804652,True,model_implied_state_space
joint_indicator_revision_dfm_full_kalman_em,pseudo,pre_third,T,2024:Q4:pre_third:pseudo,2025-03-31,2024:Q4,2.3559604145801347,2.4495,-0.0935395854198652,3,10.75467740586466,3.279432482284802,-2.107015700595159,0.7674512207970086,0.5113775283883524,0.23625382849773194,0.7445441517729332,0.21787468921796962,False,True,False,-0.9234720677046675,5.635392896864937,True,-3.038225998248492,7.750146827408761,True,model_implied_state_space
monthly_mixed_frequency_kalman_em,exact,pre_advance,A,2024:Q1:pre_advance:exact,2024-04-24,2024:Q1,1.3249685339740038,1.5897,-0.264731466025996,0,31.229653432099543,5.588349795073635,-2.640744624728199,1.3109714247475095,0.5188916390154183,0.40629163311251665,0.5797703576610158,0.39247137952749994,False,True,False,-4.263381261099632,6.913318329047639,True,-7.8670488951263815,10.51698596307439,True,model_implied_state_space
monthly_mixed_frequency_kalman_em,exact,pre_advance,A,2024:Q2:pre_advance:exact,2024-07-24,2024:Q2,2.6957351818137583,2.8401,-0.1443648181862418,1,35.45091690040094,5.954067256959812,-2.703307036283838,1.3928319734475911,0.5096719745879756,0.32536249685033447,0.6624521382287201,0.3133610309921895,False,True,False,-3.2583320751460536,8.64980243877357,True,-7.097833940909592,12.489304304537107,True,model_implied_state_space
monthly_mixed_frequency_kalman_em,exact,pre_advance,A,2024:Q3:pre_advance:exact,2024-10-29,2024:Q3,1.9739232062008183,2.8248,-0.8508767937991819,2,35.45441341438869,5.954360873711694,-2.713272576258893,1.4399292830415673,0.5568153295207182,0.3701300861998794,0.6171178894905934,0.3575192547654972,False,True,False,-3.980437667510876,7.928284079912513,True,-7.820128873101798,11.767975285503436,True,model_implied_state_space
monthly_mixed_frequency_kalman_em,exact,pre_advance,A,2024:Q4:pre_advance:exact,2025-01-29,2024:Q4,1.6689095621535506,2.2512,-0.5822904378464493,3,31.29001658441152,5.593747990785027,-2.6460061335328273,1.331390677725549,0.5414536761199915,0.38271701026840144,0.6035699532616385,0.3691494628416572,False,True,False,-3.9248384286314764,7.2626575529385775,True,-7.531987108741711,10.869806233048813,True,model_implied_state_space
monthly_mixed_frequency_kalman_em,exact,pre_second,S,2024:Q1:pre_second:exact,2024-05-29,2024:Q1,1.8047051604828857,1.2492,0.5555051604828856,0,17.87972681032938,4.228442598679729,-2.3694017722871603,1.0172382599368275,0.44773993884514696,0.33476199855717015,0.6478426806318238,0.3177142550850699,False,True,False,-2.4237374381968433,6.033147759162615,True,-5.150463984311575,8.759874305277346,True,model_implied_state_space
monthly_mixed_frequency_kalman_em,exact,pre_second,S,2024:Q2:pre_second:exact,2024-08-28,2024:Q2,2.6655102843804945,2.9514,-0.2858897156195055,1,17.875548487379152,4.2279484963016225,-2.362941585203667,0.9957595755383948,0.5269555411353647,0.26420009116518284,0.7201024130924293,0.24896374486677686,False,True,False,-1.562438211921128,6.893458780682117,True,-4.288846134325253,9.619866703086242,True,model_implied_state_space
monthly_mixed_frequency_kalman_em,exact,pre_second,S,2024:Q3:pre_second:exact,2024-11-26,2024:Q3,2.446894948104328,2.8336,-0.3867050518956723,2,17.875364614380207,4.227926751302606,-2.364833150433202,1.002145913871475,0.5364382290564648,0.28138034589592537,0.7024435006693139,0.26564096411604976,False,True,False,-1.7810318031982781,6.674821699406934,True,-4.507425703260918,9.401215599469573,True,model_implied_state_space
monthly_mixed_frequency_kalman_em,exact,pre_second,S,2024:Q4:pre_second:exact,2025-02-26,2024:Q4,2.1864038509803754,2.3451,-0.1586961490196246,3,17.849918218410714,4.224916356380409,-2.3606434470184143,0.989719522753362,0.5149815319151311,0.3024027885634367,0.6808810973486596,0.28609112986662366,False,True,False,-2.0385125054000337,6.4113202073607845,True,-4.762965141378539,9.13577284333929,True,model_implied_state_space
monthly_mixed_frequency_kalman_em,exact,pre_third,T,2024:Q1:pre_third:exact,2024-06-26,2024:Q1,1.6660244353686005,1.4095,0.2565244353686005,0,19.81722338109191,4.451654005096523,-2.4138745396466343,1.04622475406383,0.47702385808799774,0.35410975508549486,0.6290435727870969,0.33754392638630193,False,True,False,-2.7856295697279223,6.117678440465124,True,-5.656294800847462,8.988343671584664,True,model_implied_state_space
monthly_mixed_frequency_kalman_em,exact,pre_third,T,2024:Q2:pre_third:exact,2024-09-25,2024:Q2,2.6210670695400786,2.9895,-0.3684329304599214,1,19.81024096762849,4.4508696866599555,-2.415464122551899,1.0523059070997376,0.5329858650724228,0.2779679537405261,0.7067633356029334,0.26309791459353177,False,True,False,-1.829802617119877,7.071936756200034,True,-4.699962077650912,9.94209621673107,True,model_implied_state_space
monthly_mixed_frequency_kalman_em,exact,pre_third,T,2024:Q3:pre_third:exact,2024-12-18,2024:Q3,2.495054704289807,3.073,-0.5779452957101929,2,14.282976274959308,3.779282507958264,-2.2601656799621987,0.9183901253718152,0.5607711350761508,0.2545650897360313,0.7281649896230017,0.23788798195185923,False,True,False,-1.2842278036684571,6.274337212248071,True,-3.7213118361996,8.711421244779213,True,model_implied_state_space
monthly_mixed_frequency_kalman_em,exact,pre_third,T,2024:Q4:pre_third:exact,2025-03-26,2024:Q4,2.1382068184942855,2.4495,-0.3112931815057145,3,14.248178780554142,3.7746759835188692,-2.250653635520997,0.8923586598259979,0.5328630553533833,0.28554021103697425,0.696190922386579,0.2678113904736185,False,True,False,-1.6364691650245837,5.912882802013154,True,-4.070582663563343,8.346996300551913,True,model_implied_state_space
monthly_mixed_frequency_kalman_em,pseudo,pre_advance,A,2024:Q1:pre_advance:pseudo,2024-04-30,2024:Q1,1.329460772032975,1.5897,-0.2602392279670249,0,31.22904249855631,5.588295133451374,-2.640697107262726,1.3107904054175412,0.5185714812793873,0.4059789558034428,0.58008536525462,0.3921614125974739,False,True,False,-4.258834361418399,6.9177559054843485,True,-7.862466746699779,10.52138829076573,True,model_implied_state_space
monthly_mixed_frequency_kalman_em,pseudo,pre_advance,A,2024:Q2:pre_advance:pseudo,2024-07-31,2024:Q2,2.654826389616144,2.8401,-0.1852736103838559,1,35.45021391045595,5.9540082222361725,-2.703487324903706,1.3937216301237316,0.5124120671724146,0.3278387374348592,0.6599395363554293,0.3157986844636358,False,True,False,-3.2991818326200284,8.608834611852316,True,-7.138645629627911,12.448298408860198,True,model_implied_state_space
monthly_mixed_frequency_kalman_em,pseudo,pre_advance,A,2024:Q3:pre_advance:pseudo,2024-10-31,2024:Q3,1.9705786114263308,2.8248,-0.8542213885736694,2,35.45441729652868,5.954361199703011,-2.7133530551635183,1.440310146919612,0.5570371290775324,0.3703422194633319,0.6169035046204174,0.35772892338647033,False,True,False,-3.9837825882766804,7.924939811129342,True,-7.823474004084287,11.764631226936949,True,model_implied_state_space
monthly_mixed_frequency_kalman_em,pseudo,pre_advance,A,2024:Q4:pre_advance:pseudo,2025-01-31,2024:Q4,1.6675335666882751,2.2512,-0.5836664333117245,3,31.28992755703207,5.59374003302192,-2.6460303631962327,1.3315030669498042,0.5415513385586835,0.3828107149911957,0.6034752849334905,0.36924209526965623,False,True,False,-3.9262064663336447,7.261273599710195,True,-7.533350014851477,10.868417148228028,True,model_implied_state_space
monthly_mixed_frequency_kalman_em,pseudo,pre_second,S,2024:Q1:pre_second:pseudo,2024-05-31,2024:Q1,1.7996829550658684,1.2492,0.5504829550658683,0,17.880798038402453,4.228569266123289,-2.369275890666979,1.016744446507319,0.4482112783766721,0.3351993361781315,0.6473974624450941,0.318142891055124,False,True,False,-2.4288863110574206,6.028252221189158,True,-5.155694539132549,8.755060449264285,True,model_implied_state_space
monthly_mixed_frequency_kalman_em,pseudo,pre_second,S,2024:Q2:pre_second:pseudo,2024-08-31,2024:Q2,2.664888927314051,2.9514,-0.2865110726859492,1,17.875974535033414,4.227998880680246,-2.3629633957621223,0.9958047922946363,0.5270137157626348,0.2642506132982352,0.7200506096854445,0.24901290662916664,False,True,False,-1.5631099533661956,6.892887807994297,True,-4.2895503663196175,9.619328220947718,True,model_implied_state_space
monthly_mixed_frequency_kalman_em,pseudo,pre_second,S,2024:Q3:pre_second:pseudo,2024-11-30,2024:Q3,2.441175886801029,2.8336,-0.3924241131989712,2,17.876607311755894,4.228073711722147,-2.364992247510094,1.0025996119783256,0.5369743055942164,0.28184373208700486,0.7019683709490502,0.2660918862577262,False,True,False,-1.7868978249211183,6.669249598523177,True,-4.513386492943319,9.395738266545376,True,model_implied_state_space
monthly_mixed_frequency_kalman_em,pseudo,pre_second,S,2024:Q4:pre_second:pseudo,2025-02-28,2024:Q4,2.1831708852473626,2.3451,-0.1619291147526373,3,17.8509153467457,4.225034360421901,-2.360700371825552,0.9898448863788071,0.5152861617523925,0.30267489665021363,0.6806030307864512,0.2863568103757184,False,True,False,-2.0418634751745386,6.408205245669263,True,-4.766392206487195,9.132733976981921,True,model_implied_state_space
monthly_mixed_frequency_kalman_em,pseudo,pre_third,T,2024:Q1:pre_third:pseudo,2024-06-30,2024:Q1,1.693530144700876,1.4095,0.2840301447008759,0,19.825896409458373,4.452628034033202,-2.4144675636166166,1.0477824299954572,0.4745689884725975,0.3518450566806042,0.6313483696416177,0.33532312069833176,False,True,False,-2.7590978893323257,6.146158178734078,True,-5.630391226544439,9.01745151594619,True,model_implied_state_space
monthly_mixed_frequency_kalman_em,pseudo,pre_third,T,2024:Q2:pre_third:pseudo,2024-09-30,2024:Q2,2.636254224348821,2.9895,-0.3532457756511791,1,19.810068912360553,4.450850358342836,-2.415183176487232,1.0513201206869647,0.5316292073302902,0.2768236878732211,0.7079371223164734,0.26198467720430596,False,True,False,-1.8145961339940153,7.087104582691657,True,-4.684743130589654,9.957251579287295,True,model_implied_state_space
monthly_mixed_frequency_kalman_em,pseudo,pre_third,T,2024:Q3:pre_third:pseudo,2024-12-31,2024:Q3,2.495636972154473,3.073,-0.5773630278455268,2,14.282563680139685,3.7792279211685136,-2.2601280242976074,0.9183071392307269,0.5607112545865343,0.25451260389374475,0.7282190122105072,0.2378371328594718,False,True,False,-1.2835909490140405,6.274864893322986,True,-3.7206397810558287,8.711913725364775,True,model_implied_state_space
monthly_mixed_frequency_kalman_em,pseudo,pre_third,T,2024:Q4:pre_third:pseudo,2025-03-31,2024:Q4,2.137993035371471,2.4495,-0.3115069646285291,3,14.248482167142395,3.7747161704083654,-2.2506688817278357,0.8923819982472799,0.5328852238361453,0.28556150585401113,0.6961692068129275,0.26783221245785,False,True,False,-1.6367231350368945,5.912709205779836,True,-4.0708625482371,8.346848618980042,True,model_implied_state_space
revision_dfm_kalman_em,exact,pre_advance,A,2024:Q1:pre_advance:exact,2024-04-24,2024:Q1,1.3464089230699434,1.5897,-0.2432910769300564,0,22.034729204466935,4.694116445558944,-2.466591557126739,1.102020780254201,0.5206675018978573,0.38712161227503517,0.5964707546822876,0.3709132432519797,False,True,False,-3.3477075224890003,6.040525368628887,True,-6.374725537740238,9.067543383880125,True,model_implied_state_space
revision_dfm_kalman_em,exact,pre_advance,A,2024:Q2:pre_advance:exact,2024-07-24,2024:Q2,3.60138581879757,2.8401,0.7612858187975693,1,19.824002174342446,4.452415319165818,-2.427002785657084,1.092309943497073,0.4321186997007631,0.2092975060561807,0.7775490131553295,0.19661328301049555,False,True,False,-0.8510295003682478,8.053801137963386,True,-3.722185667626622,10.924957305221762,True,model_implied_state_space
revision_dfm_kalman_em,exact,pre_advance,A,2024:Q3:pre_advance:exact,2024-10-29,2024:Q3,1.6067952729560098,2.8248,-1.2180047270439904,2,22.149831123647846,4.706360709045562,-2.5013421109984364,1.2249099302070017,0.6021051042926737,0.36639774081163456,0.6174970191146572,0.3505244408087542,False,True,False,-3.099565436089552,6.313155982001572,True,-6.134479209059485,9.348069754971505,True,model_implied_state_space
revision_dfm_kalman_em,exact,pre_advance,A,2024:Q4:pre_advance:exact,2025-01-29,2024:Q4,2.123678612258857,2.2512,-0.1275213877411429,3,19.562399415408866,4.422940132469448,-2.406158833248661,1.035085572348419,0.5115006362867058,0.31556005446779456,0.6681941408358245,0.2996631157000049,False,True,False,-2.2992615202105915,6.546618744728305,True,-5.1514105064227405,9.398767730940454,True,model_implied_state_space
revision_dfm_kalman_em,exact,pre_second,S,2024:Q1:pre_second:exact,2024-05-29,2024:Q1,1.697627185675155,1.2492,0.4484271856751549,0,14.082739109353678,3.7526975776571283,-2.2485529511890086,0.898338351972073,0.4524417495110104,0.32549936755001163,0.6550829332549707,0.3065441096749747,False,True,False,-2.0550703919819733,5.450324763332283,True,-4.475011035786176,7.870265407136486,True,model_implied_state_space
revision_dfm_kalman_em,exact,pre_second,S,2024:Q2:pre_second:exact,2024-08-28,2024:Q2,2.9068071806754867,2.9514,-0.0445928193245133,1,14.105914359794928,3.7557841204993303,-2.2423061023049904,0.8779191042096439,0.5047365723087252,0.21947875802464972,0.764454055115886,0.2040601541053857,False,True,False,-0.8489769398238436,6.6625913011748175,True,-3.270907951974582,9.084522313325555,True,model_implied_state_space
revision_dfm_kalman_em,exact,pre_second,S,2024:Q3:pre_second:exact,2024-11-26,2024:Q3,2.2646678689695636,2.8336,-0.5689321310304365,2,11.792027887314015,3.433952225543334,-2.1663750698015773,0.8400158385324829,0.5657950254943948,0.25478958114737227,0.7261636536494068,0.2364603340423528,False,True,False,-1.1692843565737703,5.698620094512897,True,-3.383680903993469,7.913016641932597,True,model_implied_state_space
revision_dfm_kalman_em,exact,pre_second,S,2024:Q4:pre_second:exact,2025-02-26,2024:Q4,2.2876635219954826,2.3451,-0.0574364780045173,3,11.653625779025845,3.4137407310787156,-2.1468887535767305,0.7981595807075677,0.5067119211082423,0.25138620575641146,0.7295813034493087,0.2330862651475173,False,True,False,-1.126077209083233,5.701404253074198,True,-3.327440300991313,7.902767344982278,True,model_implied_state_space
revision_dfm_kalman_em,exact,pre_third,T,2024:Q1:pre_third:exact,2024-06-26,2024:Q1,1.5362332004378754,1.4095,0.1267332004378754,0,12.994548125163291,3.604795157170972,-2.201821482100134,0.8441998419471304,0.4859773394929291,0.33499424691589164,0.6445628546130543,0.315028915286763,False,True,False,-2.0685619567330966,5.141028357608848,True,-4.3931271882519,7.465593589127651,True,model_implied_state_space
revision_dfm_kalman_em,exact,pre_third,T,2024:Q2:pre_third:exact,2024-09-25,2024:Q2,2.928040449017689,2.9895,-0.061459550982311,1,10.51429263766537,3.2425750010856143,-2.0954859265789394,0.7582382051737446,0.5075610727344029,0.18326333840647846,0.7999154178095196,0.16735308343896027,False,True,False,-0.31453455206792524,6.170615450103304,True,-2.405520802180157,8.261601700215536,True,model_implied_state_space
revision_dfm_kalman_em,exact,pre_third,T,2024:Q3:pre_third:exact,2024-12-18,2024:Q3,2.4046728798249046,3.073,-0.6683271201750953,2,12.971655512563904,3.601618457383278,-2.2175386623294164,0.8910142010708532,0.5736062637493327,0.2521738794613543,0.7297754265689664,0.23478000934705157,False,True,False,-1.1969455775583735,6.006291337208182,True,-3.5194623026973466,8.328808062347155,True,model_implied_state_space
revision_dfm_kalman_em,exact,pre_third,T,2024:Q4:pre_third:exact,2025-03-26,2024:Q4,2.348428175809543,2.4495,-0.1010718241904569,3,10.410547294874922,3.2265379735677873,-2.0908388936868034,0.7552887027335593,0.5124948879955586,0.23335341707678484,0.747250259927402,0.2148124702140554,False,True,False,-0.8781097977582442,5.57496614937733,True,-2.958754512510085,7.655610864129171,True,model_implied_state_space
revision_dfm_kalman_em,pseudo,pre_advance,A,2024:Q1:pre_advance:pseudo,2024-04-30,2024:Q1,1.354862158125527,1.5897,-0.2348378418744732,0,22.0340925333528,4.694048629206221,-2.466485433223616,1.1016616501010865,0.5199502998429668,0.38643072677180607,0.597169289261879,0.37023116248021687,False,True,False,-3.339186471080694,6.048910787331748,True,-6.366160754710912,9.075885070961967,True,model_implied_state_space
revision_dfm_kalman_em,pseudo,pre_advance,A,2024:Q2:pre_advance:pseudo,2024-07-31,2024:Q2,3.4927214658207157,2.8401,0.6526214658207157,1,19.82437722870353,4.452457437045696,-2.423136908174132,1.078610926123814,0.44173352070323585,0.2163886325197315,0.7702070863442879,0.20344837182157743,False,True,False,-0.9597359712249807,7.945178902866412,True,-3.8309192983509543,10.816362229992386,True,model_implied_state_space
revision_dfm_kalman_em,pseudo,pre_advance,A,2024:Q3:pre_advance:pseudo,2024-10-31,2024:Q3,1.6098795827925905,2.8248,-1.2149204172074095,2,22.149787784650737,4.7063561047428975,-2.501171808437214,1.2242799069065287,0.6018523443115452,0.36615099762005976,0.6177471299332264,0.3502814590949743,False,True,False,-3.096476521950307,6.316235687535488,True,-6.1313873258189675,9.351146491404148,True,model_implied_state_space
revision_dfm_kalman_em,pseudo,pre_advance,A,2024:Q4:pre_advance:pseudo,2025-01-31,2024:Q4,2.133815485648382,2.2512,-0.1173845143516176,3,19.56238342908386,4.422938325263406,-2.4060949720846985,1.0348612543304871,0.5105866610436341,0.31474565241847907,0.6690256043275258,0.2988670543989798,False,True,False,-2.2891228396150236,6.556753810911788,True,-5.141270660443801,9.408901631740566,True,model_implied_state_space
revision_dfm_kalman_em,pseudo,pre_second,S,2024:Q1:pre_second:pseudo,2024-05-31,2024:Q1,1.6938059334700295,1.2492,0.4446059334700294,0,14.084096773295418,3.752878465031264,-2.2484793163133756,0.8980176922904137,0.45284737646581996,0.32587401045404873,0.6547006502277051,0.3069102215914712,False,True,False,-2.0590725315612346,5.446684398501294,True,-4.479129821244719,7.866741688184778,True,model_implied_state_space
revision_dfm_kalman_em,pseudo,pre_second,S,2024:Q2:pre_second:pseudo,2024-08-31,2024:Q2,2.9073609736304302,2.9514,-0.0440390263695698,1,14.105918450755064,3.755784665120601,-2.2423045074670553,0.8779140178684903,0.5046777514112987,0.21943519391414007,0.7644993904241525,0.20401841053391342,False,True,False,-0.8484236914901708,6.663145638751031,True,-3.270355054841911,9.085077002102771,True,model_implied_state_space
revision_dfm_kalman_em,pseudo,pre_second,S,2024:Q3:pre_second:pseudo,2024-11-30,2024:Q3,2.266266164180712,2.8336,-0.5673338358192881,2,11.792719883185388,3.4340529820003343,-2.1663266048527743,0.83982826812095,0.5656099585615127,0.25464642484515365,0.7263127342548357,0.23632333413111195,False,True,False,-1.1677868178196222,5.700319146181046,True,-3.382248338406056,7.914780666767481,True,model_implied_state_space
revision_dfm_kalman_em,pseudo,pre_second,S,2024:Q4:pre_second:pseudo,2025-02-28,2024:Q4,2.290465171366362,2.3451,-0.0546348286336373,3,11.654288160608978,3.4138377466729404,-2.14690369350217,0.7981455511181744,0.5063843727650711,0.2511307879634125,0.7298470500261549,0.23284161689949306,False,True,False,-1.1233725753065782,5.704302918039303,True,-3.3247982280724653,7.90572857080519,True,model_implied_state_space
revision_dfm_kalman_em,pseudo,pre_third,T,2024:Q1:pre_third:pseudo,2024-06-30,2024:Q1,1.565610364909094,1.4095,0.156110364909094,0,12.995678854981662,3.6049519906625194,-2.202184622936059,0.8451557093060194,0.4827294328531347,0.3320373447010296,0.6475874252280928,0.3121470520124755,False,True,False,-2.0393416257534254,5.170562355571613,True,-4.364007991918081,7.495228721736268,True,model_implied_state_space
revision_dfm_kalman_em,pseudo,pre_third,T,2024:Q2:pre_third:pseudo,2024-09-30,2024:Q2,2.9332419450218885,2.9895,-0.0562580549781115,1,10.511233165876282,3.2421032009910298,-2.095311340253101,0.7580526748934758,0.5069222319864579,0.18280308464614306,0.8003986247532915,0.16691636908650742,False,True,False,-0.30886125596914127,6.175345146012918,True,-2.3995432640791843,8.26602715412296,True,model_implied_state_space
revision_dfm_kalman_em,pseudo,pre_third,T,2024:Q3:pre_third:pseudo,2024-12-31,2024:Q3,2.406644747661066,3.073,-0.666355252338934,2,12.971572830470423,3.6016069789012826,-2.2174341394599484,0.89072181373284,0.5733917935147685,0.2519984520429533,0.7299571439506531,0.2346111756175052,False,True,False,-1.1949622312402166,6.0082517265623485,True,-3.5174715544384427,8.330761049760575,True,model_implied_state_space
revision_dfm_kalman_em,pseudo,pre_third,T,2024:Q4:pre_third:pseudo,2025-03-31,2024:Q4,2.3460046992224295,2.4495,-0.1034953007775705,3,10.410596929319812,3.2265456651533406,-2.0908650857245985,0.7553517850283834,0.5127943554770571,0.23358393022157295,0.7470096244119131,0.21503243997463806,False,True,False,-0.8805409659309111,5.57255036437577,True,-2.9611906406295936,7.653200039074452,True,model_implied_state_space
