haminh109/Revision-Aware-DFM/outputs/full_state_space_release_revision_dfm/exact_pseudo_backtest_max_iter50_journal_evidence/common_sample_spf_point.csv
timing_mode,checkpoint_id,outcome_id,anchor_model,model_id,n_common_forecasts,RMSE,MAE,bias,first_target_quarter,last_target_quarter
exact,pre_advance,A,spf,ar,80,7.136876466075766,2.4019986787197354,-0.034883682192518715,2005:Q1,2024:Q4
exact,pre_advance,A,spf,bridge,80,4.873697083215684,2.0735239008375914,-0.08665986755250973,2005:Q1,2024:Q4
exact,pre_advance,A,spf,indicator_revision_only_dfm_kalman_em,80,3.565573758950876,2.100779410470352,0.3040050466199193,2005:Q1,2024:Q4
exact,pre_advance,A,spf,joint_indicator_revision_dfm_full_kalman_em,80,3.6085298618787736,1.9831523525743535,0.15864658149861705,2005:Q1,2024:Q4
exact,pre_advance,A,spf,midas_umidas,80,13.366462459511451,8.137926816908715,-1.4902070873137654,2005:Q1,2024:Q4
exact,pre_advance,A,spf,monthly_mixed_frequency_kalman_em,80,3.724636447796112,1.9789027956418408,0.14154752160757605,2005:Q1,2024:Q4
exact,pre_advance,A,spf,no_revision,80,7.26944298718703,2.553570419453158,-0.19438472290895642,2005:Q1,2024:Q4
exact,pre_advance,A,spf,release_dfm,80,3.065863149762876,1.6259560683385963,0.5613778136832769,2005:Q1,2024:Q4
exact,pre_advance,A,spf,revision_dfm_kalman_em,80,3.3827862430691154,1.8234609227564789,0.10913821090601612,2005:Q1,2024:Q4
exact,pre_advance,A,spf,spf,80,2.2249600782092696,1.3380662499999998,0.03248624999999996,2005:Q1,2024:Q4
exact,pre_advance,A,spf,standard_dfm,80,3.065863149762876,1.6259560683385963,0.5613778136832769,2005:Q1,2024:Q4
exact,pre_second,S,spf,ar,79,6.942115480721942,2.4901407735357477,0.04251227511661703,2005:Q1,2024:Q4
exact,pre_second,S,spf,bridge,79,4.54265384858136,2.082360160345379,-0.05675651704617075,2005:Q1,2024:Q4
exact,pre_second,S,spf,indicator_revision_only_dfm_kalman_em,79,0.5913441736166517,0.44671989475336804,-0.019226616591523575,2005:Q1,2024:Q4
exact,pre_second,S,spf,joint_indicator_revision_dfm_full_kalman_em,79,0.6318578605374555,0.47375010240705145,0.06616586197985187,2005:Q1,2024:Q4
exact,pre_second,S,spf,midas_umidas,79,4.770330173182115,2.0735614295798213,0.42856838831025096,2005:Q1,2024:Q4
exact,pre_second,S,spf,monthly_mixed_frequency_kalman_em,79,0.5898720623831147,0.40856686244030327,0.0431659486320175,2005:Q1,2024:Q4
exact,pre_second,S,spf,no_revision,79,0.5696627235545563,0.3997025316455695,-0.0657987341772152,2005:Q1,2024:Q4
exact,pre_second,S,spf,release_dfm,79,0.6907381923525489,0.442060526291433,-0.007504839600181429,2005:Q1,2024:Q4
exact,pre_second,S,spf,revision_dfm_kalman_em,79,0.6949709053483214,0.46482256202123734,0.0640488993371132,2005:Q1,2024:Q4
exact,pre_second,S,spf,spf,79,2.3374416593545337,1.447506329113924,-0.03323291139240504,2005:Q1,2024:Q4
exact,pre_second,S,spf,standard_dfm,79,2.9233852978395802,1.6559888022137657,0.6257983634253166,2005:Q1,2024:Q4
exact,pre_third,T,spf,ar,80,6.853900266254954,2.504536216607909,0.0681353139194,2005:Q1,2024:Q4
exact,pre_third,T,spf,bridge,80,4.401929763157702,2.034724902716331,-0.03986372387584931,2005:Q1,2024:Q4
exact,pre_third,T,spf,indicator_revision_only_dfm_kalman_em,80,0.3707703330897534,0.24204902026475333,-0.04872828030493199,2005:Q1,2024:Q4
exact,pre_third,T,spf,joint_indicator_revision_dfm_full_kalman_em,80,0.3721212382773847,0.24624925595841582,-0.04132413287800049,2005:Q1,2024:Q4
exact,pre_third,T,spf,midas_umidas,80,6.190490508808118,2.464334501422888,0.3600422160923934,2005:Q1,2024:Q4
exact,pre_third,T,spf,monthly_mixed_frequency_kalman_em,80,0.3689494943196956,0.2596360448384892,0.0014905916658054879,2005:Q1,2024:Q4
exact,pre_third,T,spf,no_revision,80,0.36218671255306983,0.24027250000000003,-0.04849250000000001,2005:Q1,2024:Q4
exact,pre_third,T,spf,release_dfm,80,0.44461668720021746,0.28661966943844275,-0.004436688674578834,2005:Q1,2024:Q4
exact,pre_third,T,spf,revision_dfm_kalman_em,80,0.3730632960286779,0.2455953541387202,-0.0388659707887991,2005:Q1,2024:Q4
exact,pre_third,T,spf,spf,80,2.380187605841187,1.481165,-0.08098250000000004,2005:Q1,2024:Q4
exact,pre_third,T,spf,standard_dfm,80,2.90714669134318,1.6952067512158628,0.6264289329021568,2005:Q1,2024:Q4
pseudo,pre_advance,A,spf,ar,80,7.136876466075766,2.4019986787197354,-0.034883682192518715,2005:Q1,2024:Q4
pseudo,pre_advance,A,spf,bridge,80,4.853299396730428,2.061680360176223,-0.06262122829072408,2005:Q1,2024:Q4
pseudo,pre_advance,A,spf,indicator_revision_only_dfm_kalman_em,80,3.565231720798303,2.1014855916560773,0.31176289259595086,2005:Q1,2024:Q4
pseudo,pre_advance,A,spf,joint_indicator_revision_dfm_full_kalman_em,80,3.6092417977258933,1.9824549744639703,0.16277429253234782,2005:Q1,2024:Q4
pseudo,pre_advance,A,spf,midas_umidas,80,13.553973435987377,8.229496807263976,-1.5805326543917775,2005:Q1,2024:Q4
pseudo,pre_advance,A,spf,monthly_mixed_frequency_kalman_em,80,3.727901074445354,1.985923212322509,0.14836001974726148,2005:Q1,2024:Q4
pseudo,pre_advance,A,spf,no_revision,80,7.26944298718703,2.553570419453158,-0.19438472290895642,2005:Q1,2024:Q4
pseudo,pre_advance,A,spf,release_dfm,80,3.051686880620196,1.617840274844697,0.5850074419094153,2005:Q1,2024:Q4
pseudo,pre_advance,A,spf,revision_dfm_kalman_em,80,3.38000284694541,1.8201847043518733,0.11790086257432977,2005:Q1,2024:Q4
pseudo,pre_advance,A,spf,spf,80,2.2249600782092696,1.3380662499999998,0.03248624999999996,2005:Q1,2024:Q4
pseudo,pre_advance,A,spf,standard_dfm,80,3.051686880620196,1.617840274844697,0.5850074419094153,2005:Q1,2024:Q4
pseudo,pre_second,S,spf,ar,79,6.942115480721942,2.4901407735357477,0.04251227511661703,2005:Q1,2024:Q4
pseudo,pre_second,S,spf,bridge,79,4.542167880186523,2.069129516390108,-0.05619203697229968,2005:Q1,2024:Q4
pseudo,pre_second,S,spf,indicator_revision_only_dfm_kalman_em,79,0.5913486733086548,0.44664686398756426,-0.019183806076302903,2005:Q1,2024:Q4
pseudo,pre_second,S,spf,joint_indicator_revision_dfm_full_kalman_em,79,0.6314560118578099,0.47362194246309725,0.06553796053887723,2005:Q1,2024:Q4
pseudo,pre_second,S,spf,midas_umidas,79,4.7627716394170765,2.056091631829284,0.39163177288133166,2005:Q1,2024:Q4
pseudo,pre_second,S,spf,monthly_mixed_frequency_kalman_em,79,0.5888586237650965,0.4067719627146271,0.041123288422351426,2005:Q1,2024:Q4
pseudo,pre_second,S,spf,no_revision,79,0.5696627235545563,0.3997025316455695,-0.0657987341772152,2005:Q1,2024:Q4
pseudo,pre_second,S,spf,release_dfm,79,0.6904136306729566,0.4416792069701227,-0.00793407894825477,2005:Q1,2024:Q4
pseudo,pre_second,S,spf,revision_dfm_kalman_em,79,0.6946533920278625,0.46423122512943255,0.0634395319564986,2005:Q1,2024:Q4
pseudo,pre_second,S,spf,spf,79,2.3374416593545337,1.447506329113924,-0.03323291139240504,2005:Q1,2024:Q4
pseudo,pre_second,S,spf,standard_dfm,79,2.916285968472659,1.6502216253940645,0.629068819194277,2005:Q1,2024:Q4
pseudo,pre_third,T,spf,ar,80,6.853900266254954,2.504536216607909,0.0681353139194,2005:Q1,2024:Q4
pseudo,pre_third,T,spf,bridge,80,4.398694165093339,2.023836204423721,-0.037244391964048586,2005:Q1,2024:Q4
pseudo,pre_third,T,spf,indicator_revision_only_dfm_kalman_em,80,0.3707152109569166,0.24198460865103194,-0.04874203952346253,2005:Q1,2024:Q4
pseudo,pre_third,T,spf,joint_indicator_revision_dfm_full_kalman_em,80,0.37213476654083555,0.24621444730210115,-0.04129916426091691,2005:Q1,2024:Q4
pseudo,pre_third,T,spf,midas_umidas,80,6.186914482958172,2.466880937795282,0.38281850628520886,2005:Q1,2024:Q4
pseudo,pre_third,T,spf,monthly_mixed_frequency_kalman_em,80,0.3679534545978968,0.2592003717195164,0.00016535499628490686,2005:Q1,2024:Q4
pseudo,pre_third,T,spf,no_revision,80,0.36218671255306983,0.24027250000000003,-0.04849250000000001,2005:Q1,2024:Q4
pseudo,pre_third,T,spf,release_dfm,80,0.4446354112046445,0.28664795186023795,-0.0043697752705770644,2005:Q1,2024:Q4
pseudo,pre_third,T,spf,revision_dfm_kalman_em,80,0.3729824226779347,0.24553031176461576,-0.03890712389419386,2005:Q1,2024:Q4
pseudo,pre_third,T,spf,spf,80,2.380187605841187,1.481165,-0.08098250000000004,2005:Q1,2024:Q4
pseudo,pre_third,T,spf,standard_dfm,80,2.9061285663703322,1.6923315853777292,0.6300497207873995,2005:Q1,2024:Q4
