haminh109/Revision-Aware-DFM/outputs/full_state_space_release_revision_dfm/frozen/q1_manuscript_v1_sensitivity_midas/sensitivity_runs/sensitivity_midas_lags4_max_iter100/evidence_dir/cumulative_loss_revision.csv
timing_mode,checkpoint_id,outcome_id,baseline_model,model_id,target_quarter,loss_diff_baseline_minus_model,cumulative_loss_diff
exact,pre_advance,DELTA_SA,ar,bridge,2005:Q1,-0.013846057404504227,-0.013846057404504227
exact,pre_advance,DELTA_SA,ar,bridge,2005:Q2,-0.001650279197283805,-0.015496336601788032
exact,pre_advance,DELTA_SA,ar,bridge,2005:Q3,-0.11888984019706639,-0.13438617679885442
exact,pre_advance,DELTA_SA,ar,bridge,2005:Q4,-0.0033836766731657753,-0.1377698534720202
exact,pre_advance,DELTA_SA,ar,bridge,2006:Q1,-0.04844188468453351,-0.1862117381565537
exact,pre_advance,DELTA_SA,ar,bridge,2006:Q2,-0.1371256323997568,-0.3233373705563105
exact,pre_advance,DELTA_SA,ar,bridge,2006:Q3,-0.0642914456374126,-0.38762881619372314
exact,pre_advance,DELTA_SA,ar,bridge,2006:Q4,0.3455791908551027,-0.042049625338620444
exact,pre_advance,DELTA_SA,ar,bridge,2007:Q1,-0.007824031136799381,-0.049873656475419824
exact,pre_advance,DELTA_SA,ar,bridge,2007:Q2,0.06896631884463494,0.01909266236921512
exact,pre_advance,DELTA_SA,ar,bridge,2007:Q3,0.059803740894769475,0.07889640326398459
exact,pre_advance,DELTA_SA,ar,bridge,2007:Q4,-0.012197856569414467,0.06669854669457012
exact,pre_advance,DELTA_SA,ar,bridge,2008:Q1,-0.004344598103960446,0.06235394859060968
exact,pre_advance,DELTA_SA,ar,bridge,2008:Q2,-0.5744071113634033,-0.5120531627727936
exact,pre_advance,DELTA_SA,ar,bridge,2008:Q3,0.6190200450590351,0.10696688228624152
exact,pre_advance,DELTA_SA,ar,bridge,2008:Q4,3.9506126973357536,4.057579579621995
exact,pre_advance,DELTA_SA,ar,bridge,2009:Q1,-6.0988802018433,-2.0413006222213044
exact,pre_advance,DELTA_SA,ar,bridge,2009:Q2,0.12681370682327298,-1.9144869153980313
exact,pre_advance,DELTA_SA,ar,bridge,2009:Q3,-0.06823089199504906,-1.9827178073930805
exact,pre_advance,DELTA_SA,ar,bridge,2009:Q4,-0.034868451184771665,-2.017586258577852
exact,pre_advance,DELTA_SA,ar,bridge,2010:Q1,-0.08867270219654097,-2.106258960774393
exact,pre_advance,DELTA_SA,ar,bridge,2010:Q2,-0.09358245387922448,-2.1998414146536174
exact,pre_advance,DELTA_SA,ar,bridge,2010:Q3,0.09492216977372347,-2.104919244879894
exact,pre_advance,DELTA_SA,ar,bridge,2010:Q4,-0.5663990366542817,-2.671318281534176
exact,pre_advance,DELTA_SA,ar,bridge,2011:Q1,0.006841226592887183,-2.6644770549412886
exact,pre_advance,DELTA_SA,ar,bridge,2011:Q2,-0.1050182175676507,-2.7694952725089395
exact,pre_advance,DELTA_SA,ar,bridge,2011:Q3,-0.12148482455549064,-2.89098009706443
exact,pre_advance,DELTA_SA,ar,bridge,2011:Q4,0.0628784200154297,-2.8281016770490006
exact,pre_advance,DELTA_SA,ar,bridge,2012:Q1,-0.03588771304329322,-2.8639893900922937
exact,pre_advance,DELTA_SA,ar,bridge,2012:Q2,-0.04882398210555089,-2.9128133721978444
exact,pre_advance,DELTA_SA,ar,bridge,2012:Q3,0.007775069522668765,-2.905038302675176
exact,pre_advance,DELTA_SA,ar,bridge,2012:Q4,0.004271385099178677,-2.9007669175759974
exact,pre_advance,DELTA_SA,ar,bridge,2013:Q1,0.08666220076802948,-2.814104716807968
exact,pre_advance,DELTA_SA,ar,bridge,2013:Q2,0.02549697621248881,-2.788607740595479
exact,pre_advance,DELTA_SA,ar,bridge,2013:Q3,-0.06520892381398459,-2.8538166644094636
exact,pre_advance,DELTA_SA,ar,bridge,2013:Q4,-0.4483601219941009,-3.3021767864035647
exact,pre_advance,DELTA_SA,ar,bridge,2014:Q1,0.08408982928439113,-3.2180869571191737
exact,pre_advance,DELTA_SA,ar,bridge,2014:Q2,0.16274947653538804,-3.055337480583786
exact,pre_advance,DELTA_SA,ar,bridge,2014:Q3,0.02095518071252679,-3.034382299871259
exact,pre_advance,DELTA_SA,ar,bridge,2014:Q4,0.04340036392903157,-2.9909819359422274
exact,pre_advance,DELTA_SA,ar,bridge,2015:Q1,0.09722612747043768,-2.8937558084717896
exact,pre_advance,DELTA_SA,ar,bridge,2015:Q2,0.5270016182401944,-2.366754190231595
exact,pre_advance,DELTA_SA,ar,bridge,2015:Q3,0.006413618385182668,-2.3603405718464123
exact,pre_advance,DELTA_SA,ar,bridge,2015:Q4,0.00046354735142317607,-2.359877024494989
exact,pre_advance,DELTA_SA,ar,bridge,2016:Q1,-0.028693367546870584,-2.38857039204186
exact,pre_advance,DELTA_SA,ar,bridge,2016:Q2,-0.006980417169187542,-2.3955508092110476
exact,pre_advance,DELTA_SA,ar,bridge,2016:Q3,0.008611368466014832,-2.386939440745033
exact,pre_advance,DELTA_SA,ar,bridge,2016:Q4,-0.0009847649917328026,-2.387924205736766
exact,pre_advance,DELTA_SA,ar,bridge,2017:Q1,0.006128595802208259,-2.3817956099345574
exact,pre_advance,DELTA_SA,ar,bridge,2017:Q2,-0.02510746702309855,-2.406903076957656
exact,pre_advance,DELTA_SA,ar,bridge,2017:Q3,0.001522476533105824,-2.40538060042455
exact,pre_advance,DELTA_SA,ar,bridge,2017:Q4,-0.012532396692822634,-2.417912997117373
exact,pre_advance,DELTA_SA,ar,bridge,2018:Q1,-0.0010255262763060394,-2.418938523393679
exact,pre_advance,DELTA_SA,ar,bridge,2018:Q2,0.02459572516719096,-2.394342798226488
exact,pre_advance,DELTA_SA,ar,bridge,2018:Q3,-0.0028625928778965534,-2.3972053911043845
exact,pre_advance,DELTA_SA,ar,bridge,2019:Q1,-0.3022766661113521,-2.6994820572157368
exact,pre_advance,DELTA_SA,ar,bridge,2019:Q2,-0.004735905859539672,-2.7042179630752763
exact,pre_advance,DELTA_SA,ar,bridge,2019:Q3,0.015341164816805735,-2.6888767982584705
exact,pre_advance,DELTA_SA,ar,bridge,2019:Q4,-0.044503658959923934,-2.7333804572183946
exact,pre_advance,DELTA_SA,ar,bridge,2020:Q1,0.04438608098788961,-2.688994376230505
exact,pre_advance,DELTA_SA,ar,bridge,2020:Q2,-3.0940398410540886,-5.783034217284594
exact,pre_advance,DELTA_SA,ar,bridge,2020:Q3,1.4176473053505774,-4.365386911934016
exact,pre_advance,DELTA_SA,ar,bridge,2020:Q4,0.34996403492923833,-4.015422877004778
exact,pre_advance,DELTA_SA,ar,bridge,2021:Q1,-0.013363060193281307,-4.02878593719806
exact,pre_advance,DELTA_SA,ar,bridge,2021:Q2,-0.035774116514449394,-4.064560053712509
exact,pre_advance,DELTA_SA,ar,bridge,2021:Q3,0.0032954658604867682,-4.061264587852023
exact,pre_advance,DELTA_SA,ar,bridge,2021:Q4,-0.0018903674062236324,-4.063154955258247
exact,pre_advance,DELTA_SA,ar,bridge,2022:Q1,-0.0341551593556946,-4.097310114613942
exact,pre_advance,DELTA_SA,ar,bridge,2022:Q2,-0.017409303051808128,-4.11471941766575
exact,pre_advance,DELTA_SA,ar,bridge,2022:Q3,0.00910814997588863,-4.105611267689861
exact,pre_advance,DELTA_SA,ar,bridge,2022:Q4,-0.07401877594323691,-4.179630043633098
exact,pre_advance,DELTA_SA,ar,bridge,2023:Q1,0.0027256207132850974,-4.176904422919813
exact,pre_advance,DELTA_SA,ar,bridge,2023:Q2,-0.21283992077671984,-4.389744343696533
exact,pre_advance,DELTA_SA,ar,bridge,2023:Q3,-0.029134879013246184,-4.418879222709779
exact,pre_advance,DELTA_SA,ar,bridge,2023:Q4,-0.054897300557348844,-4.473776523267128
exact,pre_advance,DELTA_SA,ar,bridge,2024:Q1,0.08308195917709753,-4.390694564090031
exact,pre_advance,DELTA_SA,ar,bridge,2024:Q2,-0.04089950912320479,-4.431594073213235
exact,pre_advance,DELTA_SA,ar,bridge,2024:Q3,0.0020789175935691188,-4.429515155619666
exact,pre_advance,DELTA_SA,ar,bridge,2024:Q4,-0.00014364795373978442,-4.429658803573406
exact,pre_advance,DELTA_SA,ar,indicator_revision_only_dfm_kalman_em,2005:Q1,-0.15257503321613658,-0.15257503321613658
exact,pre_advance,DELTA_SA,ar,indicator_revision_only_dfm_kalman_em,2005:Q2,0.10304262774761302,-0.049532405468523555
exact,pre_advance,DELTA_SA,ar,indicator_revision_only_dfm_kalman_em,2005:Q3,0.03151683579611303,-0.018015569672410525
exact,pre_advance,DELTA_SA,ar,indicator_revision_only_dfm_kalman_em,2005:Q4,-0.17958946757420496,-0.1976050372466155
exact,pre_advance,DELTA_SA,ar,indicator_revision_only_dfm_kalman_em,2006:Q1,-0.22225097588053042,-0.41985601312714593
exact,pre_advance,DELTA_SA,ar,indicator_revision_only_dfm_kalman_em,2006:Q2,-0.1338214718146227,-0.5536774849417686
exact,pre_advance,DELTA_SA,ar,indicator_revision_only_dfm_kalman_em,2006:Q3,-0.2655324769569707,-0.8192099618987393
exact,pre_advance,DELTA_SA,ar,indicator_revision_only_dfm_kalman_em,2006:Q4,1.1280810824986391,0.30887112059989985
exact,pre_advance,DELTA_SA,ar,indicator_revision_only_dfm_kalman_em,2007:Q1,-0.36488258133290913,-0.05601146073300928
exact,pre_advance,DELTA_SA,ar,indicator_revision_only_dfm_kalman_em,2007:Q2,0.2101220628635298,0.15411060213052052
exact,pre_advance,DELTA_SA,ar,indicator_revision_only_dfm_kalman_em,2007:Q3,-0.5038879623481906,-0.34977736021767003
exact,pre_advance,DELTA_SA,ar,indicator_revision_only_dfm_kalman_em,2007:Q4,0.23194641324995732,-0.11783094696771271
exact,pre_advance,DELTA_SA,ar,indicator_revision_only_dfm_kalman_em,2008:Q1,-0.06565748592115798,-0.18348843288887068
exact,pre_advance,DELTA_SA,ar,indicator_revision_only_dfm_kalman_em,2008:Q2,-0.7051418869943866,-0.8886303198832572
exact,pre_advance,DELTA_SA,ar,indicator_revision_only_dfm_kalman_em,2008:Q3,0.8839041046210189,-0.004726215262238376
exact,pre_advance,DELTA_SA,ar,indicator_revision_only_dfm_kalman_em,2008:Q4,0.39399862829546173,0.38927241303322335
exact,pre_advance,DELTA_SA,ar,indicator_revision_only_dfm_kalman_em,2009:Q1,1.3203689037955737,1.709641316828797
exact,pre_advance,DELTA_SA,ar,indicator_revision_only_dfm_kalman_em,2009:Q2,0.36877932291984866,2.0784206397486455
exact,pre_advance,DELTA_SA,ar,indicator_revision_only_dfm_kalman_em,2009:Q3,0.31974831955083616,2.3981689592994817
exact,pre_advance,DELTA_SA,ar,indicator_revision_only_dfm_kalman_em,2009:Q4,0.2461874095178597,2.6443563688173413
exact,pre_advance,DELTA_SA,ar,indicator_revision_only_dfm_kalman_em,2010:Q1,0.012274663642203441,2.656631032459545
exact,pre_advance,DELTA_SA,ar,indicator_revision_only_dfm_kalman_em,2010:Q2,-0.10097637669884518,2.5556546557606996
exact,pre_advance,DELTA_SA,ar,indicator_revision_only_dfm_kalman_em,2010:Q3,0.41001530272678194,2.9656699584874815
exact,pre_advance,DELTA_SA,ar,indicator_revision_only_dfm_kalman_em,2010:Q4,0.33708017745408314,3.3027501359415647
exact,pre_advance,DELTA_SA,ar,indicator_revision_only_dfm_kalman_em,2011:Q1,0.05273638935335863,3.3554865252949235
exact,pre_advance,DELTA_SA,ar,indicator_revision_only_dfm_kalman_em,2011:Q2,0.0864949621817803,3.4419814874767036
exact,pre_advance,DELTA_SA,ar,indicator_revision_only_dfm_kalman_em,2011:Q3,-0.03822954602021156,3.403751941456492
exact,pre_advance,DELTA_SA,ar,indicator_revision_only_dfm_kalman_em,2011:Q4,0.1042486389810256,3.5080005804375176
exact,pre_advance,DELTA_SA,ar,indicator_revision_only_dfm_kalman_em,2012:Q1,0.12270345028699549,3.6307040307245133
exact,pre_advance,DELTA_SA,ar,indicator_revision_only_dfm_kalman_em,2012:Q2,0.05124300972150874,3.681947040446022
exact,pre_advance,DELTA_SA,ar,indicator_revision_only_dfm_kalman_em,2012:Q3,-0.19803121584843814,3.483915824597584
exact,pre_advance,DELTA_SA,ar,indicator_revision_only_dfm_kalman_em,2012:Q4,-0.06160444841889918,3.4223113761786847
exact,pre_advance,DELTA_SA,ar,indicator_revision_only_dfm_kalman_em,2013:Q1,0.13839352919058448,3.560704905369269
exact,pre_advance,DELTA_SA,ar,indicator_revision_only_dfm_kalman_em,2013:Q2,0.010665904843470964,3.5713708102127404
exact,pre_advance,DELTA_SA,ar,indicator_revision_only_dfm_kalman_em,2013:Q3,-0.49085393179229264,3.0805168784204477
exact,pre_advance,DELTA_SA,ar,indicator_revision_only_dfm_kalman_em,2013:Q4,0.8147882022650561,3.895305080685504
exact,pre_advance,DELTA_SA,ar,indicator_revision_only_dfm_kalman_em,2014:Q1,-0.6728261778290336,3.22247890285647
exact,pre_advance,DELTA_SA,ar,indicator_revision_only_dfm_kalman_em,2014:Q2,0.3153905835886226,3.537869486445093
exact,pre_advance,DELTA_SA,ar,indicator_revision_only_dfm_kalman_em,2014:Q3,-0.05736992828325174,3.480499558161841
exact,pre_advance,DELTA_SA,ar,indicator_revision_only_dfm_kalman_em,2014:Q4,0.18045818425062124,3.6609577424124624
exact,pre_advance,DELTA_SA,ar,indicator_revision_only_dfm_kalman_em,2015:Q1,-0.30424364925329495,3.3567140931591677
exact,pre_advance,DELTA_SA,ar,indicator_revision_only_dfm_kalman_em,2015:Q2,1.0249249122593762,4.381639005418544
exact,pre_advance,DELTA_SA,ar,indicator_revision_only_dfm_kalman_em,2015:Q3,-0.3345827492334456,4.0470562561850985
exact,pre_advance,DELTA_SA,ar,indicator_revision_only_dfm_kalman_em,2015:Q4,-0.09676443992777004,3.9502918162573284
exact,pre_advance,DELTA_SA,ar,indicator_revision_only_dfm_kalman_em,2016:Q1,-0.09029065158363185,3.8600011646736965
exact,pre_advance,DELTA_SA,ar,indicator_revision_only_dfm_kalman_em,2016:Q2,0.1360297525459644,3.996030917219661
exact,pre_advance,DELTA_SA,ar,indicator_revision_only_dfm_kalman_em,2016:Q3,-0.021175007572158712,3.974855909647502
exact,pre_advance,DELTA_SA,ar,indicator_revision_only_dfm_kalman_em,2016:Q4,0.02734587565242416,4.002201785299926
exact,pre_advance,DELTA_SA,ar,indicator_revision_only_dfm_kalman_em,2017:Q1,-0.056295362083760514,3.945906423216165
exact,pre_advance,DELTA_SA,ar,indicator_revision_only_dfm_kalman_em,2017:Q2,-0.1998229027002102,3.746083520515955
exact,pre_advance,DELTA_SA,ar,indicator_revision_only_dfm_kalman_em,2017:Q3,-0.09239460605426397,3.653688914461691
exact,pre_advance,DELTA_SA,ar,indicator_revision_only_dfm_kalman_em,2017:Q4,0.035699658663772574,3.6893885731254636
exact,pre_advance,DELTA_SA,ar,indicator_revision_only_dfm_kalman_em,2018:Q1,0.012703611098869368,3.702092184224333
exact,pre_advance,DELTA_SA,ar,indicator_revision_only_dfm_kalman_em,2018:Q2,0.0030213569949030655,3.705113541219236
exact,pre_advance,DELTA_SA,ar,indicator_revision_only_dfm_kalman_em,2018:Q3,0.0032310710133240618,3.70834461223256
exact,pre_advance,DELTA_SA,ar,indicator_revision_only_dfm_kalman_em,2019:Q1,0.3134694480182471,4.021814060250807
exact,pre_advance,DELTA_SA,ar,indicator_revision_only_dfm_kalman_em,2019:Q2,-0.00020861065790184213,4.021605449592905
exact,pre_advance,DELTA_SA,ar,indicator_revision_only_dfm_kalman_em,2019:Q3,-0.020795440927072837,4.000810008665832
exact,pre_advance,DELTA_SA,ar,indicator_revision_only_dfm_kalman_em,2019:Q4,0.022807340587339162,4.023617349253171
exact,pre_advance,DELTA_SA,ar,indicator_revision_only_dfm_kalman_em,2020:Q1,0.04374626691208146,4.067363616165252
exact,pre_advance,DELTA_SA,ar,indicator_revision_only_dfm_kalman_em,2020:Q2,-0.4848885887598303,3.582475027405422
exact,pre_advance,DELTA_SA,ar,indicator_revision_only_dfm_kalman_em,2020:Q3,6.6030936783793335,10.185568705784755
exact,pre_advance,DELTA_SA,ar,indicator_revision_only_dfm_kalman_em,2020:Q4,0.3494364241901803,10.535005129974936
exact,pre_advance,DELTA_SA,ar,indicator_revision_only_dfm_kalman_em,2021:Q1,0.010481372036795358,10.54548650201173
exact,pre_advance,DELTA_SA,ar,indicator_revision_only_dfm_kalman_em,2021:Q2,0.005674643654305938,10.551161145666036
exact,pre_advance,DELTA_SA,ar,indicator_revision_only_dfm_kalman_em,2021:Q3,-0.00428446848418562,10.546876677181851
exact,pre_advance,DELTA_SA,ar,indicator_revision_only_dfm_kalman_em,2021:Q4,-0.009636975615624089,10.537239701566227
exact,pre_advance,DELTA_SA,ar,indicator_revision_only_dfm_kalman_em,2022:Q1,0.05376352283472801,10.591003224400955
exact,pre_advance,DELTA_SA,ar,indicator_revision_only_dfm_kalman_em,2022:Q2,-0.01747374549873487,10.57352947890222
exact,pre_advance,DELTA_SA,ar,indicator_revision_only_dfm_kalman_em,2022:Q3,-0.038912176234116996,10.534617302668103
exact,pre_advance,DELTA_SA,ar,indicator_revision_only_dfm_kalman_em,2022:Q4,0.058622083054108,10.59323938572221
exact,pre_advance,DELTA_SA,ar,indicator_revision_only_dfm_kalman_em,2023:Q1,-0.02740533844308022,10.56583404727913
exact,pre_advance,DELTA_SA,ar,indicator_revision_only_dfm_kalman_em,2023:Q2,0.06172819389498699,10.627562241174118
exact,pre_advance,DELTA_SA,ar,indicator_revision_only_dfm_kalman_em,2023:Q3,-0.03194758936873526,10.595614651805382
exact,pre_advance,DELTA_SA,ar,indicator_revision_only_dfm_kalman_em,2023:Q4,0.03690159867203891,10.63251625047742
exact,pre_advance,DELTA_SA,ar,indicator_revision_only_dfm_kalman_em,2024:Q1,0.07155817897030346,10.704074429447724
exact,pre_advance,DELTA_SA,ar,indicator_revision_only_dfm_kalman_em,2024:Q2,-0.009033581491366181,10.695040847956358
exact,pre_advance,DELTA_SA,ar,indicator_revision_only_dfm_kalman_em,2024:Q3,0.00727617350536104,10.702317021461718
exact,pre_advance,DELTA_SA,ar,indicator_revision_only_dfm_kalman_em,2024:Q4,-0.008788760628669104,10.69352826083305
exact,pre_advance,DELTA_SA,ar,joint_indicator_revision_dfm_full_kalman_em,2005:Q1,-0.03917699736228955,-0.03917699736228955
exact,pre_advance,DELTA_SA,ar,joint_indicator_revision_dfm_full_kalman_em,2005:Q2,-0.0016324093375352094,-0.04080940669982476
exact,pre_advance,DELTA_SA,ar,joint_indicator_revision_dfm_full_kalman_em,2005:Q3,0.24535391450228694,0.2045445078024622
exact,pre_advance,DELTA_SA,ar,joint_indicator_revision_dfm_full_kalman_em,2005:Q4,0.03172583297282607,0.23627034077528827
exact,pre_advance,DELTA_SA,ar,joint_indicator_revision_dfm_full_kalman_em,2006:Q1,0.012620062346149891,0.24889040312143818
exact,pre_advance,DELTA_SA,ar,joint_indicator_revision_dfm_full_kalman_em,2006:Q2,0.03742543441707874,0.2863158375385169
exact,pre_advance,DELTA_SA,ar,joint_indicator_revision_dfm_full_kalman_em,2006:Q3,0.009836180889543675,0.2961520184280606
exact,pre_advance,DELTA_SA,ar,joint_indicator_revision_dfm_full_kalman_em,2006:Q4,1.7820152466949768,2.0781672651230374
exact,pre_advance,DELTA_SA,ar,joint_indicator_revision_dfm_full_kalman_em,2007:Q1,-0.35681009445490536,1.721357170668132
exact,pre_advance,DELTA_SA,ar,joint_indicator_revision_dfm_full_kalman_em,2007:Q2,0.39117770438198335,2.1125348750501156
exact,pre_advance,DELTA_SA,ar,joint_indicator_revision_dfm_full_kalman_em,2007:Q3,-0.47319093596974715,1.6393439390803684
exact,pre_advance,DELTA_SA,ar,joint_indicator_revision_dfm_full_kalman_em,2007:Q4,-0.1411957125972588,1.4981482264831096
exact,pre_advance,DELTA_SA,ar,joint_indicator_revision_dfm_full_kalman_em,2008:Q1,-0.24573585073637352,1.252412375746736
exact,pre_advance,DELTA_SA,ar,joint_indicator_revision_dfm_full_kalman_em,2008:Q2,-0.7134891972033439,0.5389231785433921
exact,pre_advance,DELTA_SA,ar,joint_indicator_revision_dfm_full_kalman_em,2008:Q3,0.9522439835010761,1.4911671620444682
exact,pre_advance,DELTA_SA,ar,joint_indicator_revision_dfm_full_kalman_em,2008:Q4,2.8863415127759215,4.3775086748203895
exact,pre_advance,DELTA_SA,ar,joint_indicator_revision_dfm_full_kalman_em,2009:Q1,1.4387009686070023,5.816209643427392
exact,pre_advance,DELTA_SA,ar,joint_indicator_revision_dfm_full_kalman_em,2009:Q2,-0.1249406961603376,5.691268947267054
exact,pre_advance,DELTA_SA,ar,joint_indicator_revision_dfm_full_kalman_em,2009:Q3,-1.8804750941529278,3.8107938531141263
exact,pre_advance,DELTA_SA,ar,joint_indicator_revision_dfm_full_kalman_em,2009:Q4,0.18859069700026382,3.99938455011439
exact,pre_advance,DELTA_SA,ar,joint_indicator_revision_dfm_full_kalman_em,2010:Q1,-0.4231359452196757,3.5762486048947144
exact,pre_advance,DELTA_SA,ar,joint_indicator_revision_dfm_full_kalman_em,2010:Q2,-0.5470334918906624,3.029215113004052
exact,pre_advance,DELTA_SA,ar,joint_indicator_revision_dfm_full_kalman_em,2010:Q3,0.5715667246140735,3.6007818376181255
exact,pre_advance,DELTA_SA,ar,joint_indicator_revision_dfm_full_kalman_em,2010:Q4,0.24688224176907092,3.8476640793871963
exact,pre_advance,DELTA_SA,ar,joint_indicator_revision_dfm_full_kalman_em,2011:Q1,0.010651295397286188,3.8583153747844827
exact,pre_advance,DELTA_SA,ar,joint_indicator_revision_dfm_full_kalman_em,2011:Q2,-0.11442066425972466,3.743894710524758
exact,pre_advance,DELTA_SA,ar,joint_indicator_revision_dfm_full_kalman_em,2011:Q3,-0.36994219553440133,3.373952514990357
exact,pre_advance,DELTA_SA,ar,joint_indicator_revision_dfm_full_kalman_em,2011:Q4,0.14768824308323997,3.521640758073597
exact,pre_advance,DELTA_SA,ar,joint_indicator_revision_dfm_full_kalman_em,2012:Q1,-0.09027814567502204,3.431362612398575
exact,pre_advance,DELTA_SA,ar,joint_indicator_revision_dfm_full_kalman_em,2012:Q2,0.07380694305730773,3.5051695554558826
exact,pre_advance,DELTA_SA,ar,joint_indicator_revision_dfm_full_kalman_em,2012:Q3,-0.0385928016982135,3.466576753757669
exact,pre_advance,DELTA_SA,ar,joint_indicator_revision_dfm_full_kalman_em,2012:Q4,0.010787277296193186,3.4773640310538623
exact,pre_advance,DELTA_SA,ar,joint_indicator_revision_dfm_full_kalman_em,2013:Q1,-0.0014560801258275413,3.475907950928035
exact,pre_advance,DELTA_SA,ar,joint_indicator_revision_dfm_full_kalman_em,2013:Q2,0.1507066652531901,3.626614616181225
exact,pre_advance,DELTA_SA,ar,joint_indicator_revision_dfm_full_kalman_em,2013:Q3,-0.35778457837796507,3.26883003780326
exact,pre_advance,DELTA_SA,ar,joint_indicator_revision_dfm_full_kalman_em,2013:Q4,0.4525675091538579,3.721397546957118
exact,pre_advance,DELTA_SA,ar,joint_indicator_revision_dfm_full_kalman_em,2014:Q1,-0.9320060153916105,2.7893915315655073
exact,pre_advance,DELTA_SA,ar,joint_indicator_revision_dfm_full_kalman_em,2014:Q2,0.3291062968753671,3.1184978284408746
exact,pre_advance,DELTA_SA,ar,joint_indicator_revision_dfm_full_kalman_em,2014:Q3,0.011843982956590518,3.1303418113974653
exact,pre_advance,DELTA_SA,ar,joint_indicator_revision_dfm_full_kalman_em,2014:Q4,0.10579391651803438,3.2361357279154994
exact,pre_advance,DELTA_SA,ar,joint_indicator_revision_dfm_full_kalman_em,2015:Q1,-0.17567614469013149,3.060459583225368
exact,pre_advance,DELTA_SA,ar,joint_indicator_revision_dfm_full_kalman_em,2015:Q2,1.6276451123982605,4.688104695623628
exact,pre_advance,DELTA_SA,ar,joint_indicator_revision_dfm_full_kalman_em,2015:Q3,-0.32231378002284927,4.365790915600779
exact,pre_advance,DELTA_SA,ar,joint_indicator_revision_dfm_full_kalman_em,2015:Q4,-0.05828848276447114,4.307502432836308
exact,pre_advance,DELTA_SA,ar,joint_indicator_revision_dfm_full_kalman_em,2016:Q1,-0.04056818072164884,4.266934252114659
exact,pre_advance,DELTA_SA,ar,joint_indicator_revision_dfm_full_kalman_em,2016:Q2,0.10180008160385277,4.368734333718511
exact,pre_advance,DELTA_SA,ar,joint_indicator_revision_dfm_full_kalman_em,2016:Q3,0.03915401089098191,4.407888344609494
exact,pre_advance,DELTA_SA,ar,joint_indicator_revision_dfm_full_kalman_em,2016:Q4,-0.024053649122020123,4.383834695487473
exact,pre_advance,DELTA_SA,ar,joint_indicator_revision_dfm_full_kalman_em,2017:Q1,0.10516345167851662,4.48899814716599
exact,pre_advance,DELTA_SA,ar,joint_indicator_revision_dfm_full_kalman_em,2017:Q2,-0.07080050849459141,4.418197638671399
exact,pre_advance,DELTA_SA,ar,joint_indicator_revision_dfm_full_kalman_em,2017:Q3,-0.05210071373913734,4.366096924932261
exact,pre_advance,DELTA_SA,ar,joint_indicator_revision_dfm_full_kalman_em,2017:Q4,-0.11823708150127257,4.247859843430988
exact,pre_advance,DELTA_SA,ar,joint_indicator_revision_dfm_full_kalman_em,2018:Q1,-0.10584224869606051,4.142017594734928
exact,pre_advance,DELTA_SA,ar,joint_indicator_revision_dfm_full_kalman_em,2018:Q2,0.03073543652387643,4.172753031258805
exact,pre_advance,DELTA_SA,ar,joint_indicator_revision_dfm_full_kalman_em,2018:Q3,-0.004884377157794785,4.16786865410101
exact,pre_advance,DELTA_SA,ar,joint_indicator_revision_dfm_full_kalman_em,2019:Q1,0.30430925496748906,4.472177909068499
exact,pre_advance,DELTA_SA,ar,joint_indicator_revision_dfm_full_kalman_em,2019:Q2,-0.007808803321843295,4.4643691057466555
exact,pre_advance,DELTA_SA,ar,joint_indicator_revision_dfm_full_kalman_em,2019:Q3,0.01753724452590364,4.481906350272559
exact,pre_advance,DELTA_SA,ar,joint_indicator_revision_dfm_full_kalman_em,2019:Q4,0.021451722966843213,4.5033580732394025
exact,pre_advance,DELTA_SA,ar,joint_indicator_revision_dfm_full_kalman_em,2020:Q1,0.047517814552322735,4.550875887791725
exact,pre_advance,DELTA_SA,ar,joint_indicator_revision_dfm_full_kalman_em,2020:Q2,-2.0407611970620376,2.5101146907296874
exact,pre_advance,DELTA_SA,ar,joint_indicator_revision_dfm_full_kalman_em,2020:Q3,4.249518352190552,6.75963304292024
exact,pre_advance,DELTA_SA,ar,joint_indicator_revision_dfm_full_kalman_em,2020:Q4,-0.8841038223833902,5.8755292205368495
exact,pre_advance,DELTA_SA,ar,joint_indicator_revision_dfm_full_kalman_em,2021:Q1,-0.38586858149340364,5.4896606390434455
exact,pre_advance,DELTA_SA,ar,joint_indicator_revision_dfm_full_kalman_em,2021:Q2,0.00023695837110080872,5.489897597414546
exact,pre_advance,DELTA_SA,ar,joint_indicator_revision_dfm_full_kalman_em,2021:Q3,-0.03399430434090821,5.455903293073638
exact,pre_advance,DELTA_SA,ar,joint_indicator_revision_dfm_full_kalman_em,2021:Q4,-0.032903393267468835,5.42299989980617
exact,pre_advance,DELTA_SA,ar,joint_indicator_revision_dfm_full_kalman_em,2022:Q1,-0.4031234823914617,5.019876417414708
exact,pre_advance,DELTA_SA,ar,joint_indicator_revision_dfm_full_kalman_em,2022:Q2,-0.20872996233809465,4.811146455076614
exact,pre_advance,DELTA_SA,ar,joint_indicator_revision_dfm_full_kalman_em,2022:Q3,0.058724327809122824,4.869870782885736
exact,pre_advance,DELTA_SA,ar,joint_indicator_revision_dfm_full_kalman_em,2022:Q4,0.10519161697426876,4.975062399860005
exact,pre_advance,DELTA_SA,ar,joint_indicator_revision_dfm_full_kalman_em,2023:Q1,-0.17755334428305738,4.797509055576947
exact,pre_advance,DELTA_SA,ar,joint_indicator_revision_dfm_full_kalman_em,2023:Q2,-0.4984458630263906,4.299063192550557
exact,pre_advance,DELTA_SA,ar,joint_indicator_revision_dfm_full_kalman_em,2023:Q3,0.001362038192259822,4.300425230742817
exact,pre_advance,DELTA_SA,ar,joint_indicator_revision_dfm_full_kalman_em,2023:Q4,0.0366991284244197,4.337124359167237
exact,pre_advance,DELTA_SA,ar,joint_indicator_revision_dfm_full_kalman_em,2024:Q1,0.07226678427191727,4.409391143439154
exact,pre_advance,DELTA_SA,ar,joint_indicator_revision_dfm_full_kalman_em,2024:Q2,0.0007370317189947244,4.410128175158149
exact,pre_advance,DELTA_SA,ar,joint_indicator_revision_dfm_full_kalman_em,2024:Q3,-0.02245318748017939,4.387674987677969
exact,pre_advance,DELTA_SA,ar,joint_indicator_revision_dfm_full_kalman_em,2024:Q4,-0.014083802119066834,4.373591185558903
exact,pre_advance,DELTA_SA,ar,midas_umidas,2005:Q1,-8725.10850058987,-8725.10850058987
exact,pre_advance,DELTA_SA,ar,midas_umidas,2005:Q2,-199.59223912339027,-8924.70073971326
exact,pre_advance,DELTA_SA,ar,midas_umidas,2005:Q3,-216.6382762684001,-9141.33901598166
exact,pre_advance,DELTA_SA,ar,midas_umidas,2005:Q4,-0.02923808573480756,-9141.368254067396
exact,pre_advance,DELTA_SA,ar,midas_umidas,2006:Q1,-820.0626248773968,-9961.430878944793
exact,pre_advance,DELTA_SA,ar,midas_umidas,2006:Q2,-9.137406718764847,-9970.568285663558
exact,pre_advance,DELTA_SA,ar,midas_umidas,2006:Q3,-65.82287676614256,-10036.3911624297
exact,pre_advance,DELTA_SA,ar,midas_umidas,2006:Q4,-17.968669755880416,-10054.35983218558
exact,pre_advance,DELTA_SA,ar,midas_umidas,2007:Q1,-0.17823843495247435,-10054.538070620532
exact,pre_advance,DELTA_SA,ar,midas_umidas,2007:Q2,0.16325172507455032,-10054.374818895458
exact,pre_advance,DELTA_SA,ar,midas_umidas,2007:Q3,-11.957030599284789,-10066.331849494743
exact,pre_advance,DELTA_SA,ar,midas_umidas,2007:Q4,-0.2028759975473148,-10066.53472549229
exact,pre_advance,DELTA_SA,ar,midas_umidas,2008:Q1,-8.4295307367417,-10074.964256229032
exact,pre_advance,DELTA_SA,ar,midas_umidas,2008:Q2,-6.7178896299744055,-10081.682145859006
exact,pre_advance,DELTA_SA,ar,midas_umidas,2008:Q3,-9.55396395849543,-10091.2361098175
exact,pre_advance,DELTA_SA,ar,midas_umidas,2008:Q4,3.3982968010629158,-10087.837813016438
exact,pre_advance,DELTA_SA,ar,midas_umidas,2009:Q1,-21.70830380527935,-10109.546116821717
exact,pre_advance,DELTA_SA,ar,midas_umidas,2009:Q2,-21.688430357074544,-10131.234547178792
exact,pre_advance,DELTA_SA,ar,midas_umidas,2009:Q3,0.30871462966250496,-10130.92583254913
exact,pre_advance,DELTA_SA,ar,midas_umidas,2009:Q4,-0.13604468576478246,-10131.061877234895
exact,pre_advance,DELTA_SA,ar,midas_umidas,2010:Q1,-0.4213490570360498,-10131.483226291932
exact,pre_advance,DELTA_SA,ar,midas_umidas,2010:Q2,0.08626276681563982,-10131.396963525116
exact,pre_advance,DELTA_SA,ar,midas_umidas,2010:Q3,0.6555223894821284,-10130.741441135633
exact,pre_advance,DELTA_SA,ar,midas_umidas,2010:Q4,-2.0349604968214594,-10132.776401632455
exact,pre_advance,DELTA_SA,ar,midas_umidas,2011:Q1,-5.5390218784884775,-10138.315423510943
exact,pre_advance,DELTA_SA,ar,midas_umidas,2011:Q2,-2.898863237167465,-10141.21428674811
exact,pre_advance,DELTA_SA,ar,midas_umidas,2011:Q3,-4.700080662995827,-10145.914367411107
exact,pre_advance,DELTA_SA,ar,midas_umidas,2011:Q4,-11.147898617828748,-10157.062266028935
exact,pre_advance,DELTA_SA,ar,midas_umidas,2012:Q1,-1.539413113985757,-10158.601679142921
exact,pre_advance,DELTA_SA,ar,midas_umidas,2012:Q2,-0.06649193206102053,-10158.668171074982
exact,pre_advance,DELTA_SA,ar,midas_umidas,2012:Q3,-3.4408473921865887,-10162.109018467168
exact,pre_advance,DELTA_SA,ar,midas_umidas,2012:Q4,-0.456247878365055,-10162.565266345533
exact,pre_advance,DELTA_SA,ar,midas_umidas,2013:Q1,-4.581489420626175,-10167.14675576616
exact,pre_advance,DELTA_SA,ar,midas_umidas,2013:Q2,-3.343572770188552,-10170.490328536349
exact,pre_advance,DELTA_SA,ar,midas_umidas,2013:Q3,-0.48098474337251074,-10170.97131327972
exact,pre_advance,DELTA_SA,ar,midas_umidas,2013:Q4,-5.346167481541695,-10176.317480761263
exact,pre_advance,DELTA_SA,ar,midas_umidas,2014:Q1,-0.6295492976918724,-10176.947030058955
exact,pre_advance,DELTA_SA,ar,midas_umidas,2014:Q2,0.2195444507704379,-10176.727485608184
exact,pre_advance,DELTA_SA,ar,midas_umidas,2014:Q3,0.038841930502327635,-10176.688643677682
exact,pre_advance,DELTA_SA,ar,midas_umidas,2014:Q4,-0.010090595507321276,-10176.69873427319
exact,pre_advance,DELTA_SA,ar,midas_umidas,2015:Q1,-0.23212703956184755,-10176.930861312752
exact,pre_advance,DELTA_SA,ar,midas_umidas,2015:Q2,2.881081973510051,-10174.049779339242
exact,pre_advance,DELTA_SA,ar,midas_umidas,2015:Q3,-4.701284045551022,-10178.751063384794
exact,pre_advance,DELTA_SA,ar,midas_umidas,2015:Q4,-1.3975260832759124,-10180.14858946807
exact,pre_advance,DELTA_SA,ar,midas_umidas,2016:Q1,-1.3108153053650946,-10181.459404773435
exact,pre_advance,DELTA_SA,ar,midas_umidas,2016:Q2,-0.5026904938987748,-10181.962095267334
exact,pre_advance,DELTA_SA,ar,midas_umidas,2016:Q3,-0.07357369774197081,-10182.035668965076
exact,pre_advance,DELTA_SA,ar,midas_umidas,2016:Q4,-0.15096665970333906,-10182.18663562478
exact,pre_advance,DELTA_SA,ar,midas_umidas,2017:Q1,-0.23571200133866313,-10182.422347626118
exact,pre_advance,DELTA_SA,ar,midas_umidas,2017:Q2,-0.19070070107283182,-10182.61304832719
exact,pre_advance,DELTA_SA,ar,midas_umidas,2017:Q3,-1.0900075381500975,-10183.70305586534
exact,pre_advance,DELTA_SA,ar,midas_umidas,2017:Q4,-1.0515463518733614,-10184.754602217214
exact,pre_advance,DELTA_SA,ar,midas_umidas,2018:Q1,-1.301252938892717,-10186.055855156106
exact,pre_advance,DELTA_SA,ar,midas_umidas,2018:Q2,-4.546994553737032,-10190.602849709843
exact,pre_advance,DELTA_SA,ar,midas_umidas,2018:Q3,-0.2676364740768643,-10190.87048618392
exact,pre_advance,DELTA_SA,ar,midas_umidas,2019:Q1,0.3216470402888617,-10190.54883914363
exact,pre_advance,DELTA_SA,ar,midas_umidas,2019:Q2,-0.009621818468666745,-10190.558460962098
exact,pre_advance,DELTA_SA,ar,midas_umidas,2019:Q3,0.015645052909071165,-10190.54281590919
exact,pre_advance,DELTA_SA,ar,midas_umidas,2019:Q4,-0.47385828980036787,-10191.01667419899
exact,pre_advance,DELTA_SA,ar,midas_umidas,2020:Q1,-1.5184555923379448,-10192.53512979133
exact,pre_advance,DELTA_SA,ar,midas_umidas,2020:Q2,-1156.9773322150384,-11349.512462006367
exact,pre_advance,DELTA_SA,ar,midas_umidas,2020:Q3,5.464620338995362,-11344.047841667372
exact,pre_advance,DELTA_SA,ar,midas_umidas,2020:Q4,-1.6692882672002347,-11345.717129934572
exact,pre_advance,DELTA_SA,ar,midas_umidas,2021:Q1,-2.1317335394430734,-11347.848863474015
exact,pre_advance,DELTA_SA,ar,midas_umidas,2021:Q2,-1.1831495001714383,-11349.032012974187
exact,pre_advance,DELTA_SA,ar,midas_umidas,2021:Q3,-0.03343153150421216,-11349.065444505692
exact,pre_advance,DELTA_SA,ar,midas_umidas,2021:Q4,-1.0349674973368144,-11350.100412003028
exact,pre_advance,DELTA_SA,ar,midas_umidas,2022:Q1,-0.18677147932827037,-11350.287183482356
exact,pre_advance,DELTA_SA,ar,midas_umidas,2022:Q2,0.11065466733916028,-11350.176528815016
exact,pre_advance,DELTA_SA,ar,midas_umidas,2022:Q3,-0.4876006209748902,-11350.66412943599
exact,pre_advance,DELTA_SA,ar,midas_umidas,2022:Q4,-1.842962285401646,-11352.507091721392
exact,pre_advance,DELTA_SA,ar,midas_umidas,2023:Q1,0.005787873804006107,-11352.501303847588
exact,pre_advance,DELTA_SA,ar,midas_umidas,2023:Q2,-0.9124454203243353,-11353.413749267913
exact,pre_advance,DELTA_SA,ar,midas_umidas,2023:Q3,0.038770336366639124,-11353.374978931546
exact,pre_advance,DELTA_SA,ar,midas_umidas,2023:Q4,-0.0017563816254222084,-11353.376735313172
exact,pre_advance,DELTA_SA,ar,midas_umidas,2024:Q1,0.09954471629508801,-11353.277190596877
exact,pre_advance,DELTA_SA,ar,midas_umidas,2024:Q2,-0.049365104770748874,-11353.326555701648
exact,pre_advance,DELTA_SA,ar,midas_umidas,2024:Q3,-0.2839107634624841,-11353.61046646511
exact,pre_advance,DELTA_SA,ar,midas_umidas,2024:Q4,-0.23965871576072922,-11353.85012518087
exact,pre_advance,DELTA_SA,ar,monthly_mixed_frequency_kalman_em,2005:Q1,-0.13059935205198775,-0.13059935205198775
exact,pre_advance,DELTA_SA,ar,monthly_mixed_frequency_kalman_em,2005:Q2,0.024391261605234624,-0.10620809044675313
exact,pre_advance,DELTA_SA,ar,monthly_mixed_frequency_kalman_em,2005:Q3,-0.45994342116795706,-0.5661515116147102
exact,pre_advance,DELTA_SA,ar,monthly_mixed_frequency_kalman_em,2005:Q4,-0.0531610745076327,-0.619312586122343
exact,pre_advance,DELTA_SA,ar,monthly_mixed_frequency_kalman_em,2006:Q1,-0.046807456589327716,-0.6661200427116707
exact,pre_advance,DELTA_SA,ar,monthly_mixed_frequency_kalman_em,2006:Q2,0.03062929753540103,-0.6354907451762697
exact,pre_advance,DELTA_SA,ar,monthly_mixed_frequency_kalman_em,2006:Q3,-0.16233959976467366,-0.7978303449409434
exact,pre_advance,DELTA_SA,ar,monthly_mixed_frequency_kalman_em,2006:Q4,0.6402773063516554,-0.15755303858928804
exact,pre_advance,DELTA_SA,ar,monthly_mixed_frequency_kalman_em,2007:Q1,-0.3708198181414604,-0.5283728567307484
exact,pre_advance,DELTA_SA,ar,monthly_mixed_frequency_kalman_em,2007:Q2,0.4806923714790319,-0.04768048525171653
exact,pre_advance,DELTA_SA,ar,monthly_mixed_frequency_kalman_em,2007:Q3,-0.22349905525324154,-0.27117954050495807
exact,pre_advance,DELTA_SA,ar,monthly_mixed_frequency_kalman_em,2007:Q4,0.21039613826356712,-0.06078340224139095
exact,pre_advance,DELTA_SA,ar,monthly_mixed_frequency_kalman_em,2008:Q1,0.026250060078034747,-0.0345333421633562
exact,pre_advance,DELTA_SA,ar,monthly_mixed_frequency_kalman_em,2008:Q2,-0.33152990287504824,-0.36606324503840443
exact,pre_advance,DELTA_SA,ar,monthly_mixed_frequency_kalman_em,2008:Q3,0.9486906397569659,0.5826273947185614
exact,pre_advance,DELTA_SA,ar,monthly_mixed_frequency_kalman_em,2008:Q4,0.04833251245755221,0.6309599071761136
exact,pre_advance,DELTA_SA,ar,monthly_mixed_frequency_kalman_em,2009:Q1,1.3431245696136525,1.974084476789766
exact,pre_advance,DELTA_SA,ar,monthly_mixed_frequency_kalman_em,2009:Q2,0.32082077367737966,2.2949052504671457
exact,pre_advance,DELTA_SA,ar,monthly_mixed_frequency_kalman_em,2009:Q3,0.12612764715250302,2.4210328976196487
exact,pre_advance,DELTA_SA,ar,monthly_mixed_frequency_kalman_em,2009:Q4,0.2792874039501728,2.7003203015698216
exact,pre_advance,DELTA_SA,ar,monthly_mixed_frequency_kalman_em,2010:Q1,-0.036307868862008,2.6640124327078136
exact,pre_advance,DELTA_SA,ar,monthly_mixed_frequency_kalman_em,2010:Q2,-0.2805862708068042,2.3834261619010095
exact,pre_advance,DELTA_SA,ar,monthly_mixed_frequency_kalman_em,2010:Q3,0.4971100441780474,2.880536206079057
exact,pre_advance,DELTA_SA,ar,monthly_mixed_frequency_kalman_em,2010:Q4,0.11603729061509072,2.9965734966941477
exact,pre_advance,DELTA_SA,ar,monthly_mixed_frequency_kalman_em,2011:Q1,0.036333745363307614,3.032907242057455
exact,pre_advance,DELTA_SA,ar,monthly_mixed_frequency_kalman_em,2011:Q2,-0.02187926802105805,3.011027974036397
exact,pre_advance,DELTA_SA,ar,monthly_mixed_frequency_kalman_em,2011:Q3,-0.23130074657649768,2.7797272274598996
exact,pre_advance,DELTA_SA,ar,monthly_mixed_frequency_kalman_em,2011:Q4,0.15681939993528043,2.93654662739518
exact,pre_advance,DELTA_SA,ar,monthly_mixed_frequency_kalman_em,2012:Q1,0.026946705720010733,2.9634933331151907
exact,pre_advance,DELTA_SA,ar,monthly_mixed_frequency_kalman_em,2012:Q2,0.0874889890808167,3.0509823221960075
exact,pre_advance,DELTA_SA,ar,monthly_mixed_frequency_kalman_em,2012:Q3,0.07925576283809752,3.130238085034105
exact,pre_advance,DELTA_SA,ar,monthly_mixed_frequency_kalman_em,2012:Q4,-0.015958734185183985,3.114279350848921
exact,pre_advance,DELTA_SA,ar,monthly_mixed_frequency_kalman_em,2013:Q1,0.13740372665260214,3.251683077501523
exact,pre_advance,DELTA_SA,ar,monthly_mixed_frequency_kalman_em,2013:Q2,0.19509465404238746,3.4467777315439103
exact,pre_advance,DELTA_SA,ar,monthly_mixed_frequency_kalman_em,2013:Q3,-0.28530972056318926,3.161468010980721
exact,pre_advance,DELTA_SA,ar,monthly_mixed_frequency_kalman_em,2013:Q4,0.8420965370659141,4.003564548046635
exact,pre_advance,DELTA_SA,ar,monthly_mixed_frequency_kalman_em,2014:Q1,-0.8301057839291341,3.1734587641175005
exact,pre_advance,DELTA_SA,ar,monthly_mixed_frequency_kalman_em,2014:Q2,0.36501252537265694,3.5384712894901575
exact,pre_advance,DELTA_SA,ar,monthly_mixed_frequency_kalman_em,2014:Q3,0.06282654079960123,3.601297830289759
exact,pre_advance,DELTA_SA,ar,monthly_mixed_frequency_kalman_em,2014:Q4,0.23721791775153378,3.8385157480412926
exact,pre_advance,DELTA_SA,ar,monthly_mixed_frequency_kalman_em,2015:Q1,-0.18276212990861307,3.6557536181326795
exact,pre_advance,DELTA_SA,ar,monthly_mixed_frequency_kalman_em,2015:Q2,1.6915978533558014,5.347351471488481
exact,pre_advance,DELTA_SA,ar,monthly_mixed_frequency_kalman_em,2015:Q3,-0.24343556726035165,5.1039159042281295
exact,pre_advance,DELTA_SA,ar,monthly_mixed_frequency_kalman_em,2015:Q4,-0.04038841833949731,5.063527485888632
exact,pre_advance,DELTA_SA,ar,monthly_mixed_frequency_kalman_em,2016:Q1,-0.02103824482606388,5.042489241062568
exact,pre_advance,DELTA_SA,ar,monthly_mixed_frequency_kalman_em,2016:Q2,-0.011489237231405047,5.031000003831163
exact,pre_advance,DELTA_SA,ar,monthly_mixed_frequency_kalman_em,2016:Q3,0.04212874052917409,5.073128744360337
exact,pre_advance,DELTA_SA,ar,monthly_mixed_frequency_kalman_em,2016:Q4,-0.0999194595306916,4.973209284829645
exact,pre_advance,DELTA_SA,ar,monthly_mixed_frequency_kalman_em,2017:Q1,0.1000550136771799,5.073264298506825
exact,pre_advance,DELTA_SA,ar,monthly_mixed_frequency_kalman_em,2017:Q2,-0.00682113317991833,5.066443165326906
exact,pre_advance,DELTA_SA,ar,monthly_mixed_frequency_kalman_em,2017:Q3,0.0007510994036671154,5.067194264730573
exact,pre_advance,DELTA_SA,ar,monthly_mixed_frequency_kalman_em,2017:Q4,-0.13106532844603005,4.936128936284543
exact,pre_advance,DELTA_SA,ar,monthly_mixed_frequency_kalman_em,2018:Q1,0.01539079874664261,4.9515197350311855
exact,pre_advance,DELTA_SA,ar,monthly_mixed_frequency_kalman_em,2018:Q2,-0.0015479021096900455,4.949971832921495
exact,pre_advance,DELTA_SA,ar,monthly_mixed_frequency_kalman_em,2018:Q3,-0.0007406788355666049,4.949231154085928
exact,pre_advance,DELTA_SA,ar,monthly_mixed_frequency_kalman_em,2019:Q1,0.293124410690845,5.242355564776773
exact,pre_advance,DELTA_SA,ar,monthly_mixed_frequency_kalman_em,2019:Q2,-0.00042007345877586845,5.241935491317997
exact,pre_advance,DELTA_SA,ar,monthly_mixed_frequency_kalman_em,2019:Q3,-0.10756243917733178,5.134373052140665
exact,pre_advance,DELTA_SA,ar,monthly_mixed_frequency_kalman_em,2019:Q4,0.00010960970725293687,5.134482661847918
exact,pre_advance,DELTA_SA,ar,monthly_mixed_frequency_kalman_em,2020:Q1,-0.07607203993762417,5.058410621910294
exact,pre_advance,DELTA_SA,ar,monthly_mixed_frequency_kalman_em,2020:Q2,-6.654857648869249,-1.5964470269589546
exact,pre_advance,DELTA_SA,ar,monthly_mixed_frequency_kalman_em,2020:Q3,5.130172882511281,3.5337258555523263
exact,pre_advance,DELTA_SA,ar,monthly_mixed_frequency_kalman_em,2020:Q4,0.35464578346846276,3.888371639020789
exact,pre_advance,DELTA_SA,ar,monthly_mixed_frequency_kalman_em,2021:Q1,-0.14470242769064814,3.7436692113301406
exact,pre_advance,DELTA_SA,ar,monthly_mixed_frequency_kalman_em,2021:Q2,0.005862019571474323,3.749531230901615
exact,pre_advance,DELTA_SA,ar,monthly_mixed_frequency_kalman_em,2021:Q3,-0.003932091694120595,3.7455991392074943
exact,pre_advance,DELTA_SA,ar,monthly_mixed_frequency_kalman_em,2021:Q4,9.178871271832282e-06,3.7456083180787663
exact,pre_advance,DELTA_SA,ar,monthly_mixed_frequency_kalman_em,2022:Q1,0.020252299209954264,3.7658606172887206
exact,pre_advance,DELTA_SA,ar,monthly_mixed_frequency_kalman_em,2022:Q2,0.05339708552271977,3.8192577028114405
exact,pre_advance,DELTA_SA,ar,monthly_mixed_frequency_kalman_em,2022:Q3,0.05198792813720851,3.871245630948649
exact,pre_advance,DELTA_SA,ar,monthly_mixed_frequency_kalman_em,2022:Q4,0.0030979390863965367,3.8743435700350455
exact,pre_advance,DELTA_SA,ar,monthly_mixed_frequency_kalman_em,2023:Q1,0.008116094282377244,3.8824596643174227
exact,pre_advance,DELTA_SA,ar,monthly_mixed_frequency_kalman_em,2023:Q2,-0.035496542101736916,3.8469631222156857
exact,pre_advance,DELTA_SA,ar,monthly_mixed_frequency_kalman_em,2023:Q3,0.026404796490643805,3.8733679187063297
exact,pre_advance,DELTA_SA,ar,monthly_mixed_frequency_kalman_em,2023:Q4,0.021730562983297563,3.8950984816896272
exact,pre_advance,DELTA_SA,ar,monthly_mixed_frequency_kalman_em,2024:Q1,0.020330853508659708,3.915429335198287
exact,pre_advance,DELTA_SA,ar,monthly_mixed_frequency_kalman_em,2024:Q2,0.002678147780204816,3.918107482978492
exact,pre_advance,DELTA_SA,ar,monthly_mixed_frequency_kalman_em,2024:Q3,0.00662368546954726,3.924731168448039
exact,pre_advance,DELTA_SA,ar,monthly_mixed_frequency_kalman_em,2024:Q4,-0.0020644365045444117,3.9226667319434947
exact,pre_advance,DELTA_SA,ar,no_revision,2005:Q1,-0.15257503321613658,-0.15257503321613658
exact,pre_advance,DELTA_SA,ar,no_revision,2005:Q2,0.10304262774761302,-0.049532405468523555
exact,pre_advance,DELTA_SA,ar,no_revision,2005:Q3,0.03151683579611303,-0.018015569672410525
exact,pre_advance,DELTA_SA,ar,no_revision,2005:Q4,-0.17958946757420496,-0.1976050372466155
exact,pre_advance,DELTA_SA,ar,no_revision,2006:Q1,-0.22225097588053042,-0.41985601312714593
exact,pre_advance,DELTA_SA,ar,no_revision,2006:Q2,-0.1338214718146227,-0.5536774849417686
exact,pre_advance,DELTA_SA,ar,no_revision,2006:Q3,-0.2655324769569707,-0.8192099618987393
exact,pre_advance,DELTA_SA,ar,no_revision,2006:Q4,1.1280810824986391,0.30887112059989985
exact,pre_advance,DELTA_SA,ar,no_revision,2007:Q1,-0.36488258133290913,-0.05601146073300928
exact,pre_advance,DELTA_SA,ar,no_revision,2007:Q2,0.2101220628635298,0.15411060213052052
exact,pre_advance,DELTA_SA,ar,no_revision,2007:Q3,-0.5038879623481906,-0.34977736021767003
exact,pre_advance,DELTA_SA,ar,no_revision,2007:Q4,0.23194641324995732,-0.11783094696771271
exact,pre_advance,DELTA_SA,ar,no_revision,2008:Q1,-0.06565748592115798,-0.18348843288887068
exact,pre_advance,DELTA_SA,ar,no_revision,2008:Q2,-0.7051418869943866,-0.8886303198832572
exact,pre_advance,DELTA_SA,ar,no_revision,2008:Q3,0.8839041046210189,-0.004726215262238376
exact,pre_advance,DELTA_SA,ar,no_revision,2008:Q4,0.39399862829546173,0.38927241303322335
exact,pre_advance,DELTA_SA,ar,no_revision,2009:Q1,1.3203689037955737,1.709641316828797
exact,pre_advance,DELTA_SA,ar,no_revision,2009:Q2,0.36877932291984866,2.0784206397486455
exact,pre_advance,DELTA_SA,ar,no_revision,2009:Q3,0.31974831955083616,2.3981689592994817
exact,pre_advance,DELTA_SA,ar,no_revision,2009:Q4,0.2461874095178597,2.6443563688173413
exact,pre_advance,DELTA_SA,ar,no_revision,2010:Q1,0.012274663642203441,2.656631032459545
exact,pre_advance,DELTA_SA,ar,no_revision,2010:Q2,-0.10097637669884518,2.5556546557606996
exact,pre_advance,DELTA_SA,ar,no_revision,2010:Q3,0.41001530272678194,2.9656699584874815
exact,pre_advance,DELTA_SA,ar,no_revision,2010:Q4,0.33708017745408314,3.3027501359415647
exact,pre_advance,DELTA_SA,ar,no_revision,2011:Q1,0.05273638935335863,3.3554865252949235
exact,pre_advance,DELTA_SA,ar,no_revision,2011:Q2,0.0864949621817803,3.4419814874767036
exact,pre_advance,DELTA_SA,ar,no_revision,2011:Q3,-0.03822954602021156,3.403751941456492
exact,pre_advance,DELTA_SA,ar,no_revision,2011:Q4,0.1042486389810256,3.5080005804375176
exact,pre_advance,DELTA_SA,ar,no_revision,2012:Q1,0.12270345028699549,3.6307040307245133
exact,pre_advance,DELTA_SA,ar,no_revision,2012:Q2,0.05124300972150874,3.681947040446022
exact,pre_advance,DELTA_SA,ar,no_revision,2012:Q3,-0.19803121584843814,3.483915824597584
exact,pre_advance,DELTA_SA,ar,no_revision,2012:Q4,-0.06160444841889918,3.4223113761786847
exact,pre_advance,DELTA_SA,ar,no_revision,2013:Q1,0.13839352919058448,3.560704905369269
exact,pre_advance,DELTA_SA,ar,no_revision,2013:Q2,0.010665904843470964,3.5713708102127404
exact,pre_advance,DELTA_SA,ar,no_revision,2013:Q3,-0.49085393179229264,3.0805168784204477
exact,pre_advance,DELTA_SA,ar,no_revision,2013:Q4,0.8147882022650561,3.895305080685504
exact,pre_advance,DELTA_SA,ar,no_revision,2014:Q1,-0.6728261778290336,3.22247890285647
exact,pre_advance,DELTA_SA,ar,no_revision,2014:Q2,0.3153905835886226,3.537869486445093
exact,pre_advance,DELTA_SA,ar,no_revision,2014:Q3,-0.05736992828325174,3.480499558161841
exact,pre_advance,DELTA_SA,ar,no_revision,2014:Q4,0.18045818425062124,3.6609577424124624
exact,pre_advance,DELTA_SA,ar,no_revision,2015:Q1,-0.30424364925329495,3.3567140931591677
exact,pre_advance,DELTA_SA,ar,no_revision,2015:Q2,1.0249249122593762,4.381639005418544
exact,pre_advance,DELTA_SA,ar,no_revision,2015:Q3,-0.3345827492334456,4.0470562561850985
exact,pre_advance,DELTA_SA,ar,no_revision,2015:Q4,-0.09676443992777004,3.9502918162573284
exact,pre_advance,DELTA_SA,ar,no_revision,2016:Q1,-0.09029065158363185,3.8600011646736965
exact,pre_advance,DELTA_SA,ar,no_revision,2016:Q2,0.1360297525459644,3.996030917219661
exact,pre_advance,DELTA_SA,ar,no_revision,2016:Q3,-0.021175007572158712,3.974855909647502
exact,pre_advance,DELTA_SA,ar,no_revision,2016:Q4,0.02734587565242416,4.002201785299926
exact,pre_advance,DELTA_SA,ar,no_revision,2017:Q1,-0.056295362083760514,3.945906423216165
exact,pre_advance,DELTA_SA,ar,no_revision,2017:Q2,-0.1998229027002102,3.746083520515955
exact,pre_advance,DELTA_SA,ar,no_revision,2017:Q3,-0.09239460605426397,3.653688914461691
exact,pre_advance,DELTA_SA,ar,no_revision,2017:Q4,0.035699658663772574,3.6893885731254636
exact,pre_advance,DELTA_SA,ar,no_revision,2018:Q1,0.012703611098869368,3.702092184224333
exact,pre_advance,DELTA_SA,ar,no_revision,2018:Q2,0.0030213569949030655,3.705113541219236
exact,pre_advance,DELTA_SA,ar,no_revision,2018:Q3,0.0032310710133240618,3.70834461223256
exact,pre_advance,DELTA_SA,ar,no_revision,2019:Q1,0.3134694480182471,4.021814060250807
exact,pre_advance,DELTA_SA,ar,no_revision,2019:Q2,-0.00020861065790184213,4.021605449592905
exact,pre_advance,DELTA_SA,ar,no_revision,2019:Q3,-0.020795440927072837,4.000810008665832
exact,pre_advance,DELTA_SA,ar,no_revision,2019:Q4,0.022807340587339162,4.023617349253171
exact,pre_advance,DELTA_SA,ar,no_revision,2020:Q1,0.04374626691208146,4.067363616165252
exact,pre_advance,DELTA_SA,ar,no_revision,2020:Q2,-0.4848885887598303,3.582475027405422
exact,pre_advance,DELTA_SA,ar,no_revision,2020:Q3,6.6030936783793335,10.185568705784755
exact,pre_advance,DELTA_SA,ar,no_revision,2020:Q4,0.3494364241901803,10.535005129974936
exact,pre_advance,DELTA_SA,ar,no_revision,2021:Q1,0.010481372036795358,10.54548650201173
exact,pre_advance,DELTA_SA,ar,no_revision,2021:Q2,0.005674643654305938,10.551161145666036
exact,pre_advance,DELTA_SA,ar,no_revision,2021:Q3,-0.00428446848418562,10.546876677181851
exact,pre_advance,DELTA_SA,ar,no_revision,2021:Q4,-0.009636975615624089,10.537239701566227
exact,pre_advance,DELTA_SA,ar,no_revision,2022:Q1,0.05376352283472801,10.591003224400955
exact,pre_advance,DELTA_SA,ar,no_revision,2022:Q2,-0.01747374549873487,10.57352947890222
exact,pre_advance,DELTA_SA,ar,no_revision,2022:Q3,-0.038912176234116996,10.534617302668103
exact,pre_advance,DELTA_SA,ar,no_revision,2022:Q4,0.058622083054108,10.59323938572221
exact,pre_advance,DELTA_SA,ar,no_revision,2023:Q1,-0.02740533844308022,10.56583404727913
exact,pre_advance,DELTA_SA,ar,no_revision,2023:Q2,0.06172819389498699,10.627562241174118
exact,pre_advance,DELTA_SA,ar,no_revision,2023:Q3,-0.03194758936873526,10.595614651805382
exact,pre_advance,DELTA_SA,ar,no_revision,2023:Q4,0.03690159867203891,10.63251625047742
exact,pre_advance,DELTA_SA,ar,no_revision,2024:Q1,0.07155817897030346,10.704074429447724
exact,pre_advance,DELTA_SA,ar,no_revision,2024:Q2,-0.009033581491366181,10.695040847956358
exact,pre_advance,DELTA_SA,ar,no_revision,2024:Q3,0.00727617350536104,10.702317021461718
exact,pre_advance,DELTA_SA,ar,no_revision,2024:Q4,-0.008788760628669104,10.69352826083305
exact,pre_advance,DELTA_SA,ar,release_dfm,2005:Q1,-0.06457257404199222,-0.06457257404199222
exact,pre_advance,DELTA_SA,ar,release_dfm,2005:Q2,0.053921007054112874,-0.010651566987879349
exact,pre_advance,DELTA_SA,ar,release_dfm,2005:Q3,0.12191070539466523,0.11125913840678588
exact,pre_advance,DELTA_SA,ar,release_dfm,2005:Q4,-0.03851182739693776,0.07274731100984812
exact,pre_advance,DELTA_SA,ar,release_dfm,2006:Q1,-0.09630907940028732,-0.023561768390439206
exact,pre_advance,DELTA_SA,ar,release_dfm,2006:Q2,-0.006343046395281451,-0.029904814785720657
exact,pre_advance,DELTA_SA,ar,release_dfm,2006:Q3,-0.1027035776815714,-0.13260839246729206
exact,pre_advance,DELTA_SA,ar,release_dfm,2006:Q4,1.027604740275896,0.894996347808604
exact,pre_advance,DELTA_SA,ar,release_dfm,2007:Q1,-0.41408575323464875,0.4809105945739553
exact,pre_advance,DELTA_SA,ar,release_dfm,2007:Q2,0.3272665697635969,0.8081771643375522
exact,pre_advance,DELTA_SA,ar,release_dfm,2007:Q3,-0.3348463681699476,0.47333079616760454
exact,pre_advance,DELTA_SA,ar,release_dfm,2007:Q4,0.23170019018880764,0.7050309863564121
exact,pre_advance,DELTA_SA,ar,release_dfm,2008:Q1,-0.09998664863071857,0.6050443377256935
exact,pre_advance,DELTA_SA,ar,release_dfm,2008:Q2,-0.7880304720767606,-0.18298613435106703
exact,pre_advance,DELTA_SA,ar,release_dfm,2008:Q3,0.9004291296287447,0.7174429952776776
exact,pre_advance,DELTA_SA,ar,release_dfm,2008:Q4,2.0518569757106677,2.7692999709883455
exact,pre_advance,DELTA_SA,ar,release_dfm,2009:Q1,-1.309095775368377,1.4602041956199685
exact,pre_advance,DELTA_SA,ar,release_dfm,2009:Q2,0.2955691866755835,1.7557733822955521
exact,pre_advance,DELTA_SA,ar,release_dfm,2009:Q3,0.06344779921680788,1.81922118151236
exact,pre_advance,DELTA_SA,ar,release_dfm,2009:Q4,0.2826198032348088,2.101840984747169
exact,pre_advance,DELTA_SA,ar,release_dfm,2010:Q1,-0.2394524503358354,1.8623885344113336
exact,pre_advance,DELTA_SA,ar,release_dfm,2010:Q2,-0.43427508410354165,1.428113450307792
exact,pre_advance,DELTA_SA,ar,release_dfm,2010:Q3,0.5008024804713807,1.9289159307791726
exact,pre_advance,DELTA_SA,ar,release_dfm,2010:Q4,0.25584879905282176,2.1847647298319943
exact,pre_advance,DELTA_SA,ar,release_dfm,2011:Q1,0.016558704882428145,2.2013234347144226
exact,pre_advance,DELTA_SA,ar,release_dfm,2011:Q2,0.014075986477936647,2.2153994211923593
exact,pre_advance,DELTA_SA,ar,release_dfm,2011:Q3,-0.15806562807392172,2.0573337931184374
exact,pre_advance,DELTA_SA,ar,release_dfm,2011:Q4,0.1550867166435113,2.212420509761949
exact,pre_advance,DELTA_SA,ar,release_dfm,2012:Q1,-0.06456927922788744,2.1478512305340614
exact,pre_advance,DELTA_SA,ar,release_dfm,2012:Q2,0.07649001778942476,2.224341248323486
exact,pre_advance,DELTA_SA,ar,release_dfm,2012:Q3,-0.09411694703936069,2.1302243012841253
exact,pre_advance,DELTA_SA,ar,release_dfm,2012:Q4,0.0020050161951079247,2.1322293174792333
exact,pre_advance,DELTA_SA,ar,release_dfm,2013:Q1,0.09100039082084746,2.2232297083000807
exact,pre_advance,DELTA_SA,ar,release_dfm,2013:Q2,0.19390107916547772,2.4171307874655583
exact,pre_advance,DELTA_SA,ar,release_dfm,2013:Q3,-0.3479050431917394,2.069225744273819
exact,pre_advance,DELTA_SA,ar,release_dfm,2013:Q4,0.4497329579020113,2.51895870217583
exact,pre_advance,DELTA_SA,ar,release_dfm,2014:Q1,-0.8583308373830141,1.6606278647928159
exact,pre_advance,DELTA_SA,ar,release_dfm,2014:Q2,0.3652294107029636,2.0258572754957793
exact,pre_advance,DELTA_SA,ar,release_dfm,2014:Q3,0.014034904851747756,2.039892180347527
exact,pre_advance,DELTA_SA,ar,release_dfm,2014:Q4,0.08228803521466005,2.1221802155621874
exact,pre_advance,DELTA_SA,ar,release_dfm,2015:Q1,-0.3118423605282016,1.810337855033986
exact,pre_advance,DELTA_SA,ar,release_dfm,2015:Q2,1.303571697936936,3.113909552970922
exact,pre_advance,DELTA_SA,ar,release_dfm,2015:Q3,-0.23002657645394253,2.8838829765169796
exact,pre_advance,DELTA_SA,ar,release_dfm,2015:Q4,-0.07014253561235238,2.813740440904627
exact,pre_advance,DELTA_SA,ar,release_dfm,2016:Q1,-0.06222528198854255,2.7515151589160847
exact,pre_advance,DELTA_SA,ar,release_dfm,2016:Q2,0.1155909482653528,2.8671061071814377
exact,pre_advance,DELTA_SA,ar,release_dfm,2016:Q3,0.012368181166111498,2.879474288347549
exact,pre_advance,DELTA_SA,ar,release_dfm,2016:Q4,-2.457762946924194e-05,2.8794497107180796
exact,pre_advance,DELTA_SA,ar,release_dfm,2017:Q1,0.03677153658568007,2.91622124730376
exact,pre_advance,DELTA_SA,ar,release_dfm,2017:Q2,-0.10011724287491425,2.8161040044288455
exact,pre_advance,DELTA_SA,ar,release_dfm,2017:Q3,-0.05757220247213498,2.7585318019567104
exact,pre_advance,DELTA_SA,ar,release_dfm,2017:Q4,-0.018795635845599436,2.739736166111111
exact,pre_advance,DELTA_SA,ar,release_dfm,2018:Q1,-0.07137453950156954,2.668361626609541
exact,pre_advance,DELTA_SA,ar,release_dfm,2018:Q2,0.02732140167321683,2.6956830282827577
exact,pre_advance,DELTA_SA,ar,release_dfm,2018:Q3,-0.01517884791799765,2.68050418036476
exact,pre_advance,DELTA_SA,ar,release_dfm,2019:Q1,0.3056651959381532,2.986169376302913
exact,pre_advance,DELTA_SA,ar,release_dfm,2019:Q2,-0.006542066970037506,2.9796273093328756
exact,pre_advance,DELTA_SA,ar,release_dfm,2019:Q3,0.00455915341715029,2.9841864627500256
exact,pre_advance,DELTA_SA,ar,release_dfm,2019:Q4,0.022458742746033496,3.006645205496059
exact,pre_advance,DELTA_SA,ar,release_dfm,2020:Q1,0.07929702576198414,3.085942231258043
exact,pre_advance,DELTA_SA,ar,release_dfm,2020:Q2,-6.343919910050831,-3.2579776787927877
exact,pre_advance,DELTA_SA,ar,release_dfm,2020:Q3,6.585229036056756,3.327251357263968
exact,pre_advance,DELTA_SA,ar,release_dfm,2020:Q4,0.3553294223382184,3.6825807796021865
exact,pre_advance,DELTA_SA,ar,release_dfm,2021:Q1,0.0024895334042016413,3.685070313006388
exact,pre_advance,DELTA_SA,ar,release_dfm,2021:Q2,0.006350212614450523,3.6914205256208383
exact,pre_advance,DELTA_SA,ar,release_dfm,2021:Q3,0.003397448164514403,3.694817973785353
exact,pre_advance,DELTA_SA,ar,release_dfm,2021:Q4,0.00022254856130138077,3.695040522346654
exact,pre_advance,DELTA_SA,ar,release_dfm,2022:Q1,0.023981972330910026,3.719022494677564
exact,pre_advance,DELTA_SA,ar,release_dfm,2022:Q2,0.04202620704813953,3.7610487017257035
exact,pre_advance,DELTA_SA,ar,release_dfm,2022:Q3,0.021558902901119156,3.7826076046268224
exact,pre_advance,DELTA_SA,ar,release_dfm,2022:Q4,0.007549276239000424,3.790156880865823
exact,pre_advance,DELTA_SA,ar,release_dfm,2023:Q1,0.0036429627516611184,3.7937998436174842
exact,pre_advance,DELTA_SA,ar,release_dfm,2023:Q2,-0.015892029036106203,3.7779078145813783
exact,pre_advance,DELTA_SA,ar,release_dfm,2023:Q3,0.011327669946062588,3.789235484527441
exact,pre_advance,DELTA_SA,ar,release_dfm,2023:Q4,0.01429794297308309,3.803533427500524
exact,pre_advance,DELTA_SA,ar,release_dfm,2024:Q1,-0.001782041940785073,3.801751385559739
exact,pre_advance,DELTA_SA,ar,release_dfm,2024:Q2,0.0030115301445589647,3.804762915704298
exact,pre_advance,DELTA_SA,ar,release_dfm,2024:Q3,0.0003461342174390092,3.805109049921737
exact,pre_advance,DELTA_SA,ar,release_dfm,2024:Q4,2.561095288898528e-05,3.805134660874626
exact,pre_advance,DELTA_SA,ar,revision_dfm_kalman_em,2005:Q1,-0.11296757558530784,-0.11296757558530784
exact,pre_advance,DELTA_SA,ar,revision_dfm_kalman_em,2005:Q2,0.08432121065599696,-0.028646364929310886
exact,pre_advance,DELTA_SA,ar,revision_dfm_kalman_em,2005:Q3,0.13506009057603552,0.10641372564672463
exact,pre_advance,DELTA_SA,ar,revision_dfm_kalman_em,2005:Q4,-0.030023388977069923,0.07639033666965471
exact,pre_advance,DELTA_SA,ar,revision_dfm_kalman_em,2006:Q1,-0.12673093026029675,-0.05034059359064204
exact,pre_advance,DELTA_SA,ar,revision_dfm_kalman_em,2006:Q2,-0.05998019184414603,-0.11032078543478807
exact,pre_advance,DELTA_SA,ar,revision_dfm_kalman_em,2006:Q3,-0.18214993718335531,-0.2924707226181434
exact,pre_advance,DELTA_SA,ar,revision_dfm_kalman_em,2006:Q4,1.1920493786861506,0.8995786560680072
exact,pre_advance,DELTA_SA,ar,revision_dfm_kalman_em,2007:Q1,-0.9084189219200466,-0.008840265852039342
exact,pre_advance,DELTA_SA,ar,revision_dfm_kalman_em,2007:Q2,0.49203849715387704,0.4831982313018377
exact,pre_advance,DELTA_SA,ar,revision_dfm_kalman_em,2007:Q3,-0.4266054594775527,0.056592771824285015
exact,pre_advance,DELTA_SA,ar,revision_dfm_kalman_em,2007:Q4,0.21152008297042776,0.2681128547947128
exact,pre_advance,DELTA_SA,ar,revision_dfm_kalman_em,2008:Q1,-0.01584505618961179,0.252267798605101
exact,pre_advance,DELTA_SA,ar,revision_dfm_kalman_em,2008:Q2,-0.4682021593337673,-0.21593436072866629
exact,pre_advance,DELTA_SA,ar,revision_dfm_kalman_em,2008:Q3,0.9042012303615232,0.6882668696328569
exact,pre_advance,DELTA_SA,ar,revision_dfm_kalman_em,2008:Q4,1.947732557296601,2.635999426929458
exact,pre_advance,DELTA_SA,ar,revision_dfm_kalman_em,2009:Q1,1.3931731649346226,4.02917259186408
exact,pre_advance,DELTA_SA,ar,revision_dfm_kalman_em,2009:Q2,0.2713669371468922,4.3005395290109725
exact,pre_advance,DELTA_SA,ar,revision_dfm_kalman_em,2009:Q3,-1.3317284725984906,2.968811056412482
exact,pre_advance,DELTA_SA,ar,revision_dfm_kalman_em,2009:Q4,0.27510179325551815,3.243912849668
exact,pre_advance,DELTA_SA,ar,revision_dfm_kalman_em,2010:Q1,-0.16140366886893326,3.0825091807990668
exact,pre_advance,DELTA_SA,ar,revision_dfm_kalman_em,2010:Q2,-0.6395253596655718,2.442983821133495
exact,pre_advance,DELTA_SA,ar,revision_dfm_kalman_em,2010:Q3,0.6001972081825242,3.043181029316019
exact,pre_advance,DELTA_SA,ar,revision_dfm_kalman_em,2010:Q4,0.24136732718128506,3.284548356497304
exact,pre_advance,DELTA_SA,ar,revision_dfm_kalman_em,2011:Q1,0.0031205922746084386,3.2876689487719126
exact,pre_advance,DELTA_SA,ar,revision_dfm_kalman_em,2011:Q2,-0.07691009544580205,3.2107588533261104
exact,pre_advance,DELTA_SA,ar,revision_dfm_kalman_em,2011:Q3,-0.4074120044796309,2.8033468488464797
exact,pre_advance,DELTA_SA,ar,revision_dfm_kalman_em,2011:Q4,0.15489166997493145,2.9582385188214113
exact,pre_advance,DELTA_SA,ar,revision_dfm_kalman_em,2012:Q1,-0.07836146239830874,2.8798770564231027
exact,pre_advance,DELTA_SA,ar,revision_dfm_kalman_em,2012:Q2,0.0886506385505183,2.968527694973621
exact,pre_advance,DELTA_SA,ar,revision_dfm_kalman_em,2012:Q3,-0.054729125947026114,2.9137985690265946
exact,pre_advance,DELTA_SA,ar,revision_dfm_kalman_em,2012:Q4,-0.0003341653832136162,2.913464403643381
exact,pre_advance,DELTA_SA,ar,revision_dfm_kalman_em,2013:Q1,-0.02786172113699592,2.885602682506385
exact,pre_advance,DELTA_SA,ar,revision_dfm_kalman_em,2013:Q2,0.2473536164308643,3.1329562989372493
exact,pre_advance,DELTA_SA,ar,revision_dfm_kalman_em,2013:Q3,-0.32993951662734267,2.8030167823099066
exact,pre_advance,DELTA_SA,ar,revision_dfm_kalman_em,2013:Q4,0.3855389833862204,3.188555765696127
exact,pre_advance,DELTA_SA,ar,revision_dfm_kalman_em,2014:Q1,-1.1756026230203183,2.0129531426758085
exact,pre_advance,DELTA_SA,ar,revision_dfm_kalman_em,2014:Q2,0.3229295272472963,2.335882669923105
exact,pre_advance,DELTA_SA,ar,revision_dfm_kalman_em,2014:Q3,-0.01069790738555701,2.325184762537548
exact,pre_advance,DELTA_SA,ar,revision_dfm_kalman_em,2014:Q4,0.06116898137718002,2.3863537439147278
exact,pre_advance,DELTA_SA,ar,revision_dfm_kalman_em,2015:Q1,-0.4059102999479197,1.980443443966808
exact,pre_advance,DELTA_SA,ar,revision_dfm_kalman_em,2015:Q2,1.5453304886447472,3.525773932611555
exact,pre_advance,DELTA_SA,ar,revision_dfm_kalman_em,2015:Q3,-0.23559665959640735,3.2901772730151477
exact,pre_advance,DELTA_SA,ar,revision_dfm_kalman_em,2015:Q4,-0.07207020453014201,3.218107068485006
exact,pre_advance,DELTA_SA,ar,revision_dfm_kalman_em,2016:Q1,-0.0285870184899988,3.189520049995007
exact,pre_advance,DELTA_SA,ar,revision_dfm_kalman_em,2016:Q2,0.0686125343155223,3.2581325843105295
exact,pre_advance,DELTA_SA,ar,revision_dfm_kalman_em,2016:Q3,0.041070291161656704,3.299202875472186
exact,pre_advance,DELTA_SA,ar,revision_dfm_kalman_em,2016:Q4,0.010260677104433524,3.3094635525766196
exact,pre_advance,DELTA_SA,ar,revision_dfm_kalman_em,2017:Q1,0.07065200037301582,3.3801155529496354
exact,pre_advance,DELTA_SA,ar,revision_dfm_kalman_em,2017:Q2,-0.02386371884949125,3.356251834100144
exact,pre_advance,DELTA_SA,ar,revision_dfm_kalman_em,2017:Q3,-0.06859495467918787,3.287656879420956
exact,pre_advance,DELTA_SA,ar,revision_dfm_kalman_em,2017:Q4,-0.05493349947358971,3.2327233799473665
exact,pre_advance,DELTA_SA,ar,revision_dfm_kalman_em,2018:Q1,-0.08650213707969018,3.1462212428676763
exact,pre_advance,DELTA_SA,ar,revision_dfm_kalman_em,2018:Q2,0.026426610412801487,3.172647853280478
exact,pre_advance,DELTA_SA,ar,revision_dfm_kalman_em,2018:Q3,-0.008811416821002484,3.1638364364594755
exact,pre_advance,DELTA_SA,ar,revision_dfm_kalman_em,2019:Q1,0.29074981504101444,3.45458625150049
exact,pre_advance,DELTA_SA,ar,revision_dfm_kalman_em,2019:Q2,-0.004402974218551308,3.4501832772819387
exact,pre_advance,DELTA_SA,ar,revision_dfm_kalman_em,2019:Q3,0.017617047186331405,3.46780032446827
exact,pre_advance,DELTA_SA,ar,revision_dfm_kalman_em,2019:Q4,0.018904802324720776,3.486705126792991
exact,pre_advance,DELTA_SA,ar,revision_dfm_kalman_em,2020:Q1,0.08364730914107424,3.570352435934065
exact,pre_advance,DELTA_SA,ar,revision_dfm_kalman_em,2020:Q2,-3.8351318022039256,-0.26477936626986054
exact,pre_advance,DELTA_SA,ar,revision_dfm_kalman_em,2020:Q3,5.399030505564671,5.13425113929481
exact,pre_advance,DELTA_SA,ar,revision_dfm_kalman_em,2020:Q4,-0.3024370253887343,4.831814113906076
exact,pre_advance,DELTA_SA,ar,revision_dfm_kalman_em,2021:Q1,-0.061656622275523015,4.770157491630553
exact,pre_advance,DELTA_SA,ar,revision_dfm_kalman_em,2021:Q2,0.007806036325196448,4.77796352795575
exact,pre_advance,DELTA_SA,ar,revision_dfm_kalman_em,2021:Q3,0.0032735172855732912,4.7812370452413235
exact,pre_advance,DELTA_SA,ar,revision_dfm_kalman_em,2021:Q4,-0.01592203111687296,4.76531501412445
exact,pre_advance,DELTA_SA,ar,revision_dfm_kalman_em,2022:Q1,0.047373692464119654,4.8126887065885695
exact,pre_advance,DELTA_SA,ar,revision_dfm_kalman_em,2022:Q2,0.09778054915892648,4.910469255747496
exact,pre_advance,DELTA_SA,ar,revision_dfm_kalman_em,2022:Q3,0.09299790993610915,5.003467165683605
exact,pre_advance,DELTA_SA,ar,revision_dfm_kalman_em,2022:Q4,0.0010478148504604323,5.004514980534066
exact,pre_advance,DELTA_SA,ar,revision_dfm_kalman_em,2023:Q1,-0.01281882217040864,4.991696158363657
exact,pre_advance,DELTA_SA,ar,revision_dfm_kalman_em,2023:Q2,-0.05992372033005003,4.931772438033607
exact,pre_advance,DELTA_SA,ar,revision_dfm_kalman_em,2023:Q3,0.028074799815863083,4.959847237849471
exact,pre_advance,DELTA_SA,ar,revision_dfm_kalman_em,2023:Q4,0.03707793235585298,4.996925170205324
exact,pre_advance,DELTA_SA,ar,revision_dfm_kalman_em,2024:Q1,0.05820613582636752,5.055131306031691
exact,pre_advance,DELTA_SA,ar,revision_dfm_kalman_em,2024:Q2,0.003351344542345341,5.058482650574036
exact,pre_advance,DELTA_SA,ar,revision_dfm_kalman_em,2024:Q3,-0.005176430525033769,5.053306220049002
exact,pre_advance,DELTA_SA,ar,revision_dfm_kalman_em,2024:Q4,-0.00038776990631700603,5.052918450142685
exact,pre_advance,DELTA_SA,ar,spf,2005:Q1,-0.15257503321613658,-0.15257503321613658
exact,pre_advance,DELTA_SA,ar,spf,2005:Q2,0.10304262774761302,-0.049532405468523555
exact,pre_advance,DELTA_SA,ar,spf,2005:Q3,0.03151683579611303,-0.018015569672410525
exact,pre_advance,DELTA_SA,ar,spf,2005:Q4,-0.17958946757420496,-0.1976050372466155
exact,pre_advance,DELTA_SA,ar,spf,2006:Q1,-0.22225097588053042,-0.41985601312714593
exact,pre_advance,DELTA_SA,ar,spf,2006:Q2,-0.1338214718146227,-0.5536774849417686
exact,pre_advance,DELTA_SA,ar,spf,2006:Q3,-0.2655324769569707,-0.8192099618987393
exact,pre_advance,DELTA_SA,ar,spf,2006:Q4,1.1280810824986391,0.30887112059989985
exact,pre_advance,DELTA_SA,ar,spf,2007:Q1,-0.36488258133290913,-0.05601146073300928
exact,pre_advance,DELTA_SA,ar,spf,2007:Q2,0.2101220628635298,0.15411060213052052
exact,pre_advance,DELTA_SA,ar,spf,2007:Q3,-0.5038879623481906,-0.34977736021767003
exact,pre_advance,DELTA_SA,ar,spf,2007:Q4,0.23194641324995732,-0.11783094696771271
exact,pre_advance,DELTA_SA,ar,spf,2008:Q1,-0.06565748592115798,-0.18348843288887068
exact,pre_advance,DELTA_SA,ar,spf,2008:Q2,-0.7051418869943866,-0.8886303198832572
exact,pre_advance,DELTA_SA,ar,spf,2008:Q3,0.8839041046210189,-0.004726215262238376
exact,pre_advance,DELTA_SA,ar,spf,2008:Q4,0.39399862829546173,0.38927241303322335
exact,pre_advance,DELTA_SA,ar,spf,2009:Q1,1.3203689037955737,1.709641316828797
exact,pre_advance,DELTA_SA,ar,spf,2009:Q2,0.36877932291984866,2.0784206397486455
exact,pre_advance,DELTA_SA,ar,spf,2009:Q3,0.31974831955083616,2.3981689592994817
exact,pre_advance,DELTA_SA,ar,spf,2009:Q4,0.2461874095178597,2.6443563688173413
exact,pre_advance,DELTA_SA,ar,spf,2010:Q1,0.012274663642203441,2.656631032459545
exact,pre_advance,DELTA_SA,ar,spf,2010:Q2,-0.10097637669884518,2.5556546557606996
exact,pre_advance,DELTA_SA,ar,spf,2010:Q3,0.41001530272678194,2.9656699584874815
exact,pre_advance,DELTA_SA,ar,spf,2010:Q4,0.33708017745408314,3.3027501359415647
exact,pre_advance,DELTA_SA,ar,spf,2011:Q1,0.05273638935335863,3.3554865252949235
exact,pre_advance,DELTA_SA,ar,spf,2011:Q2,0.0864949621817803,3.4419814874767036
exact,pre_advance,DELTA_SA,ar,spf,2011:Q3,-0.03822954602021156,3.403751941456492
exact,pre_advance,DELTA_SA,ar,spf,2011:Q4,0.1042486389810256,3.5080005804375176
exact,pre_advance,DELTA_SA,ar,spf,2012:Q1,0.12270345028699549,3.6307040307245133
exact,pre_advance,DELTA_SA,ar,spf,2012:Q2,0.05124300972150874,3.681947040446022
exact,pre_advance,DELTA_SA,ar,spf,2012:Q3,-0.19803121584843814,3.483915824597584
exact,pre_advance,DELTA_SA,ar,spf,2012:Q4,-0.06160444841889918,3.4223113761786847
exact,pre_advance,DELTA_SA,ar,spf,2013:Q1,0.13839352919058448,3.560704905369269
exact,pre_advance,DELTA_SA,ar,spf,2013:Q2,0.010665904843470964,3.5713708102127404
exact,pre_advance,DELTA_SA,ar,spf,2013:Q3,-0.49085393179229264,3.0805168784204477
exact,pre_advance,DELTA_SA,ar,spf,2013:Q4,0.8147882022650561,3.895305080685504
exact,pre_advance,DELTA_SA,ar,spf,2014:Q1,-0.6728261778290336,3.22247890285647
exact,pre_advance,DELTA_SA,ar,spf,2014:Q2,0.3153905835886226,3.537869486445093
exact,pre_advance,DELTA_SA,ar,spf,2014:Q3,-0.05736992828325174,3.480499558161841
exact,pre_advance,DELTA_SA,ar,spf,2014:Q4,0.18045818425062124,3.6609577424124624
exact,pre_advance,DELTA_SA,ar,spf,2015:Q1,-0.30424364925329495,3.3567140931591677
exact,pre_advance,DELTA_SA,ar,spf,2015:Q2,1.0249249122593762,4.381639005418544
exact,pre_advance,DELTA_SA,ar,spf,2015:Q3,-0.3345827492334456,4.0470562561850985
exact,pre_advance,DELTA_SA,ar,spf,2015:Q4,-0.09676443992777004,3.9502918162573284
exact,pre_advance,DELTA_SA,ar,spf,2016:Q1,-0.09029065158363185,3.8600011646736965
exact,pre_advance,DELTA_SA,ar,spf,2016:Q2,0.1360297525459644,3.996030917219661
exact,pre_advance,DELTA_SA,ar,spf,2016:Q3,-0.021175007572158712,3.974855909647502
exact,pre_advance,DELTA_SA,ar,spf,2016:Q4,0.02734587565242416,4.002201785299926
exact,pre_advance,DELTA_SA,ar,spf,2017:Q1,-0.056295362083760514,3.945906423216165
exact,pre_advance,DELTA_SA,ar,spf,2017:Q2,-0.1998229027002102,3.746083520515955
exact,pre_advance,DELTA_SA,ar,spf,2017:Q3,-0.09239460605426397,3.653688914461691
exact,pre_advance,DELTA_SA,ar,spf,2017:Q4,0.035699658663772574,3.6893885731254636
exact,pre_advance,DELTA_SA,ar,spf,2018:Q1,0.012703611098869368,3.702092184224333
exact,pre_advance,DELTA_SA,ar,spf,2018:Q2,0.0030213569949030655,3.705113541219236
exact,pre_advance,DELTA_SA,ar,spf,2018:Q3,0.0032310710133240618,3.70834461223256
exact,pre_advance,DELTA_SA,ar,spf,2019:Q1,0.3134694480182471,4.021814060250807
exact,pre_advance,DELTA_SA,ar,spf,2019:Q2,-0.00020861065790184213,4.021605449592905
exact,pre_advance,DELTA_SA,ar,spf,2019:Q3,-0.020795440927072837,4.000810008665832
exact,pre_advance,DELTA_SA,ar,spf,2019:Q4,0.022807340587339162,4.023617349253171
exact,pre_advance,DELTA_SA,ar,spf,2020:Q1,0.04374626691208146,4.067363616165252
exact,pre_advance,DELTA_SA,ar,spf,2020:Q2,-0.4848885887598303,3.582475027405422
exact,pre_advance,DELTA_SA,ar,spf,2020:Q3,6.6030936783793335,10.185568705784755
exact,pre_advance,DELTA_SA,ar,spf,2020:Q4,0.3494364241901803,10.535005129974936
exact,pre_advance,DELTA_SA,ar,spf,2021:Q1,0.010481372036795358,10.54548650201173
exact,pre_advance,DELTA_SA,ar,spf,2021:Q2,0.005674643654305938,10.551161145666036
exact,pre_advance,DELTA_SA,ar,spf,2021:Q3,-0.00428446848418562,10.546876677181851
exact,pre_advance,DELTA_SA,ar,spf,2021:Q4,-0.009636975615624089,10.537239701566227
exact,pre_advance,DELTA_SA,ar,spf,2022:Q1,0.05376352283472801,10.591003224400955
exact,pre_advance,DELTA_SA,ar,spf,2022:Q2,-0.01747374549873487,10.57352947890222
exact,pre_advance,DELTA_SA,ar,spf,2022:Q3,-0.038912176234116996,10.534617302668103
exact,pre_advance,DELTA_SA,ar,spf,2022:Q4,0.058622083054108,10.59323938572221
exact,pre_advance,DELTA_SA,ar,spf,2023:Q1,-0.02740533844308022,10.56583404727913
exact,pre_advance,DELTA_SA,ar,spf,2023:Q2,0.06172819389498699,10.627562241174118
exact,pre_advance,DELTA_SA,ar,spf,2023:Q3,-0.03194758936873526,10.595614651805382
exact,pre_advance,DELTA_SA,ar,spf,2023:Q4,0.03690159867203891,10.63251625047742
exact,pre_advance,DELTA_SA,ar,spf,2024:Q1,0.07155817897030346,10.704074429447724
exact,pre_advance,DELTA_SA,ar,spf,2024:Q2,-0.009033581491366181,10.695040847956358
exact,pre_advance,DELTA_SA,ar,spf,2024:Q3,0.00727617350536104,10.702317021461718
exact,pre_advance,DELTA_SA,ar,spf,2024:Q4,-0.008788760628669104,10.69352826083305
exact,pre_advance,DELTA_SA,ar,standard_dfm,2005:Q1,-0.06457257404199222,-0.06457257404199222
exact,pre_advance,DELTA_SA,ar,standard_dfm,2005:Q2,0.053921007054112874,-0.010651566987879349
exact,pre_advance,DELTA_SA,ar,standard_dfm,2005:Q3,0.12191070539466523,0.11125913840678588
exact,pre_advance,DELTA_SA,ar,standard_dfm,2005:Q4,-0.03851182739693776,0.07274731100984812
exact,pre_advance,DELTA_SA,ar,standard_dfm,2006:Q1,-0.09630907940028732,-0.023561768390439206
exact,pre_advance,DELTA_SA,ar,standard_dfm,2006:Q2,-0.006343046395281451,-0.029904814785720657
exact,pre_advance,DELTA_SA,ar,standard_dfm,2006:Q3,-0.1027035776815714,-0.13260839246729206
exact,pre_advance,DELTA_SA,ar,standard_dfm,2006:Q4,1.027604740275896,0.894996347808604
exact,pre_advance,DELTA_SA,ar,standard_dfm,2007:Q1,-0.41408575323464875,0.4809105945739553
exact,pre_advance,DELTA_SA,ar,standard_dfm,2007:Q2,0.3272665697635969,0.8081771643375522
exact,pre_advance,DELTA_SA,ar,standard_dfm,2007:Q3,-0.3348463681699476,0.47333079616760454
exact,pre_advance,DELTA_SA,ar,standard_dfm,2007:Q4,0.23170019018880764,0.7050309863564121
exact,pre_advance,DELTA_SA,ar,standard_dfm,2008:Q1,-0.09998664863071857,0.6050443377256935
exact,pre_advance,DELTA_SA,ar,standard_dfm,2008:Q2,-0.7880304720767606,-0.18298613435106703
exact,pre_advance,DELTA_SA,ar,standard_dfm,2008:Q3,0.9004291296287447,0.7174429952776776
exact,pre_advance,DELTA_SA,ar,standard_dfm,2008:Q4,2.0518569757106677,2.7692999709883455
exact,pre_advance,DELTA_SA,ar,standard_dfm,2009:Q1,-1.309095775368377,1.4602041956199685
exact,pre_advance,DELTA_SA,ar,standard_dfm,2009:Q2,0.2955691866755835,1.7557733822955521
exact,pre_advance,DELTA_SA,ar,standard_dfm,2009:Q3,0.06344779921680788,1.81922118151236
exact,pre_advance,DELTA_SA,ar,standard_dfm,2009:Q4,0.2826198032348088,2.101840984747169
exact,pre_advance,DELTA_SA,ar,standard_dfm,2010:Q1,-0.2394524503358354,1.8623885344113336
exact,pre_advance,DELTA_SA,ar,standard_dfm,2010:Q2,-0.43427508410354165,1.428113450307792
exact,pre_advance,DELTA_SA,ar,standard_dfm,2010:Q3,0.5008024804713807,1.9289159307791726
exact,pre_advance,DELTA_SA,ar,standard_dfm,2010:Q4,0.25584879905282176,2.1847647298319943
exact,pre_advance,DELTA_SA,ar,standard_dfm,2011:Q1,0.016558704882428145,2.2013234347144226
exact,pre_advance,DELTA_SA,ar,standard_dfm,2011:Q2,0.014075986477936647,2.2153994211923593
exact,pre_advance,DELTA_SA,ar,standard_dfm,2011:Q3,-0.15806562807392172,2.0573337931184374
exact,pre_advance,DELTA_SA,ar,standard_dfm,2011:Q4,0.1550867166435113,2.212420509761949
exact,pre_advance,DELTA_SA,ar,standard_dfm,2012:Q1,-0.06456927922788744,2.1478512305340614
exact,pre_advance,DELTA_SA,ar,standard_dfm,2012:Q2,0.07649001778942476,2.224341248323486
exact,pre_advance,DELTA_SA,ar,standard_dfm,2012:Q3,-0.09411694703936069,2.1302243012841253
exact,pre_advance,DELTA_SA,ar,standard_dfm,2012:Q4,0.0020050161951079247,2.1322293174792333
exact,pre_advance,DELTA_SA,ar,standard_dfm,2013:Q1,0.09100039082084746,2.2232297083000807
exact,pre_advance,DELTA_SA,ar,standard_dfm,2013:Q2,0.19390107916547772,2.4171307874655583
exact,pre_advance,DELTA_SA,ar,standard_dfm,2013:Q3,-0.3479050431917394,2.069225744273819
exact,pre_advance,DELTA_SA,ar,standard_dfm,2013:Q4,0.4497329579020113,2.51895870217583
exact,pre_advance,DELTA_SA,ar,standard_dfm,2014:Q1,-0.8583308373830141,1.6606278647928159
exact,pre_advance,DELTA_SA,ar,standard_dfm,2014:Q2,0.3652294107029636,2.0258572754957793
exact,pre_advance,DELTA_SA,ar,standard_dfm,2014:Q3,0.014034904851747756,2.039892180347527
exact,pre_advance,DELTA_SA,ar,standard_dfm,2014:Q4,0.08228803521466005,2.1221802155621874
exact,pre_advance,DELTA_SA,ar,standard_dfm,2015:Q1,-0.3118423605282016,1.810337855033986
exact,pre_advance,DELTA_SA,ar,standard_dfm,2015:Q2,1.303571697936936,3.113909552970922
exact,pre_advance,DELTA_SA,ar,standard_dfm,2015:Q3,-0.23002657645394253,2.8838829765169796
exact,pre_advance,DELTA_SA,ar,standard_dfm,2015:Q4,-0.07014253561235238,2.813740440904627
exact,pre_advance,DELTA_SA,ar,standard_dfm,2016:Q1,-0.06222528198854255,2.7515151589160847
exact,pre_advance,DELTA_SA,ar,standard_dfm,2016:Q2,0.1155909482653528,2.8671061071814377
exact,pre_advance,DELTA_SA,ar,standard_dfm,2016:Q3,0.012368181166111498,2.879474288347549
exact,pre_advance,DELTA_SA,ar,standard_dfm,2016:Q4,-2.457762946924194e-05,2.8794497107180796
exact,pre_advance,DELTA_SA,ar,standard_dfm,2017:Q1,0.03677153658568007,2.91622124730376
exact,pre_advance,DELTA_SA,ar,standard_dfm,2017:Q2,-0.10011724287491425,2.8161040044288455
exact,pre_advance,DELTA_SA,ar,standard_dfm,2017:Q3,-0.05757220247213498,2.7585318019567104
exact,pre_advance,DELTA_SA,ar,standard_dfm,2017:Q4,-0.018795635845599436,2.739736166111111
exact,pre_advance,DELTA_SA,ar,standard_dfm,2018:Q1,-0.07137453950156954,2.668361626609541
exact,pre_advance,DELTA_SA,ar,standard_dfm,2018:Q2,0.02732140167321683,2.6956830282827577
exact,pre_advance,DELTA_SA,ar,standard_dfm,2018:Q3,-0.01517884791799765,2.68050418036476
exact,pre_advance,DELTA_SA,ar,standard_dfm,2019:Q1,0.3056651959381532,2.986169376302913
exact,pre_advance,DELTA_SA,ar,standard_dfm,2019:Q2,-0.006542066970037506,2.9796273093328756
exact,pre_advance,DELTA_SA,ar,standard_dfm,2019:Q3,0.00455915341715029,2.9841864627500256
exact,pre_advance,DELTA_SA,ar,standard_dfm,2019:Q4,0.022458742746033496,3.006645205496059
exact,pre_advance,DELTA_SA,ar,standard_dfm,2020:Q1,0.07929702576198414,3.085942231258043
exact,pre_advance,DELTA_SA,ar,standard_dfm,2020:Q2,-6.343919910050831,-3.2579776787927877
exact,pre_advance,DELTA_SA,ar,standard_dfm,2020:Q3,6.585229036056756,3.327251357263968
exact,pre_advance,DELTA_SA,ar,standard_dfm,2020:Q4,0.3553294223382184,3.6825807796021865
exact,pre_advance,DELTA_SA,ar,standard_dfm,2021:Q1,0.0024895334042016413,3.685070313006388
exact,pre_advance,DELTA_SA,ar,standard_dfm,2021:Q2,0.006350212614450523,3.6914205256208383
exact,pre_advance,DELTA_SA,ar,standard_dfm,2021:Q3,0.003397448164514403,3.694817973785353
exact,pre_advance,DELTA_SA,ar,standard_dfm,2021:Q4,0.00022254856130138077,3.695040522346654
exact,pre_advance,DELTA_SA,ar,standard_dfm,2022:Q1,0.023981972330910026,3.719022494677564
exact,pre_advance,DELTA_SA,ar,standard_dfm,2022:Q2,0.04202620704813953,3.7610487017257035
exact,pre_advance,DELTA_SA,ar,standard_dfm,2022:Q3,0.021558902901119156,3.7826076046268224
exact,pre_advance,DELTA_SA,ar,standard_dfm,2022:Q4,0.007549276239000424,3.790156880865823
exact,pre_advance,DELTA_SA,ar,standard_dfm,2023:Q1,0.0036429627516611184,3.7937998436174842
exact,pre_advance,DELTA_SA,ar,standard_dfm,2023:Q2,-0.015892029036106203,3.7779078145813783
exact,pre_advance,DELTA_SA,ar,standard_dfm,2023:Q3,0.011327669946062588,3.789235484527441
exact,pre_advance,DELTA_SA,ar,standard_dfm,2023:Q4,0.01429794297308309,3.803533427500524
exact,pre_advance,DELTA_SA,ar,standard_dfm,2024:Q1,-0.001782041940785073,3.801751385559739
exact,pre_advance,DELTA_SA,ar,standard_dfm,2024:Q2,0.0030115301445589647,3.804762915704298
exact,pre_advance,DELTA_SA,ar,standard_dfm,2024:Q3,0.0003461342174390092,3.805109049921737
exact,pre_advance,DELTA_SA,ar,standard_dfm,2024:Q4,2.561095288898528e-05,3.805134660874626
exact,pre_advance,DELTA_SA,no_revision,ar,2005:Q1,0.15257503321613658,0.15257503321613658
exact,pre_advance,DELTA_SA,no_revision,ar,2005:Q2,-0.10304262774761302,0.049532405468523555
exact,pre_advance,DELTA_SA,no_revision,ar,2005:Q3,-0.03151683579611303,0.018015569672410525
exact,pre_advance,DELTA_SA,no_revision,ar,2005:Q4,0.17958946757420496,0.1976050372466155
exact,pre_advance,DELTA_SA,no_revision,ar,2006:Q1,0.22225097588053042,0.41985601312714593
exact,pre_advance,DELTA_SA,no_revision,ar,2006:Q2,0.1338214718146227,0.5536774849417686
exact,pre_advance,DELTA_SA,no_revision,ar,2006:Q3,0.2655324769569707,0.8192099618987393
exact,pre_advance,DELTA_SA,no_revision,ar,2006:Q4,-1.1280810824986391,-0.30887112059989985
exact,pre_advance,DELTA_SA,no_revision,ar,2007:Q1,0.36488258133290913,0.05601146073300928
exact,pre_advance,DELTA_SA,no_revision,ar,2007:Q2,-0.2101220628635298,-0.15411060213052052
exact,pre_advance,DELTA_SA,no_revision,ar,2007:Q3,0.5038879623481906,0.34977736021767003
exact,pre_advance,DELTA_SA,no_revision,ar,2007:Q4,-0.23194641324995732,0.11783094696771271
exact,pre_advance,DELTA_SA,no_revision,ar,2008:Q1,0.06565748592115798,0.18348843288887068
exact,pre_advance,DELTA_SA,no_revision,ar,2008:Q2,0.7051418869943866,0.8886303198832572
exact,pre_advance,DELTA_SA,no_revision,ar,2008:Q3,-0.8839041046210189,0.004726215262238376
exact,pre_advance,DELTA_SA,no_revision,ar,2008:Q4,-0.39399862829546173,-0.38927241303322335
exact,pre_advance,DELTA_SA,no_revision,ar,2009:Q1,-1.3203689037955737,-1.709641316828797
exact,pre_advance,DELTA_SA,no_revision,ar,2009:Q2,-0.36877932291984866,-2.0784206397486455
exact,pre_advance,DELTA_SA,no_revision,ar,2009:Q3,-0.31974831955083616,-2.3981689592994817
exact,pre_advance,DELTA_SA,no_revision,ar,2009:Q4,-0.2461874095178597,-2.6443563688173413
exact,pre_advance,DELTA_SA,no_revision,ar,2010:Q1,-0.012274663642203441,-2.656631032459545
exact,pre_advance,DELTA_SA,no_revision,ar,2010:Q2,0.10097637669884518,-2.5556546557606996
exact,pre_advance,DELTA_SA,no_revision,ar,2010:Q3,-0.41001530272678194,-2.9656699584874815
exact,pre_advance,DELTA_SA,no_revision,ar,2010:Q4,-0.33708017745408314,-3.3027501359415647
exact,pre_advance,DELTA_SA,no_revision,ar,2011:Q1,-0.05273638935335863,-3.3554865252949235
exact,pre_advance,DELTA_SA,no_revision,ar,2011:Q2,-0.0864949621817803,-3.4419814874767036
exact,pre_advance,DELTA_SA,no_revision,ar,2011:Q3,0.03822954602021156,-3.403751941456492
exact,pre_advance,DELTA_SA,no_revision,ar,2011:Q4,-0.1042486389810256,-3.5080005804375176
exact,pre_advance,DELTA_SA,no_revision,ar,2012:Q1,-0.12270345028699549,-3.6307040307245133
exact,pre_advance,DELTA_SA,no_revision,ar,2012:Q2,-0.05124300972150874,-3.681947040446022
exact,pre_advance,DELTA_SA,no_revision,ar,2012:Q3,0.19803121584843814,-3.483915824597584
exact,pre_advance,DELTA_SA,no_revision,ar,2012:Q4,0.06160444841889918,-3.4223113761786847
exact,pre_advance,DELTA_SA,no_revision,ar,2013:Q1,-0.13839352919058448,-3.560704905369269
exact,pre_advance,DELTA_SA,no_revision,ar,2013:Q2,-0.010665904843470964,-3.5713708102127404
exact,pre_advance,DELTA_SA,no_revision,ar,2013:Q3,0.49085393179229264,-3.0805168784204477
exact,pre_advance,DELTA_SA,no_revision,ar,2013:Q4,-0.8147882022650561,-3.895305080685504
exact,pre_advance,DELTA_SA,no_revision,ar,2014:Q1,0.6728261778290336,-3.22247890285647
exact,pre_advance,DELTA_SA,no_revision,ar,2014:Q2,-0.3153905835886226,-3.537869486445093
exact,pre_advance,DELTA_SA,no_revision,ar,2014:Q3,0.05736992828325174,-3.480499558161841
exact,pre_advance,DELTA_SA,no_revision,ar,2014:Q4,-0.18045818425062124,-3.6609577424124624
exact,pre_advance,DELTA_SA,no_revision,ar,2015:Q1,0.30424364925329495,-3.3567140931591677
exact,pre_advance,DELTA_SA,no_revision,ar,2015:Q2,-1.0249249122593762,-4.381639005418544
exact,pre_advance,DELTA_SA,no_revision,ar,2015:Q3,0.3345827492334456,-4.0470562561850985
exact,pre_advance,DELTA_SA,no_revision,ar,2015:Q4,0.09676443992777004,-3.9502918162573284
exact,pre_advance,DELTA_SA,no_revision,ar,2016:Q1,0.09029065158363185,-3.8600011646736965
exact,pre_advance,DELTA_SA,no_revision,ar,2016:Q2,-0.1360297525459644,-3.996030917219661
exact,pre_advance,DELTA_SA,no_revision,ar,2016:Q3,0.021175007572158712,-3.974855909647502
exact,pre_advance,DELTA_SA,no_revision,ar,2016:Q4,-0.02734587565242416,-4.002201785299926
exact,pre_advance,DELTA_SA,no_revision,ar,2017:Q1,0.056295362083760514,-3.945906423216165
exact,pre_advance,DELTA_SA,no_revision,ar,2017:Q2,0.1998229027002102,-3.746083520515955
exact,pre_advance,DELTA_SA,no_revision,ar,2017:Q3,0.09239460605426397,-3.653688914461691
exact,pre_advance,DELTA_SA,no_revision,ar,2017:Q4,-0.035699658663772574,-3.6893885731254636
exact,pre_advance,DELTA_SA,no_revision,ar,2018:Q1,-0.012703611098869368,-3.702092184224333
exact,pre_advance,DELTA_SA,no_revision,ar,2018:Q2,-0.0030213569949030655,-3.705113541219236
exact,pre_advance,DELTA_SA,no_revision,ar,2018:Q3,-0.0032310710133240618,-3.70834461223256
exact,pre_advance,DELTA_SA,no_revision,ar,2019:Q1,-0.3134694480182471,-4.021814060250807
exact,pre_advance,DELTA_SA,no_revision,ar,2019:Q2,0.00020861065790184213,-4.021605449592905
exact,pre_advance,DELTA_SA,no_revision,ar,2019:Q3,0.020795440927072837,-4.000810008665832
exact,pre_advance,DELTA_SA,no_revision,ar,2019:Q4,-0.022807340587339162,-4.023617349253171
exact,pre_advance,DELTA_SA,no_revision,ar,2020:Q1,-0.04374626691208146,-4.067363616165252
exact,pre_advance,DELTA_SA,no_revision,ar,2020:Q2,0.4848885887598303,-3.582475027405422
exact,pre_advance,DELTA_SA,no_revision,ar,2020:Q3,-6.6030936783793335,-10.185568705784755
exact,pre_advance,DELTA_SA,no_revision,ar,2020:Q4,-0.3494364241901803,-10.535005129974936
exact,pre_advance,DELTA_SA,no_revision,ar,2021:Q1,-0.010481372036795358,-10.54548650201173
exact,pre_advance,DELTA_SA,no_revision,ar,2021:Q2,-0.005674643654305938,-10.551161145666036
exact,pre_advance,DELTA_SA,no_revision,ar,2021:Q3,0.00428446848418562,-10.546876677181851
exact,pre_advance,DELTA_SA,no_revision,ar,2021:Q4,0.009636975615624089,-10.537239701566227
exact,pre_advance,DELTA_SA,no_revision,ar,2022:Q1,-0.05376352283472801,-10.591003224400955
exact,pre_advance,DELTA_SA,no_revision,ar,2022:Q2,0.01747374549873487,-10.57352947890222
exact,pre_advance,DELTA_SA,no_revision,ar,2022:Q3,0.038912176234116996,-10.534617302668103
exact,pre_advance,DELTA_SA,no_revision,ar,2022:Q4,-0.058622083054108,-10.59323938572221
exact,pre_advance,DELTA_SA,no_revision,ar,2023:Q1,0.02740533844308022,-10.56583404727913
exact,pre_advance,DELTA_SA,no_revision,ar,2023:Q2,-0.06172819389498699,-10.627562241174118
exact,pre_advance,DELTA_SA,no_revision,ar,2023:Q3,0.03194758936873526,-10.595614651805382
exact,pre_advance,DELTA_SA,no_revision,ar,2023:Q4,-0.03690159867203891,-10.63251625047742
exact,pre_advance,DELTA_SA,no_revision,ar,2024:Q1,-0.07155817897030346,-10.704074429447724
exact,pre_advance,DELTA_SA,no_revision,ar,2024:Q2,0.009033581491366181,-10.695040847956358
exact,pre_advance,DELTA_SA,no_revision,ar,2024:Q3,-0.00727617350536104,-10.702317021461718
exact,pre_advance,DELTA_SA,no_revision,ar,2024:Q4,0.008788760628669104,-10.69352826083305
exact,pre_advance,DELTA_SA,no_revision,bridge,2005:Q1,0.13872897581163235,0.13872897581163235
exact,pre_advance,DELTA_SA,no_revision,bridge,2005:Q2,-0.10469290694489683,0.03403606886673552
exact,pre_advance,DELTA_SA,no_revision,bridge,2005:Q3,-0.15040667599317942,-0.1163706071264439
exact,pre_advance,DELTA_SA,no_revision,bridge,2005:Q4,0.17620579090103922,0.05983518377459532
exact,pre_advance,DELTA_SA,no_revision,bridge,2006:Q1,0.1738090911959969,0.23364427497059223
exact,pre_advance,DELTA_SA,no_revision,bridge,2006:Q2,-0.0033041605851341083,0.23034011438545812
exact,pre_advance,DELTA_SA,no_revision,bridge,2006:Q3,0.2012410313195581,0.4315811457050162
exact,pre_advance,DELTA_SA,no_revision,bridge,2006:Q4,-0.7825018916435365,-0.35092074593852024
exact,pre_advance,DELTA_SA,no_revision,bridge,2007:Q1,0.35705855019610977,0.00613780425758953
exact,pre_advance,DELTA_SA,no_revision,bridge,2007:Q2,-0.14115574401889486,-0.13501793976130533
exact,pre_advance,DELTA_SA,no_revision,bridge,2007:Q3,0.56369170324296,0.4286737634816547
exact,pre_advance,DELTA_SA,no_revision,bridge,2007:Q4,-0.2441442698193718,0.1845294936622829
exact,pre_advance,DELTA_SA,no_revision,bridge,2008:Q1,0.061312887817197535,0.24584238147948045
exact,pre_advance,DELTA_SA,no_revision,bridge,2008:Q2,0.13073477563098335,0.3765771571104638
exact,pre_advance,DELTA_SA,no_revision,bridge,2008:Q3,-0.2648840595619838,0.11169309754848
exact,pre_advance,DELTA_SA,no_revision,bridge,2008:Q4,3.556614069040292,3.6683071665887717
exact,pre_advance,DELTA_SA,no_revision,bridge,2009:Q1,-7.419249105638873,-3.7509419390501018
exact,pre_advance,DELTA_SA,no_revision,bridge,2009:Q2,-0.24196561609657566,-3.9929075551466773
exact,pre_advance,DELTA_SA,no_revision,bridge,2009:Q3,-0.3879792115458852,-4.380886766692562
exact,pre_advance,DELTA_SA,no_revision,bridge,2009:Q4,-0.2810558607026314,-4.661942627395193
exact,pre_advance,DELTA_SA,no_revision,bridge,2010:Q1,-0.10094736583874442,-4.762889993233938
exact,pre_advance,DELTA_SA,no_revision,bridge,2010:Q2,0.007393922819620702,-4.755496070414317
exact,pre_advance,DELTA_SA,no_revision,bridge,2010:Q3,-0.31509313295305846,-5.070589203367375
exact,pre_advance,DELTA_SA,no_revision,bridge,2010:Q4,-0.9034792141083648,-5.97406841747574
exact,pre_advance,DELTA_SA,no_revision,bridge,2011:Q1,-0.045895162760471446,-6.019963580236212
exact,pre_advance,DELTA_SA,no_revision,bridge,2011:Q2,-0.191513179749431,-6.211476759985643
exact,pre_advance,DELTA_SA,no_revision,bridge,2011:Q3,-0.08325527853527909,-6.294732038520921
exact,pre_advance,DELTA_SA,no_revision,bridge,2011:Q4,-0.0413702189655959,-6.336102257486517
exact,pre_advance,DELTA_SA,no_revision,bridge,2012:Q1,-0.15859116333028872,-6.494693420816805
exact,pre_advance,DELTA_SA,no_revision,bridge,2012:Q2,-0.10006699182705964,-6.594760412643865
exact,pre_advance,DELTA_SA,no_revision,bridge,2012:Q3,0.2058062853711069,-6.388954127272758
exact,pre_advance,DELTA_SA,no_revision,bridge,2012:Q4,0.06587583351807785,-6.32307829375468
exact,pre_advance,DELTA_SA,no_revision,bridge,2013:Q1,-0.051731328422555005,-6.374809622177235
exact,pre_advance,DELTA_SA,no_revision,bridge,2013:Q2,0.014831071369017845,-6.359978550808217
exact,pre_advance,DELTA_SA,no_revision,bridge,2013:Q3,0.42564500797830807,-5.934333542829909
exact,pre_advance,DELTA_SA,no_revision,bridge,2013:Q4,-1.263148324259157,-7.197481867089065
exact,pre_advance,DELTA_SA,no_revision,bridge,2014:Q1,0.7569160071134248,-6.44056585997564
exact,pre_advance,DELTA_SA,no_revision,bridge,2014:Q2,-0.15264110705323453,-6.593206967028875
exact,pre_advance,DELTA_SA,no_revision,bridge,2014:Q3,0.07832510899577853,-6.514881858033097
exact,pre_advance,DELTA_SA,no_revision,bridge,2014:Q4,-0.13705782032158967,-6.651939678354687
exact,pre_advance,DELTA_SA,no_revision,bridge,2015:Q1,0.40146977672373263,-6.250469901630954
exact,pre_advance,DELTA_SA,no_revision,bridge,2015:Q2,-0.4979232940191818,-6.748393195650135
exact,pre_advance,DELTA_SA,no_revision,bridge,2015:Q3,0.3409963676186283,-6.407396828031507
exact,pre_advance,DELTA_SA,no_revision,bridge,2015:Q4,0.09722798727919321,-6.310168840752314
exact,pre_advance,DELTA_SA,no_revision,bridge,2016:Q1,0.06159728403676126,-6.248571556715553
exact,pre_advance,DELTA_SA,no_revision,bridge,2016:Q2,-0.14301016971515193,-6.391581726430704
exact,pre_advance,DELTA_SA,no_revision,bridge,2016:Q3,0.029786376038173544,-6.361795350392531
exact,pre_advance,DELTA_SA,no_revision,bridge,2016:Q4,-0.02833064064415696,-6.390125991036688
exact,pre_advance,DELTA_SA,no_revision,bridge,2017:Q1,0.06242395788596877,-6.327702033150719
exact,pre_advance,DELTA_SA,no_revision,bridge,2017:Q2,0.17471543567711162,-6.152986597473608
exact,pre_advance,DELTA_SA,no_revision,bridge,2017:Q3,0.0939170825873698,-6.059069514886238
exact,pre_advance,DELTA_SA,no_revision,bridge,2017:Q4,-0.04823205535659521,-6.107301570242833
exact,pre_advance,DELTA_SA,no_revision,bridge,2018:Q1,-0.013729137375175407,-6.121030707618009
exact,pre_advance,DELTA_SA,no_revision,bridge,2018:Q2,0.021574368172287896,-6.099456339445721
exact,pre_advance,DELTA_SA,no_revision,bridge,2018:Q3,-0.006093663891220615,-6.105550003336942
exact,pre_advance,DELTA_SA,no_revision,bridge,2019:Q1,-0.6157461141295992,-6.721296117466542
exact,pre_advance,DELTA_SA,no_revision,bridge,2019:Q2,-0.00452729520163783,-6.72582341266818
exact,pre_advance,DELTA_SA,no_revision,bridge,2019:Q3,0.03613660574387857,-6.689686806924301
exact,pre_advance,DELTA_SA,no_revision,bridge,2019:Q4,-0.06731099954726309,-6.7569978064715635
exact,pre_advance,DELTA_SA,no_revision,bridge,2020:Q1,0.0006398140758081539,-6.756357992395755
exact,pre_advance,DELTA_SA,no_revision,bridge,2020:Q2,-2.609151252294258,-9.365509244690013
exact,pre_advance,DELTA_SA,no_revision,bridge,2020:Q3,-5.185446373028756,-14.55095561771877
exact,pre_advance,DELTA_SA,no_revision,bridge,2020:Q4,0.0005276107390580565,-14.550428006979713
exact,pre_advance,DELTA_SA,no_revision,bridge,2021:Q1,-0.023844432230076665,-14.574272439209789
exact,pre_advance,DELTA_SA,no_revision,bridge,2021:Q2,-0.04144876016875534,-14.615721199378545
exact,pre_advance,DELTA_SA,no_revision,bridge,2021:Q3,0.007579934344672388,-14.608141265033872
exact,pre_advance,DELTA_SA,no_revision,bridge,2021:Q4,0.0077466082094004565,-14.600394656824472
exact,pre_advance,DELTA_SA,no_revision,bridge,2022:Q1,-0.08791868219042262,-14.688313339014895
exact,pre_advance,DELTA_SA,no_revision,bridge,2022:Q2,6.44424469267435e-05,-14.688248896567968
exact,pre_advance,DELTA_SA,no_revision,bridge,2022:Q3,0.048020326210005626,-14.640228570357962
exact,pre_advance,DELTA_SA,no_revision,bridge,2022:Q4,-0.1326408589973449,-14.772869429355307
exact,pre_advance,DELTA_SA,no_revision,bridge,2023:Q1,0.030130959156365315,-14.742738470198942
exact,pre_advance,DELTA_SA,no_revision,bridge,2023:Q2,-0.27456811467170683,-15.01730658487065
exact,pre_advance,DELTA_SA,no_revision,bridge,2023:Q3,0.0028127103554890787,-15.01449387451516
exact,pre_advance,DELTA_SA,no_revision,bridge,2023:Q4,-0.09179889922938775,-15.10629277374455
exact,pre_advance,DELTA_SA,no_revision,bridge,2024:Q1,0.011523780206794065,-15.094768993537755
exact,pre_advance,DELTA_SA,no_revision,bridge,2024:Q2,-0.031865927631838604,-15.126634921169593
exact,pre_advance,DELTA_SA,no_revision,bridge,2024:Q3,-0.005197255911791921,-15.131832177081385
exact,pre_advance,DELTA_SA,no_revision,bridge,2024:Q4,0.00864511267492932,-15.123187064406457
exact,pre_advance,DELTA_SA,no_revision,indicator_revision_only_dfm_kalman_em,2005:Q1,0.0,0.0
exact,pre_advance,DELTA_SA,no_revision,indicator_revision_only_dfm_kalman_em,2005:Q2,0.0,0.0
exact,pre_advance,DELTA_SA,no_revision,indicator_revision_only_dfm_kalman_em,2005:Q3,0.0,0.0
exact,pre_advance,DELTA_SA,no_revision,indicator_revision_only_dfm_kalman_em,2005:Q4,0.0,0.0
exact,pre_advance,DELTA_SA,no_revision,indicator_revision_only_dfm_kalman_em,2006:Q1,0.0,0.0
exact,pre_advance,DELTA_SA,no_revision,indicator_revision_only_dfm_kalman_em,2006:Q2,0.0,0.0
exact,pre_advance,DELTA_SA,no_revision,indicator_revision_only_dfm_kalman_em,2006:Q3,0.0,0.0
exact,pre_advance,DELTA_SA,no_revision,indicator_revision_only_dfm_kalman_em,2006:Q4,0.0,0.0
exact,pre_advance,DELTA_SA,no_revision,indicator_revision_only_dfm_kalman_em,2007:Q1,0.0,0.0
exact,pre_advance,DELTA_SA,no_revision,indicator_revision_only_dfm_kalman_em,2007:Q2,0.0,0.0
exact,pre_advance,DELTA_SA,no_revision,indicator_revision_only_dfm_kalman_em,2007:Q3,0.0,0.0
exact,pre_advance,DELTA_SA,no_revision,indicator_revision_only_dfm_kalman_em,2007:Q4,0.0,0.0
exact,pre_advance,DELTA_SA,no_revision,indicator_revision_only_dfm_kalman_em,2008:Q1,0.0,0.0
exact,pre_advance,DELTA_SA,no_revision,indicator_revision_only_dfm_kalman_em,2008:Q2,0.0,0.0
exact,pre_advance,DELTA_SA,no_revision,indicator_revision_only_dfm_kalman_em,2008:Q3,0.0,0.0
exact,pre_advance,DELTA_SA,no_revision,indicator_revision_only_dfm_kalman_em,2008:Q4,0.0,0.0
exact,pre_advance,DELTA_SA,no_revision,indicator_revision_only_dfm_kalman_em,2009:Q1,0.0,0.0
exact,pre_advance,DELTA_SA,no_revision,indicator_revision_only_dfm_kalman_em,2009:Q2,0.0,0.0
exact,pre_advance,DELTA_SA,no_revision,indicator_revision_only_dfm_kalman_em,2009:Q3,0.0,0.0
exact,pre_advance,DELTA_SA,no_revision,indicator_revision_only_dfm_kalman_em,2009:Q4,0.0,0.0
exact,pre_advance,DELTA_SA,no_revision,indicator_revision_only_dfm_kalman_em,2010:Q1,0.0,0.0
exact,pre_advance,DELTA_SA,no_revision,indicator_revision_only_dfm_kalman_em,2010:Q2,0.0,0.0
exact,pre_advance,DELTA_SA,no_revision,indicator_revision_only_dfm_kalman_em,2010:Q3,0.0,0.0
exact,pre_advance,DELTA_SA,no_revision,indicator_revision_only_dfm_kalman_em,2010:Q4,0.0,0.0
exact,pre_advance,DELTA_SA,no_revision,indicator_revision_only_dfm_kalman_em,2011:Q1,0.0,0.0
exact,pre_advance,DELTA_SA,no_revision,indicator_revision_only_dfm_kalman_em,2011:Q2,0.0,0.0
exact,pre_advance,DELTA_SA,no_revision,indicator_revision_only_dfm_kalman_em,2011:Q3,0.0,0.0
exact,pre_advance,DELTA_SA,no_revision,indicator_revision_only_dfm_kalman_em,2011:Q4,0.0,0.0
exact,pre_advance,DELTA_SA,no_revision,indicator_revision_only_dfm_kalman_em,2012:Q1,0.0,0.0
exact,pre_advance,DELTA_SA,no_revision,indicator_revision_only_dfm_kalman_em,2012:Q2,0.0,0.0
exact,pre_advance,DELTA_SA,no_revision,indicator_revision_only_dfm_kalman_em,2012:Q3,0.0,0.0
exact,pre_advance,DELTA_SA,no_revision,indicator_revision_only_dfm_kalman_em,2012:Q4,0.0,0.0
exact,pre_advance,DELTA_SA,no_revision,indicator_revision_only_dfm_kalman_em,2013:Q1,0.0,0.0
exact,pre_advance,DELTA_SA,no_revision,indicator_revision_only_dfm_kalman_em,2013:Q2,0.0,0.0
exact,pre_advance,DELTA_SA,no_revision,indicator_revision_only_dfm_kalman_em,2013:Q3,0.0,0.0
exact,pre_advance,DELTA_SA,no_revision,indicator_revision_only_dfm_kalman_em,2013:Q4,0.0,0.0
exact,pre_advance,DELTA_SA,no_revision,indicator_revision_only_dfm_kalman_em,2014:Q1,0.0,0.0
exact,pre_advance,DELTA_SA,no_revision,indicator_revision_only_dfm_kalman_em,2014:Q2,0.0,0.0
exact,pre_advance,DELTA_SA,no_revision,indicator_revision_only_dfm_kalman_em,2014:Q3,0.0,0.0
exact,pre_advance,DELTA_SA,no_revision,indicator_revision_only_dfm_kalman_em,2014:Q4,0.0,0.0
exact,pre_advance,DELTA_SA,no_revision,indicator_revision_only_dfm_kalman_em,2015:Q1,0.0,0.0
exact,pre_advance,DELTA_SA,no_revision,indicator_revision_only_dfm_kalman_em,2015:Q2,0.0,0.0
exact,pre_advance,DELTA_SA,no_revision,indicator_revision_only_dfm_kalman_em,2015:Q3,0.0,0.0
exact,pre_advance,DELTA_SA,no_revision,indicator_revision_only_dfm_kalman_em,2015:Q4,0.0,0.0
exact,pre_advance,DELTA_SA,no_revision,indicator_revision_only_dfm_kalman_em,2016:Q1,0.0,0.0
exact,pre_advance,DELTA_SA,no_revision,indicator_revision_only_dfm_kalman_em,2016:Q2,0.0,0.0
exact,pre_advance,DELTA_SA,no_revision,indicator_revision_only_dfm_kalman_em,2016:Q3,0.0,0.0
exact,pre_advance,DELTA_SA,no_revision,indicator_revision_only_dfm_kalman_em,2016:Q4,0.0,0.0
exact,pre_advance,DELTA_SA,no_revision,indicator_revision_only_dfm_kalman_em,2017:Q1,0.0,0.0
exact,pre_advance,DELTA_SA,no_revision,indicator_revision_only_dfm_kalman_em,2017:Q2,0.0,0.0
exact,pre_advance,DELTA_SA,no_revision,indicator_revision_only_dfm_kalman_em,2017:Q3,0.0,0.0
exact,pre_advance,DELTA_SA,no_revision,indicator_revision_only_dfm_kalman_em,2017:Q4,0.0,0.0
exact,pre_advance,DELTA_SA,no_revision,indicator_revision_only_dfm_kalman_em,2018:Q1,0.0,0.0
exact,pre_advance,DELTA_SA,no_revision,indicator_revision_only_dfm_kalman_em,2018:Q2,0.0,0.0
exact,pre_advance,DELTA_SA,no_revision,indicator_revision_only_dfm_kalman_em,2018:Q3,0.0,0.0
exact,pre_advance,DELTA_SA,no_revision,indicator_revision_only_dfm_kalman_em,2019:Q1,0.0,0.0
exact,pre_advance,DELTA_SA,no_revision,indicator_revision_only_dfm_kalman_em,2019:Q2,0.0,0.0
exact,pre_advance,DELTA_SA,no_revision,indicator_revision_only_dfm_kalman_em,2019:Q3,0.0,0.0
exact,pre_advance,DELTA_SA,no_revision,indicator_revision_only_dfm_kalman_em,2019:Q4,0.0,0.0
exact,pre_advance,DELTA_SA,no_revision,indicator_revision_only_dfm_kalman_em,2020:Q1,0.0,0.0
exact,pre_advance,DELTA_SA,no_revision,indicator_revision_only_dfm_kalman_em,2020:Q2,0.0,0.0
exact,pre_advance,DELTA_SA,no_revision,indicator_revision_only_dfm_kalman_em,2020:Q3,0.0,0.0
exact,pre_advance,DELTA_SA,no_revision,indicator_revision_only_dfm_kalman_em,2020:Q4,0.0,0.0
exact,pre_advance,DELTA_SA,no_revision,indicator_revision_only_dfm_kalman_em,2021:Q1,0.0,0.0
exact,pre_advance,DELTA_SA,no_revision,indicator_revision_only_dfm_kalman_em,2021:Q2,0.0,0.0
exact,pre_advance,DELTA_SA,no_revision,indicator_revision_only_dfm_kalman_em,2021:Q3,0.0,0.0
exact,pre_advance,DELTA_SA,no_revision,indicator_revision_only_dfm_kalman_em,2021:Q4,0.0,0.0
exact,pre_advance,DELTA_SA,no_revision,indicator_revision_only_dfm_kalman_em,2022:Q1,0.0,0.0
exact,pre_advance,DELTA_SA,no_revision,indicator_revision_only_dfm_kalman_em,2022:Q2,0.0,0.0
exact,pre_advance,DELTA_SA,no_revision,indicator_revision_only_dfm_kalman_em,2022:Q3,0.0,0.0
exact,pre_advance,DELTA_SA,no_revision,indicator_revision_only_dfm_kalman_em,2022:Q4,0.0,0.0
exact,pre_advance,DELTA_SA,no_revision,indicator_revision_only_dfm_kalman_em,2023:Q1,0.0,0.0
exact,pre_advance,DELTA_SA,no_revision,indicator_revision_only_dfm_kalman_em,2023:Q2,0.0,0.0
exact,pre_advance,DELTA_SA,no_revision,indicator_revision_only_dfm_kalman_em,2023:Q3,0.0,0.0
exact,pre_advance,DELTA_SA,no_revision,indicator_revision_only_dfm_kalman_em,2023:Q4,0.0,0.0
exact,pre_advance,DELTA_SA,no_revision,indicator_revision_only_dfm_kalman_em,2024:Q1,0.0,0.0
exact,pre_advance,DELTA_SA,no_revision,indicator_revision_only_dfm_kalman_em,2024:Q2,0.0,0.0
exact,pre_advance,DELTA_SA,no_revision,indicator_revision_only_dfm_kalman_em,2024:Q3,0.0,0.0
exact,pre_advance,DELTA_SA,no_revision,indicator_revision_only_dfm_kalman_em,2024:Q4,0.0,0.0
exact,pre_advance,DELTA_SA,no_revision,joint_indicator_revision_dfm_full_kalman_em,2005:Q1,0.11339803585384703,0.11339803585384703
exact,pre_advance,DELTA_SA,no_revision,joint_indicator_revision_dfm_full_kalman_em,2005:Q2,-0.10467503708514823,0.008722998768698795
exact,pre_advance,DELTA_SA,no_revision,joint_indicator_revision_dfm_full_kalman_em,2005:Q3,0.2138370787061739,0.22256007747487272
exact,pre_advance,DELTA_SA,no_revision,joint_indicator_revision_dfm_full_kalman_em,2005:Q4,0.21131530054703104,0.4338753780219038
exact,pre_advance,DELTA_SA,no_revision,joint_indicator_revision_dfm_full_kalman_em,2006:Q1,0.2348710382266803,0.6687464162485841
exact,pre_advance,DELTA_SA,no_revision,joint_indicator_revision_dfm_full_kalman_em,2006:Q2,0.17124690623170144,0.8399933224802856
exact,pre_advance,DELTA_SA,no_revision,joint_indicator_revision_dfm_full_kalman_em,2006:Q3,0.2753686578465144,1.1153619803268
exact,pre_advance,DELTA_SA,no_revision,joint_indicator_revision_dfm_full_kalman_em,2006:Q4,0.6539341641963378,1.7692961445231377
