haminh109/Revision-Aware-DFM/outputs/full_state_space_release_revision_dfm/exact_pseudo_backtest_mature_1y_max_iter100_journal_evidence/common_sample_spf_revision.csv
timing_mode,checkpoint_id,outcome_id,anchor_model,model_id,n_common_forecasts,RMSE,MAE,bias,first_target_quarter,last_target_quarter
exact,pre_advance,DELTA_SA,spf,ar,79,0.6781421206748106,0.46824945973191356,0.08303638739458122,2005:Q1,2024:Q4
exact,pre_advance,DELTA_SA,spf,bridge,79,0.7182954588874345,0.4981139843812445,-8.351340754923535e-05,2005:Q1,2024:Q4
exact,pre_advance,DELTA_SA,spf,indicator_revision_only_dfm_kalman_em,79,0.5696627235545563,0.3997025316455695,-0.0657987341772152,2005:Q1,2024:Q4
exact,pre_advance,DELTA_SA,spf,joint_indicator_revision_dfm_full_kalman_em,79,0.6426043500092059,0.4681145142288507,0.07345511478537675,2005:Q1,2024:Q4
exact,pre_advance,DELTA_SA,spf,midas_umidas,79,13.866667467379607,7.93109405552623,0.9838526443098989,2005:Q1,2024:Q4
exact,pre_advance,DELTA_SA,spf,monthly_mixed_frequency_kalman_em,79,0.5650492032192114,0.4009383312878266,0.025792380826566208,2005:Q1,2024:Q4
exact,pre_advance,DELTA_SA,spf,no_revision,79,0.5696627235545563,0.3997025316455695,-0.0657987341772152,2005:Q1,2024:Q4
exact,pre_advance,DELTA_SA,spf,release_dfm,79,0.6416466896223114,0.4275288832410043,-0.008320378652386377,2005:Q1,2024:Q4
exact,pre_advance,DELTA_SA,spf,revision_dfm_kalman_em,79,0.6473826242073621,0.45159914795640543,0.08236044101600976,2005:Q1,2024:Q4
exact,pre_advance,DELTA_SA,spf,spf,79,0.5696627235545563,0.3997025316455695,-0.0657987341772152,2005:Q1,2024:Q4
exact,pre_advance,DELTA_SA,spf,standard_dfm,79,0.6416466896223114,0.4275288832410043,-0.008320378652386377,2005:Q1,2024:Q4
exact,pre_second,DELTA_TS,spf,ar,79,0.40791620019200964,0.25997098556715326,0.01637946087350748,2005:Q1,2024:Q4
exact,pre_second,DELTA_TS,spf,bridge,79,0.4916791866250371,0.359095735161813,0.019267297869615323,2005:Q1,2024:Q4
exact,pre_second,DELTA_TS,spf,indicator_revision_only_dfm_kalman_em,79,0.3613823734957444,0.23798607594936708,-0.05443417721518987,2005:Q1,2024:Q4
exact,pre_second,DELTA_TS,spf,joint_indicator_revision_dfm_full_kalman_em,79,0.3620951280105257,0.2391262493352928,-0.0509898763116084,2005:Q1,2024:Q4
exact,pre_second,DELTA_TS,spf,midas_umidas,79,3.1241130194946414,1.247401789736979,0.001797142332922886,2005:Q1,2024:Q4
exact,pre_second,DELTA_TS,spf,monthly_mixed_frequency_kalman_em,79,0.37888443888838835,0.26408054145411136,-0.01742687247465558,2005:Q1,2024:Q4
exact,pre_second,DELTA_TS,spf,no_revision,79,0.3613823734957444,0.23798607594936708,-0.05443417721518987,2005:Q1,2024:Q4
exact,pre_second,DELTA_TS,spf,release_dfm,79,0.3637919631069554,0.24234425732737855,-0.02082413871757817,2005:Q1,2024:Q4
exact,pre_second,DELTA_TS,spf,revision_dfm_kalman_em,79,0.3613388505314377,0.23804697938860062,-0.05051730362535568,2005:Q1,2024:Q4
exact,pre_second,DELTA_TS,spf,spf,79,0.3613823734957444,0.23798607594936708,-0.05443417721518987,2005:Q1,2024:Q4
exact,pre_second,DELTA_TS,spf,standard_dfm,79,0.3671373475049814,0.24650353001034273,0.0022413024488946746,2005:Q1,2024:Q4
exact,pre_third,DELTA_MT,spf,ar,80,3.8893401754701458,1.714783722642571,0.47868059407946834,2005:Q1,2024:Q4
exact,pre_third,DELTA_MT,spf,bridge,80,2.1290652600630544,1.3161581898563912,-0.4871282937401829,2005:Q1,2024:Q4
exact,pre_third,DELTA_MT,spf,indicator_revision_only_dfm_kalman_em,80,1.0016142136324435,0.46983226112207344,0.2932787972804197,2005:Q1,2024:Q4
exact,pre_third,DELTA_MT,spf,joint_indicator_revision_dfm_full_kalman_em,80,1.0044772523953431,0.47318790702968094,0.29498001196009743,2005:Q1,2024:Q4
exact,pre_third,DELTA_MT,spf,midas_umidas,80,8.189349081226077,4.3526101793359455,0.5980009767134981,2005:Q1,2024:Q4
exact,pre_third,DELTA_MT,spf,monthly_mixed_frequency_kalman_em,80,1.0279308433696417,0.5290121073426975,0.3213927620421635,2005:Q1,2024:Q4
exact,pre_third,DELTA_MT,spf,no_revision,80,1.0016142136324435,0.46983226112207344,0.2932787972804197,2005:Q1,2024:Q4
exact,pre_third,DELTA_MT,spf,release_dfm,80,1.1538502570072733,0.6448737143723886,0.5412511350814385,2005:Q1,2024:Q4
exact,pre_third,DELTA_MT,spf,revision_dfm_kalman_em,80,1.003598672838071,0.4729442363221211,0.2950236592110267,2005:Q1,2024:Q4
exact,pre_third,DELTA_MT,spf,spf,80,1.0016142136324435,0.46983226112207344,0.2932787972804197,2005:Q1,2024:Q4
exact,pre_third,DELTA_MT,spf,standard_dfm,80,1.1152914893484263,0.6783657351423924,0.35445869894013643,2005:Q1,2024:Q4
pseudo,pre_advance,DELTA_SA,spf,ar,79,0.6781421206748106,0.46824945973191356,0.08303638739458122,2005:Q1,2024:Q4
pseudo,pre_advance,DELTA_SA,spf,bridge,79,0.7221269467369036,0.4993623149432482,0.0016771364521283153,2005:Q1,2024:Q4
pseudo,pre_advance,DELTA_SA,spf,indicator_revision_only_dfm_kalman_em,79,0.5696627235545563,0.3997025316455695,-0.0657987341772152,2005:Q1,2024:Q4
pseudo,pre_advance,DELTA_SA,spf,joint_indicator_revision_dfm_full_kalman_em,79,0.6437408282791267,0.46885512601668294,0.07459832439072138,2005:Q1,2024:Q4
pseudo,pre_advance,DELTA_SA,spf,midas_umidas,79,13.497152970832797,7.690336465637355,1.185262584138088,2005:Q1,2024:Q4
pseudo,pre_advance,DELTA_SA,spf,monthly_mixed_frequency_kalman_em,79,0.5647636789458012,0.40027724164356715,0.02594781130569006,2005:Q1,2024:Q4
pseudo,pre_advance,DELTA_SA,spf,no_revision,79,0.5696627235545563,0.3997025316455695,-0.0657987341772152,2005:Q1,2024:Q4
pseudo,pre_advance,DELTA_SA,spf,release_dfm,79,0.6405783165541686,0.42694074858486164,-0.007591496798546737,2005:Q1,2024:Q4
pseudo,pre_advance,DELTA_SA,spf,revision_dfm_kalman_em,79,0.6466951906420488,0.4512307938536128,0.08260779926688872,2005:Q1,2024:Q4
pseudo,pre_advance,DELTA_SA,spf,spf,79,0.5696627235545563,0.3997025316455695,-0.0657987341772152,2005:Q1,2024:Q4
pseudo,pre_advance,DELTA_SA,spf,standard_dfm,79,0.6405783165541686,0.42694074858486164,-0.007591496798546737,2005:Q1,2024:Q4
pseudo,pre_second,DELTA_TS,spf,ar,79,0.40791620019200964,0.25997098556715326,0.01637946087350748,2005:Q1,2024:Q4
pseudo,pre_second,DELTA_TS,spf,bridge,79,0.49234421429461056,0.35853674599857777,0.01917357290552322,2005:Q1,2024:Q4
pseudo,pre_second,DELTA_TS,spf,indicator_revision_only_dfm_kalman_em,79,0.3613823734957444,0.23798607594936708,-0.05443417721518987,2005:Q1,2024:Q4
pseudo,pre_second,DELTA_TS,spf,joint_indicator_revision_dfm_full_kalman_em,79,0.3620170766891085,0.2390797370388805,-0.051007319001450516,2005:Q1,2024:Q4
pseudo,pre_second,DELTA_TS,spf,midas_umidas,79,3.1241983182834105,1.2521986485220304,-0.007509226910357088,2005:Q1,2024:Q4
pseudo,pre_second,DELTA_TS,spf,monthly_mixed_frequency_kalman_em,79,0.3783291070220044,0.2635731709029673,-0.018357082336301768,2005:Q1,2024:Q4
pseudo,pre_second,DELTA_TS,spf,no_revision,79,0.3613823734957444,0.23798607594936708,-0.05443417721518987,2005:Q1,2024:Q4
pseudo,pre_second,DELTA_TS,spf,release_dfm,79,0.3638289418724508,0.24238972923091182,-0.020815017902629223,2005:Q1,2024:Q4
pseudo,pre_second,DELTA_TS,spf,revision_dfm_kalman_em,79,0.3613356334874492,0.23801761690546983,-0.05054515557858675,2005:Q1,2024:Q4
pseudo,pre_second,DELTA_TS,spf,spf,79,0.3613823734957444,0.23798607594936708,-0.05443417721518987,2005:Q1,2024:Q4
pseudo,pre_second,DELTA_TS,spf,standard_dfm,79,0.3671091037446861,0.246532087289017,0.0022361354685869537,2005:Q1,2024:Q4
pseudo,pre_third,DELTA_MT,spf,ar,80,3.8893401754701458,1.714783722642571,0.47868059407946834,2005:Q1,2024:Q4
pseudo,pre_third,DELTA_MT,spf,bridge,80,2.1299563533049155,1.315261030717956,-0.4859255217681401,2005:Q1,2024:Q4
pseudo,pre_third,DELTA_MT,spf,indicator_revision_only_dfm_kalman_em,80,1.0016142136324435,0.46983226112207344,0.2932787972804197,2005:Q1,2024:Q4
pseudo,pre_third,DELTA_MT,spf,joint_indicator_revision_dfm_full_kalman_em,80,1.004476215195691,0.4731848551167824,0.2949779774328479,2005:Q1,2024:Q4
pseudo,pre_third,DELTA_MT,spf,midas_umidas,80,8.185354586560583,4.3337375018477475,0.5811107769073252,2005:Q1,2024:Q4
pseudo,pre_third,DELTA_MT,spf,monthly_mixed_frequency_kalman_em,80,1.0278433090652688,0.5287924633557807,0.32214825625683163,2005:Q1,2024:Q4
pseudo,pre_third,DELTA_MT,spf,no_revision,80,1.0016142136324435,0.46983226112207344,0.2932787972804197,2005:Q1,2024:Q4
pseudo,pre_third,DELTA_MT,spf,release_dfm,80,1.1535986114275298,0.64464689441478,0.5412975765646282,2005:Q1,2024:Q4
pseudo,pre_third,DELTA_MT,spf,revision_dfm_kalman_em,80,1.0036031459466677,0.4729496765034441,0.29501965937070124,2005:Q1,2024:Q4
pseudo,pre_third,DELTA_MT,spf,spf,80,1.0016142136324435,0.46983226112207344,0.2932787972804197,2005:Q1,2024:Q4
pseudo,pre_third,DELTA_MT,spf,standard_dfm,80,1.1144400093532312,0.6765622800720156,0.3539815506441414,2005:Q1,2024:Q4
