haminh109/Revision-Aware-DFM/outputs/full_state_space_release_revision_dfm/exact_pseudo_backtest_mature_1y_max_iter100_journal_evidence/cumulative_loss_revision.csv
timing_mode,checkpoint_id,outcome_id,baseline_model,model_id,target_quarter,loss_diff_baseline_minus_model,cumulative_loss_diff
exact,pre_advance,DELTA_SA,ar,bridge,2005:Q1,-0.013846057404504467,-0.013846057404504467
exact,pre_advance,DELTA_SA,ar,bridge,2005:Q2,-0.0016502791972834857,-0.015496336601787952
exact,pre_advance,DELTA_SA,ar,bridge,2005:Q3,-0.11888984019706639,-0.13438617679885434
exact,pre_advance,DELTA_SA,ar,bridge,2005:Q4,-0.0033836766731660667,-0.13776985347202042
exact,pre_advance,DELTA_SA,ar,bridge,2006:Q1,-0.04844188468453305,-0.18621173815655348
exact,pre_advance,DELTA_SA,ar,bridge,2006:Q2,-0.1371256323997568,-0.3233373705563103
exact,pre_advance,DELTA_SA,ar,bridge,2006:Q3,-0.06429144563741201,-0.3876288161937223
exact,pre_advance,DELTA_SA,ar,bridge,2006:Q4,0.34557919085510314,-0.04204962533861917
exact,pre_advance,DELTA_SA,ar,bridge,2007:Q1,-0.007824031136799381,-0.04987365647541855
exact,pre_advance,DELTA_SA,ar,bridge,2007:Q2,0.06896631884463494,0.019092662369216397
exact,pre_advance,DELTA_SA,ar,bridge,2007:Q3,0.059803740894770696,0.07889640326398709
exact,pre_advance,DELTA_SA,ar,bridge,2007:Q4,-0.012197856569414689,0.0666985466945724
exact,pre_advance,DELTA_SA,ar,bridge,2008:Q1,-0.004344598103960942,0.062353948590611455
exact,pre_advance,DELTA_SA,ar,bridge,2008:Q2,-0.574407111363402,-0.5120531627727904
exact,pre_advance,DELTA_SA,ar,bridge,2008:Q3,0.6190200450590351,0.10696688228624462
exact,pre_advance,DELTA_SA,ar,bridge,2008:Q4,3.9506126973357483,4.057579579621993
exact,pre_advance,DELTA_SA,ar,bridge,2009:Q1,-6.0988802018433,-2.041300622221307
exact,pre_advance,DELTA_SA,ar,bridge,2009:Q2,0.1268137068232697,-1.9144869153980373
exact,pre_advance,DELTA_SA,ar,bridge,2009:Q3,-0.06823089199505694,-1.9827178073930942
exact,pre_advance,DELTA_SA,ar,bridge,2009:Q4,-0.034868451184789206,-2.017586258577883
exact,pre_advance,DELTA_SA,ar,bridge,2010:Q1,-0.0886727021965403,-2.1062589607744235
exact,pre_advance,DELTA_SA,ar,bridge,2010:Q2,-0.09358245387922659,-2.1998414146536502
exact,pre_advance,DELTA_SA,ar,bridge,2010:Q3,0.0949221697737268,-2.104919244879923
exact,pre_advance,DELTA_SA,ar,bridge,2010:Q4,-0.5663990366542817,-2.671318281534205
exact,pre_advance,DELTA_SA,ar,bridge,2011:Q1,0.006841226592887183,-2.664477054941318
exact,pre_advance,DELTA_SA,ar,bridge,2011:Q2,-0.10501821756764976,-2.769495272508968
exact,pre_advance,DELTA_SA,ar,bridge,2011:Q3,-0.12148482455549353,-2.8909800970644612
exact,pre_advance,DELTA_SA,ar,bridge,2011:Q4,0.0628784200154297,-2.8281016770490317
exact,pre_advance,DELTA_SA,ar,bridge,2012:Q1,-0.035887713043292774,-2.8639893900923243
exact,pre_advance,DELTA_SA,ar,bridge,2012:Q2,-0.048823982105551195,-2.9128133721978755
exact,pre_advance,DELTA_SA,ar,bridge,2012:Q3,0.007775069522669126,-2.9050383026752065
exact,pre_advance,DELTA_SA,ar,bridge,2012:Q4,0.004271385099178611,-2.900766917576028
exact,pre_advance,DELTA_SA,ar,bridge,2013:Q1,0.08666220076802922,-2.8141047168079987
exact,pre_advance,DELTA_SA,ar,bridge,2013:Q2,0.025496976212487366,-2.7886077405955114
exact,pre_advance,DELTA_SA,ar,bridge,2013:Q3,-0.06520892381398495,-2.8538166644094964
exact,pre_advance,DELTA_SA,ar,bridge,2013:Q4,-0.4483601219941036,-3.3021767864036002
exact,pre_advance,DELTA_SA,ar,bridge,2014:Q1,0.08408982928438968,-3.2180869571192106
exact,pre_advance,DELTA_SA,ar,bridge,2014:Q2,0.1627494765353877,-3.0553374805838227
exact,pre_advance,DELTA_SA,ar,bridge,2014:Q3,0.02095518071252716,-3.0343822998712957
exact,pre_advance,DELTA_SA,ar,bridge,2014:Q4,0.04340036392903157,-2.9909819359422642
exact,pre_advance,DELTA_SA,ar,bridge,2015:Q1,0.09722612747043735,-2.893755808471827
exact,pre_advance,DELTA_SA,ar,bridge,2015:Q2,0.5270016182401931,-2.366754190231634
exact,pre_advance,DELTA_SA,ar,bridge,2015:Q3,0.00641361838518265,-2.360340571846451
exact,pre_advance,DELTA_SA,ar,bridge,2015:Q4,0.0004635473514232574,-2.359877024495028
exact,pre_advance,DELTA_SA,ar,bridge,2016:Q1,-0.02869336754687048,-2.388570392041898
exact,pre_advance,DELTA_SA,ar,bridge,2016:Q2,-0.006980417169187014,-2.3955508092110853
exact,pre_advance,DELTA_SA,ar,bridge,2016:Q3,0.008611368466015026,-2.38693944074507
exact,pre_advance,DELTA_SA,ar,bridge,2016:Q4,-0.0009847649917325008,-2.3879242057368026
exact,pre_advance,DELTA_SA,ar,bridge,2017:Q1,0.006128595802208259,-2.3817956099345943
exact,pre_advance,DELTA_SA,ar,bridge,2017:Q2,-0.02510746702309855,-2.406903076957693
exact,pre_advance,DELTA_SA,ar,bridge,2017:Q3,0.0015224765331057744,-2.405380600424587
exact,pre_advance,DELTA_SA,ar,bridge,2017:Q4,-0.012532396692822412,-2.4179129971174094
exact,pre_advance,DELTA_SA,ar,bridge,2018:Q1,-0.001025526276306192,-2.4189385233937157
exact,pre_advance,DELTA_SA,ar,bridge,2018:Q2,0.02459572516719082,-2.394342798226525
exact,pre_advance,DELTA_SA,ar,bridge,2018:Q3,-0.0028625928778965534,-2.3972053911044213
exact,pre_advance,DELTA_SA,ar,bridge,2019:Q1,-0.3022766661113528,-2.699482057215774
exact,pre_advance,DELTA_SA,ar,bridge,2019:Q2,-0.004735905859539644,-2.7042179630753136
exact,pre_advance,DELTA_SA,ar,bridge,2019:Q3,0.015341164816805796,-2.688876798258508
exact,pre_advance,DELTA_SA,ar,bridge,2019:Q4,-0.044503658959924405,-2.7333804572184324
exact,pre_advance,DELTA_SA,ar,bridge,2020:Q1,0.044386080987889376,-2.688994376230543
exact,pre_advance,DELTA_SA,ar,bridge,2020:Q2,-3.0940398410540673,-5.7830342172846105
exact,pre_advance,DELTA_SA,ar,bridge,2020:Q3,1.4176473053505392,-4.365386911934071
exact,pre_advance,DELTA_SA,ar,bridge,2020:Q4,0.3499640349292389,-4.015422877004832
exact,pre_advance,DELTA_SA,ar,bridge,2021:Q1,-0.013363060193281033,-4.028785937198113
exact,pre_advance,DELTA_SA,ar,bridge,2021:Q2,-0.03577411651444864,-4.064560053712562
exact,pre_advance,DELTA_SA,ar,bridge,2021:Q3,0.0032954658604867817,-4.061264587852075
exact,pre_advance,DELTA_SA,ar,bridge,2021:Q4,-0.001890367406223347,-4.063154955258298
exact,pre_advance,DELTA_SA,ar,bridge,2022:Q1,-0.034155159355693535,-4.097310114613991
exact,pre_advance,DELTA_SA,ar,bridge,2022:Q2,-0.017409303051805713,-4.114719417665797
exact,pre_advance,DELTA_SA,ar,bridge,2022:Q3,0.009108149975887866,-4.105611267689909
exact,pre_advance,DELTA_SA,ar,bridge,2022:Q4,-0.07401877594323583,-4.179630043633145
exact,pre_advance,DELTA_SA,ar,bridge,2023:Q1,0.002725620713285002,-4.1769044229198595
exact,pre_advance,DELTA_SA,ar,bridge,2023:Q2,-0.21283992077671957,-4.389744343696579
exact,pre_advance,DELTA_SA,ar,bridge,2023:Q3,-0.02913487901324642,-4.418879222709825
exact,pre_advance,DELTA_SA,ar,bridge,2023:Q4,-0.05489730055734936,-4.4737765232671745
exact,pre_advance,DELTA_SA,ar,bridge,2024:Q1,0.08308195917709739,-4.390694564090077
exact,pre_advance,DELTA_SA,ar,bridge,2024:Q2,-0.04089950912320364,-4.43159407321328
exact,pre_advance,DELTA_SA,ar,bridge,2024:Q3,0.002078917593568988,-4.429515155619711
exact,pre_advance,DELTA_SA,ar,bridge,2024:Q4,-0.00014364795373976344,-4.429658803573451
exact,pre_advance,DELTA_SA,ar,indicator_revision_only_dfm_kalman_em,2005:Q1,-0.15257503321613658,-0.15257503321613658
exact,pre_advance,DELTA_SA,ar,indicator_revision_only_dfm_kalman_em,2005:Q2,0.10304262774761302,-0.049532405468523555
exact,pre_advance,DELTA_SA,ar,indicator_revision_only_dfm_kalman_em,2005:Q3,0.03151683579611303,-0.018015569672410525
exact,pre_advance,DELTA_SA,ar,indicator_revision_only_dfm_kalman_em,2005:Q4,-0.17958946757420496,-0.1976050372466155
exact,pre_advance,DELTA_SA,ar,indicator_revision_only_dfm_kalman_em,2006:Q1,-0.22225097588053042,-0.41985601312714593
exact,pre_advance,DELTA_SA,ar,indicator_revision_only_dfm_kalman_em,2006:Q2,-0.1338214718146227,-0.5536774849417686
exact,pre_advance,DELTA_SA,ar,indicator_revision_only_dfm_kalman_em,2006:Q3,-0.2655324769569707,-0.8192099618987393
exact,pre_advance,DELTA_SA,ar,indicator_revision_only_dfm_kalman_em,2006:Q4,1.1280810824986391,0.30887112059989985
exact,pre_advance,DELTA_SA,ar,indicator_revision_only_dfm_kalman_em,2007:Q1,-0.36488258133290913,-0.05601146073300928
exact,pre_advance,DELTA_SA,ar,indicator_revision_only_dfm_kalman_em,2007:Q2,0.2101220628635298,0.15411060213052052
exact,pre_advance,DELTA_SA,ar,indicator_revision_only_dfm_kalman_em,2007:Q3,-0.5038879623481906,-0.34977736021767003
exact,pre_advance,DELTA_SA,ar,indicator_revision_only_dfm_kalman_em,2007:Q4,0.23194641324995732,-0.11783094696771271
exact,pre_advance,DELTA_SA,ar,indicator_revision_only_dfm_kalman_em,2008:Q1,-0.06565748592115798,-0.18348843288887068
exact,pre_advance,DELTA_SA,ar,indicator_revision_only_dfm_kalman_em,2008:Q2,-0.7051418869943866,-0.8886303198832572
exact,pre_advance,DELTA_SA,ar,indicator_revision_only_dfm_kalman_em,2008:Q3,0.8839041046210189,-0.004726215262238376
exact,pre_advance,DELTA_SA,ar,indicator_revision_only_dfm_kalman_em,2008:Q4,0.39399862829546173,0.38927241303322335
exact,pre_advance,DELTA_SA,ar,indicator_revision_only_dfm_kalman_em,2009:Q1,1.3203689037955737,1.709641316828797
exact,pre_advance,DELTA_SA,ar,indicator_revision_only_dfm_kalman_em,2009:Q2,0.36877932291984866,2.0784206397486455
exact,pre_advance,DELTA_SA,ar,indicator_revision_only_dfm_kalman_em,2009:Q3,0.31974831955083616,2.3981689592994817
exact,pre_advance,DELTA_SA,ar,indicator_revision_only_dfm_kalman_em,2009:Q4,0.2461874095178597,2.6443563688173413
exact,pre_advance,DELTA_SA,ar,indicator_revision_only_dfm_kalman_em,2010:Q1,0.012274663642203441,2.656631032459545
exact,pre_advance,DELTA_SA,ar,indicator_revision_only_dfm_kalman_em,2010:Q2,-0.10097637669884518,2.5556546557606996
exact,pre_advance,DELTA_SA,ar,indicator_revision_only_dfm_kalman_em,2010:Q3,0.41001530272678194,2.9656699584874815
exact,pre_advance,DELTA_SA,ar,indicator_revision_only_dfm_kalman_em,2010:Q4,0.33708017745408314,3.3027501359415647
exact,pre_advance,DELTA_SA,ar,indicator_revision_only_dfm_kalman_em,2011:Q1,0.05273638935335863,3.3554865252949235
exact,pre_advance,DELTA_SA,ar,indicator_revision_only_dfm_kalman_em,2011:Q2,0.0864949621817803,3.4419814874767036
exact,pre_advance,DELTA_SA,ar,indicator_revision_only_dfm_kalman_em,2011:Q3,-0.03822954602021156,3.403751941456492
exact,pre_advance,DELTA_SA,ar,indicator_revision_only_dfm_kalman_em,2011:Q4,0.1042486389810256,3.5080005804375176
exact,pre_advance,DELTA_SA,ar,indicator_revision_only_dfm_kalman_em,2012:Q1,0.12270345028699549,3.6307040307245133
exact,pre_advance,DELTA_SA,ar,indicator_revision_only_dfm_kalman_em,2012:Q2,0.05124300972150874,3.681947040446022
exact,pre_advance,DELTA_SA,ar,indicator_revision_only_dfm_kalman_em,2012:Q3,-0.19803121584843814,3.483915824597584
exact,pre_advance,DELTA_SA,ar,indicator_revision_only_dfm_kalman_em,2012:Q4,-0.06160444841889918,3.4223113761786847
exact,pre_advance,DELTA_SA,ar,indicator_revision_only_dfm_kalman_em,2013:Q1,0.13839352919058448,3.560704905369269
exact,pre_advance,DELTA_SA,ar,indicator_revision_only_dfm_kalman_em,2013:Q2,0.010665904843470964,3.5713708102127404
exact,pre_advance,DELTA_SA,ar,indicator_revision_only_dfm_kalman_em,2013:Q3,-0.49085393179229264,3.0805168784204477
exact,pre_advance,DELTA_SA,ar,indicator_revision_only_dfm_kalman_em,2013:Q4,0.8147882022650561,3.895305080685504
exact,pre_advance,DELTA_SA,ar,indicator_revision_only_dfm_kalman_em,2014:Q1,-0.6728261778290336,3.22247890285647
exact,pre_advance,DELTA_SA,ar,indicator_revision_only_dfm_kalman_em,2014:Q2,0.3153905835886226,3.537869486445093
exact,pre_advance,DELTA_SA,ar,indicator_revision_only_dfm_kalman_em,2014:Q3,-0.05736992828325174,3.480499558161841
exact,pre_advance,DELTA_SA,ar,indicator_revision_only_dfm_kalman_em,2014:Q4,0.18045818425062124,3.6609577424124624
exact,pre_advance,DELTA_SA,ar,indicator_revision_only_dfm_kalman_em,2015:Q1,-0.30424364925329495,3.3567140931591677
exact,pre_advance,DELTA_SA,ar,indicator_revision_only_dfm_kalman_em,2015:Q2,1.0249249122593762,4.381639005418544
exact,pre_advance,DELTA_SA,ar,indicator_revision_only_dfm_kalman_em,2015:Q3,-0.3345827492334456,4.0470562561850985
exact,pre_advance,DELTA_SA,ar,indicator_revision_only_dfm_kalman_em,2015:Q4,-0.09676443992777004,3.9502918162573284
exact,pre_advance,DELTA_SA,ar,indicator_revision_only_dfm_kalman_em,2016:Q1,-0.09029065158363185,3.8600011646736965
exact,pre_advance,DELTA_SA,ar,indicator_revision_only_dfm_kalman_em,2016:Q2,0.1360297525459644,3.996030917219661
exact,pre_advance,DELTA_SA,ar,indicator_revision_only_dfm_kalman_em,2016:Q3,-0.021175007572158712,3.974855909647502
exact,pre_advance,DELTA_SA,ar,indicator_revision_only_dfm_kalman_em,2016:Q4,0.02734587565242416,4.002201785299926
exact,pre_advance,DELTA_SA,ar,indicator_revision_only_dfm_kalman_em,2017:Q1,-0.056295362083760514,3.945906423216165
exact,pre_advance,DELTA_SA,ar,indicator_revision_only_dfm_kalman_em,2017:Q2,-0.1998229027002102,3.746083520515955
exact,pre_advance,DELTA_SA,ar,indicator_revision_only_dfm_kalman_em,2017:Q3,-0.09239460605426397,3.653688914461691
exact,pre_advance,DELTA_SA,ar,indicator_revision_only_dfm_kalman_em,2017:Q4,0.035699658663772574,3.6893885731254636
exact,pre_advance,DELTA_SA,ar,indicator_revision_only_dfm_kalman_em,2018:Q1,0.012703611098869368,3.702092184224333
exact,pre_advance,DELTA_SA,ar,indicator_revision_only_dfm_kalman_em,2018:Q2,0.0030213569949030655,3.705113541219236
exact,pre_advance,DELTA_SA,ar,indicator_revision_only_dfm_kalman_em,2018:Q3,0.0032310710133240618,3.70834461223256
exact,pre_advance,DELTA_SA,ar,indicator_revision_only_dfm_kalman_em,2019:Q1,0.3134694480182471,4.021814060250807
exact,pre_advance,DELTA_SA,ar,indicator_revision_only_dfm_kalman_em,2019:Q2,-0.00020861065790184213,4.021605449592905
exact,pre_advance,DELTA_SA,ar,indicator_revision_only_dfm_kalman_em,2019:Q3,-0.020795440927072837,4.000810008665832
exact,pre_advance,DELTA_SA,ar,indicator_revision_only_dfm_kalman_em,2019:Q4,0.022807340587339162,4.023617349253171
exact,pre_advance,DELTA_SA,ar,indicator_revision_only_dfm_kalman_em,2020:Q1,0.04374626691208146,4.067363616165252
exact,pre_advance,DELTA_SA,ar,indicator_revision_only_dfm_kalman_em,2020:Q2,-0.4848885887598303,3.582475027405422
exact,pre_advance,DELTA_SA,ar,indicator_revision_only_dfm_kalman_em,2020:Q3,6.6030936783793335,10.185568705784755
exact,pre_advance,DELTA_SA,ar,indicator_revision_only_dfm_kalman_em,2020:Q4,0.3494364241901803,10.535005129974936
exact,pre_advance,DELTA_SA,ar,indicator_revision_only_dfm_kalman_em,2021:Q1,0.010481372036795358,10.54548650201173
exact,pre_advance,DELTA_SA,ar,indicator_revision_only_dfm_kalman_em,2021:Q2,0.005674643654305938,10.551161145666036
exact,pre_advance,DELTA_SA,ar,indicator_revision_only_dfm_kalman_em,2021:Q3,-0.00428446848418562,10.546876677181851
exact,pre_advance,DELTA_SA,ar,indicator_revision_only_dfm_kalman_em,2021:Q4,-0.009636975615624089,10.537239701566227
exact,pre_advance,DELTA_SA,ar,indicator_revision_only_dfm_kalman_em,2022:Q1,0.05376352283472801,10.591003224400955
exact,pre_advance,DELTA_SA,ar,indicator_revision_only_dfm_kalman_em,2022:Q2,-0.01747374549873487,10.57352947890222
exact,pre_advance,DELTA_SA,ar,indicator_revision_only_dfm_kalman_em,2022:Q3,-0.038912176234116996,10.534617302668103
exact,pre_advance,DELTA_SA,ar,indicator_revision_only_dfm_kalman_em,2022:Q4,0.058622083054108,10.59323938572221
exact,pre_advance,DELTA_SA,ar,indicator_revision_only_dfm_kalman_em,2023:Q1,-0.02740533844308022,10.56583404727913
exact,pre_advance,DELTA_SA,ar,indicator_revision_only_dfm_kalman_em,2023:Q2,0.06172819389498699,10.627562241174118
exact,pre_advance,DELTA_SA,ar,indicator_revision_only_dfm_kalman_em,2023:Q3,-0.03194758936873526,10.595614651805382
exact,pre_advance,DELTA_SA,ar,indicator_revision_only_dfm_kalman_em,2023:Q4,0.03690159867203891,10.63251625047742
exact,pre_advance,DELTA_SA,ar,indicator_revision_only_dfm_kalman_em,2024:Q1,0.07155817897030346,10.704074429447724
exact,pre_advance,DELTA_SA,ar,indicator_revision_only_dfm_kalman_em,2024:Q2,-0.009033581491366181,10.695040847956358
exact,pre_advance,DELTA_SA,ar,indicator_revision_only_dfm_kalman_em,2024:Q3,0.00727617350536104,10.702317021461718
exact,pre_advance,DELTA_SA,ar,indicator_revision_only_dfm_kalman_em,2024:Q4,-0.008788760628669104,10.69352826083305
exact,pre_advance,DELTA_SA,ar,joint_indicator_revision_dfm_full_kalman_em,2005:Q1,-0.018789864518146796,-0.018789864518146796
exact,pre_advance,DELTA_SA,ar,joint_indicator_revision_dfm_full_kalman_em,2005:Q2,-0.12731393000366514,-0.14610379452181194
exact,pre_advance,DELTA_SA,ar,joint_indicator_revision_dfm_full_kalman_em,2005:Q3,0.21462488368785648,0.06852108916604455
exact,pre_advance,DELTA_SA,ar,joint_indicator_revision_dfm_full_kalman_em,2005:Q4,0.04865184221281554,0.11717293137886009
exact,pre_advance,DELTA_SA,ar,joint_indicator_revision_dfm_full_kalman_em,2006:Q1,0.014337820588822464,0.13151075196768255
exact,pre_advance,DELTA_SA,ar,joint_indicator_revision_dfm_full_kalman_em,2006:Q2,0.04166318021160967,0.17317393217929222
exact,pre_advance,DELTA_SA,ar,joint_indicator_revision_dfm_full_kalman_em,2006:Q3,-0.8292879023148452,-0.656113970135553
exact,pre_advance,DELTA_SA,ar,joint_indicator_revision_dfm_full_kalman_em,2006:Q4,1.7461796303219432,1.0900656601863903
exact,pre_advance,DELTA_SA,ar,joint_indicator_revision_dfm_full_kalman_em,2007:Q1,-0.37420949057578007,0.7158561696106103
exact,pre_advance,DELTA_SA,ar,joint_indicator_revision_dfm_full_kalman_em,2007:Q2,0.4343612557483914,1.1502174253590016
exact,pre_advance,DELTA_SA,ar,joint_indicator_revision_dfm_full_kalman_em,2007:Q3,-1.7405649096838305,-0.5903474843248289
exact,pre_advance,DELTA_SA,ar,joint_indicator_revision_dfm_full_kalman_em,2007:Q4,-0.14080003021225843,-0.7311475145370873
exact,pre_advance,DELTA_SA,ar,joint_indicator_revision_dfm_full_kalman_em,2008:Q1,-0.2645753943982238,-0.995722908935311
exact,pre_advance,DELTA_SA,ar,joint_indicator_revision_dfm_full_kalman_em,2008:Q2,-0.5144776180914217,-1.5102005270267327
exact,pre_advance,DELTA_SA,ar,joint_indicator_revision_dfm_full_kalman_em,2008:Q3,0.9146926000317822,-0.5955079269949505
exact,pre_advance,DELTA_SA,ar,joint_indicator_revision_dfm_full_kalman_em,2008:Q4,3.713551523918207,3.1180435969232563
exact,pre_advance,DELTA_SA,ar,joint_indicator_revision_dfm_full_kalman_em,2009:Q1,1.479756191067669,4.597799787990925
exact,pre_advance,DELTA_SA,ar,joint_indicator_revision_dfm_full_kalman_em,2009:Q2,-0.19396502799362925,4.403834759997296
exact,pre_advance,DELTA_SA,ar,joint_indicator_revision_dfm_full_kalman_em,2009:Q3,-2.2514601713141333,2.1523745886831627
exact,pre_advance,DELTA_SA,ar,joint_indicator_revision_dfm_full_kalman_em,2009:Q4,0.1829829702923491,2.335357558975512
exact,pre_advance,DELTA_SA,ar,joint_indicator_revision_dfm_full_kalman_em,2010:Q1,-0.4324277500820724,1.9029298088934394
exact,pre_advance,DELTA_SA,ar,joint_indicator_revision_dfm_full_kalman_em,2010:Q2,-0.40906365605092165,1.493866152842518
exact,pre_advance,DELTA_SA,ar,joint_indicator_revision_dfm_full_kalman_em,2010:Q3,0.5743283930872534,2.0681945459297713
exact,pre_advance,DELTA_SA,ar,joint_indicator_revision_dfm_full_kalman_em,2010:Q4,0.2529752401959958,2.321169786125767
exact,pre_advance,DELTA_SA,ar,joint_indicator_revision_dfm_full_kalman_em,2011:Q1,-0.01594558323091702,2.3052242028948497
exact,pre_advance,DELTA_SA,ar,joint_indicator_revision_dfm_full_kalman_em,2011:Q2,-0.06979035409682988,2.23543384879802
exact,pre_advance,DELTA_SA,ar,joint_indicator_revision_dfm_full_kalman_em,2011:Q3,-0.42852336001861124,1.8069104887794087
exact,pre_advance,DELTA_SA,ar,joint_indicator_revision_dfm_full_kalman_em,2011:Q4,0.13128470383100932,1.9381951926104182
exact,pre_advance,DELTA_SA,ar,joint_indicator_revision_dfm_full_kalman_em,2012:Q1,-0.07826801065085223,1.859927181959566
exact,pre_advance,DELTA_SA,ar,joint_indicator_revision_dfm_full_kalman_em,2012:Q2,0.08768438311055343,1.9476115650701193
exact,pre_advance,DELTA_SA,ar,joint_indicator_revision_dfm_full_kalman_em,2012:Q3,-0.008993577428510618,1.9386179876416088
exact,pre_advance,DELTA_SA,ar,joint_indicator_revision_dfm_full_kalman_em,2012:Q4,0.009413374544931019,1.9480313621865397
exact,pre_advance,DELTA_SA,ar,joint_indicator_revision_dfm_full_kalman_em,2013:Q1,0.06553800466247058,2.0135693668490102
exact,pre_advance,DELTA_SA,ar,joint_indicator_revision_dfm_full_kalman_em,2013:Q2,0.21524913220887543,2.2288184990578856
exact,pre_advance,DELTA_SA,ar,joint_indicator_revision_dfm_full_kalman_em,2013:Q3,-0.30635002791686333,1.9224684711410223
exact,pre_advance,DELTA_SA,ar,joint_indicator_revision_dfm_full_kalman_em,2013:Q4,0.36029668267805004,2.2827651538190725
exact,pre_advance,DELTA_SA,ar,joint_indicator_revision_dfm_full_kalman_em,2014:Q1,-0.9667327630141058,1.3160323908049667
exact,pre_advance,DELTA_SA,ar,joint_indicator_revision_dfm_full_kalman_em,2014:Q2,0.24602738498536475,1.5620597757903314
exact,pre_advance,DELTA_SA,ar,joint_indicator_revision_dfm_full_kalman_em,2014:Q3,0.003414858410392921,1.5654746342007244
exact,pre_advance,DELTA_SA,ar,joint_indicator_revision_dfm_full_kalman_em,2014:Q4,0.11047195855520014,1.6759465927559245
exact,pre_advance,DELTA_SA,ar,joint_indicator_revision_dfm_full_kalman_em,2015:Q1,-0.1518574381201926,1.5240891546357318
exact,pre_advance,DELTA_SA,ar,joint_indicator_revision_dfm_full_kalman_em,2015:Q2,1.781688118442149,3.3057772730778807
exact,pre_advance,DELTA_SA,ar,joint_indicator_revision_dfm_full_kalman_em,2015:Q3,-0.30663778772425115,2.9991394853536297
exact,pre_advance,DELTA_SA,ar,joint_indicator_revision_dfm_full_kalman_em,2015:Q4,-0.07002264455120934,2.92911684080242
exact,pre_advance,DELTA_SA,ar,joint_indicator_revision_dfm_full_kalman_em,2016:Q1,-0.03703629912443266,2.8920805416779873
exact,pre_advance,DELTA_SA,ar,joint_indicator_revision_dfm_full_kalman_em,2016:Q2,0.09162557387256513,2.9837061155505524
exact,pre_advance,DELTA_SA,ar,joint_indicator_revision_dfm_full_kalman_em,2016:Q3,0.04280120895511521,3.0265073245056677
exact,pre_advance,DELTA_SA,ar,joint_indicator_revision_dfm_full_kalman_em,2016:Q4,-0.03495801418977164,2.991549310315896
exact,pre_advance,DELTA_SA,ar,joint_indicator_revision_dfm_full_kalman_em,2017:Q1,0.1049074568560624,3.0964567671719587
exact,pre_advance,DELTA_SA,ar,joint_indicator_revision_dfm_full_kalman_em,2017:Q2,-0.034255489514398885,3.06220127765756
exact,pre_advance,DELTA_SA,ar,joint_indicator_revision_dfm_full_kalman_em,2017:Q3,-0.06880275798418474,2.9933985196733754
exact,pre_advance,DELTA_SA,ar,joint_indicator_revision_dfm_full_kalman_em,2017:Q4,-0.16015118263911948,2.833247337034256
exact,pre_advance,DELTA_SA,ar,joint_indicator_revision_dfm_full_kalman_em,2018:Q1,-0.1188095176951513,2.7144378193391048
exact,pre_advance,DELTA_SA,ar,joint_indicator_revision_dfm_full_kalman_em,2018:Q2,0.030563845417261974,2.7450016647563666
exact,pre_advance,DELTA_SA,ar,joint_indicator_revision_dfm_full_kalman_em,2018:Q3,-0.00729206136278006,2.7377096033935864
exact,pre_advance,DELTA_SA,ar,joint_indicator_revision_dfm_full_kalman_em,2019:Q1,0.30894481309005956,3.046654416483646
exact,pre_advance,DELTA_SA,ar,joint_indicator_revision_dfm_full_kalman_em,2019:Q2,-0.0101415992671581,3.036512817216488
exact,pre_advance,DELTA_SA,ar,joint_indicator_revision_dfm_full_kalman_em,2019:Q3,0.01948241038303604,3.055995227599524
exact,pre_advance,DELTA_SA,ar,joint_indicator_revision_dfm_full_kalman_em,2019:Q4,0.02194843398373385,3.077943661583258
exact,pre_advance,DELTA_SA,ar,joint_indicator_revision_dfm_full_kalman_em,2020:Q1,0.09419768207664247,3.1721413436599004
exact,pre_advance,DELTA_SA,ar,joint_indicator_revision_dfm_full_kalman_em,2020:Q2,-3.921436995186385,-0.7492956515264848
exact,pre_advance,DELTA_SA,ar,joint_indicator_revision_dfm_full_kalman_em,2020:Q3,5.638829293495961,4.889533641969477
exact,pre_advance,DELTA_SA,ar,joint_indicator_revision_dfm_full_kalman_em,2020:Q4,0.07676130871837078,4.966294950687848
exact,pre_advance,DELTA_SA,ar,joint_indicator_revision_dfm_full_kalman_em,2021:Q1,-0.3421986985238904,4.624096252163958
exact,pre_advance,DELTA_SA,ar,joint_indicator_revision_dfm_full_kalman_em,2021:Q2,0.005498446603363411,4.629594698767321
exact,pre_advance,DELTA_SA,ar,joint_indicator_revision_dfm_full_kalman_em,2021:Q3,-0.0665734980549724,4.563021200712349
exact,pre_advance,DELTA_SA,ar,joint_indicator_revision_dfm_full_kalman_em,2021:Q4,-0.01352820225704021,4.5494929984553085
exact,pre_advance,DELTA_SA,ar,joint_indicator_revision_dfm_full_kalman_em,2022:Q1,-0.4630237743127795,4.086469224142529
exact,pre_advance,DELTA_SA,ar,joint_indicator_revision_dfm_full_kalman_em,2022:Q2,-0.015571378006653258,4.070897846135876
exact,pre_advance,DELTA_SA,ar,joint_indicator_revision_dfm_full_kalman_em,2022:Q3,-0.016972781548513907,4.053925064587362
exact,pre_advance,DELTA_SA,ar,joint_indicator_revision_dfm_full_kalman_em,2022:Q4,0.10506628843186418,4.158991353019226
exact,pre_advance,DELTA_SA,ar,joint_indicator_revision_dfm_full_kalman_em,2023:Q1,-0.13316210526590472,4.025829247753321
exact,pre_advance,DELTA_SA,ar,joint_indicator_revision_dfm_full_kalman_em,2023:Q2,-0.42008247827549006,3.6057467694778307
exact,pre_advance,DELTA_SA,ar,joint_indicator_revision_dfm_full_kalman_em,2023:Q3,-0.0019151602492704298,3.60383160922856
exact,pre_advance,DELTA_SA,ar,joint_indicator_revision_dfm_full_kalman_em,2023:Q4,0.04192468968969749,3.6457562989182577
exact,pre_advance,DELTA_SA,ar,joint_indicator_revision_dfm_full_kalman_em,2024:Q1,0.06383545735681231,3.70959175627507
exact,pre_advance,DELTA_SA,ar,joint_indicator_revision_dfm_full_kalman_em,2024:Q2,-0.0020400829370242923,3.707551673338046
exact,pre_advance,DELTA_SA,ar,joint_indicator_revision_dfm_full_kalman_em,2024:Q3,0.0067983803389805135,3.7143500536770264
exact,pre_advance,DELTA_SA,ar,joint_indicator_revision_dfm_full_kalman_em,2024:Q4,-0.006375624253545045,3.7079744294234813
exact,pre_advance,DELTA_SA,ar,midas_umidas,2005:Q1,-39.797824425064846,-39.797824425064846
exact,pre_advance,DELTA_SA,ar,midas_umidas,2005:Q2,-10.838923677608678,-50.63674810267352
exact,pre_advance,DELTA_SA,ar,midas_umidas,2005:Q3,-2.2266161401798246,-52.86336424285334
exact,pre_advance,DELTA_SA,ar,midas_umidas,2005:Q4,-76.51074939331531,-129.37411363616866
exact,pre_advance,DELTA_SA,ar,midas_umidas,2006:Q1,-624.8393306229966,-754.2134442591653
exact,pre_advance,DELTA_SA,ar,midas_umidas,2006:Q2,-51.60484976710727,-805.8182940262725
exact,pre_advance,DELTA_SA,ar,midas_umidas,2006:Q3,-2.896052548813862,-808.7143465750863
exact,pre_advance,DELTA_SA,ar,midas_umidas,2006:Q4,-20.201108426843934,-828.9154550019302
exact,pre_advance,DELTA_SA,ar,midas_umidas,2007:Q1,-339.242528006535,-1168.1579830084652
exact,pre_advance,DELTA_SA,ar,midas_umidas,2007:Q2,-454.63351199969196,-1622.7914950081572
exact,pre_advance,DELTA_SA,ar,midas_umidas,2007:Q3,-1445.2558135562338,-3068.0473085643907
exact,pre_advance,DELTA_SA,ar,midas_umidas,2007:Q4,-109.85550522469542,-3177.902813789086
exact,pre_advance,DELTA_SA,ar,midas_umidas,2008:Q1,-0.353653234035842,-3178.256467023122
exact,pre_advance,DELTA_SA,ar,midas_umidas,2008:Q2,-411.6733521385076,-3589.9298191616294
exact,pre_advance,DELTA_SA,ar,midas_umidas,2008:Q3,-16.457374174265517,-3606.387193335895
exact,pre_advance,DELTA_SA,ar,midas_umidas,2008:Q4,-658.2226269871077,-4264.609820323003
exact,pre_advance,DELTA_SA,ar,midas_umidas,2009:Q1,-1734.2252989296749,-5998.835119252678
exact,pre_advance,DELTA_SA,ar,midas_umidas,2009:Q2,0.22143764520565734,-5998.613681607472
exact,pre_advance,DELTA_SA,ar,midas_umidas,2009:Q3,-124.17561613051467,-6122.789297737987
exact,pre_advance,DELTA_SA,ar,midas_umidas,2009:Q4,-110.45342341372383,-6233.242721151711
exact,pre_advance,DELTA_SA,ar,midas_umidas,2010:Q1,-275.029314951508,-6508.272036103219
exact,pre_advance,DELTA_SA,ar,midas_umidas,2010:Q2,-53.83744935649098,-6562.1094854597095
exact,pre_advance,DELTA_SA,ar,midas_umidas,2010:Q3,-504.1498345524276,-7066.259320012137
exact,pre_advance,DELTA_SA,ar,midas_umidas,2010:Q4,-149.34422941051264,-7215.60354942265
exact,pre_advance,DELTA_SA,ar,midas_umidas,2011:Q1,-76.18270495073548,-7291.786254373385
exact,pre_advance,DELTA_SA,ar,midas_umidas,2011:Q2,-451.8456247833127,-7743.631879156698
exact,pre_advance,DELTA_SA,ar,midas_umidas,2011:Q3,0.1306085067816537,-7743.5012706499165
exact,pre_advance,DELTA_SA,ar,midas_umidas,2011:Q4,-178.48758528534628,-7921.988855935263
exact,pre_advance,DELTA_SA,ar,midas_umidas,2012:Q1,-165.6814547360206,-8087.670310671284
exact,pre_advance,DELTA_SA,ar,midas_umidas,2012:Q2,-47.673541919418405,-8135.343852590702
exact,pre_advance,DELTA_SA,ar,midas_umidas,2012:Q3,-52.97128713103753,-8188.31513972174
exact,pre_advance,DELTA_SA,ar,midas_umidas,2012:Q4,-35.87250645476155,-8224.1876461765
exact,pre_advance,DELTA_SA,ar,midas_umidas,2013:Q1,-78.68787456069492,-8302.875520737196
exact,pre_advance,DELTA_SA,ar,midas_umidas,2013:Q2,-223.52534495255938,-8526.400865689755
exact,pre_advance,DELTA_SA,ar,midas_umidas,2013:Q3,-20.60176487992064,-8547.002630569676
exact,pre_advance,DELTA_SA,ar,midas_umidas,2013:Q4,-23.131777229382795,-8570.134407799058
exact,pre_advance,DELTA_SA,ar,midas_umidas,2014:Q1,-86.83478800644464,-8656.969195805503
exact,pre_advance,DELTA_SA,ar,midas_umidas,2014:Q2,-148.1537614966031,-8805.122957302106
exact,pre_advance,DELTA_SA,ar,midas_umidas,2014:Q3,-21.563616269848954,-8826.686573571955
exact,pre_advance,DELTA_SA,ar,midas_umidas,2014:Q4,-15.719381848728865,-8842.405955420683
exact,pre_advance,DELTA_SA,ar,midas_umidas,2015:Q1,-3.2433959454790857,-8845.649351366163
exact,pre_advance,DELTA_SA,ar,midas_umidas,2015:Q2,2.8534791315047743,-8842.795872234658
exact,pre_advance,DELTA_SA,ar,midas_umidas,2015:Q3,-43.68811698390953,-8886.483989218566
exact,pre_advance,DELTA_SA,ar,midas_umidas,2015:Q4,-24.973768284074954,-8911.457757502641
exact,pre_advance,DELTA_SA,ar,midas_umidas,2016:Q1,-25.74251643989438,-8937.200273942535
exact,pre_advance,DELTA_SA,ar,midas_umidas,2016:Q2,-7.702559624924386,-8944.90283356746
exact,pre_advance,DELTA_SA,ar,midas_umidas,2016:Q3,-0.418644520766393,-8945.321478088226
exact,pre_advance,DELTA_SA,ar,midas_umidas,2016:Q4,-1.6878248577371244,-8947.009302945964
exact,pre_advance,DELTA_SA,ar,midas_umidas,2017:Q1,-1.396469369919674,-8948.405772315884
exact,pre_advance,DELTA_SA,ar,midas_umidas,2017:Q2,-0.2386418337185627,-8948.644414149603
exact,pre_advance,DELTA_SA,ar,midas_umidas,2017:Q3,-9.894772171958993,-8958.539186321563
exact,pre_advance,DELTA_SA,ar,midas_umidas,2017:Q4,-0.06785400372463576,-8958.607040325287
exact,pre_advance,DELTA_SA,ar,midas_umidas,2018:Q1,-0.8285480132736229,-8959.435588338562
exact,pre_advance,DELTA_SA,ar,midas_umidas,2018:Q2,-12.28694297591866,-8971.72253131448
exact,pre_advance,DELTA_SA,ar,midas_umidas,2018:Q3,-4.533494700401147,-8976.256026014882
exact,pre_advance,DELTA_SA,ar,midas_umidas,2019:Q1,0.29472275296400674,-8975.961303261918
exact,pre_advance,DELTA_SA,ar,midas_umidas,2019:Q2,-0.43696293477333575,-8976.398266196691
exact,pre_advance,DELTA_SA,ar,midas_umidas,2019:Q3,-1.073933679541503,-8977.472199876232
exact,pre_advance,DELTA_SA,ar,midas_umidas,2019:Q4,-0.7868392335367862,-8978.25903910977
exact,pre_advance,DELTA_SA,ar,midas_umidas,2020:Q1,-1.0551657413501645,-8979.31420485112
exact,pre_advance,DELTA_SA,ar,midas_umidas,2020:Q2,-2064.435032508436,-11043.749237359556
exact,pre_advance,DELTA_SA,ar,midas_umidas,2020:Q3,-4078.7524783179065,-15122.501715677463
exact,pre_advance,DELTA_SA,ar,midas_umidas,2020:Q4,-6.506950483246372,-15129.00866616071
exact,pre_advance,DELTA_SA,ar,midas_umidas,2021:Q1,-4.596760703580678,-15133.60542686429
exact,pre_advance,DELTA_SA,ar,midas_umidas,2021:Q2,-8.28713987226398,-15141.892566736553
exact,pre_advance,DELTA_SA,ar,midas_umidas,2021:Q3,-0.14777608474138854,-15142.040342821294
exact,pre_advance,DELTA_SA,ar,midas_umidas,2021:Q4,-0.6833823726336089,-15142.723725193928
exact,pre_advance,DELTA_SA,ar,midas_umidas,2022:Q1,-0.35382729002974433,-15143.077552483957
exact,pre_advance,DELTA_SA,ar,midas_umidas,2022:Q2,0.08787319677964962,-15142.989679287177
exact,pre_advance,DELTA_SA,ar,midas_umidas,2022:Q3,0.09018879892357301,-15142.899490488253
exact,pre_advance,DELTA_SA,ar,midas_umidas,2022:Q4,-4.967035646849074,-15147.866526135102
exact,pre_advance,DELTA_SA,ar,midas_umidas,2023:Q1,-0.7470003290390006,-15148.61352646414
exact,pre_advance,DELTA_SA,ar,midas_umidas,2023:Q2,-3.5272575221531675,-15152.140783986293
exact,pre_advance,DELTA_SA,ar,midas_umidas,2023:Q3,-0.22947939040660967,-15152.3702633767
exact,pre_advance,DELTA_SA,ar,midas_umidas,2023:Q4,-0.11970627412488263,-15152.489969650826
exact,pre_advance,DELTA_SA,ar,midas_umidas,2024:Q1,0.1867492213036634,-15152.303220429521
exact,pre_advance,DELTA_SA,ar,midas_umidas,2024:Q2,0.0029975257085396354,-15152.300222903812
exact,pre_advance,DELTA_SA,ar,midas_umidas,2024:Q3,-0.20633145236123396,-15152.506554356174
exact,pre_advance,DELTA_SA,ar,midas_umidas,2024:Q4,-1.63604893282211,-15154.142603288996
exact,pre_advance,DELTA_SA,ar,monthly_mixed_frequency_kalman_em,2005:Q1,-0.17805708658496736,-0.17805708658496736
exact,pre_advance,DELTA_SA,ar,monthly_mixed_frequency_kalman_em,2005:Q2,0.046081531369372514,-0.13197555521559484
exact,pre_advance,DELTA_SA,ar,monthly_mixed_frequency_kalman_em,2005:Q3,-0.5284556168119119,-0.6604311720275067
exact,pre_advance,DELTA_SA,ar,monthly_mixed_frequency_kalman_em,2005:Q4,0.057589618664898506,-0.6028415533626081
exact,pre_advance,DELTA_SA,ar,monthly_mixed_frequency_kalman_em,2006:Q1,-0.22967668482143946,-0.8325182381840476
exact,pre_advance,DELTA_SA,ar,monthly_mixed_frequency_kalman_em,2006:Q2,0.05120034135496903,-0.7813178968290786
exact,pre_advance,DELTA_SA,ar,monthly_mixed_frequency_kalman_em,2006:Q3,-0.32127353613428294,-1.1025914329633615
exact,pre_advance,DELTA_SA,ar,monthly_mixed_frequency_kalman_em,2006:Q4,0.6902811654826775,-0.412310267480684
exact,pre_advance,DELTA_SA,ar,monthly_mixed_frequency_kalman_em,2007:Q1,-0.20764721443182343,-0.6199574819125074
exact,pre_advance,DELTA_SA,ar,monthly_mixed_frequency_kalman_em,2007:Q2,0.4662614581386213,-0.15369602377388614
exact,pre_advance,DELTA_SA,ar,monthly_mixed_frequency_kalman_em,2007:Q3,-0.17300796075003055,-0.3267039845239167
exact,pre_advance,DELTA_SA,ar,monthly_mixed_frequency_kalman_em,2007:Q4,0.1979596332404663,-0.12874435128345038
exact,pre_advance,DELTA_SA,ar,monthly_mixed_frequency_kalman_em,2008:Q1,0.021004879729862463,-0.10773947155358791
exact,pre_advance,DELTA_SA,ar,monthly_mixed_frequency_kalman_em,2008:Q2,-0.5581278076683207,-0.6658672792219086
exact,pre_advance,DELTA_SA,ar,monthly_mixed_frequency_kalman_em,2008:Q3,0.9511567399955322,0.2852894607736236
exact,pre_advance,DELTA_SA,ar,monthly_mixed_frequency_kalman_em,2008:Q4,1.5864909513215473,1.8717804120951709
exact,pre_advance,DELTA_SA,ar,monthly_mixed_frequency_kalman_em,2009:Q1,1.4969245936120086,3.3687050057071795
exact,pre_advance,DELTA_SA,ar,monthly_mixed_frequency_kalman_em,2009:Q2,0.25560815983014884,3.624313165537328
exact,pre_advance,DELTA_SA,ar,monthly_mixed_frequency_kalman_em,2009:Q3,0.28731103781548495,3.911624203352813
exact,pre_advance,DELTA_SA,ar,monthly_mixed_frequency_kalman_em,2009:Q4,0.2816350004235375,4.193259203776351
exact,pre_advance,DELTA_SA,ar,monthly_mixed_frequency_kalman_em,2010:Q1,-0.017454373509316043,4.175804830267035
exact,pre_advance,DELTA_SA,ar,monthly_mixed_frequency_kalman_em,2010:Q2,-0.27733262420129945,3.8984722060657355
exact,pre_advance,DELTA_SA,ar,monthly_mixed_frequency_kalman_em,2010:Q3,0.47338587967286433,4.3718580857386
exact,pre_advance,DELTA_SA,ar,monthly_mixed_frequency_kalman_em,2010:Q4,0.18489848124680802,4.556756566985408
exact,pre_advance,DELTA_SA,ar,monthly_mixed_frequency_kalman_em,2011:Q1,0.049430155294715276,4.606186722280123
exact,pre_advance,DELTA_SA,ar,monthly_mixed_frequency_kalman_em,2011:Q2,0.000513191125237844,4.606699913405361
exact,pre_advance,DELTA_SA,ar,monthly_mixed_frequency_kalman_em,2011:Q3,-0.1730336768711892,4.4336662365341715
exact,pre_advance,DELTA_SA,ar,monthly_mixed_frequency_kalman_em,2011:Q4,0.15452136566361724,4.588187602197789
exact,pre_advance,DELTA_SA,ar,monthly_mixed_frequency_kalman_em,2012:Q1,0.0344337845287791,4.622621386726568
exact,pre_advance,DELTA_SA,ar,monthly_mixed_frequency_kalman_em,2012:Q2,0.08412498007108686,4.706746366797654
exact,pre_advance,DELTA_SA,ar,monthly_mixed_frequency_kalman_em,2012:Q3,0.029409300603285865,4.73615566740094
exact,pre_advance,DELTA_SA,ar,monthly_mixed_frequency_kalman_em,2012:Q4,-0.026922127134092227,4.7092335402668475
exact,pre_advance,DELTA_SA,ar,monthly_mixed_frequency_kalman_em,2013:Q1,0.13428986547434735,4.843523405741195
exact,pre_advance,DELTA_SA,ar,monthly_mixed_frequency_kalman_em,2013:Q2,0.13988275431755315,4.983406160058748
exact,pre_advance,DELTA_SA,ar,monthly_mixed_frequency_kalman_em,2013:Q3,-0.35277850199627286,4.630627658062475
exact,pre_advance,DELTA_SA,ar,monthly_mixed_frequency_kalman_em,2013:Q4,0.7548816059181209,5.385509263980596
exact,pre_advance,DELTA_SA,ar,monthly_mixed_frequency_kalman_em,2014:Q1,-0.8018420774406017,4.583667186539994
exact,pre_advance,DELTA_SA,ar,monthly_mixed_frequency_kalman_em,2014:Q2,0.34082698106786014,4.924494167607854
exact,pre_advance,DELTA_SA,ar,monthly_mixed_frequency_kalman_em,2014:Q3,0.035682802013211154,4.960176969621065
exact,pre_advance,DELTA_SA,ar,monthly_mixed_frequency_kalman_em,2014:Q4,0.2425775654222086,5.202754535043273
exact,pre_advance,DELTA_SA,ar,monthly_mixed_frequency_kalman_em,2015:Q1,-0.18367386439899946,5.019080670644274
exact,pre_advance,DELTA_SA,ar,monthly_mixed_frequency_kalman_em,2015:Q2,1.5252839749558118,6.544364645600086
exact,pre_advance,DELTA_SA,ar,monthly_mixed_frequency_kalman_em,2015:Q3,-0.34777491115089676,6.196589734449189
exact,pre_advance,DELTA_SA,ar,monthly_mixed_frequency_kalman_em,2015:Q4,-0.05153078229772053,6.1450589521514685
exact,pre_advance,DELTA_SA,ar,monthly_mixed_frequency_kalman_em,2016:Q1,-0.031967990404857614,6.113090961746611
exact,pre_advance,DELTA_SA,ar,monthly_mixed_frequency_kalman_em,2016:Q2,0.0483745127567595,6.161465474503371
exact,pre_advance,DELTA_SA,ar,monthly_mixed_frequency_kalman_em,2016:Q3,0.04367262341331055,6.205138097916681
exact,pre_advance,DELTA_SA,ar,monthly_mixed_frequency_kalman_em,2016:Q4,-0.03310685122326135,6.172031246693419
exact,pre_advance,DELTA_SA,ar,monthly_mixed_frequency_kalman_em,2017:Q1,0.07164748578840101,6.24367873248182
exact,pre_advance,DELTA_SA,ar,monthly_mixed_frequency_kalman_em,2017:Q2,-0.0261388008845827,6.217539931597237
exact,pre_advance,DELTA_SA,ar,monthly_mixed_frequency_kalman_em,2017:Q3,-0.0210382375988922,6.196501693998345
exact,pre_advance,DELTA_SA,ar,monthly_mixed_frequency_kalman_em,2017:Q4,-0.10571972383961645,6.090781970158728
exact,pre_advance,DELTA_SA,ar,monthly_mixed_frequency_kalman_em,2018:Q1,0.021489565825028006,6.112271535983756
exact,pre_advance,DELTA_SA,ar,monthly_mixed_frequency_kalman_em,2018:Q2,0.013840453168844621,6.126111989152601
exact,pre_advance,DELTA_SA,ar,monthly_mixed_frequency_kalman_em,2018:Q3,-0.0013445773226154457,6.1247674118299855
exact,pre_advance,DELTA_SA,ar,monthly_mixed_frequency_kalman_em,2019:Q1,0.29624449441372974,6.421011906243716
exact,pre_advance,DELTA_SA,ar,monthly_mixed_frequency_kalman_em,2019:Q2,-0.0013248484362832409,6.419687057807432
exact,pre_advance,DELTA_SA,ar,monthly_mixed_frequency_kalman_em,2019:Q3,-0.0872167684017912,6.3324702894056415
exact,pre_advance,DELTA_SA,ar,monthly_mixed_frequency_kalman_em,2019:Q4,-0.015564144028187916,6.3169061453774535
exact,pre_advance,DELTA_SA,ar,monthly_mixed_frequency_kalman_em,2020:Q1,-0.16833310302675425,6.1485730423507
exact,pre_advance,DELTA_SA,ar,monthly_mixed_frequency_kalman_em,2020:Q2,-0.5194358627776156,5.6291371795730845
exact,pre_advance,DELTA_SA,ar,monthly_mixed_frequency_kalman_em,2020:Q3,5.112365338402794,10.741502517975878
exact,pre_advance,DELTA_SA,ar,monthly_mixed_frequency_kalman_em,2020:Q4,0.3189974137283739,11.060499931704252
exact,pre_advance,DELTA_SA,ar,monthly_mixed_frequency_kalman_em,2021:Q1,-0.16461765514510637,10.895882276559146
exact,pre_advance,DELTA_SA,ar,monthly_mixed_frequency_kalman_em,2021:Q2,0.00830798153214305,10.904190258091289
exact,pre_advance,DELTA_SA,ar,monthly_mixed_frequency_kalman_em,2021:Q3,-0.010850543821629945,10.89333971426966
exact,pre_advance,DELTA_SA,ar,monthly_mixed_frequency_kalman_em,2021:Q4,-0.010385226344238899,10.88295448792542
exact,pre_advance,DELTA_SA,ar,monthly_mixed_frequency_kalman_em,2022:Q1,0.029389818948221694,10.912344306873642
exact,pre_advance,DELTA_SA,ar,monthly_mixed_frequency_kalman_em,2022:Q2,0.04369433249549898,10.95603863936914
exact,pre_advance,DELTA_SA,ar,monthly_mixed_frequency_kalman_em,2022:Q3,0.039345558241226646,10.995384197610367
exact,pre_advance,DELTA_SA,ar,monthly_mixed_frequency_kalman_em,2022:Q4,0.027420328511644818,11.022804526122012
exact,pre_advance,DELTA_SA,ar,monthly_mixed_frequency_kalman_em,2023:Q1,-0.015485972905344661,11.007318553216669
exact,pre_advance,DELTA_SA,ar,monthly_mixed_frequency_kalman_em,2023:Q2,-0.011397712861927395,10.99592084035474
exact,pre_advance,DELTA_SA,ar,monthly_mixed_frequency_kalman_em,2023:Q3,0.013191346677096948,11.009112187031837
exact,pre_advance,DELTA_SA,ar,monthly_mixed_frequency_kalman_em,2023:Q4,0.02886176802589322,11.03797395505773
exact,pre_advance,DELTA_SA,ar,monthly_mixed_frequency_kalman_em,2024:Q1,0.05985126904329721,11.097825224101028
exact,pre_advance,DELTA_SA,ar,monthly_mixed_frequency_kalman_em,2024:Q2,0.002378785489958522,11.100204009590986
exact,pre_advance,DELTA_SA,ar,monthly_mixed_frequency_kalman_em,2024:Q3,0.0071513366019329005,11.107355346192918
exact,pre_advance,DELTA_SA,ar,monthly_mixed_frequency_kalman_em,2024:Q4,-0.00026077799445885225,11.107094568198459
exact,pre_advance,DELTA_SA,ar,no_revision,2005:Q1,-0.15257503321613658,-0.15257503321613658
exact,pre_advance,DELTA_SA,ar,no_revision,2005:Q2,0.10304262774761302,-0.049532405468523555
exact,pre_advance,DELTA_SA,ar,no_revision,2005:Q3,0.03151683579611303,-0.018015569672410525
exact,pre_advance,DELTA_SA,ar,no_revision,2005:Q4,-0.17958946757420496,-0.1976050372466155
exact,pre_advance,DELTA_SA,ar,no_revision,2006:Q1,-0.22225097588053042,-0.41985601312714593
exact,pre_advance,DELTA_SA,ar,no_revision,2006:Q2,-0.1338214718146227,-0.5536774849417686
exact,pre_advance,DELTA_SA,ar,no_revision,2006:Q3,-0.2655324769569707,-0.8192099618987393
exact,pre_advance,DELTA_SA,ar,no_revision,2006:Q4,1.1280810824986391,0.30887112059989985
exact,pre_advance,DELTA_SA,ar,no_revision,2007:Q1,-0.36488258133290913,-0.05601146073300928
exact,pre_advance,DELTA_SA,ar,no_revision,2007:Q2,0.2101220628635298,0.15411060213052052
exact,pre_advance,DELTA_SA,ar,no_revision,2007:Q3,-0.5038879623481906,-0.34977736021767003
exact,pre_advance,DELTA_SA,ar,no_revision,2007:Q4,0.23194641324995732,-0.11783094696771271
exact,pre_advance,DELTA_SA,ar,no_revision,2008:Q1,-0.06565748592115798,-0.18348843288887068
exact,pre_advance,DELTA_SA,ar,no_revision,2008:Q2,-0.7051418869943866,-0.8886303198832572
exact,pre_advance,DELTA_SA,ar,no_revision,2008:Q3,0.8839041046210189,-0.004726215262238376
exact,pre_advance,DELTA_SA,ar,no_revision,2008:Q4,0.39399862829546173,0.38927241303322335
exact,pre_advance,DELTA_SA,ar,no_revision,2009:Q1,1.3203689037955737,1.709641316828797
exact,pre_advance,DELTA_SA,ar,no_revision,2009:Q2,0.36877932291984866,2.0784206397486455
exact,pre_advance,DELTA_SA,ar,no_revision,2009:Q3,0.31974831955083616,2.3981689592994817
exact,pre_advance,DELTA_SA,ar,no_revision,2009:Q4,0.2461874095178597,2.6443563688173413
exact,pre_advance,DELTA_SA,ar,no_revision,2010:Q1,0.012274663642203441,2.656631032459545
exact,pre_advance,DELTA_SA,ar,no_revision,2010:Q2,-0.10097637669884518,2.5556546557606996
exact,pre_advance,DELTA_SA,ar,no_revision,2010:Q3,0.41001530272678194,2.9656699584874815
exact,pre_advance,DELTA_SA,ar,no_revision,2010:Q4,0.33708017745408314,3.3027501359415647
exact,pre_advance,DELTA_SA,ar,no_revision,2011:Q1,0.05273638935335863,3.3554865252949235
exact,pre_advance,DELTA_SA,ar,no_revision,2011:Q2,0.0864949621817803,3.4419814874767036
exact,pre_advance,DELTA_SA,ar,no_revision,2011:Q3,-0.03822954602021156,3.403751941456492
exact,pre_advance,DELTA_SA,ar,no_revision,2011:Q4,0.1042486389810256,3.5080005804375176
exact,pre_advance,DELTA_SA,ar,no_revision,2012:Q1,0.12270345028699549,3.6307040307245133
exact,pre_advance,DELTA_SA,ar,no_revision,2012:Q2,0.05124300972150874,3.681947040446022
exact,pre_advance,DELTA_SA,ar,no_revision,2012:Q3,-0.19803121584843814,3.483915824597584
exact,pre_advance,DELTA_SA,ar,no_revision,2012:Q4,-0.06160444841889918,3.4223113761786847
exact,pre_advance,DELTA_SA,ar,no_revision,2013:Q1,0.13839352919058448,3.560704905369269
exact,pre_advance,DELTA_SA,ar,no_revision,2013:Q2,0.010665904843470964,3.5713708102127404
exact,pre_advance,DELTA_SA,ar,no_revision,2013:Q3,-0.49085393179229264,3.0805168784204477
exact,pre_advance,DELTA_SA,ar,no_revision,2013:Q4,0.8147882022650561,3.895305080685504
exact,pre_advance,DELTA_SA,ar,no_revision,2014:Q1,-0.6728261778290336,3.22247890285647
exact,pre_advance,DELTA_SA,ar,no_revision,2014:Q2,0.3153905835886226,3.537869486445093
exact,pre_advance,DELTA_SA,ar,no_revision,2014:Q3,-0.05736992828325174,3.480499558161841
exact,pre_advance,DELTA_SA,ar,no_revision,2014:Q4,0.18045818425062124,3.6609577424124624
exact,pre_advance,DELTA_SA,ar,no_revision,2015:Q1,-0.30424364925329495,3.3567140931591677
exact,pre_advance,DELTA_SA,ar,no_revision,2015:Q2,1.0249249122593762,4.381639005418544
exact,pre_advance,DELTA_SA,ar,no_revision,2015:Q3,-0.3345827492334456,4.0470562561850985
exact,pre_advance,DELTA_SA,ar,no_revision,2015:Q4,-0.09676443992777004,3.9502918162573284
exact,pre_advance,DELTA_SA,ar,no_revision,2016:Q1,-0.09029065158363185,3.8600011646736965
exact,pre_advance,DELTA_SA,ar,no_revision,2016:Q2,0.1360297525459644,3.996030917219661
exact,pre_advance,DELTA_SA,ar,no_revision,2016:Q3,-0.021175007572158712,3.974855909647502
exact,pre_advance,DELTA_SA,ar,no_revision,2016:Q4,0.02734587565242416,4.002201785299926
exact,pre_advance,DELTA_SA,ar,no_revision,2017:Q1,-0.056295362083760514,3.945906423216165
exact,pre_advance,DELTA_SA,ar,no_revision,2017:Q2,-0.1998229027002102,3.746083520515955
exact,pre_advance,DELTA_SA,ar,no_revision,2017:Q3,-0.09239460605426397,3.653688914461691
exact,pre_advance,DELTA_SA,ar,no_revision,2017:Q4,0.035699658663772574,3.6893885731254636
exact,pre_advance,DELTA_SA,ar,no_revision,2018:Q1,0.012703611098869368,3.702092184224333
exact,pre_advance,DELTA_SA,ar,no_revision,2018:Q2,0.0030213569949030655,3.705113541219236
exact,pre_advance,DELTA_SA,ar,no_revision,2018:Q3,0.0032310710133240618,3.70834461223256
exact,pre_advance,DELTA_SA,ar,no_revision,2019:Q1,0.3134694480182471,4.021814060250807
exact,pre_advance,DELTA_SA,ar,no_revision,2019:Q2,-0.00020861065790184213,4.021605449592905
exact,pre_advance,DELTA_SA,ar,no_revision,2019:Q3,-0.020795440927072837,4.000810008665832
exact,pre_advance,DELTA_SA,ar,no_revision,2019:Q4,0.022807340587339162,4.023617349253171
exact,pre_advance,DELTA_SA,ar,no_revision,2020:Q1,0.04374626691208146,4.067363616165252
exact,pre_advance,DELTA_SA,ar,no_revision,2020:Q2,-0.4848885887598303,3.582475027405422
exact,pre_advance,DELTA_SA,ar,no_revision,2020:Q3,6.6030936783793335,10.185568705784755
exact,pre_advance,DELTA_SA,ar,no_revision,2020:Q4,0.3494364241901803,10.535005129974936
exact,pre_advance,DELTA_SA,ar,no_revision,2021:Q1,0.010481372036795358,10.54548650201173
exact,pre_advance,DELTA_SA,ar,no_revision,2021:Q2,0.005674643654305938,10.551161145666036
exact,pre_advance,DELTA_SA,ar,no_revision,2021:Q3,-0.00428446848418562,10.546876677181851
exact,pre_advance,DELTA_SA,ar,no_revision,2021:Q4,-0.009636975615624089,10.537239701566227
exact,pre_advance,DELTA_SA,ar,no_revision,2022:Q1,0.05376352283472801,10.591003224400955
exact,pre_advance,DELTA_SA,ar,no_revision,2022:Q2,-0.01747374549873487,10.57352947890222
exact,pre_advance,DELTA_SA,ar,no_revision,2022:Q3,-0.038912176234116996,10.534617302668103
exact,pre_advance,DELTA_SA,ar,no_revision,2022:Q4,0.058622083054108,10.59323938572221
exact,pre_advance,DELTA_SA,ar,no_revision,2023:Q1,-0.02740533844308022,10.56583404727913
exact,pre_advance,DELTA_SA,ar,no_revision,2023:Q2,0.06172819389498699,10.627562241174118
exact,pre_advance,DELTA_SA,ar,no_revision,2023:Q3,-0.03194758936873526,10.595614651805382
exact,pre_advance,DELTA_SA,ar,no_revision,2023:Q4,0.03690159867203891,10.63251625047742
exact,pre_advance,DELTA_SA,ar,no_revision,2024:Q1,0.07155817897030346,10.704074429447724
exact,pre_advance,DELTA_SA,ar,no_revision,2024:Q2,-0.009033581491366181,10.695040847956358
exact,pre_advance,DELTA_SA,ar,no_revision,2024:Q3,0.00727617350536104,10.702317021461718
exact,pre_advance,DELTA_SA,ar,no_revision,2024:Q4,-0.008788760628669104,10.69352826083305
exact,pre_advance,DELTA_SA,ar,release_dfm,2005:Q1,-0.06457257404199196,-0.06457257404199196
exact,pre_advance,DELTA_SA,ar,release_dfm,2005:Q2,0.05392100705411307,-0.010651566987878891
exact,pre_advance,DELTA_SA,ar,release_dfm,2005:Q3,0.12191070539466523,0.11125913840678633
exact,pre_advance,DELTA_SA,ar,release_dfm,2005:Q4,-0.03851182739693809,0.07274731100984824
exact,pre_advance,DELTA_SA,ar,release_dfm,2006:Q1,-0.09630907940028732,-0.02356176839043908
exact,pre_advance,DELTA_SA,ar,release_dfm,2006:Q2,-0.006343046395281451,-0.029904814785720532
exact,pre_advance,DELTA_SA,ar,release_dfm,2006:Q3,-0.1027035776815714,-0.13260839246729195
exact,pre_advance,DELTA_SA,ar,release_dfm,2006:Q4,1.0276047402758972,0.8949963478086053
exact,pre_advance,DELTA_SA,ar,release_dfm,2007:Q1,-0.41408575323464875,0.4809105945739565
exact,pre_advance,DELTA_SA,ar,release_dfm,2007:Q2,0.3272665697635969,0.8081771643375535
exact,pre_advance,DELTA_SA,ar,release_dfm,2007:Q3,-0.3348463681699476,0.47333079616760587
exact,pre_advance,DELTA_SA,ar,release_dfm,2007:Q4,0.23170019018880766,0.7050309863564135
exact,pre_advance,DELTA_SA,ar,release_dfm,2008:Q1,-0.09998664863071874,0.6050443377256948
exact,pre_advance,DELTA_SA,ar,release_dfm,2008:Q2,-0.7880304720767588,-0.18298613435106403
exact,pre_advance,DELTA_SA,ar,release_dfm,2008:Q3,0.9004291296287449,0.7174429952776809
exact,pre_advance,DELTA_SA,ar,release_dfm,2008:Q4,2.0518569757106633,2.769299970988344
exact,pre_advance,DELTA_SA,ar,release_dfm,2009:Q1,-1.309095775368377,1.4602041956199672
exact,pre_advance,DELTA_SA,ar,release_dfm,2009:Q2,0.29556918667558446,1.7557733822955517
exact,pre_advance,DELTA_SA,ar,release_dfm,2009:Q3,0.06344779921680854,1.8192211815123602
exact,pre_advance,DELTA_SA,ar,release_dfm,2009:Q4,0.2826198032348088,2.101840984747169
exact,pre_advance,DELTA_SA,ar,release_dfm,2010:Q1,-0.23945245033583445,1.8623885344113345
exact,pre_advance,DELTA_SA,ar,release_dfm,2010:Q2,-0.43427508410354076,1.4281134503077937
exact,pre_advance,DELTA_SA,ar,release_dfm,2010:Q3,0.5008024804713807,1.9289159307791743
exact,pre_advance,DELTA_SA,ar,release_dfm,2010:Q4,0.25584879905282176,2.184764729831996
exact,pre_advance,DELTA_SA,ar,release_dfm,2011:Q1,0.016558704882427375,2.2013234347144235
exact,pre_advance,DELTA_SA,ar,release_dfm,2011:Q2,0.014075986477936259,2.2153994211923598
exact,pre_advance,DELTA_SA,ar,release_dfm,2011:Q3,-0.15806562807392172,2.057333793118438
exact,pre_advance,DELTA_SA,ar,release_dfm,2011:Q4,0.1550867166435113,2.2124205097619494
exact,pre_advance,DELTA_SA,ar,release_dfm,2012:Q1,-0.06456927922788744,2.147851230534062
exact,pre_advance,DELTA_SA,ar,release_dfm,2012:Q2,0.07649001778942476,2.2243412483234866
exact,pre_advance,DELTA_SA,ar,release_dfm,2012:Q3,-0.09411694703936069,2.1302243012841258
exact,pre_advance,DELTA_SA,ar,release_dfm,2012:Q4,0.0020050161951079247,2.1322293174792337
exact,pre_advance,DELTA_SA,ar,release_dfm,2013:Q1,0.09100039082084721,2.2232297083000807
exact,pre_advance,DELTA_SA,ar,release_dfm,2013:Q2,0.19390107916547772,2.4171307874655583
exact,pre_advance,DELTA_SA,ar,release_dfm,2013:Q3,-0.3479050431917394,2.069225744273819
exact,pre_advance,DELTA_SA,ar,release_dfm,2013:Q4,0.4497329579020104,2.518958702175829
exact,pre_advance,DELTA_SA,ar,release_dfm,2014:Q1,-0.8583308373830141,1.660627864792815
exact,pre_advance,DELTA_SA,ar,release_dfm,2014:Q2,0.3652294107029636,2.0258572754957784
exact,pre_advance,DELTA_SA,ar,release_dfm,2014:Q3,0.01403490485174793,2.0398921803475263
exact,pre_advance,DELTA_SA,ar,release_dfm,2014:Q4,0.08228803521466005,2.1221802155621865
exact,pre_advance,DELTA_SA,ar,release_dfm,2015:Q1,-0.31184236052820247,1.8103378550339841
exact,pre_advance,DELTA_SA,ar,release_dfm,2015:Q2,1.3035716979369338,3.113909552970918
exact,pre_advance,DELTA_SA,ar,release_dfm,2015:Q3,-0.23002657645394253,2.8838829765169756
exact,pre_advance,DELTA_SA,ar,release_dfm,2015:Q4,-0.07014253561235265,2.8137404409046227
exact,pre_advance,DELTA_SA,ar,release_dfm,2016:Q1,-0.06222528198854299,2.75151515891608
exact,pre_advance,DELTA_SA,ar,release_dfm,2016:Q2,0.11559094826535313,2.8671061071814328
exact,pre_advance,DELTA_SA,ar,release_dfm,2016:Q3,0.012368181166111498,2.879474288347544
exact,pre_advance,DELTA_SA,ar,release_dfm,2016:Q4,-2.457762946924194e-05,2.8794497107180748
exact,pre_advance,DELTA_SA,ar,release_dfm,2017:Q1,0.03677153658568007,2.916221247303755
exact,pre_advance,DELTA_SA,ar,release_dfm,2017:Q2,-0.10011724287491425,2.8161040044288406
exact,pre_advance,DELTA_SA,ar,release_dfm,2017:Q3,-0.05757220247213498,2.7585318019567056
exact,pre_advance,DELTA_SA,ar,release_dfm,2017:Q4,-0.018795635845599436,2.739736166111106
exact,pre_advance,DELTA_SA,ar,release_dfm,2018:Q1,-0.07137453950156954,2.6683616266095362
exact,pre_advance,DELTA_SA,ar,release_dfm,2018:Q2,0.02732140167321683,2.695683028282753
exact,pre_advance,DELTA_SA,ar,release_dfm,2018:Q3,-0.01517884791799765,2.680504180364755
exact,pre_advance,DELTA_SA,ar,release_dfm,2019:Q1,0.3056651959381533,2.9861693763029082
exact,pre_advance,DELTA_SA,ar,release_dfm,2019:Q2,-0.006542066970037425,2.9796273093328707
exact,pre_advance,DELTA_SA,ar,release_dfm,2019:Q3,0.0045591534171501615,2.9841864627500208
exact,pre_advance,DELTA_SA,ar,release_dfm,2019:Q4,0.022458742746033496,3.006645205496054
exact,pre_advance,DELTA_SA,ar,release_dfm,2020:Q1,0.07929702576198386,3.0859422312580382
exact,pre_advance,DELTA_SA,ar,release_dfm,2020:Q2,-6.343919910050812,-3.257977678792774
exact,pre_advance,DELTA_SA,ar,release_dfm,2020:Q3,6.585229036056758,3.3272513572639837
exact,pre_advance,DELTA_SA,ar,release_dfm,2020:Q4,0.3553294223382184,3.682580779602202
exact,pre_advance,DELTA_SA,ar,release_dfm,2021:Q1,0.0024895334042018043,3.685070313006404
exact,pre_advance,DELTA_SA,ar,release_dfm,2021:Q2,0.006350212614450523,3.6914205256208543
exact,pre_advance,DELTA_SA,ar,release_dfm,2021:Q3,0.003397448164514412,3.694817973785369
exact,pre_advance,DELTA_SA,ar,release_dfm,2021:Q4,0.00022254856130138077,3.69504052234667
exact,pre_advance,DELTA_SA,ar,release_dfm,2022:Q1,0.02398197233090931,3.719022494677579
exact,pre_advance,DELTA_SA,ar,release_dfm,2022:Q2,0.04202620704813996,3.761048701725719
exact,pre_advance,DELTA_SA,ar,release_dfm,2022:Q3,0.021558902901119156,3.782607604626838
exact,pre_advance,DELTA_SA,ar,release_dfm,2022:Q4,0.007549276239000424,3.7901568808658386
exact,pre_advance,DELTA_SA,ar,release_dfm,2023:Q1,0.0036429627516610056,3.7937998436175
exact,pre_advance,DELTA_SA,ar,release_dfm,2023:Q2,-0.015892029036106203,3.7779078145813934
exact,pre_advance,DELTA_SA,ar,release_dfm,2023:Q3,0.011327669946062588,3.789235484527456
exact,pre_advance,DELTA_SA,ar,release_dfm,2023:Q4,0.01429794297308309,3.8035334275005392
exact,pre_advance,DELTA_SA,ar,release_dfm,2024:Q1,-0.001782041940785073,3.8017513855597542
exact,pre_advance,DELTA_SA,ar,release_dfm,2024:Q2,0.0030115301445589647,3.804762915704313
exact,pre_advance,DELTA_SA,ar,release_dfm,2024:Q3,0.0003461342174390092,3.805109049921752
exact,pre_advance,DELTA_SA,ar,release_dfm,2024:Q4,2.5610952888988313e-05,3.805134660874641
exact,pre_advance,DELTA_SA,ar,revision_dfm_kalman_em,2005:Q1,-0.1139628668705687,-0.1139628668705687
exact,pre_advance,DELTA_SA,ar,revision_dfm_kalman_em,2005:Q2,0.08717368674841941,-0.026789180122149286
exact,pre_advance,DELTA_SA,ar,revision_dfm_kalman_em,2005:Q3,0.13526727492484686,0.10847809480269757
exact,pre_advance,DELTA_SA,ar,revision_dfm_kalman_em,2005:Q4,-0.025033806546947465,0.08344428825575011
exact,pre_advance,DELTA_SA,ar,revision_dfm_kalman_em,2006:Q1,-0.11374420651012465,-0.030299918254374544
exact,pre_advance,DELTA_SA,ar,revision_dfm_kalman_em,2006:Q2,-0.10484314471827366,-0.13514306297264822
exact,pre_advance,DELTA_SA,ar,revision_dfm_kalman_em,2006:Q3,-0.23991505671619917,-0.3750581196888474
exact,pre_advance,DELTA_SA,ar,revision_dfm_kalman_em,2006:Q4,1.258483018876998,0.8834248991881506
exact,pre_advance,DELTA_SA,ar,revision_dfm_kalman_em,2007:Q1,-0.9795303272158373,-0.09610542802768673
exact,pre_advance,DELTA_SA,ar,revision_dfm_kalman_em,2007:Q2,0.5116530976118736,0.4155476695841869
exact,pre_advance,DELTA_SA,ar,revision_dfm_kalman_em,2007:Q3,-0.4641424599863685,-0.04859479040218162
exact,pre_advance,DELTA_SA,ar,revision_dfm_kalman_em,2007:Q4,0.19100010171734802,0.1424053113151664
exact,pre_advance,DELTA_SA,ar,revision_dfm_kalman_em,2008:Q1,-0.01041568014213708,0.1319896311730293
exact,pre_advance,DELTA_SA,ar,revision_dfm_kalman_em,2008:Q2,-0.4660916930393697,-0.3341020618663404
exact,pre_advance,DELTA_SA,ar,revision_dfm_kalman_em,2008:Q3,0.9379237002408998,0.6038216383745594
exact,pre_advance,DELTA_SA,ar,revision_dfm_kalman_em,2008:Q4,2.5367495673831577,3.140571205757717
exact,pre_advance,DELTA_SA,ar,revision_dfm_kalman_em,2009:Q1,1.3180257011868166,4.458596906944534
exact,pre_advance,DELTA_SA,ar,revision_dfm_kalman_em,2009:Q2,-0.8243869847909954,3.634209922153538
exact,pre_advance,DELTA_SA,ar,revision_dfm_kalman_em,2009:Q3,-1.1925481016527226,2.4416618205008156
exact,pre_advance,DELTA_SA,ar,revision_dfm_kalman_em,2009:Q4,0.26188272739428686,2.7035445478951026
exact,pre_advance,DELTA_SA,ar,revision_dfm_kalman_em,2010:Q1,-0.2321106927245815,2.4714338551705213
exact,pre_advance,DELTA_SA,ar,revision_dfm_kalman_em,2010:Q2,-0.902556366159602,1.5688774890109194
exact,pre_advance,DELTA_SA,ar,revision_dfm_kalman_em,2010:Q3,0.6535134423460205,2.22239093135694
exact,pre_advance,DELTA_SA,ar,revision_dfm_kalman_em,2010:Q4,0.29349668494612724,2.515887616303067
exact,pre_advance,DELTA_SA,ar,revision_dfm_kalman_em,2011:Q1,-0.05485481063628381,2.4610328056667834
exact,pre_advance,DELTA_SA,ar,revision_dfm_kalman_em,2011:Q2,-0.09059350991536477,2.3704392957514187
exact,pre_advance,DELTA_SA,ar,revision_dfm_kalman_em,2011:Q3,-0.4153281746781049,1.9551111210733136
exact,pre_advance,DELTA_SA,ar,revision_dfm_kalman_em,2011:Q4,0.14942248121749932,2.1045336022908128
exact,pre_advance,DELTA_SA,ar,revision_dfm_kalman_em,2012:Q1,-0.15345875635224124,1.9510748459385716
exact,pre_advance,DELTA_SA,ar,revision_dfm_kalman_em,2012:Q2,0.08922894036953108,2.040303786308103
exact,pre_advance,DELTA_SA,ar,revision_dfm_kalman_em,2012:Q3,-0.07133648314762209,1.9689673031604809
exact,pre_advance,DELTA_SA,ar,revision_dfm_kalman_em,2012:Q4,-0.00547152116604183,1.963495781994439
exact,pre_advance,DELTA_SA,ar,revision_dfm_kalman_em,2013:Q1,0.010068655242172153,1.973564437236611
exact,pre_advance,DELTA_SA,ar,revision_dfm_kalman_em,2013:Q2,0.2725169827204945,2.2460814199571058
exact,pre_advance,DELTA_SA,ar,revision_dfm_kalman_em,2013:Q3,-0.3496109792764186,1.8964704406806872
exact,pre_advance,DELTA_SA,ar,revision_dfm_kalman_em,2013:Q4,0.3746676035167742,2.2711380441974613
exact,pre_advance,DELTA_SA,ar,revision_dfm_kalman_em,2014:Q1,-1.2924495703099306,0.9786884738875308
exact,pre_advance,DELTA_SA,ar,revision_dfm_kalman_em,2014:Q2,0.2889515257570056,1.2676399996445364
exact,pre_advance,DELTA_SA,ar,revision_dfm_kalman_em,2014:Q3,-0.03814730273596578,1.2294926969085707
exact,pre_advance,DELTA_SA,ar,revision_dfm_kalman_em,2014:Q4,0.05055425600667285,1.2800469529152436
exact,pre_advance,DELTA_SA,ar,revision_dfm_kalman_em,2015:Q1,-0.31241607763524926,0.9676308752799944
exact,pre_advance,DELTA_SA,ar,revision_dfm_kalman_em,2015:Q2,1.5962142179323682,2.5638450932123624
exact,pre_advance,DELTA_SA,ar,revision_dfm_kalman_em,2015:Q3,-0.2753787667388381,2.2884663264735243
exact,pre_advance,DELTA_SA,ar,revision_dfm_kalman_em,2015:Q4,-0.12763066145105165,2.1608356650224727
exact,pre_advance,DELTA_SA,ar,revision_dfm_kalman_em,2016:Q1,-0.04680749653781032,2.1140281684846625
exact,pre_advance,DELTA_SA,ar,revision_dfm_kalman_em,2016:Q2,0.06944312120612024,2.183471289690783
exact,pre_advance,DELTA_SA,ar,revision_dfm_kalman_em,2016:Q3,0.04008971384555951,2.2235610035363425
exact,pre_advance,DELTA_SA,ar,revision_dfm_kalman_em,2016:Q4,0.009430385192608352,2.232991388728951
exact,pre_advance,DELTA_SA,ar,revision_dfm_kalman_em,2017:Q1,0.07711960877192503,2.310110997500876
exact,pre_advance,DELTA_SA,ar,revision_dfm_kalman_em,2017:Q2,-0.019856032599316894,2.290254964901559
exact,pre_advance,DELTA_SA,ar,revision_dfm_kalman_em,2017:Q3,-0.1379430930368302,2.152311871864729
exact,pre_advance,DELTA_SA,ar,revision_dfm_kalman_em,2017:Q4,-0.14889286637079624,2.0034190054939325
exact,pre_advance,DELTA_SA,ar,revision_dfm_kalman_em,2018:Q1,-0.13015705251187012,1.8732619529820624
exact,pre_advance,DELTA_SA,ar,revision_dfm_kalman_em,2018:Q2,0.02147919006845732,1.8947411430505197
exact,pre_advance,DELTA_SA,ar,revision_dfm_kalman_em,2018:Q3,-0.012819545559075838,1.8819215974914438
exact,pre_advance,DELTA_SA,ar,revision_dfm_kalman_em,2019:Q1,0.30626321916101884,2.1881848166524627
exact,pre_advance,DELTA_SA,ar,revision_dfm_kalman_em,2019:Q2,-0.0029554307747358993,2.1852293858777267
exact,pre_advance,DELTA_SA,ar,revision_dfm_kalman_em,2019:Q3,0.01775529658755252,2.2029846824652792
exact,pre_advance,DELTA_SA,ar,revision_dfm_kalman_em,2019:Q4,0.021169249336212087,2.2241539318014913
exact,pre_advance,DELTA_SA,ar,revision_dfm_kalman_em,2020:Q1,0.11065061793903913,2.3348045497405305
exact,pre_advance,DELTA_SA,ar,revision_dfm_kalman_em,2020:Q2,-5.2696467183075395,-2.934842168567009
exact,pre_advance,DELTA_SA,ar,revision_dfm_kalman_em,2020:Q3,5.720477958808465,2.7856357902414564
exact,pre_advance,DELTA_SA,ar,revision_dfm_kalman_em,2020:Q4,0.22824662488200592,3.0138824151234624
exact,pre_advance,DELTA_SA,ar,revision_dfm_kalman_em,2021:Q1,-0.03375099328683975,2.9801314218366226
exact,pre_advance,DELTA_SA,ar,revision_dfm_kalman_em,2021:Q2,0.002838053286563327,2.982969475123186
exact,pre_advance,DELTA_SA,ar,revision_dfm_kalman_em,2021:Q3,0.0023204310865565358,2.985289906209742
exact,pre_advance,DELTA_SA,ar,revision_dfm_kalman_em,2021:Q4,-0.009959766658749956,2.975330139550992
exact,pre_advance,DELTA_SA,ar,revision_dfm_kalman_em,2022:Q1,0.018708499097876946,2.994038638648869
exact,pre_advance,DELTA_SA,ar,revision_dfm_kalman_em,2022:Q2,0.11114952945599119,3.1051881681048603
exact,pre_advance,DELTA_SA,ar,revision_dfm_kalman_em,2022:Q3,0.08252022873989281,3.1877083968447533
exact,pre_advance,DELTA_SA,ar,revision_dfm_kalman_em,2022:Q4,0.00400167032703326,3.1917100671717864
exact,pre_advance,DELTA_SA,ar,revision_dfm_kalman_em,2023:Q1,0.001706141293429284,3.193416208465216
exact,pre_advance,DELTA_SA,ar,revision_dfm_kalman_em,2023:Q2,-0.051269890137476126,3.1421463183277396
exact,pre_advance,DELTA_SA,ar,revision_dfm_kalman_em,2023:Q3,0.03142493402417278,3.173571252351912
exact,pre_advance,DELTA_SA,ar,revision_dfm_kalman_em,2023:Q4,0.02880799715921524,3.2023792495111274
exact,pre_advance,DELTA_SA,ar,revision_dfm_kalman_em,2024:Q1,0.022629354973636134,3.2250086044847635
exact,pre_advance,DELTA_SA,ar,revision_dfm_kalman_em,2024:Q2,0.0019205109531869268,3.2269291154379505
exact,pre_advance,DELTA_SA,ar,revision_dfm_kalman_em,2024:Q3,-0.00593208225914315,3.2209970331788074
exact,pre_advance,DELTA_SA,ar,revision_dfm_kalman_em,2024:Q4,2.8389730988215368e-05,3.2210254229097957
exact,pre_advance,DELTA_SA,ar,spf,2005:Q1,-0.15257503321613658,-0.15257503321613658
exact,pre_advance,DELTA_SA,ar,spf,2005:Q2,0.10304262774761302,-0.049532405468523555
exact,pre_advance,DELTA_SA,ar,spf,2005:Q3,0.03151683579611303,-0.018015569672410525
exact,pre_advance,DELTA_SA,ar,spf,2005:Q4,-0.17958946757420496,-0.1976050372466155
exact,pre_advance,DELTA_SA,ar,spf,2006:Q1,-0.22225097588053042,-0.41985601312714593
exact,pre_advance,DELTA_SA,ar,spf,2006:Q2,-0.1338214718146227,-0.5536774849417686
exact,pre_advance,DELTA_SA,ar,spf,2006:Q3,-0.2655324769569707,-0.8192099618987393
exact,pre_advance,DELTA_SA,ar,spf,2006:Q4,1.1280810824986391,0.30887112059989985
exact,pre_advance,DELTA_SA,ar,spf,2007:Q1,-0.36488258133290913,-0.05601146073300928
exact,pre_advance,DELTA_SA,ar,spf,2007:Q2,0.2101220628635298,0.15411060213052052
exact,pre_advance,DELTA_SA,ar,spf,2007:Q3,-0.5038879623481906,-0.34977736021767003
exact,pre_advance,DELTA_SA,ar,spf,2007:Q4,0.23194641324995732,-0.11783094696771271
exact,pre_advance,DELTA_SA,ar,spf,2008:Q1,-0.06565748592115798,-0.18348843288887068
exact,pre_advance,DELTA_SA,ar,spf,2008:Q2,-0.7051418869943866,-0.8886303198832572
exact,pre_advance,DELTA_SA,ar,spf,2008:Q3,0.8839041046210189,-0.004726215262238376
exact,pre_advance,DELTA_SA,ar,spf,2008:Q4,0.39399862829546173,0.38927241303322335
exact,pre_advance,DELTA_SA,ar,spf,2009:Q1,1.3203689037955737,1.709641316828797
exact,pre_advance,DELTA_SA,ar,spf,2009:Q2,0.36877932291984866,2.0784206397486455
exact,pre_advance,DELTA_SA,ar,spf,2009:Q3,0.31974831955083616,2.3981689592994817
exact,pre_advance,DELTA_SA,ar,spf,2009:Q4,0.2461874095178597,2.6443563688173413
exact,pre_advance,DELTA_SA,ar,spf,2010:Q1,0.012274663642203441,2.656631032459545
exact,pre_advance,DELTA_SA,ar,spf,2010:Q2,-0.10097637669884518,2.5556546557606996
exact,pre_advance,DELTA_SA,ar,spf,2010:Q3,0.41001530272678194,2.9656699584874815
exact,pre_advance,DELTA_SA,ar,spf,2010:Q4,0.33708017745408314,3.3027501359415647
exact,pre_advance,DELTA_SA,ar,spf,2011:Q1,0.05273638935335863,3.3554865252949235
exact,pre_advance,DELTA_SA,ar,spf,2011:Q2,0.0864949621817803,3.4419814874767036
exact,pre_advance,DELTA_SA,ar,spf,2011:Q3,-0.03822954602021156,3.403751941456492
exact,pre_advance,DELTA_SA,ar,spf,2011:Q4,0.1042486389810256,3.5080005804375176
exact,pre_advance,DELTA_SA,ar,spf,2012:Q1,0.12270345028699549,3.6307040307245133
exact,pre_advance,DELTA_SA,ar,spf,2012:Q2,0.05124300972150874,3.681947040446022
exact,pre_advance,DELTA_SA,ar,spf,2012:Q3,-0.19803121584843814,3.483915824597584
exact,pre_advance,DELTA_SA,ar,spf,2012:Q4,-0.06160444841889918,3.4223113761786847
exact,pre_advance,DELTA_SA,ar,spf,2013:Q1,0.13839352919058448,3.560704905369269
exact,pre_advance,DELTA_SA,ar,spf,2013:Q2,0.010665904843470964,3.5713708102127404
exact,pre_advance,DELTA_SA,ar,spf,2013:Q3,-0.49085393179229264,3.0805168784204477
exact,pre_advance,DELTA_SA,ar,spf,2013:Q4,0.8147882022650561,3.895305080685504
exact,pre_advance,DELTA_SA,ar,spf,2014:Q1,-0.6728261778290336,3.22247890285647
exact,pre_advance,DELTA_SA,ar,spf,2014:Q2,0.3153905835886226,3.537869486445093
exact,pre_advance,DELTA_SA,ar,spf,2014:Q3,-0.05736992828325174,3.480499558161841
exact,pre_advance,DELTA_SA,ar,spf,2014:Q4,0.18045818425062124,3.6609577424124624
exact,pre_advance,DELTA_SA,ar,spf,2015:Q1,-0.30424364925329495,3.3567140931591677
exact,pre_advance,DELTA_SA,ar,spf,2015:Q2,1.0249249122593762,4.381639005418544
exact,pre_advance,DELTA_SA,ar,spf,2015:Q3,-0.3345827492334456,4.0470562561850985
exact,pre_advance,DELTA_SA,ar,spf,2015:Q4,-0.09676443992777004,3.9502918162573284
exact,pre_advance,DELTA_SA,ar,spf,2016:Q1,-0.09029065158363185,3.8600011646736965
exact,pre_advance,DELTA_SA,ar,spf,2016:Q2,0.1360297525459644,3.996030917219661
exact,pre_advance,DELTA_SA,ar,spf,2016:Q3,-0.021175007572158712,3.974855909647502
exact,pre_advance,DELTA_SA,ar,spf,2016:Q4,0.02734587565242416,4.002201785299926
exact,pre_advance,DELTA_SA,ar,spf,2017:Q1,-0.056295362083760514,3.945906423216165
exact,pre_advance,DELTA_SA,ar,spf,2017:Q2,-0.1998229027002102,3.746083520515955
exact,pre_advance,DELTA_SA,ar,spf,2017:Q3,-0.09239460605426397,3.653688914461691
exact,pre_advance,DELTA_SA,ar,spf,2017:Q4,0.035699658663772574,3.6893885731254636
exact,pre_advance,DELTA_SA,ar,spf,2018:Q1,0.012703611098869368,3.702092184224333
exact,pre_advance,DELTA_SA,ar,spf,2018:Q2,0.0030213569949030655,3.705113541219236
exact,pre_advance,DELTA_SA,ar,spf,2018:Q3,0.0032310710133240618,3.70834461223256
exact,pre_advance,DELTA_SA,ar,spf,2019:Q1,0.3134694480182471,4.021814060250807
exact,pre_advance,DELTA_SA,ar,spf,2019:Q2,-0.00020861065790184213,4.021605449592905
exact,pre_advance,DELTA_SA,ar,spf,2019:Q3,-0.020795440927072837,4.000810008665832
exact,pre_advance,DELTA_SA,ar,spf,2019:Q4,0.022807340587339162,4.023617349253171
exact,pre_advance,DELTA_SA,ar,spf,2020:Q1,0.04374626691208146,4.067363616165252
exact,pre_advance,DELTA_SA,ar,spf,2020:Q2,-0.4848885887598303,3.582475027405422
exact,pre_advance,DELTA_SA,ar,spf,2020:Q3,6.6030936783793335,10.185568705784755
exact,pre_advance,DELTA_SA,ar,spf,2020:Q4,0.3494364241901803,10.535005129974936
exact,pre_advance,DELTA_SA,ar,spf,2021:Q1,0.010481372036795358,10.54548650201173
exact,pre_advance,DELTA_SA,ar,spf,2021:Q2,0.005674643654305938,10.551161145666036
exact,pre_advance,DELTA_SA,ar,spf,2021:Q3,-0.00428446848418562,10.546876677181851
exact,pre_advance,DELTA_SA,ar,spf,2021:Q4,-0.009636975615624089,10.537239701566227
exact,pre_advance,DELTA_SA,ar,spf,2022:Q1,0.05376352283472801,10.591003224400955
exact,pre_advance,DELTA_SA,ar,spf,2022:Q2,-0.01747374549873487,10.57352947890222
exact,pre_advance,DELTA_SA,ar,spf,2022:Q3,-0.038912176234116996,10.534617302668103
exact,pre_advance,DELTA_SA,ar,spf,2022:Q4,0.058622083054108,10.59323938572221
exact,pre_advance,DELTA_SA,ar,spf,2023:Q1,-0.02740533844308022,10.56583404727913
exact,pre_advance,DELTA_SA,ar,spf,2023:Q2,0.06172819389498699,10.627562241174118
exact,pre_advance,DELTA_SA,ar,spf,2023:Q3,-0.03194758936873526,10.595614651805382
exact,pre_advance,DELTA_SA,ar,spf,2023:Q4,0.03690159867203891,10.63251625047742
exact,pre_advance,DELTA_SA,ar,spf,2024:Q1,0.07155817897030346,10.704074429447724
exact,pre_advance,DELTA_SA,ar,spf,2024:Q2,-0.009033581491366181,10.695040847956358
exact,pre_advance,DELTA_SA,ar,spf,2024:Q3,0.00727617350536104,10.702317021461718
exact,pre_advance,DELTA_SA,ar,spf,2024:Q4,-0.008788760628669104,10.69352826083305
exact,pre_advance,DELTA_SA,ar,standard_dfm,2005:Q1,-0.06457257404199196,-0.06457257404199196
exact,pre_advance,DELTA_SA,ar,standard_dfm,2005:Q2,0.05392100705411307,-0.010651566987878891
exact,pre_advance,DELTA_SA,ar,standard_dfm,2005:Q3,0.12191070539466523,0.11125913840678633
exact,pre_advance,DELTA_SA,ar,standard_dfm,2005:Q4,-0.03851182739693809,0.07274731100984824
exact,pre_advance,DELTA_SA,ar,standard_dfm,2006:Q1,-0.09630907940028732,-0.02356176839043908
exact,pre_advance,DELTA_SA,ar,standard_dfm,2006:Q2,-0.006343046395281451,-0.029904814785720532
exact,pre_advance,DELTA_SA,ar,standard_dfm,2006:Q3,-0.1027035776815714,-0.13260839246729195
exact,pre_advance,DELTA_SA,ar,standard_dfm,2006:Q4,1.0276047402758972,0.8949963478086053
exact,pre_advance,DELTA_SA,ar,standard_dfm,2007:Q1,-0.41408575323464875,0.4809105945739565
exact,pre_advance,DELTA_SA,ar,standard_dfm,2007:Q2,0.3272665697635969,0.8081771643375535
exact,pre_advance,DELTA_SA,ar,standard_dfm,2007:Q3,-0.3348463681699476,0.47333079616760587
exact,pre_advance,DELTA_SA,ar,standard_dfm,2007:Q4,0.23170019018880766,0.7050309863564135
exact,pre_advance,DELTA_SA,ar,standard_dfm,2008:Q1,-0.09998664863071874,0.6050443377256948
exact,pre_advance,DELTA_SA,ar,standard_dfm,2008:Q2,-0.7880304720767588,-0.18298613435106403
exact,pre_advance,DELTA_SA,ar,standard_dfm,2008:Q3,0.9004291296287449,0.7174429952776809
exact,pre_advance,DELTA_SA,ar,standard_dfm,2008:Q4,2.0518569757106633,2.769299970988344
exact,pre_advance,DELTA_SA,ar,standard_dfm,2009:Q1,-1.309095775368377,1.4602041956199672
exact,pre_advance,DELTA_SA,ar,standard_dfm,2009:Q2,0.29556918667558446,1.7557733822955517
exact,pre_advance,DELTA_SA,ar,standard_dfm,2009:Q3,0.06344779921680854,1.8192211815123602
exact,pre_advance,DELTA_SA,ar,standard_dfm,2009:Q4,0.2826198032348088,2.101840984747169
exact,pre_advance,DELTA_SA,ar,standard_dfm,2010:Q1,-0.23945245033583445,1.8623885344113345
exact,pre_advance,DELTA_SA,ar,standard_dfm,2010:Q2,-0.43427508410354076,1.4281134503077937
exact,pre_advance,DELTA_SA,ar,standard_dfm,2010:Q3,0.5008024804713807,1.9289159307791743
exact,pre_advance,DELTA_SA,ar,standard_dfm,2010:Q4,0.25584879905282176,2.184764729831996
exact,pre_advance,DELTA_SA,ar,standard_dfm,2011:Q1,0.016558704882427375,2.2013234347144235
exact,pre_advance,DELTA_SA,ar,standard_dfm,2011:Q2,0.014075986477936259,2.2153994211923598
exact,pre_advance,DELTA_SA,ar,standard_dfm,2011:Q3,-0.15806562807392172,2.057333793118438
exact,pre_advance,DELTA_SA,ar,standard_dfm,2011:Q4,0.1550867166435113,2.2124205097619494
exact,pre_advance,DELTA_SA,ar,standard_dfm,2012:Q1,-0.06456927922788744,2.147851230534062
exact,pre_advance,DELTA_SA,ar,standard_dfm,2012:Q2,0.07649001778942476,2.2243412483234866
exact,pre_advance,DELTA_SA,ar,standard_dfm,2012:Q3,-0.09411694703936069,2.1302243012841258
exact,pre_advance,DELTA_SA,ar,standard_dfm,2012:Q4,0.0020050161951079247,2.1322293174792337
exact,pre_advance,DELTA_SA,ar,standard_dfm,2013:Q1,0.09100039082084721,2.2232297083000807
exact,pre_advance,DELTA_SA,ar,standard_dfm,2013:Q2,0.19390107916547772,2.4171307874655583
exact,pre_advance,DELTA_SA,ar,standard_dfm,2013:Q3,-0.3479050431917394,2.069225744273819
exact,pre_advance,DELTA_SA,ar,standard_dfm,2013:Q4,0.4497329579020104,2.518958702175829
exact,pre_advance,DELTA_SA,ar,standard_dfm,2014:Q1,-0.8583308373830141,1.660627864792815
exact,pre_advance,DELTA_SA,ar,standard_dfm,2014:Q2,0.3652294107029636,2.0258572754957784
exact,pre_advance,DELTA_SA,ar,standard_dfm,2014:Q3,0.01403490485174793,2.0398921803475263
exact,pre_advance,DELTA_SA,ar,standard_dfm,2014:Q4,0.08228803521466005,2.1221802155621865
exact,pre_advance,DELTA_SA,ar,standard_dfm,2015:Q1,-0.31184236052820247,1.8103378550339841
exact,pre_advance,DELTA_SA,ar,standard_dfm,2015:Q2,1.3035716979369338,3.113909552970918
exact,pre_advance,DELTA_SA,ar,standard_dfm,2015:Q3,-0.23002657645394253,2.8838829765169756
exact,pre_advance,DELTA_SA,ar,standard_dfm,2015:Q4,-0.07014253561235265,2.8137404409046227
exact,pre_advance,DELTA_SA,ar,standard_dfm,2016:Q1,-0.06222528198854299,2.75151515891608
exact,pre_advance,DELTA_SA,ar,standard_dfm,2016:Q2,0.11559094826535313,2.8671061071814328
exact,pre_advance,DELTA_SA,ar,standard_dfm,2016:Q3,0.012368181166111498,2.879474288347544
exact,pre_advance,DELTA_SA,ar,standard_dfm,2016:Q4,-2.457762946924194e-05,2.8794497107180748
exact,pre_advance,DELTA_SA,ar,standard_dfm,2017:Q1,0.03677153658568007,2.916221247303755
exact,pre_advance,DELTA_SA,ar,standard_dfm,2017:Q2,-0.10011724287491425,2.8161040044288406
exact,pre_advance,DELTA_SA,ar,standard_dfm,2017:Q3,-0.05757220247213498,2.7585318019567056
exact,pre_advance,DELTA_SA,ar,standard_dfm,2017:Q4,-0.018795635845599436,2.739736166111106
exact,pre_advance,DELTA_SA,ar,standard_dfm,2018:Q1,-0.07137453950156954,2.6683616266095362
exact,pre_advance,DELTA_SA,ar,standard_dfm,2018:Q2,0.02732140167321683,2.695683028282753
exact,pre_advance,DELTA_SA,ar,standard_dfm,2018:Q3,-0.01517884791799765,2.680504180364755
exact,pre_advance,DELTA_SA,ar,standard_dfm,2019:Q1,0.3056651959381533,2.9861693763029082
exact,pre_advance,DELTA_SA,ar,standard_dfm,2019:Q2,-0.006542066970037425,2.9796273093328707
exact,pre_advance,DELTA_SA,ar,standard_dfm,2019:Q3,0.0045591534171501615,2.9841864627500208
exact,pre_advance,DELTA_SA,ar,standard_dfm,2019:Q4,0.022458742746033496,3.006645205496054
exact,pre_advance,DELTA_SA,ar,standard_dfm,2020:Q1,0.07929702576198386,3.0859422312580382
exact,pre_advance,DELTA_SA,ar,standard_dfm,2020:Q2,-6.343919910050812,-3.257977678792774
exact,pre_advance,DELTA_SA,ar,standard_dfm,2020:Q3,6.585229036056758,3.3272513572639837
exact,pre_advance,DELTA_SA,ar,standard_dfm,2020:Q4,0.3553294223382184,3.682580779602202
exact,pre_advance,DELTA_SA,ar,standard_dfm,2021:Q1,0.0024895334042018043,3.685070313006404
exact,pre_advance,DELTA_SA,ar,standard_dfm,2021:Q2,0.006350212614450523,3.6914205256208543
exact,pre_advance,DELTA_SA,ar,standard_dfm,2021:Q3,0.003397448164514412,3.694817973785369
exact,pre_advance,DELTA_SA,ar,standard_dfm,2021:Q4,0.00022254856130138077,3.69504052234667
exact,pre_advance,DELTA_SA,ar,standard_dfm,2022:Q1,0.02398197233090931,3.719022494677579
exact,pre_advance,DELTA_SA,ar,standard_dfm,2022:Q2,0.04202620704813996,3.761048701725719
exact,pre_advance,DELTA_SA,ar,standard_dfm,2022:Q3,0.021558902901119156,3.782607604626838
exact,pre_advance,DELTA_SA,ar,standard_dfm,2022:Q4,0.007549276239000424,3.7901568808658386
exact,pre_advance,DELTA_SA,ar,standard_dfm,2023:Q1,0.0036429627516610056,3.7937998436175
exact,pre_advance,DELTA_SA,ar,standard_dfm,2023:Q2,-0.015892029036106203,3.7779078145813934
exact,pre_advance,DELTA_SA,ar,standard_dfm,2023:Q3,0.011327669946062588,3.789235484527456
exact,pre_advance,DELTA_SA,ar,standard_dfm,2023:Q4,0.01429794297308309,3.8035334275005392
exact,pre_advance,DELTA_SA,ar,standard_dfm,2024:Q1,-0.001782041940785073,3.8017513855597542
exact,pre_advance,DELTA_SA,ar,standard_dfm,2024:Q2,0.0030115301445589647,3.804762915704313
exact,pre_advance,DELTA_SA,ar,standard_dfm,2024:Q3,0.0003461342174390092,3.805109049921752
exact,pre_advance,DELTA_SA,ar,standard_dfm,2024:Q4,2.5610952888988313e-05,3.805134660874641
exact,pre_advance,DELTA_SA,no_revision,ar,2005:Q1,0.15257503321613658,0.15257503321613658
exact,pre_advance,DELTA_SA,no_revision,ar,2005:Q2,-0.10304262774761302,0.049532405468523555
exact,pre_advance,DELTA_SA,no_revision,ar,2005:Q3,-0.03151683579611303,0.018015569672410525
exact,pre_advance,DELTA_SA,no_revision,ar,2005:Q4,0.17958946757420496,0.1976050372466155
exact,pre_advance,DELTA_SA,no_revision,ar,2006:Q1,0.22225097588053042,0.41985601312714593
exact,pre_advance,DELTA_SA,no_revision,ar,2006:Q2,0.1338214718146227,0.5536774849417686
exact,pre_advance,DELTA_SA,no_revision,ar,2006:Q3,0.2655324769569707,0.8192099618987393
exact,pre_advance,DELTA_SA,no_revision,ar,2006:Q4,-1.1280810824986391,-0.30887112059989985
exact,pre_advance,DELTA_SA,no_revision,ar,2007:Q1,0.36488258133290913,0.05601146073300928
exact,pre_advance,DELTA_SA,no_revision,ar,2007:Q2,-0.2101220628635298,-0.15411060213052052
exact,pre_advance,DELTA_SA,no_revision,ar,2007:Q3,0.5038879623481906,0.34977736021767003
exact,pre_advance,DELTA_SA,no_revision,ar,2007:Q4,-0.23194641324995732,0.11783094696771271
exact,pre_advance,DELTA_SA,no_revision,ar,2008:Q1,0.06565748592115798,0.18348843288887068
exact,pre_advance,DELTA_SA,no_revision,ar,2008:Q2,0.7051418869943866,0.8886303198832572
exact,pre_advance,DELTA_SA,no_revision,ar,2008:Q3,-0.8839041046210189,0.004726215262238376
exact,pre_advance,DELTA_SA,no_revision,ar,2008:Q4,-0.39399862829546173,-0.38927241303322335
exact,pre_advance,DELTA_SA,no_revision,ar,2009:Q1,-1.3203689037955737,-1.709641316828797
exact,pre_advance,DELTA_SA,no_revision,ar,2009:Q2,-0.36877932291984866,-2.0784206397486455
exact,pre_advance,DELTA_SA,no_revision,ar,2009:Q3,-0.31974831955083616,-2.3981689592994817
exact,pre_advance,DELTA_SA,no_revision,ar,2009:Q4,-0.2461874095178597,-2.6443563688173413
exact,pre_advance,DELTA_SA,no_revision,ar,2010:Q1,-0.012274663642203441,-2.656631032459545
exact,pre_advance,DELTA_SA,no_revision,ar,2010:Q2,0.10097637669884518,-2.5556546557606996
exact,pre_advance,DELTA_SA,no_revision,ar,2010:Q3,-0.41001530272678194,-2.9656699584874815
exact,pre_advance,DELTA_SA,no_revision,ar,2010:Q4,-0.33708017745408314,-3.3027501359415647
exact,pre_advance,DELTA_SA,no_revision,ar,2011:Q1,-0.05273638935335863,-3.3554865252949235
exact,pre_advance,DELTA_SA,no_revision,ar,2011:Q2,-0.0864949621817803,-3.4419814874767036
exact,pre_advance,DELTA_SA,no_revision,ar,2011:Q3,0.03822954602021156,-3.403751941456492
exact,pre_advance,DELTA_SA,no_revision,ar,2011:Q4,-0.1042486389810256,-3.5080005804375176
exact,pre_advance,DELTA_SA,no_revision,ar,2012:Q1,-0.12270345028699549,-3.6307040307245133
exact,pre_advance,DELTA_SA,no_revision,ar,2012:Q2,-0.05124300972150874,-3.681947040446022
exact,pre_advance,DELTA_SA,no_revision,ar,2012:Q3,0.19803121584843814,-3.483915824597584
exact,pre_advance,DELTA_SA,no_revision,ar,2012:Q4,0.06160444841889918,-3.4223113761786847
exact,pre_advance,DELTA_SA,no_revision,ar,2013:Q1,-0.13839352919058448,-3.560704905369269
exact,pre_advance,DELTA_SA,no_revision,ar,2013:Q2,-0.010665904843470964,-3.5713708102127404
exact,pre_advance,DELTA_SA,no_revision,ar,2013:Q3,0.49085393179229264,-3.0805168784204477
exact,pre_advance,DELTA_SA,no_revision,ar,2013:Q4,-0.8147882022650561,-3.895305080685504
exact,pre_advance,DELTA_SA,no_revision,ar,2014:Q1,0.6728261778290336,-3.22247890285647
exact,pre_advance,DELTA_SA,no_revision,ar,2014:Q2,-0.3153905835886226,-3.537869486445093
exact,pre_advance,DELTA_SA,no_revision,ar,2014:Q3,0.05736992828325174,-3.480499558161841
exact,pre_advance,DELTA_SA,no_revision,ar,2014:Q4,-0.18045818425062124,-3.6609577424124624
exact,pre_advance,DELTA_SA,no_revision,ar,2015:Q1,0.30424364925329495,-3.3567140931591677
exact,pre_advance,DELTA_SA,no_revision,ar,2015:Q2,-1.0249249122593762,-4.381639005418544
exact,pre_advance,DELTA_SA,no_revision,ar,2015:Q3,0.3345827492334456,-4.0470562561850985
exact,pre_advance,DELTA_SA,no_revision,ar,2015:Q4,0.09676443992777004,-3.9502918162573284
exact,pre_advance,DELTA_SA,no_revision,ar,2016:Q1,0.09029065158363185,-3.8600011646736965
exact,pre_advance,DELTA_SA,no_revision,ar,2016:Q2,-0.1360297525459644,-3.996030917219661
exact,pre_advance,DELTA_SA,no_revision,ar,2016:Q3,0.021175007572158712,-3.974855909647502
exact,pre_advance,DELTA_SA,no_revision,ar,2016:Q4,-0.02734587565242416,-4.002201785299926
exact,pre_advance,DELTA_SA,no_revision,ar,2017:Q1,0.056295362083760514,-3.945906423216165
exact,pre_advance,DELTA_SA,no_revision,ar,2017:Q2,0.1998229027002102,-3.746083520515955
exact,pre_advance,DELTA_SA,no_revision,ar,2017:Q3,0.09239460605426397,-3.653688914461691
exact,pre_advance,DELTA_SA,no_revision,ar,2017:Q4,-0.035699658663772574,-3.6893885731254636
exact,pre_advance,DELTA_SA,no_revision,ar,2018:Q1,-0.012703611098869368,-3.702092184224333
exact,pre_advance,DELTA_SA,no_revision,ar,2018:Q2,-0.0030213569949030655,-3.705113541219236
exact,pre_advance,DELTA_SA,no_revision,ar,2018:Q3,-0.0032310710133240618,-3.70834461223256
exact,pre_advance,DELTA_SA,no_revision,ar,2019:Q1,-0.3134694480182471,-4.021814060250807
exact,pre_advance,DELTA_SA,no_revision,ar,2019:Q2,0.00020861065790184213,-4.021605449592905
exact,pre_advance,DELTA_SA,no_revision,ar,2019:Q3,0.020795440927072837,-4.000810008665832
exact,pre_advance,DELTA_SA,no_revision,ar,2019:Q4,-0.022807340587339162,-4.023617349253171
exact,pre_advance,DELTA_SA,no_revision,ar,2020:Q1,-0.04374626691208146,-4.067363616165252
exact,pre_advance,DELTA_SA,no_revision,ar,2020:Q2,0.4848885887598303,-3.582475027405422
exact,pre_advance,DELTA_SA,no_revision,ar,2020:Q3,-6.6030936783793335,-10.185568705784755
exact,pre_advance,DELTA_SA,no_revision,ar,2020:Q4,-0.3494364241901803,-10.535005129974936
exact,pre_advance,DELTA_SA,no_revision,ar,2021:Q1,-0.010481372036795358,-10.54548650201173
exact,pre_advance,DELTA_SA,no_revision,ar,2021:Q2,-0.005674643654305938,-10.551161145666036
exact,pre_advance,DELTA_SA,no_revision,ar,2021:Q3,0.00428446848418562,-10.546876677181851
exact,pre_advance,DELTA_SA,no_revision,ar,2021:Q4,0.009636975615624089,-10.537239701566227
exact,pre_advance,DELTA_SA,no_revision,ar,2022:Q1,-0.05376352283472801,-10.591003224400955
exact,pre_advance,DELTA_SA,no_revision,ar,2022:Q2,0.01747374549873487,-10.57352947890222
exact,pre_advance,DELTA_SA,no_revision,ar,2022:Q3,0.038912176234116996,-10.534617302668103
exact,pre_advance,DELTA_SA,no_revision,ar,2022:Q4,-0.058622083054108,-10.59323938572221
exact,pre_advance,DELTA_SA,no_revision,ar,2023:Q1,0.02740533844308022,-10.56583404727913
exact,pre_advance,DELTA_SA,no_revision,ar,2023:Q2,-0.06172819389498699,-10.627562241174118
exact,pre_advance,DELTA_SA,no_revision,ar,2023:Q3,0.03194758936873526,-10.595614651805382
exact,pre_advance,DELTA_SA,no_revision,ar,2023:Q4,-0.03690159867203891,-10.63251625047742
exact,pre_advance,DELTA_SA,no_revision,ar,2024:Q1,-0.07155817897030346,-10.704074429447724
exact,pre_advance,DELTA_SA,no_revision,ar,2024:Q2,0.009033581491366181,-10.695040847956358
exact,pre_advance,DELTA_SA,no_revision,ar,2024:Q3,-0.00727617350536104,-10.702317021461718
exact,pre_advance,DELTA_SA,no_revision,ar,2024:Q4,0.008788760628669104,-10.69352826083305
exact,pre_advance,DELTA_SA,no_revision,bridge,2005:Q1,0.13872897581163213,0.13872897581163213
exact,pre_advance,DELTA_SA,no_revision,bridge,2005:Q2,-0.10469290694489651,0.034036068866735616
exact,pre_advance,DELTA_SA,no_revision,bridge,2005:Q3,-0.15040667599317942,-0.1163706071264438
exact,pre_advance,DELTA_SA,no_revision,bridge,2005:Q4,0.1762057909010389,0.05983518377459511
exact,pre_advance,DELTA_SA,no_revision,bridge,2006:Q1,0.17380909119599736,0.23364427497059248
exact,pre_advance,DELTA_SA,no_revision,bridge,2006:Q2,-0.0033041605851341083,0.23034011438545837
exact,pre_advance,DELTA_SA,no_revision,bridge,2006:Q3,0.20124103131955867,0.43158114570501704
exact,pre_advance,DELTA_SA,no_revision,bridge,2006:Q4,-0.782501891643536,-0.35092074593851896
exact,pre_advance,DELTA_SA,no_revision,bridge,2007:Q1,0.35705855019610977,0.0061378042575908065
exact,pre_advance,DELTA_SA,no_revision,bridge,2007:Q2,-0.14115574401889486,-0.13501793976130405
exact,pre_advance,DELTA_SA,no_revision,bridge,2007:Q3,0.5636917032429613,0.4286737634816572
exact,pre_advance,DELTA_SA,no_revision,bridge,2007:Q4,-0.244144269819372,0.1845294936622852
exact,pre_advance,DELTA_SA,no_revision,bridge,2008:Q1,0.06131288781719704,0.24584238147948223
exact,pre_advance,DELTA_SA,no_revision,bridge,2008:Q2,0.13073477563098468,0.3765771571104669
exact,pre_advance,DELTA_SA,no_revision,bridge,2008:Q3,-0.2648840595619838,0.11169309754848311
exact,pre_advance,DELTA_SA,no_revision,bridge,2008:Q4,3.5566140690402865,3.66830716658877
exact,pre_advance,DELTA_SA,no_revision,bridge,2009:Q1,-7.419249105638873,-3.7509419390501035
exact,pre_advance,DELTA_SA,no_revision,bridge,2009:Q2,-0.24196561609657893,-3.9929075551466826
exact,pre_advance,DELTA_SA,no_revision,bridge,2009:Q3,-0.3879792115458931,-4.3808867666925755
exact,pre_advance,DELTA_SA,no_revision,bridge,2009:Q4,-0.28105586070264893,-4.6619426273952245
exact,pre_advance,DELTA_SA,no_revision,bridge,2010:Q1,-0.10094736583874375,-4.762889993233968
exact,pre_advance,DELTA_SA,no_revision,bridge,2010:Q2,0.0073939228196185924,-4.75549607041435
exact,pre_advance,DELTA_SA,no_revision,bridge,2010:Q3,-0.31509313295305513,-5.070589203367405
exact,pre_advance,DELTA_SA,no_revision,bridge,2010:Q4,-0.9034792141083648,-5.974068417475769
exact,pre_advance,DELTA_SA,no_revision,bridge,2011:Q1,-0.045895162760471446,-6.019963580236241
exact,pre_advance,DELTA_SA,no_revision,bridge,2011:Q2,-0.19151317974943005,-6.211476759985671
exact,pre_advance,DELTA_SA,no_revision,bridge,2011:Q3,-0.08325527853528197,-6.294732038520953
exact,pre_advance,DELTA_SA,no_revision,bridge,2011:Q4,-0.0413702189655959,-6.336102257486549
exact,pre_advance,DELTA_SA,no_revision,bridge,2012:Q1,-0.15859116333028828,-6.494693420816837
exact,pre_advance,DELTA_SA,no_revision,bridge,2012:Q2,-0.10006699182705994,-6.594760412643897
exact,pre_advance,DELTA_SA,no_revision,bridge,2012:Q3,0.20580628537110726,-6.38895412727279
exact,pre_advance,DELTA_SA,no_revision,bridge,2012:Q4,0.06587583351807778,-6.323078293754712
exact,pre_advance,DELTA_SA,no_revision,bridge,2013:Q1,-0.05173132842255527,-6.374809622177267
exact,pre_advance,DELTA_SA,no_revision,bridge,2013:Q2,0.014831071369016402,-6.3599785508082505
exact,pre_advance,DELTA_SA,no_revision,bridge,2013:Q3,0.42564500797830773,-5.934333542829942
exact,pre_advance,DELTA_SA,no_revision,bridge,2013:Q4,-1.2631483242591597,-7.1974818670891025
exact,pre_advance,DELTA_SA,no_revision,bridge,2014:Q1,0.7569160071134233,-6.440565859975679
exact,pre_advance,DELTA_SA,no_revision,bridge,2014:Q2,-0.15264110705323486,-6.593206967028914
exact,pre_advance,DELTA_SA,no_revision,bridge,2014:Q3,0.07832510899577891,-6.514881858033135
exact,pre_advance,DELTA_SA,no_revision,bridge,2014:Q4,-0.13705782032158967,-6.651939678354725
exact,pre_advance,DELTA_SA,no_revision,bridge,2015:Q1,0.4014697767237323,-6.250469901630993
exact,pre_advance,DELTA_SA,no_revision,bridge,2015:Q2,-0.4979232940191831,-6.748393195650176
exact,pre_advance,DELTA_SA,no_revision,bridge,2015:Q3,0.3409963676186283,-6.407396828031548
exact,pre_advance,DELTA_SA,no_revision,bridge,2015:Q4,0.0972279872791933,-6.310168840752354
exact,pre_advance,DELTA_SA,no_revision,bridge,2016:Q1,0.061597284036761374,-6.248571556715593
exact,pre_advance,DELTA_SA,no_revision,bridge,2016:Q2,-0.1430101697151514,-6.391581726430744
exact,pre_advance,DELTA_SA,no_revision,bridge,2016:Q3,0.02978637603817374,-6.361795350392571
exact,pre_advance,DELTA_SA,no_revision,bridge,2016:Q4,-0.02833064064415666,-6.390125991036728
exact,pre_advance,DELTA_SA,no_revision,bridge,2017:Q1,0.06242395788596877,-6.327702033150759
exact,pre_advance,DELTA_SA,no_revision,bridge,2017:Q2,0.17471543567711162,-6.152986597473648
exact,pre_advance,DELTA_SA,no_revision,bridge,2017:Q3,0.09391708258736975,-6.059069514886278
exact,pre_advance,DELTA_SA,no_revision,bridge,2017:Q4,-0.048232055356594986,-6.107301570242873
exact,pre_advance,DELTA_SA,no_revision,bridge,2018:Q1,-0.01372913737517556,-6.121030707618049
exact,pre_advance,DELTA_SA,no_revision,bridge,2018:Q2,0.021574368172287754,-6.099456339445761
exact,pre_advance,DELTA_SA,no_revision,bridge,2018:Q3,-0.006093663891220615,-6.105550003336982
exact,pre_advance,DELTA_SA,no_revision,bridge,2019:Q1,-0.6157461141295999,-6.721296117466582
exact,pre_advance,DELTA_SA,no_revision,bridge,2019:Q2,-0.004527295201637802,-6.72582341266822
exact,pre_advance,DELTA_SA,no_revision,bridge,2019:Q3,0.036136605743878635,-6.689686806924341
exact,pre_advance,DELTA_SA,no_revision,bridge,2019:Q4,-0.06731099954726356,-6.756997806471604
exact,pre_advance,DELTA_SA,no_revision,bridge,2020:Q1,0.0006398140758079179,-6.756357992395796
exact,pre_advance,DELTA_SA,no_revision,bridge,2020:Q2,-2.609151252294237,-9.365509244690033
exact,pre_advance,DELTA_SA,no_revision,bridge,2020:Q3,-5.185446373028794,-14.550955617718827
exact,pre_advance,DELTA_SA,no_revision,bridge,2020:Q4,0.0005276107390586081,-14.550428006979768
exact,pre_advance,DELTA_SA,no_revision,bridge,2021:Q1,-0.02384443223007639,-14.574272439209844
exact,pre_advance,DELTA_SA,no_revision,bridge,2021:Q2,-0.04144876016875458,-14.6157211993786
exact,pre_advance,DELTA_SA,no_revision,bridge,2021:Q3,0.007579934344672402,-14.608141265033927
exact,pre_advance,DELTA_SA,no_revision,bridge,2021:Q4,0.007746608209400742,-14.600394656824527
exact,pre_advance,DELTA_SA,no_revision,bridge,2022:Q1,-0.08791868219042155,-14.688313339014949
exact,pre_advance,DELTA_SA,no_revision,bridge,2022:Q2,6.444244692915824e-05,-14.68824889656802
exact,pre_advance,DELTA_SA,no_revision,bridge,2022:Q3,0.04802032621000486,-14.640228570358016
exact,pre_advance,DELTA_SA,no_revision,bridge,2022:Q4,-0.13264085899734385,-14.77286942935536
exact,pre_advance,DELTA_SA,no_revision,bridge,2023:Q1,0.03013095915636522,-14.742738470198995
exact,pre_advance,DELTA_SA,no_revision,bridge,2023:Q2,-0.27456811467170655,-15.017306584870703
exact,pre_advance,DELTA_SA,no_revision,bridge,2023:Q3,0.0028127103554888427,-15.014493874515214
exact,pre_advance,DELTA_SA,no_revision,bridge,2023:Q4,-0.09179889922938826,-15.106292773744602
exact,pre_advance,DELTA_SA,no_revision,bridge,2024:Q1,0.011523780206793927,-15.094768993537809
exact,pre_advance,DELTA_SA,no_revision,bridge,2024:Q2,-0.03186592763183746,-15.126634921169646
exact,pre_advance,DELTA_SA,no_revision,bridge,2024:Q3,-0.005197255911792052,-15.131832177081439
exact,pre_advance,DELTA_SA,no_revision,bridge,2024:Q4,0.008645112674929342,-15.12318706440651
exact,pre_advance,DELTA_SA,no_revision,indicator_revision_only_dfm_kalman_em,2005:Q1,0.0,0.0
exact,pre_advance,DELTA_SA,no_revision,indicator_revision_only_dfm_kalman_em,2005:Q2,0.0,0.0
exact,pre_advance,DELTA_SA,no_revision,indicator_revision_only_dfm_kalman_em,2005:Q3,0.0,0.0
exact,pre_advance,DELTA_SA,no_revision,indicator_revision_only_dfm_kalman_em,2005:Q4,0.0,0.0
exact,pre_advance,DELTA_SA,no_revision,indicator_revision_only_dfm_kalman_em,2006:Q1,0.0,0.0
exact,pre_advance,DELTA_SA,no_revision,indicator_revision_only_dfm_kalman_em,2006:Q2,0.0,0.0
exact,pre_advance,DELTA_SA,no_revision,indicator_revision_only_dfm_kalman_em,2006:Q3,0.0,0.0
exact,pre_advance,DELTA_SA,no_revision,indicator_revision_only_dfm_kalman_em,2006:Q4,0.0,0.0
exact,pre_advance,DELTA_SA,no_revision,indicator_revision_only_dfm_kalman_em,2007:Q1,0.0,0.0
exact,pre_advance,DELTA_SA,no_revision,indicator_revision_only_dfm_kalman_em,2007:Q2,0.0,0.0
exact,pre_advance,DELTA_SA,no_revision,indicator_revision_only_dfm_kalman_em,2007:Q3,0.0,0.0
exact,pre_advance,DELTA_SA,no_revision,indicator_revision_only_dfm_kalman_em,2007:Q4,0.0,0.0
exact,pre_advance,DELTA_SA,no_revision,indicator_revision_only_dfm_kalman_em,2008:Q1,0.0,0.0
exact,pre_advance,DELTA_SA,no_revision,indicator_revision_only_dfm_kalman_em,2008:Q2,0.0,0.0
exact,pre_advance,DELTA_SA,no_revision,indicator_revision_only_dfm_kalman_em,2008:Q3,0.0,0.0
exact,pre_advance,DELTA_SA,no_revision,indicator_revision_only_dfm_kalman_em,2008:Q4,0.0,0.0
exact,pre_advance,DELTA_SA,no_revision,indicator_revision_only_dfm_kalman_em,2009:Q1,0.0,0.0
exact,pre_advance,DELTA_SA,no_revision,indicator_revision_only_dfm_kalman_em,2009:Q2,0.0,0.0
exact,pre_advance,DELTA_SA,no_revision,indicator_revision_only_dfm_kalman_em,2009:Q3,0.0,0.0
exact,pre_advance,DELTA_SA,no_revision,indicator_revision_only_dfm_kalman_em,2009:Q4,0.0,0.0
exact,pre_advance,DELTA_SA,no_revision,indicator_revision_only_dfm_kalman_em,2010:Q1,0.0,0.0
exact,pre_advance,DELTA_SA,no_revision,indicator_revision_only_dfm_kalman_em,2010:Q2,0.0,0.0
exact,pre_advance,DELTA_SA,no_revision,indicator_revision_only_dfm_kalman_em,2010:Q3,0.0,0.0
exact,pre_advance,DELTA_SA,no_revision,indicator_revision_only_dfm_kalman_em,2010:Q4,0.0,0.0
exact,pre_advance,DELTA_SA,no_revision,indicator_revision_only_dfm_kalman_em,2011:Q1,0.0,0.0
exact,pre_advance,DELTA_SA,no_revision,indicator_revision_only_dfm_kalman_em,2011:Q2,0.0,0.0
exact,pre_advance,DELTA_SA,no_revision,indicator_revision_only_dfm_kalman_em,2011:Q3,0.0,0.0
exact,pre_advance,DELTA_SA,no_revision,indicator_revision_only_dfm_kalman_em,2011:Q4,0.0,0.0
exact,pre_advance,DELTA_SA,no_revision,indicator_revision_only_dfm_kalman_em,2012:Q1,0.0,0.0
exact,pre_advance,DELTA_SA,no_revision,indicator_revision_only_dfm_kalman_em,2012:Q2,0.0,0.0
exact,pre_advance,DELTA_SA,no_revision,indicator_revision_only_dfm_kalman_em,2012:Q3,0.0,0.0
exact,pre_advance,DELTA_SA,no_revision,indicator_revision_only_dfm_kalman_em,2012:Q4,0.0,0.0
exact,pre_advance,DELTA_SA,no_revision,indicator_revision_only_dfm_kalman_em,2013:Q1,0.0,0.0
exact,pre_advance,DELTA_SA,no_revision,indicator_revision_only_dfm_kalman_em,2013:Q2,0.0,0.0
exact,pre_advance,DELTA_SA,no_revision,indicator_revision_only_dfm_kalman_em,2013:Q3,0.0,0.0
exact,pre_advance,DELTA_SA,no_revision,indicator_revision_only_dfm_kalman_em,2013:Q4,0.0,0.0
exact,pre_advance,DELTA_SA,no_revision,indicator_revision_only_dfm_kalman_em,2014:Q1,0.0,0.0
exact,pre_advance,DELTA_SA,no_revision,indicator_revision_only_dfm_kalman_em,2014:Q2,0.0,0.0
exact,pre_advance,DELTA_SA,no_revision,indicator_revision_only_dfm_kalman_em,2014:Q3,0.0,0.0
exact,pre_advance,DELTA_SA,no_revision,indicator_revision_only_dfm_kalman_em,2014:Q4,0.0,0.0
exact,pre_advance,DELTA_SA,no_revision,indicator_revision_only_dfm_kalman_em,2015:Q1,0.0,0.0
exact,pre_advance,DELTA_SA,no_revision,indicator_revision_only_dfm_kalman_em,2015:Q2,0.0,0.0
exact,pre_advance,DELTA_SA,no_revision,indicator_revision_only_dfm_kalman_em,2015:Q3,0.0,0.0
exact,pre_advance,DELTA_SA,no_revision,indicator_revision_only_dfm_kalman_em,2015:Q4,0.0,0.0
exact,pre_advance,DELTA_SA,no_revision,indicator_revision_only_dfm_kalman_em,2016:Q1,0.0,0.0
exact,pre_advance,DELTA_SA,no_revision,indicator_revision_only_dfm_kalman_em,2016:Q2,0.0,0.0
exact,pre_advance,DELTA_SA,no_revision,indicator_revision_only_dfm_kalman_em,2016:Q3,0.0,0.0
exact,pre_advance,DELTA_SA,no_revision,indicator_revision_only_dfm_kalman_em,2016:Q4,0.0,0.0
exact,pre_advance,DELTA_SA,no_revision,indicator_revision_only_dfm_kalman_em,2017:Q1,0.0,0.0
exact,pre_advance,DELTA_SA,no_revision,indicator_revision_only_dfm_kalman_em,2017:Q2,0.0,0.0
exact,pre_advance,DELTA_SA,no_revision,indicator_revision_only_dfm_kalman_em,2017:Q3,0.0,0.0
exact,pre_advance,DELTA_SA,no_revision,indicator_revision_only_dfm_kalman_em,2017:Q4,0.0,0.0
exact,pre_advance,DELTA_SA,no_revision,indicator_revision_only_dfm_kalman_em,2018:Q1,0.0,0.0
exact,pre_advance,DELTA_SA,no_revision,indicator_revision_only_dfm_kalman_em,2018:Q2,0.0,0.0
exact,pre_advance,DELTA_SA,no_revision,indicator_revision_only_dfm_kalman_em,2018:Q3,0.0,0.0
exact,pre_advance,DELTA_SA,no_revision,indicator_revision_only_dfm_kalman_em,2019:Q1,0.0,0.0
exact,pre_advance,DELTA_SA,no_revision,indicator_revision_only_dfm_kalman_em,2019:Q2,0.0,0.0
exact,pre_advance,DELTA_SA,no_revision,indicator_revision_only_dfm_kalman_em,2019:Q3,0.0,0.0
exact,pre_advance,DELTA_SA,no_revision,indicator_revision_only_dfm_kalman_em,2019:Q4,0.0,0.0
exact,pre_advance,DELTA_SA,no_revision,indicator_revision_only_dfm_kalman_em,2020:Q1,0.0,0.0
exact,pre_advance,DELTA_SA,no_revision,indicator_revision_only_dfm_kalman_em,2020:Q2,0.0,0.0
exact,pre_advance,DELTA_SA,no_revision,indicator_revision_only_dfm_kalman_em,2020:Q3,0.0,0.0
exact,pre_advance,DELTA_SA,no_revision,indicator_revision_only_dfm_kalman_em,2020:Q4,0.0,0.0
exact,pre_advance,DELTA_SA,no_revision,indicator_revision_only_dfm_kalman_em,2021:Q1,0.0,0.0
exact,pre_advance,DELTA_SA,no_revision,indicator_revision_only_dfm_kalman_em,2021:Q2,0.0,0.0
exact,pre_advance,DELTA_SA,no_revision,indicator_revision_only_dfm_kalman_em,2021:Q3,0.0,0.0
exact,pre_advance,DELTA_SA,no_revision,indicator_revision_only_dfm_kalman_em,2021:Q4,0.0,0.0
exact,pre_advance,DELTA_SA,no_revision,indicator_revision_only_dfm_kalman_em,2022:Q1,0.0,0.0
exact,pre_advance,DELTA_SA,no_revision,indicator_revision_only_dfm_kalman_em,2022:Q2,0.0,0.0
exact,pre_advance,DELTA_SA,no_revision,indicator_revision_only_dfm_kalman_em,2022:Q3,0.0,0.0
exact,pre_advance,DELTA_SA,no_revision,indicator_revision_only_dfm_kalman_em,2022:Q4,0.0,0.0
exact,pre_advance,DELTA_SA,no_revision,indicator_revision_only_dfm_kalman_em,2023:Q1,0.0,0.0
exact,pre_advance,DELTA_SA,no_revision,indicator_revision_only_dfm_kalman_em,2023:Q2,0.0,0.0
exact,pre_advance,DELTA_SA,no_revision,indicator_revision_only_dfm_kalman_em,2023:Q3,0.0,0.0
exact,pre_advance,DELTA_SA,no_revision,indicator_revision_only_dfm_kalman_em,2023:Q4,0.0,0.0
exact,pre_advance,DELTA_SA,no_revision,indicator_revision_only_dfm_kalman_em,2024:Q1,0.0,0.0
exact,pre_advance,DELTA_SA,no_revision,indicator_revision_only_dfm_kalman_em,2024:Q2,0.0,0.0
exact,pre_advance,DELTA_SA,no_revision,indicator_revision_only_dfm_kalman_em,2024:Q3,0.0,0.0
exact,pre_advance,DELTA_SA,no_revision,indicator_revision_only_dfm_kalman_em,2024:Q4,0.0,0.0
exact,pre_advance,DELTA_SA,no_revision,joint_indicator_revision_dfm_full_kalman_em,2005:Q1,0.1337851686979898,0.1337851686979898
exact,pre_advance,DELTA_SA,no_revision,joint_indicator_revision_dfm_full_kalman_em,2005:Q2,-0.23035655775127817,-0.09657138905328838
exact,pre_advance,DELTA_SA,no_revision,joint_indicator_revision_dfm_full_kalman_em,2005:Q3,0.18310804789174345,0.08653665883845507
exact,pre_advance,DELTA_SA,no_revision,joint_indicator_revision_dfm_full_kalman_em,2005:Q4,0.2282413097870205,0.3147779686254756
exact,pre_advance,DELTA_SA,no_revision,joint_indicator_revision_dfm_full_kalman_em,2006:Q1,0.23658879646935288,0.5513667650948284
exact,pre_advance,DELTA_SA,no_revision,joint_indicator_revision_dfm_full_kalman_em,2006:Q2,0.17548465202623237,0.7268514171210607
exact,pre_advance,DELTA_SA,no_revision,joint_indicator_revision_dfm_full_kalman_em,2006:Q3,-0.5637554253578745,0.16309599176318623
exact,pre_advance,DELTA_SA,no_revision,joint_indicator_revision_dfm_full_kalman_em,2006:Q4,0.6180985478233041,0.7811945395864903
