haminh109/Revision-Aware-DFM/outputs/full_state_space_release_revision_dfm/exact_pseudo_backtest_mature_1y_max_iter100_journal_evidence/cumulative_loss_point.csv
timing_mode,checkpoint_id,outcome_id,baseline_model,model_id,target_quarter,loss_diff_baseline_minus_model,cumulative_loss_diff
exact,pre_advance,A,ar,bridge,2005:Q1,0.026508366163050925,0.026508366163050925
exact,pre_advance,A,ar,bridge,2005:Q2,0.25605091488063453,0.28255928104368544
exact,pre_advance,A,ar,bridge,2005:Q3,-0.1145844705953406,0.16797481044834484
exact,pre_advance,A,ar,bridge,2005:Q4,-1.067053416924928,-0.8990786064765831
exact,pre_advance,A,ar,bridge,2006:Q1,1.6356501256199305,0.7365715191433474
exact,pre_advance,A,ar,bridge,2006:Q2,0.7676987547042062,1.5042702738475535
exact,pre_advance,A,ar,bridge,2006:Q3,-0.11413741897172125,1.3901328548758323
exact,pre_advance,A,ar,bridge,2006:Q4,-11.42373598428023,-10.033603129404398
exact,pre_advance,A,ar,bridge,2007:Q1,2.9288243316873825,-7.104778797717016
exact,pre_advance,A,ar,bridge,2007:Q2,-0.571880895833992,-7.676659693551008
exact,pre_advance,A,ar,bridge,2007:Q3,-4.421703232049937,-12.098362925600945
exact,pre_advance,A,ar,bridge,2007:Q4,6.981606042021606,-5.116756883579339
exact,pre_advance,A,ar,bridge,2008:Q1,-0.8428265241404642,-5.959583407719803
exact,pre_advance,A,ar,bridge,2008:Q2,-0.5775901807402076,-6.537173588460011
exact,pre_advance,A,ar,bridge,2008:Q3,6.239153415743342,-0.2980201727166687
exact,pre_advance,A,ar,bridge,2008:Q4,18.935021625538596,18.637001452821927
exact,pre_advance,A,ar,bridge,2009:Q1,28.976487905078283,47.61348935790021
exact,pre_advance,A,ar,bridge,2009:Q2,-1.0972978517896448,46.51619150611056
exact,pre_advance,A,ar,bridge,2009:Q3,4.302859584500106,50.819051090610664
exact,pre_advance,A,ar,bridge,2009:Q4,0.8405391500749486,51.65959024068561
exact,pre_advance,A,ar,bridge,2010:Q1,-7.902887294564825,43.75670294612078
exact,pre_advance,A,ar,bridge,2010:Q2,0.011858308232202852,43.76856125435299
exact,pre_advance,A,ar,bridge,2010:Q3,0.18832454713788116,43.95688580149087
exact,pre_advance,A,ar,bridge,2010:Q4,0.2765286183734815,44.23341441986435
exact,pre_advance,A,ar,bridge,2011:Q1,-2.6235720668932383,41.609842352971114
exact,pre_advance,A,ar,bridge,2011:Q2,-1.4729019751695853,40.13694037780153
exact,pre_advance,A,ar,bridge,2011:Q3,-0.0022523077665603797,40.13468807003497
exact,pre_advance,A,ar,bridge,2011:Q4,-1.082757162786356,39.05193090724861
exact,pre_advance,A,ar,bridge,2012:Q1,-1.0541537717065796,37.99777713554203
exact,pre_advance,A,ar,bridge,2012:Q2,-0.4841720924257811,37.51360504311625
exact,pre_advance,A,ar,bridge,2012:Q3,-0.5745739215873314,36.93903112152892
exact,pre_advance,A,ar,bridge,2012:Q4,-8.166100960885938,28.772930160642982
exact,pre_advance,A,ar,bridge,2013:Q1,0.7861555844576769,29.55908574510066
exact,pre_advance,A,ar,bridge,2013:Q2,-0.3824613142293476,29.176624430871314
exact,pre_advance,A,ar,bridge,2013:Q3,-0.46677534104159424,28.70984908982972
exact,pre_advance,A,ar,bridge,2013:Q4,-0.039765412715874415,28.670083677113848
exact,pre_advance,A,ar,bridge,2014:Q1,3.920388840588136,32.59047251770198
exact,pre_advance,A,ar,bridge,2014:Q2,4.106194340754633,36.69666685845662
exact,pre_advance,A,ar,bridge,2014:Q3,-0.056094443733069724,36.64057241472354
exact,pre_advance,A,ar,bridge,2014:Q4,0.1575985164891277,36.798170931212674
exact,pre_advance,A,ar,bridge,2015:Q1,3.3836744740684486,40.18184540528112
exact,pre_advance,A,ar,bridge,2015:Q2,0.8610543008872912,41.04289970616841
exact,pre_advance,A,ar,bridge,2015:Q3,0.6136721270869122,41.65657183325533
exact,pre_advance,A,ar,bridge,2015:Q4,0.6515995292412713,42.3081713624966
exact,pre_advance,A,ar,bridge,2016:Q1,0.7787481652209838,43.08691952771758
exact,pre_advance,A,ar,bridge,2016:Q2,0.059797019294426566,43.14671654701201
exact,pre_advance,A,ar,bridge,2016:Q3,0.36377552260716206,43.510492069619175
exact,pre_advance,A,ar,bridge,2016:Q4,-0.7375381686773962,42.77295390094178
exact,pre_advance,A,ar,bridge,2017:Q1,-0.6640699525926914,42.10888394834909
exact,pre_advance,A,ar,bridge,2017:Q2,-0.12694577975501653,41.98193816859407
exact,pre_advance,A,ar,bridge,2017:Q3,-0.3142545493377593,41.66768361925631
exact,pre_advance,A,ar,bridge,2017:Q4,-1.1500300216843717,40.517653597571936
exact,pre_advance,A,ar,bridge,2018:Q1,-0.8594179119067495,39.65823568566519
exact,pre_advance,A,ar,bridge,2018:Q2,0.39498998888680337,40.053225674551996
exact,pre_advance,A,ar,bridge,2018:Q3,-0.1438588875744695,39.90936678697753
exact,pre_advance,A,ar,bridge,2018:Q4,0.09068553162124533,40.000052318598776
exact,pre_advance,A,ar,bridge,2019:Q1,-0.10760998024848467,39.89244233835029
exact,pre_advance,A,ar,bridge,2019:Q2,0.6089661755654483,40.50140851391574
exact,pre_advance,A,ar,bridge,2019:Q3,-0.33271829282384024,40.1686902210919
exact,pre_advance,A,ar,bridge,2019:Q4,-0.16781559230481113,40.00087462878709
exact,pre_advance,A,ar,bridge,2020:Q1,9.102458446038156,49.103333074825244
exact,pre_advance,A,ar,bridge,2020:Q2,532.6153717534219,581.7187048282472
exact,pre_advance,A,ar,bridge,2020:Q3,1642.8717471955658,2224.5904520238128
exact,pre_advance,A,ar,bridge,2020:Q4,-25.236584640080753,2199.353867383732
exact,pre_advance,A,ar,bridge,2021:Q1,12.991205256378652,2212.3450726401106
exact,pre_advance,A,ar,bridge,2021:Q2,15.009953845689985,2227.3550264858004
exact,pre_advance,A,ar,bridge,2021:Q3,-0.3051338757414128,2227.049892610059
exact,pre_advance,A,ar,bridge,2021:Q4,-0.5416554582639961,2226.508237151795
exact,pre_advance,A,ar,bridge,2022:Q1,-27.24056001814712,2199.267677133648
exact,pre_advance,A,ar,bridge,2022:Q2,2.3168008337014,2201.5844779673494
exact,pre_advance,A,ar,bridge,2022:Q3,-3.0659772522159,2198.5185007151335
exact,pre_advance,A,ar,bridge,2022:Q4,-18.358927656569044,2180.1595730585645
exact,pre_advance,A,ar,bridge,2023:Q1,1.746828477152817,2181.9064015357176
exact,pre_advance,A,ar,bridge,2023:Q2,-1.4069302895362061,2180.499471246181
exact,pre_advance,A,ar,bridge,2023:Q3,0.3615726347753414,2180.8610438809565
exact,pre_advance,A,ar,bridge,2023:Q4,-6.352938995644131,2174.508104885312
exact,pre_advance,A,ar,bridge,2024:Q1,0.7855773239734215,2175.2936822092856
exact,pre_advance,A,ar,bridge,2024:Q2,-0.6561092188970661,2174.6375729903884
exact,pre_advance,A,ar,bridge,2024:Q3,-0.07053545014004475,2174.5670375402483
exact,pre_advance,A,ar,bridge,2024:Q4,-0.00044289376299851135,2174.566594646485
exact,pre_advance,A,ar,indicator_revision_only_dfm_kalman_em,2005:Q1,-2.135402522774658,-2.135402522774658
exact,pre_advance,A,ar,indicator_revision_only_dfm_kalman_em,2005:Q2,-0.5082225477383155,-2.6436250705129734
exact,pre_advance,A,ar,indicator_revision_only_dfm_kalman_em,2005:Q3,0.5092377121349425,-2.1343873583780306
exact,pre_advance,A,ar,indicator_revision_only_dfm_kalman_em,2005:Q4,-24.144728762138442,-26.279116120516473
exact,pre_advance,A,ar,indicator_revision_only_dfm_kalman_em,2006:Q1,8.351357815865315,-17.927758304651157
exact,pre_advance,A,ar,indicator_revision_only_dfm_kalman_em,2006:Q2,-3.237735323214661,-21.165493627865818
exact,pre_advance,A,ar,indicator_revision_only_dfm_kalman_em,2006:Q3,-3.269720626551858,-24.435214254417676
exact,pre_advance,A,ar,indicator_revision_only_dfm_kalman_em,2006:Q4,-20.435645709123875,-44.87085996354155
exact,pre_advance,A,ar,indicator_revision_only_dfm_kalman_em,2007:Q1,2.4935289135668137,-42.377331049974735
exact,pre_advance,A,ar,indicator_revision_only_dfm_kalman_em,2007:Q2,1.9224741037085509,-40.45485694626618
exact,pre_advance,A,ar,indicator_revision_only_dfm_kalman_em,2007:Q3,-39.29471200811042,-79.7495689543766
exact,pre_advance,A,ar,indicator_revision_only_dfm_kalman_em,2007:Q4,-5.6786196613517905,-85.42818861572839
exact,pre_advance,A,ar,indicator_revision_only_dfm_kalman_em,2008:Q1,-12.399023298230682,-97.82721191395908
exact,pre_advance,A,ar,indicator_revision_only_dfm_kalman_em,2008:Q2,-0.1059640415785717,-97.93317595553765
exact,pre_advance,A,ar,indicator_revision_only_dfm_kalman_em,2008:Q3,-4.761304902301581,-102.69448085783922
exact,pre_advance,A,ar,indicator_revision_only_dfm_kalman_em,2008:Q4,-30.230515338284736,-132.92499619612397
exact,pre_advance,A,ar,indicator_revision_only_dfm_kalman_em,2009:Q1,-1.5611881127197975,-134.48618430884378
exact,pre_advance,A,ar,indicator_revision_only_dfm_kalman_em,2009:Q2,-5.054361772002764,-139.54054608084653
exact,pre_advance,A,ar,indicator_revision_only_dfm_kalman_em,2009:Q3,-1.242705771619507,-140.78325185246604
exact,pre_advance,A,ar,indicator_revision_only_dfm_kalman_em,2009:Q4,2.5051392195926336,-138.27811263287342
exact,pre_advance,A,ar,indicator_revision_only_dfm_kalman_em,2010:Q1,-11.178052053050903,-149.4561646859243
exact,pre_advance,A,ar,indicator_revision_only_dfm_kalman_em,2010:Q2,-5.271416208222083,-154.7275808941464
exact,pre_advance,A,ar,indicator_revision_only_dfm_kalman_em,2010:Q3,0.014630852503577652,-154.7129500416428
exact,pre_advance,A,ar,indicator_revision_only_dfm_kalman_em,2010:Q4,0.650296155731984,-154.06265388591083
exact,pre_advance,A,ar,indicator_revision_only_dfm_kalman_em,2011:Q1,-20.834288802449063,-174.8969426883599
exact,pre_advance,A,ar,indicator_revision_only_dfm_kalman_em,2011:Q2,0.4301252202941176,-174.46681746806578
exact,pre_advance,A,ar,indicator_revision_only_dfm_kalman_em,2011:Q3,-1.309638596607017,-175.7764560646728
exact,pre_advance,A,ar,indicator_revision_only_dfm_kalman_em,2011:Q4,-3.848421642703291,-179.6248777073761
exact,pre_advance,A,ar,indicator_revision_only_dfm_kalman_em,2012:Q1,-7.075365244359855,-186.70024295173596
exact,pre_advance,A,ar,indicator_revision_only_dfm_kalman_em,2012:Q2,-1.1167597969272614,-187.8170027486632
exact,pre_advance,A,ar,indicator_revision_only_dfm_kalman_em,2012:Q3,-0.21191488532364913,-188.02891763398685
exact,pre_advance,A,ar,indicator_revision_only_dfm_kalman_em,2012:Q4,-13.457007254864015,-201.48592488885086
exact,pre_advance,A,ar,indicator_revision_only_dfm_kalman_em,2013:Q1,1.302716764029285,-200.18320812482156
exact,pre_advance,A,ar,indicator_revision_only_dfm_kalman_em,2013:Q2,-0.5407213190240854,-200.72392944384563
exact,pre_advance,A,ar,indicator_revision_only_dfm_kalman_em,2013:Q3,0.3316850950848017,-200.39224434876084
exact,pre_advance,A,ar,indicator_revision_only_dfm_kalman_em,2013:Q4,-2.2301481723240673,-202.62239252108492
exact,pre_advance,A,ar,indicator_revision_only_dfm_kalman_em,2014:Q1,2.565054333888197,-200.05733818719673
exact,pre_advance,A,ar,indicator_revision_only_dfm_kalman_em,2014:Q2,5.3640913571277515,-194.69324683006897
exact,pre_advance,A,ar,indicator_revision_only_dfm_kalman_em,2014:Q3,-0.06653642801679725,-194.75978325808578
exact,pre_advance,A,ar,indicator_revision_only_dfm_kalman_em,2014:Q4,-0.0072324670111659495,-194.76701572509694
exact,pre_advance,A,ar,indicator_revision_only_dfm_kalman_em,2015:Q1,5.098912998161094,-189.66810272693584
exact,pre_advance,A,ar,indicator_revision_only_dfm_kalman_em,2015:Q2,0.403529075766794,-189.26457365116906
exact,pre_advance,A,ar,indicator_revision_only_dfm_kalman_em,2015:Q3,-1.9675650382810068,-191.23213868945007
exact,pre_advance,A,ar,indicator_revision_only_dfm_kalman_em,2015:Q4,0.8062687809451445,-190.42586990850492
exact,pre_advance,A,ar,indicator_revision_only_dfm_kalman_em,2016:Q1,-1.0971625053600336,-191.52303241386497
exact,pre_advance,A,ar,indicator_revision_only_dfm_kalman_em,2016:Q2,-0.6441614297532846,-192.16719384361826
exact,pre_advance,A,ar,indicator_revision_only_dfm_kalman_em,2016:Q3,1.0899223068587265,-191.07727153675953
exact,pre_advance,A,ar,indicator_revision_only_dfm_kalman_em,2016:Q4,-3.4262388690626064,-194.50351040582214
exact,pre_advance,A,ar,indicator_revision_only_dfm_kalman_em,2017:Q1,-3.492086807849367,-197.99559721367152
exact,pre_advance,A,ar,indicator_revision_only_dfm_kalman_em,2017:Q2,-0.07030020212479415,-198.06589741579631
exact,pre_advance,A,ar,indicator_revision_only_dfm_kalman_em,2017:Q3,-1.577010390952511,-199.64290780674884
exact,pre_advance,A,ar,indicator_revision_only_dfm_kalman_em,2017:Q4,-10.209748706958253,-209.8526565137071
exact,pre_advance,A,ar,indicator_revision_only_dfm_kalman_em,2018:Q1,-1.138557746182698,-210.9912142598898
exact,pre_advance,A,ar,indicator_revision_only_dfm_kalman_em,2018:Q2,1.28951515906953,-209.70169910082026
exact,pre_advance,A,ar,indicator_revision_only_dfm_kalman_em,2018:Q3,0.04767405637792668,-209.65402504444234
exact,pre_advance,A,ar,indicator_revision_only_dfm_kalman_em,2018:Q4,0.16742883866137115,-209.48659620578096
exact,pre_advance,A,ar,indicator_revision_only_dfm_kalman_em,2019:Q1,-2.90516372803422,-212.39175993381517
exact,pre_advance,A,ar,indicator_revision_only_dfm_kalman_em,2019:Q2,0.22361584242484295,-212.16814409139033
exact,pre_advance,A,ar,indicator_revision_only_dfm_kalman_em,2019:Q3,-0.3063255219618145,-212.47446961335214
exact,pre_advance,A,ar,indicator_revision_only_dfm_kalman_em,2019:Q4,-0.21762668057332352,-212.69209629392546
exact,pre_advance,A,ar,indicator_revision_only_dfm_kalman_em,2020:Q1,37.489731472284795,-175.20236482164066
exact,pre_advance,A,ar,indicator_revision_only_dfm_kalman_em,2020:Q2,990.2999413619232,815.0975765402825
exact,pre_advance,A,ar,indicator_revision_only_dfm_kalman_em,2020:Q3,2160.9084915576523,2976.006068097935
exact,pre_advance,A,ar,indicator_revision_only_dfm_kalman_em,2020:Q4,-17.935157922021208,2958.070910175914
exact,pre_advance,A,ar,indicator_revision_only_dfm_kalman_em,2021:Q1,9.495443741437658,2967.5663539173515
exact,pre_advance,A,ar,indicator_revision_only_dfm_kalman_em,2021:Q2,6.822445600796865,2974.3887995181485
exact,pre_advance,A,ar,indicator_revision_only_dfm_kalman_em,2021:Q3,-5.668524428906499,2968.720275089242
exact,pre_advance,A,ar,indicator_revision_only_dfm_kalman_em,2021:Q4,13.802268019527704,2982.5225431087697
exact,pre_advance,A,ar,indicator_revision_only_dfm_kalman_em,2022:Q1,-36.27444290347264,2946.248100205297
exact,pre_advance,A,ar,indicator_revision_only_dfm_kalman_em,2022:Q2,-8.891385217898774,2937.356714987398
exact,pre_advance,A,ar,indicator_revision_only_dfm_kalman_em,2022:Q3,-0.3213482310761195,2937.0353667563218
exact,pre_advance,A,ar,indicator_revision_only_dfm_kalman_em,2022:Q4,-2.1838682359596313,2934.851498520362
exact,pre_advance,A,ar,indicator_revision_only_dfm_kalman_em,2023:Q1,-1.0729111432202978,2933.778587377142
exact,pre_advance,A,ar,indicator_revision_only_dfm_kalman_em,2023:Q2,-0.34202724851730276,2933.4365601286245
exact,pre_advance,A,ar,indicator_revision_only_dfm_kalman_em,2023:Q3,-2.413234179932833,2931.0233259486918
exact,pre_advance,A,ar,indicator_revision_only_dfm_kalman_em,2023:Q4,-1.1110634660508514,2929.912262482641
exact,pre_advance,A,ar,indicator_revision_only_dfm_kalman_em,2024:Q1,0.8685177740822585,2930.780780256723
exact,pre_advance,A,ar,indicator_revision_only_dfm_kalman_em,2024:Q2,-1.0821731907966934,2929.6986070659264
exact,pre_advance,A,ar,indicator_revision_only_dfm_kalman_em,2024:Q3,-0.7995956807862099,2928.89901138514
exact,pre_advance,A,ar,indicator_revision_only_dfm_kalman_em,2024:Q4,-0.1889659758514309,2928.710045409289
exact,pre_advance,A,ar,joint_indicator_revision_dfm_full_kalman_em,2005:Q1,-0.10275627992902026,-0.10275627992902026
exact,pre_advance,A,ar,joint_indicator_revision_dfm_full_kalman_em,2005:Q2,-0.09054604730032328,-0.19330232722934354
exact,pre_advance,A,ar,joint_indicator_revision_dfm_full_kalman_em,2005:Q3,0.36702482676814197,0.17372249953879842
exact,pre_advance,A,ar,joint_indicator_revision_dfm_full_kalman_em,2005:Q4,-18.682848154276417,-18.50912565473762
exact,pre_advance,A,ar,joint_indicator_revision_dfm_full_kalman_em,2006:Q1,6.696097847350373,-11.813027807387247
exact,pre_advance,A,ar,joint_indicator_revision_dfm_full_kalman_em,2006:Q2,0.09682030476757064,-11.716207502619676
exact,pre_advance,A,ar,joint_indicator_revision_dfm_full_kalman_em,2006:Q3,-4.4725302301685605,-16.188737732788237
exact,pre_advance,A,ar,joint_indicator_revision_dfm_full_kalman_em,2006:Q4,-20.885345078621963,-37.0740828114102
exact,pre_advance,A,ar,joint_indicator_revision_dfm_full_kalman_em,2007:Q1,-0.7798180260170033,-37.853900837427204
exact,pre_advance,A,ar,joint_indicator_revision_dfm_full_kalman_em,2007:Q2,1.7470366337783318,-36.106864203648875
exact,pre_advance,A,ar,joint_indicator_revision_dfm_full_kalman_em,2007:Q3,-35.817951272874936,-71.9248154765238
exact,pre_advance,A,ar,joint_indicator_revision_dfm_full_kalman_em,2007:Q4,-2.481514056363208,-74.40632953288701
exact,pre_advance,A,ar,joint_indicator_revision_dfm_full_kalman_em,2008:Q1,-9.029955440488928,-83.43628497337595
exact,pre_advance,A,ar,joint_indicator_revision_dfm_full_kalman_em,2008:Q2,0.0369838660980117,-83.39930110727794
exact,pre_advance,A,ar,joint_indicator_revision_dfm_full_kalman_em,2008:Q3,-4.403864626755955,-87.8031657340339
exact,pre_advance,A,ar,joint_indicator_revision_dfm_full_kalman_em,2008:Q4,-14.733377512726566,-102.53654324676046
exact,pre_advance,A,ar,joint_indicator_revision_dfm_full_kalman_em,2009:Q1,-9.149137034479345,-111.6856802812398
exact,pre_advance,A,ar,joint_indicator_revision_dfm_full_kalman_em,2009:Q2,-0.4780368339684541,-112.16371711520826
exact,pre_advance,A,ar,joint_indicator_revision_dfm_full_kalman_em,2009:Q3,2.161055365104356,-110.0026617501039
exact,pre_advance,A,ar,joint_indicator_revision_dfm_full_kalman_em,2009:Q4,1.3062246174503347,-108.69643713265356
exact,pre_advance,A,ar,joint_indicator_revision_dfm_full_kalman_em,2010:Q1,-9.658165922042667,-118.35460305469623
exact,pre_advance,A,ar,joint_indicator_revision_dfm_full_kalman_em,2010:Q2,-5.555698212593883,-123.91030126729011
exact,pre_advance,A,ar,joint_indicator_revision_dfm_full_kalman_em,2010:Q3,0.07906245254223529,-123.83123881474788
exact,pre_advance,A,ar,joint_indicator_revision_dfm_full_kalman_em,2010:Q4,0.32355977719438583,-123.50767903755349
exact,pre_advance,A,ar,joint_indicator_revision_dfm_full_kalman_em,2011:Q1,-18.34822827425007,-141.85590731180355
exact,pre_advance,A,ar,joint_indicator_revision_dfm_full_kalman_em,2011:Q2,0.7177538754322982,-141.13815343637125
exact,pre_advance,A,ar,joint_indicator_revision_dfm_full_kalman_em,2011:Q3,-0.5359275498113936,-141.67408098618264
exact,pre_advance,A,ar,joint_indicator_revision_dfm_full_kalman_em,2011:Q4,-3.031109755223629,-144.70519074140628
exact,pre_advance,A,ar,joint_indicator_revision_dfm_full_kalman_em,2012:Q1,-5.515335015403046,-150.22052575680934
exact,pre_advance,A,ar,joint_indicator_revision_dfm_full_kalman_em,2012:Q2,-0.7714008262136216,-150.99192658302294
exact,pre_advance,A,ar,joint_indicator_revision_dfm_full_kalman_em,2012:Q3,-0.048125411792767026,-151.0400519948157
exact,pre_advance,A,ar,joint_indicator_revision_dfm_full_kalman_em,2012:Q4,-9.229201799023109,-160.26925379383883
exact,pre_advance,A,ar,joint_indicator_revision_dfm_full_kalman_em,2013:Q1,1.73449487248084,-158.534758921358
exact,pre_advance,A,ar,joint_indicator_revision_dfm_full_kalman_em,2013:Q2,-0.3470171754601261,-158.88177609681813
exact,pre_advance,A,ar,joint_indicator_revision_dfm_full_kalman_em,2013:Q3,0.5558303199704759,-158.32594577684765
exact,pre_advance,A,ar,joint_indicator_revision_dfm_full_kalman_em,2013:Q4,-0.7542474595905639,-159.08019323643822
exact,pre_advance,A,ar,joint_indicator_revision_dfm_full_kalman_em,2014:Q1,1.418682492720504,-157.6615107437177
exact,pre_advance,A,ar,joint_indicator_revision_dfm_full_kalman_em,2014:Q2,5.75712280167077,-151.90438794204695
exact,pre_advance,A,ar,joint_indicator_revision_dfm_full_kalman_em,2014:Q3,-0.28134752444935873,-152.1857354664963
exact,pre_advance,A,ar,joint_indicator_revision_dfm_full_kalman_em,2014:Q4,0.1220002879747076,-152.0637351785216
exact,pre_advance,A,ar,joint_indicator_revision_dfm_full_kalman_em,2015:Q1,4.711818834981639,-147.35191634353995
exact,pre_advance,A,ar,joint_indicator_revision_dfm_full_kalman_em,2015:Q2,0.5754195658642214,-146.77649677767573
exact,pre_advance,A,ar,joint_indicator_revision_dfm_full_kalman_em,2015:Q3,-0.5134820203155424,-147.28997879799127
exact,pre_advance,A,ar,joint_indicator_revision_dfm_full_kalman_em,2015:Q4,1.2360414297686264,-146.05393736822265
exact,pre_advance,A,ar,joint_indicator_revision_dfm_full_kalman_em,2016:Q1,-0.19563528499435856,-146.249572653217
exact,pre_advance,A,ar,joint_indicator_revision_dfm_full_kalman_em,2016:Q2,-0.1679073698811459,-146.41748002309814
exact,pre_advance,A,ar,joint_indicator_revision_dfm_full_kalman_em,2016:Q3,1.0113482019614488,-145.40613182113668
exact,pre_advance,A,ar,joint_indicator_revision_dfm_full_kalman_em,2016:Q4,-2.315028671331083,-147.72116049246776
exact,pre_advance,A,ar,joint_indicator_revision_dfm_full_kalman_em,2017:Q1,-2.1838177959640386,-149.9049782884318
exact,pre_advance,A,ar,joint_indicator_revision_dfm_full_kalman_em,2017:Q2,0.7612467924568659,-149.14373149597495
exact,pre_advance,A,ar,joint_indicator_revision_dfm_full_kalman_em,2017:Q3,-2.2220521070061885,-151.36578360298114
exact,pre_advance,A,ar,joint_indicator_revision_dfm_full_kalman_em,2017:Q4,-7.439078933903523,-158.80486253688466
exact,pre_advance,A,ar,joint_indicator_revision_dfm_full_kalman_em,2018:Q1,-0.5600110366546394,-159.36487357353928
exact,pre_advance,A,ar,joint_indicator_revision_dfm_full_kalman_em,2018:Q2,0.9239845279921861,-158.4408890455471
exact,pre_advance,A,ar,joint_indicator_revision_dfm_full_kalman_em,2018:Q3,0.045397416319073035,-158.39549162922802
exact,pre_advance,A,ar,joint_indicator_revision_dfm_full_kalman_em,2018:Q4,0.1681088746106632,-158.22738275461737
exact,pre_advance,A,ar,joint_indicator_revision_dfm_full_kalman_em,2019:Q1,-2.3365815106992787,-160.56396426531666
exact,pre_advance,A,ar,joint_indicator_revision_dfm_full_kalman_em,2019:Q2,0.08597871661116552,-160.4779855487055
exact,pre_advance,A,ar,joint_indicator_revision_dfm_full_kalman_em,2019:Q3,-0.21957535982230023,-160.6975609085278
exact,pre_advance,A,ar,joint_indicator_revision_dfm_full_kalman_em,2019:Q4,-0.3037103795086372,-161.00127128803643
exact,pre_advance,A,ar,joint_indicator_revision_dfm_full_kalman_em,2020:Q1,36.12640790869798,-124.87486337933845
exact,pre_advance,A,ar,joint_indicator_revision_dfm_full_kalman_em,2020:Q2,985.0577700867415,860.182906707403
exact,pre_advance,A,ar,joint_indicator_revision_dfm_full_kalman_em,2020:Q3,2140.526743700204,3000.709650407607
exact,pre_advance,A,ar,joint_indicator_revision_dfm_full_kalman_em,2020:Q4,-12.746575390721405,2987.963075016886
exact,pre_advance,A,ar,joint_indicator_revision_dfm_full_kalman_em,2021:Q1,6.940197955562189,2994.903272972448
exact,pre_advance,A,ar,joint_indicator_revision_dfm_full_kalman_em,2021:Q2,6.104120476872367,3001.0073934493203
exact,pre_advance,A,ar,joint_indicator_revision_dfm_full_kalman_em,2021:Q3,-6.0382014488462,2994.969192000474
exact,pre_advance,A,ar,joint_indicator_revision_dfm_full_kalman_em,2021:Q4,14.037284556214647,3009.0064765566885
exact,pre_advance,A,ar,joint_indicator_revision_dfm_full_kalman_em,2022:Q1,-28.022963836799413,2980.983512719889
exact,pre_advance,A,ar,joint_indicator_revision_dfm_full_kalman_em,2022:Q2,-10.116230563883354,2970.867282156006
exact,pre_advance,A,ar,joint_indicator_revision_dfm_full_kalman_em,2022:Q3,0.013698476322342563,2970.880980632328
exact,pre_advance,A,ar,joint_indicator_revision_dfm_full_kalman_em,2022:Q4,-1.597009346233332,2969.2839712860946
exact,pre_advance,A,ar,joint_indicator_revision_dfm_full_kalman_em,2023:Q1,-1.19714221168078,2968.086829074414
exact,pre_advance,A,ar,joint_indicator_revision_dfm_full_kalman_em,2023:Q2,-0.10384692929827251,2967.9829821451153
exact,pre_advance,A,ar,joint_indicator_revision_dfm_full_kalman_em,2023:Q3,-2.691834588890983,2965.291147556224
exact,pre_advance,A,ar,joint_indicator_revision_dfm_full_kalman_em,2023:Q4,-0.7706951963509272,2964.520452359873
exact,pre_advance,A,ar,joint_indicator_revision_dfm_full_kalman_em,2024:Q1,0.8685860169206276,2965.389038376794
exact,pre_advance,A,ar,joint_indicator_revision_dfm_full_kalman_em,2024:Q2,-1.3251503606574309,2964.0638880161364
exact,pre_advance,A,ar,joint_indicator_revision_dfm_full_kalman_em,2024:Q3,-1.093152383834963,2962.9707356323015
exact,pre_advance,A,ar,joint_indicator_revision_dfm_full_kalman_em,2024:Q4,-0.05988154612878059,2962.9108540861725
exact,pre_advance,A,ar,midas_umidas,2005:Q1,-187.6199151665184,-187.6199151665184
exact,pre_advance,A,ar,midas_umidas,2005:Q2,-221.40714001951997,-409.0270551860384
exact,pre_advance,A,ar,midas_umidas,2005:Q3,-286.1498872043989,-695.1769423904373
exact,pre_advance,A,ar,midas_umidas,2005:Q4,-121.10249273451387,-816.2794351249511
exact,pre_advance,A,ar,midas_umidas,2006:Q1,-416.6870798629993,-1232.9665149879504
exact,pre_advance,A,ar,midas_umidas,2006:Q2,-219.90095661332757,-1452.8674716012779
exact,pre_advance,A,ar,midas_umidas,2006:Q3,-16.762423352507025,-1469.629894953785
exact,pre_advance,A,ar,midas_umidas,2006:Q4,-19.797858160134435,-1489.4277531139194
exact,pre_advance,A,ar,midas_umidas,2007:Q1,-18.208297323335493,-1507.6360504372549
exact,pre_advance,A,ar,midas_umidas,2007:Q2,-90.46093777998257,-1598.0969882172374
exact,pre_advance,A,ar,midas_umidas,2007:Q3,-331.1259104236887,-1929.2228986409261
exact,pre_advance,A,ar,midas_umidas,2007:Q4,-28.7438112194976,-1957.9667098604236
exact,pre_advance,A,ar,midas_umidas,2008:Q1,-109.21614314991803,-2067.1828530103417
exact,pre_advance,A,ar,midas_umidas,2008:Q2,-565.4112016092611,-2632.5940546196025
exact,pre_advance,A,ar,midas_umidas,2008:Q3,-58.186597073757085,-2690.7806516933597
exact,pre_advance,A,ar,midas_umidas,2008:Q4,-32.728163358606764,-2723.5088150519664
exact,pre_advance,A,ar,midas_umidas,2009:Q1,8.583597191716123,-2714.92521786025
exact,pre_advance,A,ar,midas_umidas,2009:Q2,-53.39885734537558,-2768.324075205626
exact,pre_advance,A,ar,midas_umidas,2009:Q3,-303.9722662121401,-3072.2963414177657
exact,pre_advance,A,ar,midas_umidas,2009:Q4,-64.51058242069575,-3136.8069238384614
exact,pre_advance,A,ar,midas_umidas,2010:Q1,0.5983576798340858,-3136.2085661586275
exact,pre_advance,A,ar,midas_umidas,2010:Q2,-15.990555884620134,-3152.199122043248
exact,pre_advance,A,ar,midas_umidas,2010:Q3,-307.6546954204589,-3459.853817463707
exact,pre_advance,A,ar,midas_umidas,2010:Q4,-38.15978341146515,-3498.013600875172
exact,pre_advance,A,ar,midas_umidas,2011:Q1,-92.03290211782502,-3590.046502992997
exact,pre_advance,A,ar,midas_umidas,2011:Q2,-306.02198228956087,-3896.068485282558
exact,pre_advance,A,ar,midas_umidas,2011:Q3,-32.87401376606293,-3928.942499048621
exact,pre_advance,A,ar,midas_umidas,2011:Q4,-371.54817852718503,-4300.490677575806
exact,pre_advance,A,ar,midas_umidas,2012:Q1,-122.74567380920654,-4423.236351385013
exact,pre_advance,A,ar,midas_umidas,2012:Q2,-29.88797422631989,-4453.124325611333
exact,pre_advance,A,ar,midas_umidas,2012:Q3,-25.05258481143651,-4478.17691042277
exact,pre_advance,A,ar,midas_umidas,2012:Q4,-236.931833593097,-4715.108744015866
exact,pre_advance,A,ar,midas_umidas,2013:Q1,-289.46108812641023,-5004.569832142277
exact,pre_advance,A,ar,midas_umidas,2013:Q2,-166.00409066325903,-5170.573922805536
exact,pre_advance,A,ar,midas_umidas,2013:Q3,-133.94421055689523,-5304.518133362431
exact,pre_advance,A,ar,midas_umidas,2013:Q4,0.1844370828420358,-5304.333696279589
exact,pre_advance,A,ar,midas_umidas,2014:Q1,-24.41104941800282,-5328.744745697592
exact,pre_advance,A,ar,midas_umidas,2014:Q2,-6.904915448098296,-5335.6496611456905
exact,pre_advance,A,ar,midas_umidas,2014:Q3,-128.28898106590654,-5463.938642211597
exact,pre_advance,A,ar,midas_umidas,2014:Q4,0.023543689470378798,-5463.915098522127
exact,pre_advance,A,ar,midas_umidas,2015:Q1,-16.38452558657465,-5480.299624108701
exact,pre_advance,A,ar,midas_umidas,2015:Q2,-85.02922229388085,-5565.328846402582
exact,pre_advance,A,ar,midas_umidas,2015:Q3,-1.344957788895401,-5566.673804191477
exact,pre_advance,A,ar,midas_umidas,2015:Q4,-43.10958890173534,-5609.783393093212
exact,pre_advance,A,ar,midas_umidas,2016:Q1,1.120103032854391,-5608.663290060357
exact,pre_advance,A,ar,midas_umidas,2016:Q2,-0.666491131098135,-5609.329781191455
exact,pre_advance,A,ar,midas_umidas,2016:Q3,-25.335260654313558,-5634.665041845769
exact,pre_advance,A,ar,midas_umidas,2016:Q4,-11.497059059703457,-5646.1621009054725
exact,pre_advance,A,ar,midas_umidas,2017:Q1,-6.0698612183336405,-5652.231962123806
exact,pre_advance,A,ar,midas_umidas,2017:Q2,0.9452815682099636,-5651.286680555596
exact,pre_advance,A,ar,midas_umidas,2017:Q3,-0.41404128561245446,-5651.700721841208
exact,pre_advance,A,ar,midas_umidas,2017:Q4,-0.13420448164651677,-5651.834926322855
exact,pre_advance,A,ar,midas_umidas,2018:Q1,-3.997257024537364,-5655.832183347392
exact,pre_advance,A,ar,midas_umidas,2018:Q2,-18.26889602605065,-5674.101079373442
exact,pre_advance,A,ar,midas_umidas,2018:Q3,-2.021495069425829,-5676.122574442868
exact,pre_advance,A,ar,midas_umidas,2018:Q4,-0.8432647553047836,-5676.965839198173
exact,pre_advance,A,ar,midas_umidas,2019:Q1,-2.440618721248274,-5679.406457919421
exact,pre_advance,A,ar,midas_umidas,2019:Q2,-0.31022506279469664,-5679.716682982215
exact,pre_advance,A,ar,midas_umidas,2019:Q3,-0.5704491640055204,-5680.287132146221
exact,pre_advance,A,ar,midas_umidas,2019:Q4,-3.737028164518225,-5684.024160310739
exact,pre_advance,A,ar,midas_umidas,2020:Q1,-88.42740718615849,-5772.451567496897
exact,pre_advance,A,ar,midas_umidas,2020:Q2,-3056.4598925313708,-8828.911460028268
exact,pre_advance,A,ar,midas_umidas,2020:Q3,-1182.785561973823,-10011.697022002092
exact,pre_advance,A,ar,midas_umidas,2020:Q4,-9.845816644277923,-10021.54283864637
exact,pre_advance,A,ar,midas_umidas,2021:Q1,-8.101390902857082,-10029.644229549227
exact,pre_advance,A,ar,midas_umidas,2021:Q2,12.942854477099132,-10016.701375072127
exact,pre_advance,A,ar,midas_umidas,2021:Q3,-36.10650263151161,-10052.807877703639
exact,pre_advance,A,ar,midas_umidas,2021:Q4,-50.137724068774205,-10102.945601772413
exact,pre_advance,A,ar,midas_umidas,2022:Q1,11.516273142384971,-10091.429328630029
exact,pre_advance,A,ar,midas_umidas,2022:Q2,-81.47208354712295,-10172.901412177152
exact,pre_advance,A,ar,midas_umidas,2022:Q3,-10.828589581410352,-10183.730001758562
exact,pre_advance,A,ar,midas_umidas,2022:Q4,-26.164088543113238,-10209.894090301676
exact,pre_advance,A,ar,midas_umidas,2023:Q1,0.983950925470207,-10208.910139376205
exact,pre_advance,A,ar,midas_umidas,2023:Q2,-4.190128232118229,-10213.100267608323
exact,pre_advance,A,ar,midas_umidas,2023:Q3,5.646110506615621,-10207.454157101707
exact,pre_advance,A,ar,midas_umidas,2023:Q4,-0.5226186986627077,-10207.976775800369
exact,pre_advance,A,ar,midas_umidas,2024:Q1,-6.858121252587646,-10214.834897052957
exact,pre_advance,A,ar,midas_umidas,2024:Q2,-0.00908849640029552,-10214.843985549358
exact,pre_advance,A,ar,midas_umidas,2024:Q3,-3.39415843192423,-10218.238143981282
exact,pre_advance,A,ar,midas_umidas,2024:Q4,0.053104823491226846,-10218.18503915779
exact,pre_advance,A,ar,monthly_mixed_frequency_kalman_em,2005:Q1,-2.1433795911055045,-2.1433795911055045
exact,pre_advance,A,ar,monthly_mixed_frequency_kalman_em,2005:Q2,0.08297374976990879,-2.0604058413355957
exact,pre_advance,A,ar,monthly_mixed_frequency_kalman_em,2005:Q3,-13.351711334243372,-15.412117175578969
exact,pre_advance,A,ar,monthly_mixed_frequency_kalman_em,2005:Q4,-17.9979179895039,-33.41003516508287
exact,pre_advance,A,ar,monthly_mixed_frequency_kalman_em,2006:Q1,6.868511512285634,-26.54152365279723
exact,pre_advance,A,ar,monthly_mixed_frequency_kalman_em,2006:Q2,-5.079110328528107,-31.620633981325337
exact,pre_advance,A,ar,monthly_mixed_frequency_kalman_em,2006:Q3,0.9832832636428305,-30.637350717682505
exact,pre_advance,A,ar,monthly_mixed_frequency_kalman_em,2006:Q4,-2.7129250987023585,-33.350275816384865
exact,pre_advance,A,ar,monthly_mixed_frequency_kalman_em,2007:Q1,-2.462429661946479,-35.812705478331345
exact,pre_advance,A,ar,monthly_mixed_frequency_kalman_em,2007:Q2,1.2134405932326897,-34.599264885098655
exact,pre_advance,A,ar,monthly_mixed_frequency_kalman_em,2007:Q3,0.19895745154258138,-34.40030743355607
exact,pre_advance,A,ar,monthly_mixed_frequency_kalman_em,2007:Q4,6.996993534099589,-27.403313899456485
exact,pre_advance,A,ar,monthly_mixed_frequency_kalman_em,2008:Q1,1.200217301782843,-26.203096597673643
exact,pre_advance,A,ar,monthly_mixed_frequency_kalman_em,2008:Q2,-2.0789277512565607,-28.282024348930204
exact,pre_advance,A,ar,monthly_mixed_frequency_kalman_em,2008:Q3,-14.270086234494158,-42.552110583424366
exact,pre_advance,A,ar,monthly_mixed_frequency_kalman_em,2008:Q4,17.134133734761882,-25.417976848662484
exact,pre_advance,A,ar,monthly_mixed_frequency_kalman_em,2009:Q1,-12.119278027918618,-37.5372548765811
exact,pre_advance,A,ar,monthly_mixed_frequency_kalman_em,2009:Q2,-1.5294765057163016,-39.066731382297405
exact,pre_advance,A,ar,monthly_mixed_frequency_kalman_em,2009:Q3,-2.1539476841887275,-41.220679066486134
exact,pre_advance,A,ar,monthly_mixed_frequency_kalman_em,2009:Q4,1.7154358055346357,-39.5052432609515
exact,pre_advance,A,ar,monthly_mixed_frequency_kalman_em,2010:Q1,0.16943414939775492,-39.33580911155375
exact,pre_advance,A,ar,monthly_mixed_frequency_kalman_em,2010:Q2,-2.310703032593394,-41.646512144147145
exact,pre_advance,A,ar,monthly_mixed_frequency_kalman_em,2010:Q3,0.19602534015514042,-41.45048680399201
exact,pre_advance,A,ar,monthly_mixed_frequency_kalman_em,2010:Q4,0.7465918378532722,-40.70389496613873
exact,pre_advance,A,ar,monthly_mixed_frequency_kalman_em,2011:Q1,-7.093166275760996,-47.797061241899726
exact,pre_advance,A,ar,monthly_mixed_frequency_kalman_em,2011:Q2,-1.6294486180426637,-49.42650985994239
exact,pre_advance,A,ar,monthly_mixed_frequency_kalman_em,2011:Q3,0.24356625024152617,-49.182943609700864
exact,pre_advance,A,ar,monthly_mixed_frequency_kalman_em,2011:Q4,-1.0515471606915312,-50.2344907703924
exact,pre_advance,A,ar,monthly_mixed_frequency_kalman_em,2012:Q1,-2.4971407626676365,-52.73163153306003
exact,pre_advance,A,ar,monthly_mixed_frequency_kalman_em,2012:Q2,-0.37984631685220616,-53.11147784991224
exact,pre_advance,A,ar,monthly_mixed_frequency_kalman_em,2012:Q3,-0.6980982756375261,-53.80957612554977
exact,pre_advance,A,ar,monthly_mixed_frequency_kalman_em,2012:Q4,-6.943937145612859,-60.753513271162625
exact,pre_advance,A,ar,monthly_mixed_frequency_kalman_em,2013:Q1,1.2195720282505995,-59.53394124291202
exact,pre_advance,A,ar,monthly_mixed_frequency_kalman_em,2013:Q2,-0.1394413148247512,-59.67338255773677
exact,pre_advance,A,ar,monthly_mixed_frequency_kalman_em,2013:Q3,0.5229288258746205,-59.15045373186215
exact,pre_advance,A,ar,monthly_mixed_frequency_kalman_em,2013:Q4,-0.309265631594483,-59.459719363456635
exact,pre_advance,A,ar,monthly_mixed_frequency_kalman_em,2014:Q1,-3.3064860020087643,-62.766205365465396
exact,pre_advance,A,ar,monthly_mixed_frequency_kalman_em,2014:Q2,6.84494812582914,-55.921257239636255
exact,pre_advance,A,ar,monthly_mixed_frequency_kalman_em,2014:Q3,-0.8024706783655131,-56.72372791800177
exact,pre_advance,A,ar,monthly_mixed_frequency_kalman_em,2014:Q4,-1.1404395266087595,-57.86416744461053
exact,pre_advance,A,ar,monthly_mixed_frequency_kalman_em,2015:Q1,3.4087261888868503,-54.45544125572368
exact,pre_advance,A,ar,monthly_mixed_frequency_kalman_em,2015:Q2,0.8352110290434768,-53.6202302266802
exact,pre_advance,A,ar,monthly_mixed_frequency_kalman_em,2015:Q3,-0.25517222404298834,-53.875402450723186
exact,pre_advance,A,ar,monthly_mixed_frequency_kalman_em,2015:Q4,1.098833787132591,-52.776568663590595
exact,pre_advance,A,ar,monthly_mixed_frequency_kalman_em,2016:Q1,-0.030386110246083176,-52.80695477383668
exact,pre_advance,A,ar,monthly_mixed_frequency_kalman_em,2016:Q2,-0.609796543961738,-53.416751317798415
exact,pre_advance,A,ar,monthly_mixed_frequency_kalman_em,2016:Q3,0.7822611167729516,-52.634490201025464
exact,pre_advance,A,ar,monthly_mixed_frequency_kalman_em,2016:Q4,0.3644618844337592,-52.270028316591706
exact,pre_advance,A,ar,monthly_mixed_frequency_kalman_em,2017:Q1,-2.6115910292420925,-54.8816193458338
exact,pre_advance,A,ar,monthly_mixed_frequency_kalman_em,2017:Q2,0.5569430268839449,-54.324676318949855
exact,pre_advance,A,ar,monthly_mixed_frequency_kalman_em,2017:Q3,-1.2488339938026805,-55.57351031275253
exact,pre_advance,A,ar,monthly_mixed_frequency_kalman_em,2017:Q4,-3.2832283903429635,-58.856738703095495
exact,pre_advance,A,ar,monthly_mixed_frequency_kalman_em,2018:Q1,-2.452477693601099,-61.30921639669659
exact,pre_advance,A,ar,monthly_mixed_frequency_kalman_em,2018:Q2,2.2173102869848935,-59.0919061097117
exact,pre_advance,A,ar,monthly_mixed_frequency_kalman_em,2018:Q3,0.035130648881051545,-59.05677546083065
exact,pre_advance,A,ar,monthly_mixed_frequency_kalman_em,2018:Q4,-0.20296176831247184,-59.25973722914312
exact,pre_advance,A,ar,monthly_mixed_frequency_kalman_em,2019:Q1,-1.274806624791232,-60.53454385393435
exact,pre_advance,A,ar,monthly_mixed_frequency_kalman_em,2019:Q2,0.5800420027282016,-59.95450185120615
exact,pre_advance,A,ar,monthly_mixed_frequency_kalman_em,2019:Q3,-0.06944644312637419,-60.02394829433253
exact,pre_advance,A,ar,monthly_mixed_frequency_kalman_em,2019:Q4,-0.060895513431230286,-60.084843807763754
exact,pre_advance,A,ar,monthly_mixed_frequency_kalman_em,2020:Q1,35.77322976171989,-24.311614046043864
exact,pre_advance,A,ar,monthly_mixed_frequency_kalman_em,2020:Q2,168.66581930777954,144.35420526173567
exact,pre_advance,A,ar,monthly_mixed_frequency_kalman_em,2020:Q3,2369.051208149679,2513.405413411415
exact,pre_advance,A,ar,monthly_mixed_frequency_kalman_em,2020:Q4,-2.5471464881885857,2510.8582669232264
exact,pre_advance,A,ar,monthly_mixed_frequency_kalman_em,2021:Q1,-60.39758649428974,2450.4606804289365
exact,pre_advance,A,ar,monthly_mixed_frequency_kalman_em,2021:Q2,13.992777928668888,2464.4534583576055
exact,pre_advance,A,ar,monthly_mixed_frequency_kalman_em,2021:Q3,-1.8393244373904523,2462.614133920215
exact,pre_advance,A,ar,monthly_mixed_frequency_kalman_em,2021:Q4,7.620836106917082,2470.234970027132
exact,pre_advance,A,ar,monthly_mixed_frequency_kalman_em,2022:Q1,-38.75070312455198,2431.48426690258
exact,pre_advance,A,ar,monthly_mixed_frequency_kalman_em,2022:Q2,-16.863335674623293,2414.620931227957
exact,pre_advance,A,ar,monthly_mixed_frequency_kalman_em,2022:Q3,-0.5163253785042784,2414.1046058494526
exact,pre_advance,A,ar,monthly_mixed_frequency_kalman_em,2022:Q4,-1.861199147596195,2412.243406701856
exact,pre_advance,A,ar,monthly_mixed_frequency_kalman_em,2023:Q1,2.0635232924957707,2414.306929994352
exact,pre_advance,A,ar,monthly_mixed_frequency_kalman_em,2023:Q2,-0.1204208741419612,2414.18650912021
exact,pre_advance,A,ar,monthly_mixed_frequency_kalman_em,2023:Q3,0.9827072981383358,2415.1692164183482
exact,pre_advance,A,ar,monthly_mixed_frequency_kalman_em,2023:Q4,-7.364037284862415,2407.805179133486
exact,pre_advance,A,ar,monthly_mixed_frequency_kalman_em,2024:Q1,0.07050964094880463,2407.875688774435
exact,pre_advance,A,ar,monthly_mixed_frequency_kalman_em,2024:Q2,-1.6248210907492329,2406.2508676836856
exact,pre_advance,A,ar,monthly_mixed_frequency_kalman_em,2024:Q3,-1.371922534314333,2404.8789451493712
exact,pre_advance,A,ar,monthly_mixed_frequency_kalman_em,2024:Q4,-0.9297635741998836,2403.949181575171
exact,pre_advance,A,ar,no_revision,2005:Q1,0.01829276874886654,0.01829276874886654
exact,pre_advance,A,ar,no_revision,2005:Q2,-0.010434082728868699,0.00785868601999784
exact,pre_advance,A,ar,no_revision,2005:Q3,0.04475723724217473,0.05261592326217257
exact,pre_advance,A,ar,no_revision,2005:Q4,-0.005897102113586961,0.04671882114858561
exact,pre_advance,A,ar,no_revision,2006:Q1,0.14435758559098844,0.19107640673957405
exact,pre_advance,A,ar,no_revision,2006:Q2,0.10645890996238783,0.29753531670196187
exact,pre_advance,A,ar,no_revision,2006:Q3,-0.24152679339726402,0.056008523304697855
exact,pre_advance,A,ar,no_revision,2006:Q4,-0.30824079892148304,-0.2522322756167852
exact,pre_advance,A,ar,no_revision,2007:Q1,-0.23848279984936216,-0.49071507546614734
exact,pre_advance,A,ar,no_revision,2007:Q2,0.05512019812272051,-0.43559487734342683
exact,pre_advance,A,ar,no_revision,2007:Q3,-0.19969014430791188,-0.6352850216513387
exact,pre_advance,A,ar,no_revision,2007:Q4,-0.15567398880635874,-0.7909590104576975
exact,pre_advance,A,ar,no_revision,2008:Q1,0.05559234221203191,-0.7353666682456655
exact,pre_advance,A,ar,no_revision,2008:Q2,0.004622952477093177,-0.7307437157685723
exact,pre_advance,A,ar,no_revision,2008:Q3,-0.15221627551749783,-0.8829599912860702
exact,pre_advance,A,ar,no_revision,2008:Q4,0.5818162017862143,-0.3011437894998559
exact,pre_advance,A,ar,no_revision,2009:Q1,0.45423321116048854,0.15308942166063266
exact,pre_advance,A,ar,no_revision,2009:Q2,0.013307526119774815,0.16639694778040748
exact,pre_advance,A,ar,no_revision,2009:Q3,-1.023992772227114,-0.8575958244467066
exact,pre_advance,A,ar,no_revision,2009:Q4,-1.4621885824992091,-2.3197844069459155
exact,pre_advance,A,ar,no_revision,2010:Q1,0.5154181563893694,-1.804366250556546
exact,pre_advance,A,ar,no_revision,2010:Q2,0.1815894544157976,-1.6227767961407484
exact,pre_advance,A,ar,no_revision,2010:Q3,0.02901155984276077,-1.5937652362979877
exact,pre_advance,A,ar,no_revision,2010:Q4,0.21335030884274386,-1.3804149274552437
exact,pre_advance,A,ar,no_revision,2011:Q1,-0.06757887593352563,-1.4479938033887694
exact,pre_advance,A,ar,no_revision,2011:Q2,0.0202217337142232,-1.4277720696745462
exact,pre_advance,A,ar,no_revision,2011:Q3,-0.052984459561723096,-1.4807565292362692
exact,pre_advance,A,ar,no_revision,2011:Q4,0.01895665554257433,-1.4617998736936948
exact,pre_advance,A,ar,no_revision,2012:Q1,0.02232353618393504,-1.4394763375097597
exact,pre_advance,A,ar,no_revision,2012:Q2,0.11942453052189395,-1.3200518069878657
exact,pre_advance,A,ar,no_revision,2012:Q3,0.0006349170808925357,-1.3194168899069731
exact,pre_advance,A,ar,no_revision,2012:Q4,-0.06262090931865316,-1.3820377992256263
exact,pre_advance,A,ar,no_revision,2013:Q1,-0.008932871015000954,-1.3909706702406273
exact,pre_advance,A,ar,no_revision,2013:Q2,0.06324061631598044,-1.3277300539246468
exact,pre_advance,A,ar,no_revision,2013:Q3,0.0315667756852992,-1.2961632782393475
exact,pre_advance,A,ar,no_revision,2013:Q4,-0.17688786721241778,-1.4730511454517652
exact,pre_advance,A,ar,no_revision,2014:Q1,-0.02480433967617479,-1.49785548512794
exact,pre_advance,A,ar,no_revision,2014:Q2,-0.3039643587409291,-1.801819843868869
exact,pre_advance,A,ar,no_revision,2014:Q3,-0.01009808842494786,-1.811917932293817
exact,pre_advance,A,ar,no_revision,2014:Q4,-0.053005079780955394,-1.8649230120747724
exact,pre_advance,A,ar,no_revision,2015:Q1,0.67193818782102,-1.1929848242537524
exact,pre_advance,A,ar,no_revision,2015:Q2,0.08197493566980374,-1.1110098885839488
exact,pre_advance,A,ar,no_revision,2015:Q3,-0.08264742175217066,-1.1936573103361194
exact,pre_advance,A,ar,no_revision,2015:Q4,-0.12441534043486313,-1.3180726507709826
exact,pre_advance,A,ar,no_revision,2016:Q1,0.2275952927293533,-1.0904773580416292
exact,pre_advance,A,ar,no_revision,2016:Q2,-0.0046545719231812915,-1.0951319299648103
exact,pre_advance,A,ar,no_revision,2016:Q3,-0.04584231925914617,-1.1409742492239565
exact,pre_advance,A,ar,no_revision,2016:Q4,0.10114230910276367,-1.0398319401211928
exact,pre_advance,A,ar,no_revision,2017:Q1,0.246574617300388,-0.7932573228208049
exact,pre_advance,A,ar,no_revision,2017:Q2,-0.15926574147033767,-0.9525230642911425
exact,pre_advance,A,ar,no_revision,2017:Q3,0.022454236955837703,-0.9300688273353048
exact,pre_advance,A,ar,no_revision,2017:Q4,0.004727701091471227,-0.9253411262438336
exact,pre_advance,A,ar,no_revision,2018:Q1,0.03223932073775865,-0.8931018055060749
exact,pre_advance,A,ar,no_revision,2018:Q2,-0.05012498584200742,-0.9432267913480823
exact,pre_advance,A,ar,no_revision,2018:Q3,0.0040716179457951085,-0.9391551734022872
exact,pre_advance,A,ar,no_revision,2018:Q4,0.0107967518642271,-0.92835842153806
exact,pre_advance,A,ar,no_revision,2019:Q1,-0.06475700376940074,-0.9931154253074608
exact,pre_advance,A,ar,no_revision,2019:Q2,-0.08251128198875868,-1.0756267072962196
exact,pre_advance,A,ar,no_revision,2019:Q3,-0.02873654465966108,-1.1043632519558806
exact,pre_advance,A,ar,no_revision,2019:Q4,0.0032282376299231016,-1.1011350143259575
exact,pre_advance,A,ar,no_revision,2020:Q1,-0.47755925650978526,-1.5786942708357428
exact,pre_advance,A,ar,no_revision,2020:Q2,-0.5667662532794111,-2.145460524115154
exact,pre_advance,A,ar,no_revision,2020:Q3,-57.60016029331837,-59.74562081743352
exact,pre_advance,A,ar,no_revision,2020:Q4,-40.65854856282156,-100.40416938025507
exact,pre_advance,A,ar,no_revision,2021:Q1,-27.79553131153419,-128.19970069178925
exact,pre_advance,A,ar,no_revision,2021:Q2,-24.119251842538425,-152.31895253432768
exact,pre_advance,A,ar,no_revision,2021:Q3,-0.30877510409469244,-152.62772763842236
exact,pre_advance,A,ar,no_revision,2021:Q4,3.7679008571371924,-148.85982678128516
exact,pre_advance,A,ar,no_revision,2022:Q1,-0.5234667865097897,-149.38329356779496
exact,pre_advance,A,ar,no_revision,2022:Q2,-1.9855199282110494,-151.36881349600603
exact,pre_advance,A,ar,no_revision,2022:Q3,-0.033925124700511525,-151.40273862070654
exact,pre_advance,A,ar,no_revision,2022:Q4,-0.7384306425890252,-152.14116926329558
exact,pre_advance,A,ar,no_revision,2023:Q1,0.371137610273619,-151.77003165302196
exact,pre_advance,A,ar,no_revision,2023:Q2,-0.00528125482766627,-151.77531290784964
exact,pre_advance,A,ar,no_revision,2023:Q3,-0.5551736828791194,-152.33048659072875
exact,pre_advance,A,ar,no_revision,2023:Q4,-0.20210030709286464,-152.53258689782163
exact,pre_advance,A,ar,no_revision,2024:Q1,-0.31218151521482485,-152.84476841303646
exact,pre_advance,A,ar,no_revision,2024:Q2,0.0978852185130688,-152.7468831945234
exact,pre_advance,A,ar,no_revision,2024:Q3,-0.06291573213851451,-152.80979892666193
exact,pre_advance,A,ar,no_revision,2024:Q4,0.026146771737672124,-152.78365215492425
exact,pre_advance,A,ar,release_dfm,2005:Q1,0.005557468690040701,0.005557468690040701
exact,pre_advance,A,ar,release_dfm,2005:Q2,0.17688600917079522,0.18244347786083592
exact,pre_advance,A,ar,release_dfm,2005:Q3,-0.5496284026543578,-0.3671849247935218
exact,pre_advance,A,ar,release_dfm,2005:Q4,-1.598510703674827,-1.9656956284683487
exact,pre_advance,A,ar,release_dfm,2006:Q1,5.895364834230374,3.9296692057620257
exact,pre_advance,A,ar,release_dfm,2006:Q2,0.6326591475203756,4.5623283532824015
exact,pre_advance,A,ar,release_dfm,2006:Q3,-1.1815536331980458,3.3807747200843554
exact,pre_advance,A,ar,release_dfm,2006:Q4,-0.08961491202374061,3.291159808060615
exact,pre_advance,A,ar,release_dfm,2007:Q1,2.277615211128804,5.5687750191894185
exact,pre_advance,A,ar,release_dfm,2007:Q2,1.5721987404672848,7.140973759656704
exact,pre_advance,A,ar,release_dfm,2007:Q3,-0.9325969815824826,6.208376778074221
exact,pre_advance,A,ar,release_dfm,2007:Q4,5.619451697130961,11.827828475205182
exact,pre_advance,A,ar,release_dfm,2008:Q1,0.4071777558322208,12.235006231037403
exact,pre_advance,A,ar,release_dfm,2008:Q2,-0.1485463181038612,12.086459912933542
exact,pre_advance,A,ar,release_dfm,2008:Q3,5.4603986995371985,17.54685861247074
exact,pre_advance,A,ar,release_dfm,2008:Q4,25.320902423246768,42.86776103571751
exact,pre_advance,A,ar,release_dfm,2009:Q1,26.898920136255693,69.7666811719732
exact,pre_advance,A,ar,release_dfm,2009:Q2,0.6708675600601806,70.43754873203338
exact,pre_advance,A,ar,release_dfm,2009:Q3,7.624685900987867,78.06223463302125
exact,pre_advance,A,ar,release_dfm,2009:Q4,-0.05460311648701044,78.00763151653423
exact,pre_advance,A,ar,release_dfm,2010:Q1,-1.383510722457672,76.62412079407656
exact,pre_advance,A,ar,release_dfm,2010:Q2,-0.9692400609140532,75.65488073316251
exact,pre_advance,A,ar,release_dfm,2010:Q3,-0.16499710555444946,75.48988362760807
exact,pre_advance,A,ar,release_dfm,2010:Q4,0.42205119712596945,75.91193482473403
exact,pre_advance,A,ar,release_dfm,2011:Q1,-7.478070769233071,68.43386405550096
exact,pre_advance,A,ar,release_dfm,2011:Q2,-1.2601790103089012,67.17368504519206
exact,pre_advance,A,ar,release_dfm,2011:Q3,0.169691482379295,67.34337652757135
exact,pre_advance,A,ar,release_dfm,2011:Q4,-0.5786066882143093,66.76476983935704
exact,pre_advance,A,ar,release_dfm,2012:Q1,-2.2457574597114895,64.51901237964556
exact,pre_advance,A,ar,release_dfm,2012:Q2,-0.29124857939303794,64.22776380025252
exact,pre_advance,A,ar,release_dfm,2012:Q3,-0.2875970641695967,63.94016673608292
exact,pre_advance,A,ar,release_dfm,2012:Q4,-7.029358035026668,56.910808701056254
exact,pre_advance,A,ar,release_dfm,2013:Q1,1.5366394988358547,58.44744819989211
exact,pre_advance,A,ar,release_dfm,2013:Q2,-0.6193290521110049,57.8281191477811
exact,pre_advance,A,ar,release_dfm,2013:Q3,0.5116495142349746,58.33976866201608
exact,pre_advance,A,ar,release_dfm,2013:Q4,0.1881211670679197,58.527889829083996
exact,pre_advance,A,ar,release_dfm,2014:Q1,2.2611836602781894,60.78907348936219
exact,pre_advance,A,ar,release_dfm,2014:Q2,6.950285300050513,67.7393587894127
exact,pre_advance,A,ar,release_dfm,2014:Q3,-0.23970610456213043,67.49965268485057
exact,pre_advance,A,ar,release_dfm,2014:Q4,0.15993158149245626,67.65958426634303
exact,pre_advance,A,ar,release_dfm,2015:Q1,3.458441162000213,71.11802542834324
exact,pre_advance,A,ar,release_dfm,2015:Q2,0.608188766440848,71.72621419478409
exact,pre_advance,A,ar,release_dfm,2015:Q3,-0.49388308416577154,71.23233111061832
exact,pre_advance,A,ar,release_dfm,2015:Q4,-0.199694963921353,71.03263614669696
exact,pre_advance,A,ar,release_dfm,2016:Q1,-1.3432215168252546,69.6894146298717
exact,pre_advance,A,ar,release_dfm,2016:Q2,-0.9852587561590919,68.70415587371261
exact,pre_advance,A,ar,release_dfm,2016:Q3,0.8086089264622582,69.51276480017486
exact,pre_advance,A,ar,release_dfm,2016:Q4,-0.9426756961184087,68.57008910405645
exact,pre_advance,A,ar,release_dfm,2017:Q1,-2.1563377782168547,66.4137513258396
exact,pre_advance,A,ar,release_dfm,2017:Q2,0.8839097043219548,67.29766103016155
exact,pre_advance,A,ar,release_dfm,2017:Q3,-0.4498136888489407,66.84784734131262
exact,pre_advance,A,ar,release_dfm,2017:Q4,-1.472453224608988,65.37539411670363
exact,pre_advance,A,ar,release_dfm,2018:Q1,-1.1961916583162755,64.17920245838735
exact,pre_advance,A,ar,release_dfm,2018:Q2,0.7936938430062765,64.97289630139363
exact,pre_advance,A,ar,release_dfm,2018:Q3,-0.1781213138623781,64.79477498753126
exact,pre_advance,A,ar,release_dfm,2018:Q4,0.16398670734271426,64.95876169487397
exact,pre_advance,A,ar,release_dfm,2019:Q1,-1.3737634057761716,63.5849982890978
exact,pre_advance,A,ar,release_dfm,2019:Q2,0.5864738210399745,64.17147211013777
exact,pre_advance,A,ar,release_dfm,2019:Q3,-0.04636784297867397,64.1251042671591
exact,pre_advance,A,ar,release_dfm,2019:Q4,-0.009652078071393923,64.1154521890877
exact,pre_advance,A,ar,release_dfm,2020:Q1,20.78770088725128,84.90315307633898
exact,pre_advance,A,ar,release_dfm,2020:Q2,712.4929959502997,797.3961490266387
exact,pre_advance,A,ar,release_dfm,2020:Q3,2567.0847497712384,3364.480898797877
exact,pre_advance,A,ar,release_dfm,2020:Q4,-9.760194583218505,3354.720704214659
exact,pre_advance,A,ar,release_dfm,2021:Q1,14.717586220885224,3369.438290435544
exact,pre_advance,A,ar,release_dfm,2021:Q2,11.250739364102031,3380.689029799646
exact,pre_advance,A,ar,release_dfm,2021:Q3,-1.552906580913287,3379.136123218733
exact,pre_advance,A,ar,release_dfm,2021:Q4,14.115040173354647,3393.2511633920876
exact,pre_advance,A,ar,release_dfm,2022:Q1,-52.79943459352654,3340.451728798561
exact,pre_advance,A,ar,release_dfm,2022:Q2,-12.669399125677783,3327.782329672883
exact,pre_advance,A,ar,release_dfm,2022:Q3,0.01330019348445774,3327.7956298663676
exact,pre_advance,A,ar,release_dfm,2022:Q4,-1.3244838241014658,3326.471146042266
exact,pre_advance,A,ar,release_dfm,2023:Q1,0.6909286887191397,3327.162074730985
exact,pre_advance,A,ar,release_dfm,2023:Q2,-0.12096587289956348,3327.0411088580854
exact,pre_advance,A,ar,release_dfm,2023:Q3,-2.313832963877977,3324.7272758942077
exact,pre_advance,A,ar,release_dfm,2023:Q4,-1.707528374686477,3323.0197475195214
exact,pre_advance,A,ar,release_dfm,2024:Q1,0.4624004308907374,3323.482147950412
exact,pre_advance,A,ar,release_dfm,2024:Q2,0.12983346758590594,3323.611981417998
exact,pre_advance,A,ar,release_dfm,2024:Q3,-0.8060037928736986,3322.8059776251243
exact,pre_advance,A,ar,release_dfm,2024:Q4,0.033129491051418346,3322.839107116176
exact,pre_advance,A,ar,revision_dfm_kalman_em,2005:Q1,-0.025613208488934815,-0.025613208488934815
exact,pre_advance,A,ar,revision_dfm_kalman_em,2005:Q2,-0.5510758604778023,-0.5766890689667371
exact,pre_advance,A,ar,revision_dfm_kalman_em,2005:Q3,-1.0620145094240794,-1.6387035783908166
exact,pre_advance,A,ar,revision_dfm_kalman_em,2005:Q4,-4.969840082223944,-6.60854366061476
exact,pre_advance,A,ar,revision_dfm_kalman_em,2006:Q1,2.910472027111367,-3.6980716335033934
exact,pre_advance,A,ar,revision_dfm_kalman_em,2006:Q2,0.6253292705845461,-3.0727423629188473
exact,pre_advance,A,ar,revision_dfm_kalman_em,2006:Q3,0.9983103460845061,-2.0744320168343413
exact,pre_advance,A,ar,revision_dfm_kalman_em,2006:Q4,-7.494112191448541,-9.568544208282882
exact,pre_advance,A,ar,revision_dfm_kalman_em,2007:Q1,-2.013033877021069,-11.581578085303951
exact,pre_advance,A,ar,revision_dfm_kalman_em,2007:Q2,1.8867207778289692,-9.694857307474981
exact,pre_advance,A,ar,revision_dfm_kalman_em,2007:Q3,-2.0596738166217197,-11.754531124096701
exact,pre_advance,A,ar,revision_dfm_kalman_em,2007:Q4,6.965175731482443,-4.789355392614258
exact,pre_advance,A,ar,revision_dfm_kalman_em,2008:Q1,1.2005249977108718,-3.588830394903386
exact,pre_advance,A,ar,revision_dfm_kalman_em,2008:Q2,-2.040367690153387,-5.629198085056773
exact,pre_advance,A,ar,revision_dfm_kalman_em,2008:Q3,5.765254542165046,0.13605645710827297
exact,pre_advance,A,ar,revision_dfm_kalman_em,2008:Q4,11.530673031859322,11.666729488967595
exact,pre_advance,A,ar,revision_dfm_kalman_em,2009:Q1,9.513794987423047,21.180524476390644
exact,pre_advance,A,ar,revision_dfm_kalman_em,2009:Q2,-29.954227778448246,-8.773703302057601
exact,pre_advance,A,ar,revision_dfm_kalman_em,2009:Q3,7.151543662421393,-1.6221596396362088
exact,pre_advance,A,ar,revision_dfm_kalman_em,2009:Q4,4.705359981370748,3.083200341734539
exact,pre_advance,A,ar,revision_dfm_kalman_em,2010:Q1,-8.669260322478575,-5.586059980744036
exact,pre_advance,A,ar,revision_dfm_kalman_em,2010:Q2,-4.80336116492581,-10.389421145669846
exact,pre_advance,A,ar,revision_dfm_kalman_em,2010:Q3,-1.4872456849739932,-11.87666683064384
exact,pre_advance,A,ar,revision_dfm_kalman_em,2010:Q4,-1.4993196295491162,-13.375986460192957
exact,pre_advance,A,ar,revision_dfm_kalman_em,2011:Q1,-16.025813914094083,-29.401800374287042
exact,pre_advance,A,ar,revision_dfm_kalman_em,2011:Q2,0.6856301453889295,-28.71617022889811
exact,pre_advance,A,ar,revision_dfm_kalman_em,2011:Q3,-0.09369391207679051,-28.809864140974902
exact,pre_advance,A,ar,revision_dfm_kalman_em,2011:Q4,-0.5961044429598226,-29.405968583934726
exact,pre_advance,A,ar,revision_dfm_kalman_em,2012:Q1,-2.422748010614034,-31.82871659454876
exact,pre_advance,A,ar,revision_dfm_kalman_em,2012:Q2,0.6317569385899602,-31.1969596559588
exact,pre_advance,A,ar,revision_dfm_kalman_em,2012:Q3,-0.1808195481622884,-31.377779204121087
exact,pre_advance,A,ar,revision_dfm_kalman_em,2012:Q4,-3.209265327614288,-34.58704453173537
exact,pre_advance,A,ar,revision_dfm_kalman_em,2013:Q1,1.7328026261318954,-32.85424190560348
exact,pre_advance,A,ar,revision_dfm_kalman_em,2013:Q2,0.20720393477425214,-32.64703797082923
exact,pre_advance,A,ar,revision_dfm_kalman_em,2013:Q3,0.21844196453297293,-32.42859600629626
exact,pre_advance,A,ar,revision_dfm_kalman_em,2013:Q4,-0.922513930144419,-33.35110993644068
exact,pre_advance,A,ar,revision_dfm_kalman_em,2014:Q1,-1.5954066768159318,-34.94651661325661
exact,pre_advance,A,ar,revision_dfm_kalman_em,2014:Q2,6.941050235669247,-28.005466377587364
exact,pre_advance,A,ar,revision_dfm_kalman_em,2014:Q3,-1.1804758938877657,-29.18594227147513
exact,pre_advance,A,ar,revision_dfm_kalman_em,2014:Q4,-0.34575986502172,-29.53170213649685
exact,pre_advance,A,ar,revision_dfm_kalman_em,2015:Q1,5.352872007088542,-24.178830129408308
exact,pre_advance,A,ar,revision_dfm_kalman_em,2015:Q2,0.5359792803906837,-23.642850849017623
exact,pre_advance,A,ar,revision_dfm_kalman_em,2015:Q3,-0.5769859714495453,-24.21983682046717
exact,pre_advance,A,ar,revision_dfm_kalman_em,2015:Q4,1.4642907954131963,-22.755546025053974
exact,pre_advance,A,ar,revision_dfm_kalman_em,2016:Q1,0.9075257499500837,-21.84802027510389
exact,pre_advance,A,ar,revision_dfm_kalman_em,2016:Q2,-0.3312534762308855,-22.179273751334776
exact,pre_advance,A,ar,revision_dfm_kalman_em,2016:Q3,0.5550826643957034,-21.62419108693907
exact,pre_advance,A,ar,revision_dfm_kalman_em,2016:Q4,-0.1197501921835209,-21.74394127912259
exact,pre_advance,A,ar,revision_dfm_kalman_em,2017:Q1,-0.6307667098386913,-22.374707988961283
exact,pre_advance,A,ar,revision_dfm_kalman_em,2017:Q2,0.8604577340298224,-21.51425025493146
exact,pre_advance,A,ar,revision_dfm_kalman_em,2017:Q3,-6.2238878486606,-27.73813810359206
exact,pre_advance,A,ar,revision_dfm_kalman_em,2017:Q4,-11.950529821863634,-39.6886679254557
exact,pre_advance,A,ar,revision_dfm_kalman_em,2018:Q1,-0.8110166991239207,-40.499684624579615
exact,pre_advance,A,ar,revision_dfm_kalman_em,2018:Q2,2.306159829600531,-38.19352479497908
exact,pre_advance,A,ar,revision_dfm_kalman_em,2018:Q3,0.050356176207824274,-38.143168618771256
exact,pre_advance,A,ar,revision_dfm_kalman_em,2018:Q4,-0.04730026045112734,-38.19046887922239
exact,pre_advance,A,ar,revision_dfm_kalman_em,2019:Q1,-3.9078532662153616,-42.09832214543775
exact,pre_advance,A,ar,revision_dfm_kalman_em,2019:Q2,0.5992548649138824,-41.49906728052387
exact,pre_advance,A,ar,revision_dfm_kalman_em,2019:Q3,-0.24191276439667578,-41.74098004492054
exact,pre_advance,A,ar,revision_dfm_kalman_em,2019:Q4,-0.6495797807550399,-42.39055982567558
exact,pre_advance,A,ar,revision_dfm_kalman_em,2020:Q1,39.83617265924101,-2.554387166434573
exact,pre_advance,A,ar,revision_dfm_kalman_em,2020:Q2,911.3943642915029,908.8399771250683
exact,pre_advance,A,ar,revision_dfm_kalman_em,2020:Q3,2244.595457363502,3153.4354344885705
exact,pre_advance,A,ar,revision_dfm_kalman_em,2020:Q4,0.108594646726701,3153.544029135297
exact,pre_advance,A,ar,revision_dfm_kalman_em,2021:Q1,0.45437948125074,3153.9984086165477
exact,pre_advance,A,ar,revision_dfm_kalman_em,2021:Q2,10.416762194976972,3164.4151708115246
exact,pre_advance,A,ar,revision_dfm_kalman_em,2021:Q3,-2.524921730235403,3161.8902490812893
exact,pre_advance,A,ar,revision_dfm_kalman_em,2021:Q4,9.47506282422024,3171.3653119055098
exact,pre_advance,A,ar,revision_dfm_kalman_em,2022:Q1,-36.10631636693496,3135.2589955385747
exact,pre_advance,A,ar,revision_dfm_kalman_em,2022:Q2,-7.786868520672245,3127.4721270179025
exact,pre_advance,A,ar,revision_dfm_kalman_em,2022:Q3,-0.24831458779098065,3127.2238124301116
exact,pre_advance,A,ar,revision_dfm_kalman_em,2022:Q4,-3.960059988781605,3123.26375244133
exact,pre_advance,A,ar,revision_dfm_kalman_em,2023:Q1,0.10373181534904097,3123.367484256679
exact,pre_advance,A,ar,revision_dfm_kalman_em,2023:Q2,-0.0019967735228600854,3123.365487483156
exact,pre_advance,A,ar,revision_dfm_kalman_em,2023:Q3,0.8042326327292111,3124.169720115885
exact,pre_advance,A,ar,revision_dfm_kalman_em,2023:Q4,-5.431584754171643,3118.7381353617134
exact,pre_advance,A,ar,revision_dfm_kalman_em,2024:Q1,0.8393886180459181,3119.5775239797595
exact,pre_advance,A,ar,revision_dfm_kalman_em,2024:Q2,-1.6150650597465228,3117.962458920013
exact,pre_advance,A,ar,revision_dfm_kalman_em,2024:Q3,-1.3482225428575885,3116.6142363771555
exact,pre_advance,A,ar,revision_dfm_kalman_em,2024:Q4,-0.03395867980531751,3116.58027769735
exact,pre_advance,A,ar,spf,2005:Q1,-0.42517854575438496,-0.42517854575438496
exact,pre_advance,A,ar,spf,2005:Q2,0.08831751947213484,-0.3368610262822501
exact,pre_advance,A,ar,spf,2005:Q3,0.4507088181174133,0.11384779183516319
exact,pre_advance,A,ar,spf,2005:Q4,0.2025752765366695,0.3164230683718327
exact,pre_advance,A,ar,spf,2006:Q1,7.924225342930829,8.240648411302661
exact,pre_advance,A,ar,spf,2006:Q2,0.9735201416432564,9.214168552945917
exact,pre_advance,A,ar,spf,2006:Q3,-0.5016709430059996,8.712497609939918
exact,pre_advance,A,ar,spf,2006:Q4,0.8016502039321348,9.514147813872054
exact,pre_advance,A,ar,spf,2007:Q1,1.6502665112336372,11.16441432510569
exact,pre_advance,A,ar,spf,2007:Q2,0.9864284552164425,12.150842780322133
exact,pre_advance,A,ar,spf,2007:Q3,-0.9193476113978154,11.231495168924317
exact,pre_advance,A,ar,spf,2007:Q4,5.6967814013468345,16.92827657027115
exact,pre_advance,A,ar,spf,2008:Q1,1.204990077036036,18.133266647307188
exact,pre_advance,A,ar,spf,2008:Q2,-3.2238512984891305,14.909415348818058
exact,pre_advance,A,ar,spf,2008:Q3,3.9356302256616567,18.845045574479716
exact,pre_advance,A,ar,spf,2008:Q4,24.09859860416627,42.94364417864598
exact,pre_advance,A,ar,spf,2009:Q1,29.64231503174285,72.58595921038884
exact,pre_advance,A,ar,spf,2009:Q2,0.7444354842419123,73.33039469463075
exact,pre_advance,A,ar,spf,2009:Q3,6.413336075458125,79.74373077008887
exact,pre_advance,A,ar,spf,2009:Q4,-2.6823601235725896,77.06137064651628
exact,pre_advance,A,ar,spf,2010:Q1,0.5057329121489584,77.56710355866524
exact,pre_advance,A,ar,spf,2010:Q2,-0.6110653931217516,76.95603816554349
exact,pre_advance,A,ar,spf,2010:Q3,0.057757461558770956,77.01379562710225
exact,pre_advance,A,ar,spf,2010:Q4,-0.11279743336282044,76.90099819373944
exact,pre_advance,A,ar,spf,2011:Q1,-1.9313760280653232,74.96962216567411
exact,pre_advance,A,ar,spf,2011:Q2,-3.063146223748209,71.9064759419259
exact,pre_advance,A,ar,spf,2011:Q3,0.2947819256509671,72.20125786757687
exact,pre_advance,A,ar,spf,2011:Q4,-0.005129844824395442,72.19612802275248
exact,pre_advance,A,ar,spf,2012:Q1,0.20458547617010198,72.40071349892257
exact,pre_advance,A,ar,spf,2012:Q2,-0.018409770611496512,72.38230372831107
exact,pre_advance,A,ar,spf,2012:Q3,-0.07217463608159123,72.31012909222949
exact,pre_advance,A,ar,spf,2012:Q4,1.942029542373171,74.25215863460267
exact,pre_advance,A,ar,spf,2013:Q1,1.6946220230777251,75.94678065768039
exact,pre_advance,A,ar,spf,2013:Q2,0.6973315171270864,76.64411217480747
exact,pre_advance,A,ar,spf,2013:Q3,0.30591725775643197,76.95002943256391
exact,pre_advance,A,ar,spf,2013:Q4,-1.6325980275425858,75.31743140502132
exact,pre_advance,A,ar,spf,2014:Q1,3.9699001821393285,79.28733158716065
exact,pre_advance,A,ar,spf,2014:Q2,6.438074299007829,85.72540588616847
exact,pre_advance,A,ar,spf,2014:Q3,-0.251635163548447,85.47377072262003
exact,pre_advance,A,ar,spf,2014:Q4,0.15145887412351158,85.62522959674354
exact,pre_advance,A,ar,spf,2015:Q1,-0.5212496814951058,85.10397991524843
exact,pre_advance,A,ar,spf,2015:Q2,0.8318632025934702,85.9358431178419
exact,pre_advance,A,ar,spf,2015:Q3,-0.9288030556021227,85.00704006223978
exact,pre_advance,A,ar,spf,2015:Q4,-2.3284026900794466,82.67863737216034
exact,pre_advance,A,ar,spf,2016:Q1,-1.0743226983875476,81.60431467377279
exact,pre_advance,A,ar,spf,2016:Q2,-0.8018984522303787,80.80241622154242
exact,pre_advance,A,ar,spf,2016:Q3,1.081090054002291,81.8835062755447
exact,pre_advance,A,ar,spf,2016:Q4,0.5801221432004156,82.46362841874512
exact,pre_advance,A,ar,spf,2017:Q1,-0.40971985483717344,82.05390856390794
exact,pre_advance,A,ar,spf,2017:Q2,0.642430113382157,82.6963386772901
exact,pre_advance,A,ar,spf,2017:Q3,0.13811758081006068,82.83445625810016
exact,pre_advance,A,ar,spf,2017:Q4,0.02064702779276604,82.85510328589292
exact,pre_advance,A,ar,spf,2018:Q1,-0.5112817400069796,82.34382154588594
exact,pre_advance,A,ar,spf,2018:Q2,1.9556914179554414,84.29951296384138
exact,pre_advance,A,ar,spf,2018:Q3,-0.16830279942107848,84.1312101644203
exact,pre_advance,A,ar,spf,2018:Q4,0.16799650605565186,84.29920667047595
exact,pre_advance,A,ar,spf,2019:Q1,-2.1668629688608125,82.13234370161514
exact,pre_advance,A,ar,spf,2019:Q2,0.5770120504342601,82.7093557520494
exact,pre_advance,A,ar,spf,2019:Q3,0.12206090810372335,82.83141666015312
exact,pre_advance,A,ar,spf,2019:Q4,-0.11990346709440587,82.71151319305872
exact,pre_advance,A,ar,spf,2020:Q1,8.308627598562644,91.02014079162137
exact,pre_advance,A,ar,spf,2020:Q2,1006.5196753159297,1097.5398161075511
exact,pre_advance,A,ar,spf,2020:Q3,2578.5391004156163,3676.078916523167
exact,pre_advance,A,ar,spf,2020:Q4,0.02681258593660213,3676.105729109104
exact,pre_advance,A,ar,spf,2021:Q1,3.252762678213962,3679.3584917873177
exact,pre_advance,A,ar,spf,2021:Q2,12.68371881776786,3692.0422106050855
exact,pre_advance,A,ar,spf,2021:Q3,-22.331344034562516,3669.710866570523
exact,pre_advance,A,ar,spf,2021:Q4,15.240271989586443,3684.9511385601095
exact,pre_advance,A,ar,spf,2022:Q1,7.091401681972036,3692.0425402420815
exact,pre_advance,A,ar,spf,2022:Q2,1.1551812488577688,3693.1977214909393
exact,pre_advance,A,ar,spf,2022:Q3,-1.638800736536628,3691.5589207544026
exact,pre_advance,A,ar,spf,2022:Q4,-3.345468483020446,3688.2134522713823
exact,pre_advance,A,ar,spf,2023:Q1,1.8011756926901332,3690.0146279640726
exact,pre_advance,A,ar,spf,2023:Q2,-2.467037637592867,3687.5475903264796
exact,pre_advance,A,ar,spf,2023:Q3,-3.7624631138196234,3683.78512721266
exact,pre_advance,A,ar,spf,2023:Q4,-4.231139798306024,3679.5539874143537
exact,pre_advance,A,ar,spf,2024:Q1,0.6176035835239486,3680.1715909978775
exact,pre_advance,A,ar,spf,2024:Q2,-0.5427808169482209,3679.628810180929
exact,pre_advance,A,ar,spf,2024:Q3,-0.8072172383919204,3678.8215929425373
exact,pre_advance,A,ar,spf,2024:Q4,-0.05692555044772479,3678.7646673920895
exact,pre_advance,A,ar,standard_dfm,2005:Q1,0.005557468690040701,0.005557468690040701
exact,pre_advance,A,ar,standard_dfm,2005:Q2,0.17688600917079522,0.18244347786083592
exact,pre_advance,A,ar,standard_dfm,2005:Q3,-0.5496284026543578,-0.3671849247935218
exact,pre_advance,A,ar,standard_dfm,2005:Q4,-1.598510703674827,-1.9656956284683487
exact,pre_advance,A,ar,standard_dfm,2006:Q1,5.895364834230374,3.9296692057620257
exact,pre_advance,A,ar,standard_dfm,2006:Q2,0.6326591475203756,4.5623283532824015
exact,pre_advance,A,ar,standard_dfm,2006:Q3,-1.1815536331980458,3.3807747200843554
exact,pre_advance,A,ar,standard_dfm,2006:Q4,-0.08961491202374061,3.291159808060615
exact,pre_advance,A,ar,standard_dfm,2007:Q1,2.277615211128804,5.5687750191894185
exact,pre_advance,A,ar,standard_dfm,2007:Q2,1.5721987404672848,7.140973759656704
exact,pre_advance,A,ar,standard_dfm,2007:Q3,-0.9325969815824826,6.208376778074221
exact,pre_advance,A,ar,standard_dfm,2007:Q4,5.619451697130961,11.827828475205182
exact,pre_advance,A,ar,standard_dfm,2008:Q1,0.4071777558322208,12.235006231037403
exact,pre_advance,A,ar,standard_dfm,2008:Q2,-0.1485463181038612,12.086459912933542
exact,pre_advance,A,ar,standard_dfm,2008:Q3,5.4603986995371985,17.54685861247074
exact,pre_advance,A,ar,standard_dfm,2008:Q4,25.320902423246768,42.86776103571751
exact,pre_advance,A,ar,standard_dfm,2009:Q1,26.898920136255693,69.7666811719732
exact,pre_advance,A,ar,standard_dfm,2009:Q2,0.6708675600601806,70.43754873203338
exact,pre_advance,A,ar,standard_dfm,2009:Q3,7.624685900987867,78.06223463302125
exact,pre_advance,A,ar,standard_dfm,2009:Q4,-0.05460311648701044,78.00763151653423
exact,pre_advance,A,ar,standard_dfm,2010:Q1,-1.383510722457672,76.62412079407656
exact,pre_advance,A,ar,standard_dfm,2010:Q2,-0.9692400609140532,75.65488073316251
exact,pre_advance,A,ar,standard_dfm,2010:Q3,-0.16499710555444946,75.48988362760807
exact,pre_advance,A,ar,standard_dfm,2010:Q4,0.42205119712596945,75.91193482473403
exact,pre_advance,A,ar,standard_dfm,2011:Q1,-7.478070769233071,68.43386405550096
exact,pre_advance,A,ar,standard_dfm,2011:Q2,-1.2601790103089012,67.17368504519206
exact,pre_advance,A,ar,standard_dfm,2011:Q3,0.169691482379295,67.34337652757135
exact,pre_advance,A,ar,standard_dfm,2011:Q4,-0.5786066882143093,66.76476983935704
exact,pre_advance,A,ar,standard_dfm,2012:Q1,-2.2457574597114895,64.51901237964556
exact,pre_advance,A,ar,standard_dfm,2012:Q2,-0.29124857939303794,64.22776380025252
exact,pre_advance,A,ar,standard_dfm,2012:Q3,-0.2875970641695967,63.94016673608292
exact,pre_advance,A,ar,standard_dfm,2012:Q4,-7.029358035026668,56.910808701056254
exact,pre_advance,A,ar,standard_dfm,2013:Q1,1.5366394988358547,58.44744819989211
exact,pre_advance,A,ar,standard_dfm,2013:Q2,-0.6193290521110049,57.8281191477811
exact,pre_advance,A,ar,standard_dfm,2013:Q3,0.5116495142349746,58.33976866201608
exact,pre_advance,A,ar,standard_dfm,2013:Q4,0.1881211670679197,58.527889829083996
exact,pre_advance,A,ar,standard_dfm,2014:Q1,2.2611836602781894,60.78907348936219
exact,pre_advance,A,ar,standard_dfm,2014:Q2,6.950285300050513,67.7393587894127
exact,pre_advance,A,ar,standard_dfm,2014:Q3,-0.23970610456213043,67.49965268485057
exact,pre_advance,A,ar,standard_dfm,2014:Q4,0.15993158149245626,67.65958426634303
exact,pre_advance,A,ar,standard_dfm,2015:Q1,3.458441162000213,71.11802542834324
exact,pre_advance,A,ar,standard_dfm,2015:Q2,0.608188766440848,71.72621419478409
exact,pre_advance,A,ar,standard_dfm,2015:Q3,-0.49388308416577154,71.23233111061832
exact,pre_advance,A,ar,standard_dfm,2015:Q4,-0.199694963921353,71.03263614669696
exact,pre_advance,A,ar,standard_dfm,2016:Q1,-1.3432215168252546,69.6894146298717
exact,pre_advance,A,ar,standard_dfm,2016:Q2,-0.9852587561590919,68.70415587371261
exact,pre_advance,A,ar,standard_dfm,2016:Q3,0.8086089264622582,69.51276480017486
exact,pre_advance,A,ar,standard_dfm,2016:Q4,-0.9426756961184087,68.57008910405645
exact,pre_advance,A,ar,standard_dfm,2017:Q1,-2.1563377782168547,66.4137513258396
exact,pre_advance,A,ar,standard_dfm,2017:Q2,0.8839097043219548,67.29766103016155
exact,pre_advance,A,ar,standard_dfm,2017:Q3,-0.4498136888489407,66.84784734131262
exact,pre_advance,A,ar,standard_dfm,2017:Q4,-1.472453224608988,65.37539411670363
exact,pre_advance,A,ar,standard_dfm,2018:Q1,-1.1961916583162755,64.17920245838735
exact,pre_advance,A,ar,standard_dfm,2018:Q2,0.7936938430062765,64.97289630139363
exact,pre_advance,A,ar,standard_dfm,2018:Q3,-0.1781213138623781,64.79477498753126
exact,pre_advance,A,ar,standard_dfm,2018:Q4,0.16398670734271426,64.95876169487397
exact,pre_advance,A,ar,standard_dfm,2019:Q1,-1.3737634057761716,63.5849982890978
exact,pre_advance,A,ar,standard_dfm,2019:Q2,0.5864738210399745,64.17147211013777
exact,pre_advance,A,ar,standard_dfm,2019:Q3,-0.04636784297867397,64.1251042671591
exact,pre_advance,A,ar,standard_dfm,2019:Q4,-0.009652078071393923,64.1154521890877
exact,pre_advance,A,ar,standard_dfm,2020:Q1,20.78770088725128,84.90315307633898
exact,pre_advance,A,ar,standard_dfm,2020:Q2,712.4929959502997,797.3961490266387
exact,pre_advance,A,ar,standard_dfm,2020:Q3,2567.0847497712384,3364.480898797877
exact,pre_advance,A,ar,standard_dfm,2020:Q4,-9.760194583218505,3354.720704214659
exact,pre_advance,A,ar,standard_dfm,2021:Q1,14.717586220885224,3369.438290435544
exact,pre_advance,A,ar,standard_dfm,2021:Q2,11.250739364102031,3380.689029799646
exact,pre_advance,A,ar,standard_dfm,2021:Q3,-1.552906580913287,3379.136123218733
exact,pre_advance,A,ar,standard_dfm,2021:Q4,14.115040173354647,3393.2511633920876
exact,pre_advance,A,ar,standard_dfm,2022:Q1,-52.79943459352654,3340.451728798561
exact,pre_advance,A,ar,standard_dfm,2022:Q2,-12.669399125677783,3327.782329672883
exact,pre_advance,A,ar,standard_dfm,2022:Q3,0.01330019348445774,3327.7956298663676
exact,pre_advance,A,ar,standard_dfm,2022:Q4,-1.3244838241014658,3326.471146042266
exact,pre_advance,A,ar,standard_dfm,2023:Q1,0.6909286887191397,3327.162074730985
exact,pre_advance,A,ar,standard_dfm,2023:Q2,-0.12096587289956348,3327.0411088580854
exact,pre_advance,A,ar,standard_dfm,2023:Q3,-2.313832963877977,3324.7272758942077
exact,pre_advance,A,ar,standard_dfm,2023:Q4,-1.707528374686477,3323.0197475195214
exact,pre_advance,A,ar,standard_dfm,2024:Q1,0.4624004308907374,3323.482147950412
exact,pre_advance,A,ar,standard_dfm,2024:Q2,0.12983346758590594,3323.611981417998
exact,pre_advance,A,ar,standard_dfm,2024:Q3,-0.8060037928736986,3322.8059776251243
exact,pre_advance,A,ar,standard_dfm,2024:Q4,0.033129491051418346,3322.839107116176
exact,pre_advance,A,no_revision,ar,2005:Q1,-0.01829276874886654,-0.01829276874886654
exact,pre_advance,A,no_revision,ar,2005:Q2,0.010434082728868699,-0.00785868601999784
exact,pre_advance,A,no_revision,ar,2005:Q3,-0.04475723724217473,-0.05261592326217257
exact,pre_advance,A,no_revision,ar,2005:Q4,0.005897102113586961,-0.04671882114858561
exact,pre_advance,A,no_revision,ar,2006:Q1,-0.14435758559098844,-0.19107640673957405
exact,pre_advance,A,no_revision,ar,2006:Q2,-0.10645890996238783,-0.29753531670196187
exact,pre_advance,A,no_revision,ar,2006:Q3,0.24152679339726402,-0.056008523304697855
exact,pre_advance,A,no_revision,ar,2006:Q4,0.30824079892148304,0.2522322756167852
exact,pre_advance,A,no_revision,ar,2007:Q1,0.23848279984936216,0.49071507546614734
exact,pre_advance,A,no_revision,ar,2007:Q2,-0.05512019812272051,0.43559487734342683
exact,pre_advance,A,no_revision,ar,2007:Q3,0.19969014430791188,0.6352850216513387
exact,pre_advance,A,no_revision,ar,2007:Q4,0.15567398880635874,0.7909590104576975
exact,pre_advance,A,no_revision,ar,2008:Q1,-0.05559234221203191,0.7353666682456655
exact,pre_advance,A,no_revision,ar,2008:Q2,-0.004622952477093177,0.7307437157685723
exact,pre_advance,A,no_revision,ar,2008:Q3,0.15221627551749783,0.8829599912860702
exact,pre_advance,A,no_revision,ar,2008:Q4,-0.5818162017862143,0.3011437894998559
exact,pre_advance,A,no_revision,ar,2009:Q1,-0.45423321116048854,-0.15308942166063266
exact,pre_advance,A,no_revision,ar,2009:Q2,-0.013307526119774815,-0.16639694778040748
exact,pre_advance,A,no_revision,ar,2009:Q3,1.023992772227114,0.8575958244467066
exact,pre_advance,A,no_revision,ar,2009:Q4,1.4621885824992091,2.3197844069459155
exact,pre_advance,A,no_revision,ar,2010:Q1,-0.5154181563893694,1.804366250556546
exact,pre_advance,A,no_revision,ar,2010:Q2,-0.1815894544157976,1.6227767961407484
exact,pre_advance,A,no_revision,ar,2010:Q3,-0.02901155984276077,1.5937652362979877
exact,pre_advance,A,no_revision,ar,2010:Q4,-0.21335030884274386,1.3804149274552437
exact,pre_advance,A,no_revision,ar,2011:Q1,0.06757887593352563,1.4479938033887694
exact,pre_advance,A,no_revision,ar,2011:Q2,-0.0202217337142232,1.4277720696745462
exact,pre_advance,A,no_revision,ar,2011:Q3,0.052984459561723096,1.4807565292362692
exact,pre_advance,A,no_revision,ar,2011:Q4,-0.01895665554257433,1.4617998736936948
exact,pre_advance,A,no_revision,ar,2012:Q1,-0.02232353618393504,1.4394763375097597
exact,pre_advance,A,no_revision,ar,2012:Q2,-0.11942453052189395,1.3200518069878657
exact,pre_advance,A,no_revision,ar,2012:Q3,-0.0006349170808925357,1.3194168899069731
exact,pre_advance,A,no_revision,ar,2012:Q4,0.06262090931865316,1.3820377992256263
exact,pre_advance,A,no_revision,ar,2013:Q1,0.008932871015000954,1.3909706702406273
exact,pre_advance,A,no_revision,ar,2013:Q2,-0.06324061631598044,1.3277300539246468
exact,pre_advance,A,no_revision,ar,2013:Q3,-0.0315667756852992,1.2961632782393475
exact,pre_advance,A,no_revision,ar,2013:Q4,0.17688786721241778,1.4730511454517652
exact,pre_advance,A,no_revision,ar,2014:Q1,0.02480433967617479,1.49785548512794
exact,pre_advance,A,no_revision,ar,2014:Q2,0.3039643587409291,1.801819843868869
exact,pre_advance,A,no_revision,ar,2014:Q3,0.01009808842494786,1.811917932293817
exact,pre_advance,A,no_revision,ar,2014:Q4,0.053005079780955394,1.8649230120747724
exact,pre_advance,A,no_revision,ar,2015:Q1,-0.67193818782102,1.1929848242537524
exact,pre_advance,A,no_revision,ar,2015:Q2,-0.08197493566980374,1.1110098885839488
exact,pre_advance,A,no_revision,ar,2015:Q3,0.08264742175217066,1.1936573103361194
exact,pre_advance,A,no_revision,ar,2015:Q4,0.12441534043486313,1.3180726507709826
exact,pre_advance,A,no_revision,ar,2016:Q1,-0.2275952927293533,1.0904773580416292
exact,pre_advance,A,no_revision,ar,2016:Q2,0.0046545719231812915,1.0951319299648103
exact,pre_advance,A,no_revision,ar,2016:Q3,0.04584231925914617,1.1409742492239565
exact,pre_advance,A,no_revision,ar,2016:Q4,-0.10114230910276367,1.0398319401211928
exact,pre_advance,A,no_revision,ar,2017:Q1,-0.246574617300388,0.7932573228208049
exact,pre_advance,A,no_revision,ar,2017:Q2,0.15926574147033767,0.9525230642911425
exact,pre_advance,A,no_revision,ar,2017:Q3,-0.022454236955837703,0.9300688273353048
exact,pre_advance,A,no_revision,ar,2017:Q4,-0.004727701091471227,0.9253411262438336
exact,pre_advance,A,no_revision,ar,2018:Q1,-0.03223932073775865,0.8931018055060749
exact,pre_advance,A,no_revision,ar,2018:Q2,0.05012498584200742,0.9432267913480823
exact,pre_advance,A,no_revision,ar,2018:Q3,-0.0040716179457951085,0.9391551734022872
exact,pre_advance,A,no_revision,ar,2018:Q4,-0.0107967518642271,0.92835842153806
exact,pre_advance,A,no_revision,ar,2019:Q1,0.06475700376940074,0.9931154253074608
exact,pre_advance,A,no_revision,ar,2019:Q2,0.08251128198875868,1.0756267072962196
exact,pre_advance,A,no_revision,ar,2019:Q3,0.02873654465966108,1.1043632519558806
exact,pre_advance,A,no_revision,ar,2019:Q4,-0.0032282376299231016,1.1011350143259575
exact,pre_advance,A,no_revision,ar,2020:Q1,0.47755925650978526,1.5786942708357428
exact,pre_advance,A,no_revision,ar,2020:Q2,0.5667662532794111,2.145460524115154
exact,pre_advance,A,no_revision,ar,2020:Q3,57.60016029331837,59.74562081743352
exact,pre_advance,A,no_revision,ar,2020:Q4,40.65854856282156,100.40416938025507
exact,pre_advance,A,no_revision,ar,2021:Q1,27.79553131153419,128.19970069178925
exact,pre_advance,A,no_revision,ar,2021:Q2,24.119251842538425,152.31895253432768
exact,pre_advance,A,no_revision,ar,2021:Q3,0.30877510409469244,152.62772763842236
exact,pre_advance,A,no_revision,ar,2021:Q4,-3.7679008571371924,148.85982678128516
exact,pre_advance,A,no_revision,ar,2022:Q1,0.5234667865097897,149.38329356779496
exact,pre_advance,A,no_revision,ar,2022:Q2,1.9855199282110494,151.36881349600603
exact,pre_advance,A,no_revision,ar,2022:Q3,0.033925124700511525,151.40273862070654
exact,pre_advance,A,no_revision,ar,2022:Q4,0.7384306425890252,152.14116926329558
exact,pre_advance,A,no_revision,ar,2023:Q1,-0.371137610273619,151.77003165302196
exact,pre_advance,A,no_revision,ar,2023:Q2,0.00528125482766627,151.77531290784964
exact,pre_advance,A,no_revision,ar,2023:Q3,0.5551736828791194,152.33048659072875
exact,pre_advance,A,no_revision,ar,2023:Q4,0.20210030709286464,152.53258689782163
exact,pre_advance,A,no_revision,ar,2024:Q1,0.31218151521482485,152.84476841303646
exact,pre_advance,A,no_revision,ar,2024:Q2,-0.0978852185130688,152.7468831945234
exact,pre_advance,A,no_revision,ar,2024:Q3,0.06291573213851451,152.80979892666193
exact,pre_advance,A,no_revision,ar,2024:Q4,-0.026146771737672124,152.78365215492425
exact,pre_advance,A,no_revision,bridge,2005:Q1,0.008215597414184386,0.008215597414184386
exact,pre_advance,A,no_revision,bridge,2005:Q2,0.2664849976095032,0.2747005950236876
exact,pre_advance,A,no_revision,bridge,2005:Q3,-0.15934170783751533,0.11535888718617227
exact,pre_advance,A,no_revision,bridge,2005:Q4,-1.061156314811341,-0.9457974276251687
exact,pre_advance,A,no_revision,bridge,2006:Q1,1.491292540028942,0.5454951124037734
exact,pre_advance,A,no_revision,bridge,2006:Q2,0.6612398447418184,1.2067349571455916
exact,pre_advance,A,no_revision,bridge,2006:Q3,0.12738937442554277,1.3341243315711344
exact,pre_advance,A,no_revision,bridge,2006:Q4,-11.115495185358746,-9.781370853787612
exact,pre_advance,A,no_revision,bridge,2007:Q1,3.1673071315367447,-6.614063722250867
exact,pre_advance,A,no_revision,bridge,2007:Q2,-0.6270010939567126,-7.2410648162075795
exact,pre_advance,A,no_revision,bridge,2007:Q3,-4.222013087742026,-11.463077903949605
exact,pre_advance,A,no_revision,bridge,2007:Q4,7.137280030827965,-4.32579787312164
exact,pre_advance,A,no_revision,bridge,2008:Q1,-0.8984188663524961,-5.224216739474136
exact,pre_advance,A,no_revision,bridge,2008:Q2,-0.5822131332173008,-5.806429872691437
exact,pre_advance,A,no_revision,bridge,2008:Q3,6.39136969126084,0.5849398185694028
exact,pre_advance,A,no_revision,bridge,2008:Q4,18.35320542375238,18.938145242321784
exact,pre_advance,A,no_revision,bridge,2009:Q1,28.522254693917795,47.46039993623958
exact,pre_advance,A,no_revision,bridge,2009:Q2,-1.1106053779094194,46.34979455833016
exact,pre_advance,A,no_revision,bridge,2009:Q3,5.32685235672722,51.67664691505738
exact,pre_advance,A,no_revision,bridge,2009:Q4,2.3027277325741577,53.97937464763154
exact,pre_advance,A,no_revision,bridge,2010:Q1,-8.418305450954193,45.561069196677344
exact,pre_advance,A,no_revision,bridge,2010:Q2,-0.16973114618359475,45.39133805049375
exact,pre_advance,A,no_revision,bridge,2010:Q3,0.1593129872951204,45.550651037788874
exact,pre_advance,A,no_revision,bridge,2010:Q4,0.06317830953073766,45.61382934731961
exact,pre_advance,A,no_revision,bridge,2011:Q1,-2.555993190959713,43.0578361563599
exact,pre_advance,A,no_revision,bridge,2011:Q2,-1.4931237088838087,41.56471244747609
exact,pre_advance,A,no_revision,bridge,2011:Q3,0.05073215179516272,41.61544459927125
exact,pre_advance,A,no_revision,bridge,2011:Q4,-1.1017138183289303,40.51373078094232
exact,pre_advance,A,no_revision,bridge,2012:Q1,-1.0764773078905148,39.437253473051804
exact,pre_advance,A,no_revision,bridge,2012:Q2,-0.603596622947675,38.83365685010413
exact,pre_advance,A,no_revision,bridge,2012:Q3,-0.575208838668224,38.2584480114359
exact,pre_advance,A,no_revision,bridge,2012:Q4,-8.103480051567285,30.154967959868618
exact,pre_advance,A,no_revision,bridge,2013:Q1,0.7950884554726778,30.950056415341294
exact,pre_advance,A,no_revision,bridge,2013:Q2,-0.44570193054532803,30.504354484795964
exact,pre_advance,A,no_revision,bridge,2013:Q3,-0.49834211672689344,30.006012368069072
exact,pre_advance,A,no_revision,bridge,2013:Q4,0.13712245449654337,30.143134822565617
exact,pre_advance,A,no_revision,bridge,2014:Q1,3.9451931802643108,34.088328002829925
exact,pre_advance,A,no_revision,bridge,2014:Q2,4.410158699495562,38.498486702325486
exact,pre_advance,A,no_revision,bridge,2014:Q3,-0.045996355308121864,38.45249034701737
exact,pre_advance,A,no_revision,bridge,2014:Q4,0.2106035962700831,38.66309394328745
exact,pre_advance,A,no_revision,bridge,2015:Q1,2.7117362862474286,41.37483022953488
exact,pre_advance,A,no_revision,bridge,2015:Q2,0.7790793652174874,42.15390959475236
exact,pre_advance,A,no_revision,bridge,2015:Q3,0.6963195488390829,42.85022914359145
exact,pre_advance,A,no_revision,bridge,2015:Q4,0.7760148696761344,43.62624401326758
exact,pre_advance,A,no_revision,bridge,2016:Q1,0.5511528724916305,44.17739688575921
exact,pre_advance,A,no_revision,bridge,2016:Q2,0.06445159121760785,44.24184847697681
exact,pre_advance,A,no_revision,bridge,2016:Q3,0.40961784186630823,44.65146631884312
exact,pre_advance,A,no_revision,bridge,2016:Q4,-0.8386804777801599,43.81278584106296
exact,pre_advance,A,no_revision,bridge,2017:Q1,-0.9106445698930794,42.90214127116988
exact,pre_advance,A,no_revision,bridge,2017:Q2,0.032319961715321144,42.934461232885205
exact,pre_advance,A,no_revision,bridge,2017:Q3,-0.336708786293597,42.597752446591606
exact,pre_advance,A,no_revision,bridge,2017:Q4,-1.154757722775843,41.442994723815765
exact,pre_advance,A,no_revision,bridge,2018:Q1,-0.8916572326445082,40.55133749117126
exact,pre_advance,A,no_revision,bridge,2018:Q2,0.4451149747288108,40.99645246590007
exact,pre_advance,A,no_revision,bridge,2018:Q3,-0.1479305055202646,40.848521960379806
exact,pre_advance,A,no_revision,bridge,2018:Q4,0.07988877975701823,40.928410740136826
exact,pre_advance,A,no_revision,bridge,2019:Q1,-0.042852976479083926,40.885557763657744
exact,pre_advance,A,no_revision,bridge,2019:Q2,0.691477457554207,41.57703522121195
exact,pre_advance,A,no_revision,bridge,2019:Q3,-0.3039817481641791,41.273053473047774
exact,pre_advance,A,no_revision,bridge,2019:Q4,-0.17104382993473424,41.10200964311304
exact,pre_advance,A,no_revision,bridge,2020:Q1,9.580017702547941,50.682027345660984
exact,pre_advance,A,no_revision,bridge,2020:Q2,533.1821380067013,583.8641653523623
exact,pre_advance,A,no_revision,bridge,2020:Q3,1700.4719074888842,2284.3360728412463
exact,pre_advance,A,no_revision,bridge,2020:Q4,15.421963922740805,2299.758036763987
exact,pre_advance,A,no_revision,bridge,2021:Q1,40.78673656791285,2340.5447733319
exact,pre_advance,A,no_revision,bridge,2021:Q2,39.12920568822841,2379.6739790201286
exact,pre_advance,A,no_revision,bridge,2021:Q3,0.003641228353279624,2379.677620248482
exact,pre_advance,A,no_revision,bridge,2021:Q4,-4.309556315401188,2375.368063933081
exact,pre_advance,A,no_revision,bridge,2022:Q1,-26.71709323163733,2348.650970701444
exact,pre_advance,A,no_revision,bridge,2022:Q2,4.3023207619124495,2352.9532914633564
exact,pre_advance,A,no_revision,bridge,2022:Q3,-3.032052127515388,2349.921239335841
exact,pre_advance,A,no_revision,bridge,2022:Q4,-17.62049701398002,2332.300742321861
exact,pre_advance,A,no_revision,bridge,2023:Q1,1.375690866879198,2333.6764331887402
exact,pre_advance,A,no_revision,bridge,2023:Q2,-1.4016490347085397,2332.2747841540317
exact,pre_advance,A,no_revision,bridge,2023:Q3,0.9167463176544608,2333.1915304716863
exact,pre_advance,A,no_revision,bridge,2023:Q4,-6.150838688551266,2327.040691783135
exact,pre_advance,A,no_revision,bridge,2024:Q1,1.0977588391882465,2328.1384506223235
exact,pre_advance,A,no_revision,bridge,2024:Q2,-0.7539944374101349,2327.3844561849132
exact,pre_advance,A,no_revision,bridge,2024:Q3,-0.007619718001530246,2327.3768364669118
exact,pre_advance,A,no_revision,bridge,2024:Q4,-0.026589665500670635,2327.3502468014112
exact,pre_advance,A,no_revision,indicator_revision_only_dfm_kalman_em,2005:Q1,-2.1536952915235243,-2.1536952915235243
exact,pre_advance,A,no_revision,indicator_revision_only_dfm_kalman_em,2005:Q2,-0.4977884650094469,-2.651483756532971
exact,pre_advance,A,no_revision,indicator_revision_only_dfm_kalman_em,2005:Q3,0.4644804748927677,-2.1870032816402034
exact,pre_advance,A,no_revision,indicator_revision_only_dfm_kalman_em,2005:Q4,-24.138831660024856,-26.325834941665057
exact,pre_advance,A,no_revision,indicator_revision_only_dfm_kalman_em,2006:Q1,8.207000230274327,-18.118834711390733
exact,pre_advance,A,no_revision,indicator_revision_only_dfm_kalman_em,2006:Q2,-3.344194233177049,-21.46302894456778
exact,pre_advance,A,no_revision,indicator_revision_only_dfm_kalman_em,2006:Q3,-3.0281938331545937,-24.491222777722374
exact,pre_advance,A,no_revision,indicator_revision_only_dfm_kalman_em,2006:Q4,-20.12740491020239,-44.618627687924764
exact,pre_advance,A,no_revision,indicator_revision_only_dfm_kalman_em,2007:Q1,2.732011713416176,-41.88661597450859
exact,pre_advance,A,no_revision,indicator_revision_only_dfm_kalman_em,2007:Q2,1.8673539055858304,-40.01926206892276
exact,pre_advance,A,no_revision,indicator_revision_only_dfm_kalman_em,2007:Q3,-39.095021863802515,-79.11428393272527
exact,pre_advance,A,no_revision,indicator_revision_only_dfm_kalman_em,2007:Q4,-5.522945672545432,-84.6372296052707
exact,pre_advance,A,no_revision,indicator_revision_only_dfm_kalman_em,2008:Q1,-12.454615640442714,-97.09184524571342
exact,pre_advance,A,no_revision,indicator_revision_only_dfm_kalman_em,2008:Q2,-0.11058699405566488,-97.20243223976908
exact,pre_advance,A,no_revision,indicator_revision_only_dfm_kalman_em,2008:Q3,-4.609088626784083,-101.81152086655317
exact,pre_advance,A,no_revision,indicator_revision_only_dfm_kalman_em,2008:Q4,-30.81233154007095,-132.6238524066241
exact,pre_advance,A,no_revision,indicator_revision_only_dfm_kalman_em,2009:Q1,-2.015421323880286,-134.63927373050439
exact,pre_advance,A,no_revision,indicator_revision_only_dfm_kalman_em,2009:Q2,-5.0676692981225395,-139.70694302862694
exact,pre_advance,A,no_revision,indicator_revision_only_dfm_kalman_em,2009:Q3,-0.21871299939239286,-139.92565602801932
exact,pre_advance,A,no_revision,indicator_revision_only_dfm_kalman_em,2009:Q4,3.9673278020918428,-135.9583282259275
exact,pre_advance,A,no_revision,indicator_revision_only_dfm_kalman_em,2010:Q1,-11.693470209440273,-147.65179843536777
exact,pre_advance,A,no_revision,indicator_revision_only_dfm_kalman_em,2010:Q2,-5.45300566263788,-153.10480409800564
exact,pre_advance,A,no_revision,indicator_revision_only_dfm_kalman_em,2010:Q3,-0.014380707339183119,-153.11918480534482
exact,pre_advance,A,no_revision,indicator_revision_only_dfm_kalman_em,2010:Q4,0.43694584688924015,-152.68223895845557
exact,pre_advance,A,no_revision,indicator_revision_only_dfm_kalman_em,2011:Q1,-20.76670992651554,-173.44894888497112
exact,pre_advance,A,no_revision,indicator_revision_only_dfm_kalman_em,2011:Q2,0.4099034865798944,-173.0390453983912
exact,pre_advance,A,no_revision,indicator_revision_only_dfm_kalman_em,2011:Q3,-1.256654137045294,-174.2956995354365
exact,pre_advance,A,no_revision,indicator_revision_only_dfm_kalman_em,2011:Q4,-3.8673782982458653,-178.16307783368237
exact,pre_advance,A,no_revision,indicator_revision_only_dfm_kalman_em,2012:Q1,-7.09768878054379,-185.26076661422616
exact,pre_advance,A,no_revision,indicator_revision_only_dfm_kalman_em,2012:Q2,-1.2361843274491553,-186.49695094167532
exact,pre_advance,A,no_revision,indicator_revision_only_dfm_kalman_em,2012:Q3,-0.21254980240454166,-186.70950074407986
exact,pre_advance,A,no_revision,indicator_revision_only_dfm_kalman_em,2012:Q4,-13.394386345545362,-200.10388708962523
exact,pre_advance,A,no_revision,indicator_revision_only_dfm_kalman_em,2013:Q1,1.3116496350442859,-198.79223745458094
exact,pre_advance,A,no_revision,indicator_revision_only_dfm_kalman_em,2013:Q2,-0.6039619353400658,-199.396199389921
exact,pre_advance,A,no_revision,indicator_revision_only_dfm_kalman_em,2013:Q3,0.3001183193995025,-199.0960810705215
exact,pre_advance,A,no_revision,indicator_revision_only_dfm_kalman_em,2013:Q4,-2.053260305111649,-201.14934137563316
exact,pre_advance,A,no_revision,indicator_revision_only_dfm_kalman_em,2014:Q1,2.589858673564372,-198.55948270206878
exact,pre_advance,A,no_revision,indicator_revision_only_dfm_kalman_em,2014:Q2,5.668055715868681,-192.8914269862001
exact,pre_advance,A,no_revision,indicator_revision_only_dfm_kalman_em,2014:Q3,-0.05643833959184939,-192.94786532579192
exact,pre_advance,A,no_revision,indicator_revision_only_dfm_kalman_em,2014:Q4,0.045772612769789445,-192.90209271302214
exact,pre_advance,A,no_revision,indicator_revision_only_dfm_kalman_em,2015:Q1,4.426974810340074,-188.47511790268206
exact,pre_advance,A,no_revision,indicator_revision_only_dfm_kalman_em,2015:Q2,0.32155414009699024,-188.15356376258507
exact,pre_advance,A,no_revision,indicator_revision_only_dfm_kalman_em,2015:Q3,-1.8849176165288362,-190.0384813791139
exact,pre_advance,A,no_revision,indicator_revision_only_dfm_kalman_em,2015:Q4,0.9306841213800077,-189.1077972577339
exact,pre_advance,A,no_revision,indicator_revision_only_dfm_kalman_em,2016:Q1,-1.324757798089387,-190.4325550558233
exact,pre_advance,A,no_revision,indicator_revision_only_dfm_kalman_em,2016:Q2,-0.6395068578301033,-191.07206191365339
exact,pre_advance,A,no_revision,indicator_revision_only_dfm_kalman_em,2016:Q3,1.1357646261178727,-189.93629728753552
exact,pre_advance,A,no_revision,indicator_revision_only_dfm_kalman_em,2016:Q4,-3.52738117816537,-193.4636784657009
exact,pre_advance,A,no_revision,indicator_revision_only_dfm_kalman_em,2017:Q1,-3.738661425149755,-197.20233989085065
exact,pre_advance,A,no_revision,indicator_revision_only_dfm_kalman_em,2017:Q2,0.08896553934554352,-197.11337435150512
exact,pre_advance,A,no_revision,indicator_revision_only_dfm_kalman_em,2017:Q3,-1.5994646279083489,-198.71283897941348
exact,pre_advance,A,no_revision,indicator_revision_only_dfm_kalman_em,2017:Q4,-10.214476408049725,-208.9273153874632
exact,pre_advance,A,no_revision,indicator_revision_only_dfm_kalman_em,2018:Q1,-1.1707970669204566,-210.09811245438365
exact,pre_advance,A,no_revision,indicator_revision_only_dfm_kalman_em,2018:Q2,1.3396401449115374,-208.75847230947213
exact,pre_advance,A,no_revision,indicator_revision_only_dfm_kalman_em,2018:Q3,0.043602438432131574,-208.71486987103998
exact,pre_advance,A,no_revision,indicator_revision_only_dfm_kalman_em,2018:Q4,0.15663208679714405,-208.55823778424283
exact,pre_advance,A,no_revision,indicator_revision_only_dfm_kalman_em,2019:Q1,-2.8404067242648194,-211.39864450850766
exact,pre_advance,A,no_revision,indicator_revision_only_dfm_kalman_em,2019:Q2,0.3061271244136016,-211.09251738409407
exact,pre_advance,A,no_revision,indicator_revision_only_dfm_kalman_em,2019:Q3,-0.2775889773021534,-211.3701063613962
exact,pre_advance,A,no_revision,indicator_revision_only_dfm_kalman_em,2019:Q4,-0.2208549182032466,-211.59096127959947
exact,pre_advance,A,no_revision,indicator_revision_only_dfm_kalman_em,2020:Q1,37.96729072879458,-173.6236705508049
exact,pre_advance,A,no_revision,indicator_revision_only_dfm_kalman_em,2020:Q2,990.8667076152026,817.2430370643976
exact,pre_advance,A,no_revision,indicator_revision_only_dfm_kalman_em,2020:Q3,2218.5086518509706,3035.7516889153685
exact,pre_advance,A,no_revision,indicator_revision_only_dfm_kalman_em,2020:Q4,22.72339064080035,3058.475079556169
exact,pre_advance,A,no_revision,indicator_revision_only_dfm_kalman_em,2021:Q1,37.29097505297185,3095.766054609141
exact,pre_advance,A,no_revision,indicator_revision_only_dfm_kalman_em,2021:Q2,30.941697443335286,3126.7077520524763
exact,pre_advance,A,no_revision,indicator_revision_only_dfm_kalman_em,2021:Q3,-5.359749324811807,3121.3480027276646
exact,pre_advance,A,no_revision,indicator_revision_only_dfm_kalman_em,2021:Q4,10.034367162390511,3131.382369890055
exact,pre_advance,A,no_revision,indicator_revision_only_dfm_kalman_em,2022:Q1,-35.750976116962846,3095.6313937730924
exact,pre_advance,A,no_revision,indicator_revision_only_dfm_kalman_em,2022:Q2,-6.905865289687725,3088.7255284834046
exact,pre_advance,A,no_revision,indicator_revision_only_dfm_kalman_em,2022:Q3,-0.287423106375608,3088.438105377029
exact,pre_advance,A,no_revision,indicator_revision_only_dfm_kalman_em,2022:Q4,-1.445437593370606,3086.9926677836584
exact,pre_advance,A,no_revision,indicator_revision_only_dfm_kalman_em,2023:Q1,-1.4440487534939168,3085.5486190301644
exact,pre_advance,A,no_revision,indicator_revision_only_dfm_kalman_em,2023:Q2,-0.3367459936896365,3085.211873036475
exact,pre_advance,A,no_revision,indicator_revision_only_dfm_kalman_em,2023:Q3,-1.8580604970537138,3083.353812539421
exact,pre_advance,A,no_revision,indicator_revision_only_dfm_kalman_em,2023:Q4,-0.9089631589579867,3082.444849380463
exact,pre_advance,A,no_revision,indicator_revision_only_dfm_kalman_em,2024:Q1,1.1806992892970833,3083.62554866976
exact,pre_advance,A,no_revision,indicator_revision_only_dfm_kalman_em,2024:Q2,-1.1800584093097621,3082.4454902604502
exact,pre_advance,A,no_revision,indicator_revision_only_dfm_kalman_em,2024:Q3,-0.7366799486476954,3081.7088103118026
exact,pre_advance,A,no_revision,indicator_revision_only_dfm_kalman_em,2024:Q4,-0.21511274758910304,3081.4936975642136
exact,pre_advance,A,no_revision,joint_indicator_revision_dfm_full_kalman_em,2005:Q1,-0.1210490486778868,-0.1210490486778868
exact,pre_advance,A,no_revision,joint_indicator_revision_dfm_full_kalman_em,2005:Q2,-0.08011196457145459,-0.20116101324934138
exact,pre_advance,A,no_revision,joint_indicator_revision_dfm_full_kalman_em,2005:Q3,0.32226758952596724,0.12110657627662585
exact,pre_advance,A,no_revision,joint_indicator_revision_dfm_full_kalman_em,2005:Q4,-18.67695105216283,-18.555844475886204
exact,pre_advance,A,no_revision,joint_indicator_revision_dfm_full_kalman_em,2006:Q1,6.5517402617593845,-12.00410421412682
exact,pre_advance,A,no_revision,joint_indicator_revision_dfm_full_kalman_em,2006:Q2,-0.009638605194817185,-12.013742819321637
exact,pre_advance,A,no_revision,joint_indicator_revision_dfm_full_kalman_em,2006:Q3,-4.231003436771296,-16.24474625609293
exact,pre_advance,A,no_revision,joint_indicator_revision_dfm_full_kalman_em,2006:Q4,-20.577104279700478,-36.82185053579341
exact,pre_advance,A,no_revision,joint_indicator_revision_dfm_full_kalman_em,2007:Q1,-0.5413352261676412,-37.36318576196105
exact,pre_advance,A,no_revision,joint_indicator_revision_dfm_full_kalman_em,2007:Q2,1.6919164356556113,-35.671269326305435
exact,pre_advance,A,no_revision,joint_indicator_revision_dfm_full_kalman_em,2007:Q3,-35.61826112856703,-71.28953045487246
exact,pre_advance,A,no_revision,joint_indicator_revision_dfm_full_kalman_em,2007:Q4,-2.3258400675568494,-73.61537052242932
exact,pre_advance,A,no_revision,joint_indicator_revision_dfm_full_kalman_em,2008:Q1,-9.08554778270096,-82.70091830513027
exact,pre_advance,A,no_revision,joint_indicator_revision_dfm_full_kalman_em,2008:Q2,0.03236091362091852,-82.66855739150935
exact,pre_advance,A,no_revision,joint_indicator_revision_dfm_full_kalman_em,2008:Q3,-4.251648351238457,-86.92020574274781
exact,pre_advance,A,no_revision,joint_indicator_revision_dfm_full_kalman_em,2008:Q4,-15.31519371451278,-102.2353994572606
exact,pre_advance,A,no_revision,joint_indicator_revision_dfm_full_kalman_em,2009:Q1,-9.603370245639834,-111.83876970290044
exact,pre_advance,A,no_revision,joint_indicator_revision_dfm_full_kalman_em,2009:Q2,-0.4913443600882289,-112.33011406298867
exact,pre_advance,A,no_revision,joint_indicator_revision_dfm_full_kalman_em,2009:Q3,3.18504813733147,-109.1450659256572
exact,pre_advance,A,no_revision,joint_indicator_revision_dfm_full_kalman_em,2009:Q4,2.768413199949544,-106.37665272570766
exact,pre_advance,A,no_revision,joint_indicator_revision_dfm_full_kalman_em,2010:Q1,-10.173584078432036,-116.5502368041397
exact,pre_advance,A,no_revision,joint_indicator_revision_dfm_full_kalman_em,2010:Q2,-5.737287667009681,-122.28752447114938
exact,pre_advance,A,no_revision,joint_indicator_revision_dfm_full_kalman_em,2010:Q3,0.05005089269947452,-122.23747357844991
exact,pre_advance,A,no_revision,joint_indicator_revision_dfm_full_kalman_em,2010:Q4,0.11020946835164197,-122.12726411009827
exact,pre_advance,A,no_revision,joint_indicator_revision_dfm_full_kalman_em,2011:Q1,-18.280649398316545,-140.40791350841482
exact,pre_advance,A,no_revision,joint_indicator_revision_dfm_full_kalman_em,2011:Q2,0.697532141718075,-139.71038136669674
exact,pre_advance,A,no_revision,joint_indicator_revision_dfm_full_kalman_em,2011:Q3,-0.4829430902496705,-140.1933244569464
exact,pre_advance,A,no_revision,joint_indicator_revision_dfm_full_kalman_em,2011:Q4,-3.050066410766203,-143.2433908677126
exact,pre_advance,A,no_revision,joint_indicator_revision_dfm_full_kalman_em,2012:Q1,-5.537658551586981,-148.7810494192996
exact,pre_advance,A,no_revision,joint_indicator_revision_dfm_full_kalman_em,2012:Q2,-0.8908253567355155,-149.6718747760351
exact,pre_advance,A,no_revision,joint_indicator_revision_dfm_full_kalman_em,2012:Q3,-0.04876032887365957,-149.72063510490878
exact,pre_advance,A,no_revision,joint_indicator_revision_dfm_full_kalman_em,2012:Q4,-9.166580889704456,-158.88721599461323
exact,pre_advance,A,no_revision,joint_indicator_revision_dfm_full_kalman_em,2013:Q1,1.743427743495841,-157.1437882511174
exact,pre_advance,A,no_revision,joint_indicator_revision_dfm_full_kalman_em,2013:Q2,-0.41025779177610655,-157.5540460428935
exact,pre_advance,A,no_revision,joint_indicator_revision_dfm_full_kalman_em,2013:Q3,0.5242635442851767,-157.0297824986083
exact,pre_advance,A,no_revision,joint_indicator_revision_dfm_full_kalman_em,2013:Q4,-0.5773595923781463,-157.60714209098646
exact,pre_advance,A,no_revision,joint_indicator_revision_dfm_full_kalman_em,2014:Q1,1.4434868323966787,-156.16365525858978
exact,pre_advance,A,no_revision,joint_indicator_revision_dfm_full_kalman_em,2014:Q2,6.061087160411699,-150.1025680981781
exact,pre_advance,A,no_revision,joint_indicator_revision_dfm_full_kalman_em,2014:Q3,-0.2712494360244109,-150.37381753420252
exact,pre_advance,A,no_revision,joint_indicator_revision_dfm_full_kalman_em,2014:Q4,0.175005367755663,-150.19881216644686
exact,pre_advance,A,no_revision,joint_indicator_revision_dfm_full_kalman_em,2015:Q1,4.039880647160619,-146.15893151928623
exact,pre_advance,A,no_revision,joint_indicator_revision_dfm_full_kalman_em,2015:Q2,0.49344463019441764,-145.66548688909182
exact,pre_advance,A,no_revision,joint_indicator_revision_dfm_full_kalman_em,2015:Q3,-0.4308345985633717,-146.0963214876552
exact,pre_advance,A,no_revision,joint_indicator_revision_dfm_full_kalman_em,2015:Q4,1.3604567702034895,-144.7358647174517
exact,pre_advance,A,no_revision,joint_indicator_revision_dfm_full_kalman_em,2016:Q1,-0.42323057772371186,-145.1590952951754
