haminh109/Revision-Aware-DFM/outputs/full_state_space_release_revision_dfm/exact_pseudo_backtest_mature_1y_max_iter100_journal_evidence/density_revision_records.csv
model_id,timing_mode,checkpoint_id,outcome_id,forecast_origin,forecast_origin_date,target_quarter,forecast_value,realized_value,forecast_error,calibration_n,predictive_variance,predictive_sd,log_score,crps,pit,prob_below_zero,prob_large_positive_revision_gt_0p2,prob_large_negative_revision_lt_minus_0p2,realized_below_zero,realized_large_positive_revision_gt_0p2,realized_large_negative_revision_lt_minus_0p2,lower_68,upper_68,covered_68,lower_90,upper_90,covered_90,density_method
ar,exact,pre_advance,DELTA_SA,2008:Q1:pre_advance:exact,2008-04-29,2008:Q1,0.1411112771385929,0.3031999999999999,-0.1620887228614069,12,0.4246599209606872,0.6516593596049145,-0.5216391003274016,0.16829114156909322,0.5982160639322176,0.41428285085886285,0.4639976547222556,0.3003304696330272,False,True,False,-0.5105480824663216,0.7927706367435075,True,-0.9307729840444243,1.2129955383216102,True,expanding_residual_calibrated_gaussian
ar,exact,pre_advance,DELTA_SA,2008:Q2:pre_advance:exact,2008-07-30,2008:Q2,0.282369571934375,1.3898,-1.1074304280656249,13,0.39034904148426913,0.6247791941832483,-2.0194860795511382,0.7740465723702007,0.9618454375419841,0.32565214687657407,0.5524437426826976,0.22003823857643454,False,True,False,-0.34240962224887334,0.9071487661176234,False,-0.7453007516617591,1.3100398955305093,False,expanding_residual_calibrated_gaussian
ar,exact,pre_advance,DELTA_SA,2008:Q3:pre_advance:exact,2008-10-29,2008:Q3,0.714132038935611,-0.2618,0.975932038935611,14,0.4397619285178273,0.6631454806585259,-1.5910855613659503,0.6432416168089662,0.07055485770722462,0.1407656143763366,0.7809167230844953,0.08402774221794611,True,False,True,0.05098655827708509,1.377277519594137,False,-0.37664521012204255,1.8049092879932644,True,expanding_residual_calibrated_gaussian
ar,exact,pre_advance,DELTA_SA,2008:Q4:pre_advance:exact,2009-01-29,2008:Q4,0.0793056065031563,-2.4444,2.523705606503156,15,0.489619774192295,0.6997283574304353,-7.065993877277928,2.128979418739733,0.00015506190326214565,0.45488141257423165,0.4315271446928919,0.3448865856738742,True,False,True,-0.6204227509272789,0.7790339639335916,False,-1.0716451200970913,1.230256333103404,False,expanding_residual_calibrated_gaussian
ar,exact,pre_advance,DELTA_SA,2009:Q1:pre_advance:exact,2009-04-28,2009:Q1,-0.8004772054187677,0.4245000000000001,-1.2249772054187678,16,0.8724453144493385,0.9340478116506341,-1.7106897986157223,0.780994262062496,0.9051507636642305,0.8042770342978589,0.14205775909989526,0.7398478170437643,False,True,False,-1.7345250170694018,0.13357060623186645,False,-2.3368491361583987,0.7358947253208634,True,expanding_residual_calibrated_gaussian
ar,exact,pre_advance,DELTA_SA,2009:Q2:pre_advance:exact,2009-07-30,2009:Q2,0.6102794438475987,0.0030000000000001,0.6072794438475986,17,0.9222140123109045,0.9603197448302854,-1.0783968070362877,0.3727179747460258,0.2635718699982457,0.2625524577173233,0.6653948670464631,0.1994017496000308,False,False,False,-0.3500403009826867,1.570599188677884,True,-0.9693059714696084,2.189864859164806,True,expanding_residual_calibrated_gaussian
ar,exact,pre_advance,DELTA_SA,2009:Q3:pre_advance:exact,2009-10-28,2009:Q3,0.1888383411693894,-0.7522000000000002,0.9410383411693896,18,0.8865924051252095,0.9415903595116135,-1.3581674818799925,0.5668761957151592,0.15879715367694366,0.4205242345632513,0.49527102916957677,0.3398182767319277,True,False,True,-0.752752018342224,1.130428700681003,True,-1.3599399767758287,1.7376166591146076,True,expanding_residual_calibrated_gaussian
ar,exact,pre_advance,DELTA_SA,2009:Q4:pre_advance:exact,2010-01-28,2009:Q4,-0.3373558541688579,0.1962000000000001,-0.5335558541688581,19,0.8781524605607329,0.9370978927309211,-1.0160623635177632,0.3370191538924492,0.715447618861339,0.6405766777250558,0.28317830477890693,0.5582665638673037,False,False,False,-1.274453746899779,0.5997420385620633,True,-1.8787447218358952,1.2040330134981794,True,expanding_residual_calibrated_gaussian
ar,exact,pre_advance,DELTA_SA,2010:Q1:pre_advance:exact,2010-04-29,2010:Q1,0.0283511514001251,-0.2023000000000001,0.2306511514001252,20,0.8524346657244032,0.9232738844592124,-0.8703138879330322,0.23863310708399726,0.40136374958436594,0.48775152646202025,0.42625639563367823,0.40232733454373865,True,False,True,-0.8949227330590873,0.9516250358593376,True,-1.490299246122185,1.5470015489224351,True,expanding_residual_calibrated_gaussian
ar,exact,pre_advance,DELTA_SA,2010:Q2:pre_advance:exact,2010-07-29,2010:Q2,-0.0683836223313969,-0.7725,0.704116377668603,21,0.8109702893599383,0.9005388883107371,-1.119847402563579,0.4195430597384302,0.2171415606048919,0.5302651252599597,0.3828418210323462,0.44190033995824335,True,False,True,-0.9689225106421341,0.8321552659793402,True,-1.5496382789801597,1.4128710343173658,True,expanding_residual_calibrated_gaussian
ar,exact,pre_advance,DELTA_SA,2010:Q3:pre_advance:exact,2010-10-28,2010:Q3,-0.3068047363098523,0.5148000000000001,-0.8216047363098524,22,0.7899349260972257,0.8887828340473424,-1.2283082997812595,0.4908373271508362,0.8223650178799067,0.6350266804700622,0.28426310615818984,0.5478256266795237,False,True,False,-1.1955875703571945,0.5819780977374901,True,-1.7687224044648318,1.1551129318451272,True,expanding_residual_calibrated_gaussian
ar,exact,pre_advance,DELTA_SA,2010:Q4:pre_advance:exact,2011-01-27,2010:Q4,0.3116384840461248,-0.3850000000000002,0.696638484046125,23,0.791799161277662,0.8898309734312815,-1.1086720253691276,0.41506072418806556,0.21684627977817628,0.3630860061712751,0.5499204339758466,0.2826510925885202,True,False,True,-0.5781924893851567,1.2014694574774063,True,-1.1520032199760777,1.7752801880683273,True,expanding_residual_calibrated_gaussian
ar,exact,pre_advance,DELTA_SA,2011:Q1:pre_advance:exact,2011-04-27,2011:Q1,-0.1541999785436481,0.0939000000000001,-0.2480999785436481,24,0.773738675420703,0.8796241671422534,-0.8304547245180531,0.23329698515263542,0.6110482781972977,0.5695788757440579,0.3435947858549575,0.4792373684179985,False,False,False,-1.0338241456859016,0.7254241885986054,True,-1.6010529802217517,1.2926530231344555,True,expanding_residual_calibrated_gaussian
ar,exact,pre_advance,DELTA_SA,2011:Q2:pre_advance:exact,2011-07-28,2011:Q2,0.1222021712976695,-0.2928,0.4150021712976696,25,0.7462367244305209,0.8638499432369727,-0.8879792263438715,0.2799198536520927,0.3154679342689032,0.44375238341098877,0.4641199963697782,0.3545801916097403,True,False,True,-0.7416477719393032,0.9860521145346423,True,-1.2987045409774884,1.5431088835728275,True,expanding_residual_calibrated_gaussian
ar,exact,pre_advance,DELTA_SA,2011:Q3:pre_advance:exact,2011-10-26,2011:Q3,-0.0436641708390723,-0.4595999999999995,0.4159358291609272,26,0.7206453648374204,0.8489083371232847,-0.8751675826735014,0.27809947979240607,0.31207914299835543,0.5205108199067936,0.3870437679428824,0.4269435671678316,True,False,True,-0.892572507962357,0.8052441662842125,True,-1.4399941281056503,1.3526657864275056,True,expanding_residual_calibrated_gaussian
ar,exact,pre_advance,DELTA_SA,2011:Q4:pre_advance:exact,2012-01-26,2011:Q4,-0.1664617652864937,0.2299000000000002,-0.3963617652864939,27,0.6967414461618726,0.834710396581876,-0.8510090843233009,0.268773725368105,0.6825528548970748,0.5790346803860846,0.3303203942617622,0.48397501610143684,False,True,False,-1.0011721618683698,0.6682486312953823,True,-1.5394381885582942,1.2065146579853068,True,expanding_residual_calibrated_gaussian
ar,exact,pre_advance,DELTA_SA,2012:Q1:pre_advance:exact,2012-04-26,2012:Q1,0.146748410605829,-0.3447,0.491448410605829,28,0.679983491168534,0.8246111151133811,-0.9036888332276318,0.30621476713210716,0.27559563941211634,0.4293769012051644,0.4742550718629621,0.3370603641563587,True,False,True,-0.6778627045075521,0.9713595257192101,True,-1.209616172912914,1.503112994124572,True,expanding_residual_calibrated_gaussian
ar,exact,pre_advance,DELTA_SA,2012:Q2:pre_advance:exact,2012-07-26,2012:Q2,-0.1038122691178062,0.1949,-0.2987122691178063,29,0.6612840302735421,0.8131937224754887,-0.7796191025501159,0.2333282296174999,0.6433143946520312,0.5507909566151604,0.3543495512289927,0.45292135399934796,False,False,False,-0.9170059915932949,0.7093814533576825,True,-1.4413969129457829,1.2337723747101703,True,expanding_residual_calibrated_gaussian
ar,exact,pre_advance,DELTA_SA,2012:Q3:pre_advance:exact,2012-10-25,2012:Q3,0.1733371102203946,0.6579000000000002,-0.4845628897796055,30,0.6438563178730354,0.8024065789068753,-0.8811384352741132,0.3008349535144477,0.7270406088693881,0.41448547613455494,0.4867461244701212,0.32086843260349873,False,True,False,-0.6290694686864806,0.9757436891272699,True,-1.1465042613843017,1.493178481825091,True,expanding_residual_calibrated_gaussian
ar,exact,pre_advance,DELTA_SA,2012:Q4:pre_advance:exact,2013-01-29,2012:Q4,0.3745038169834829,0.2694999999999999,0.1050038169834829,31,0.6330238634687501,0.7956279680031051,-0.699023789583475,0.19145478602830163,0.44750162737267873,0.3189267146195405,0.5868028835837016,0.23512389328080177,False,True,False,-0.4211241510196222,1.170131784986588,True,-0.9341877318904543,1.6831953658574201,True,expanding_residual_calibrated_gaussian
ar,exact,pre_advance,DELTA_SA,2013:Q1:pre_advance:exact,2013-04-25,2013:Q1,0.2735383342584925,-0.1162,0.3897383342584926,32,0.6126399752717877,0.7827132139371277,-0.797917996315205,0.25877542445430474,0.3092658155471392,0.3633665436816145,0.5374267943869613,0.27259083968523407,True,False,False,-0.5091748796786352,1.05625154819562,True,-1.0139103345488356,1.5609870030658206,True,expanding_residual_calibrated_gaussian
ar,exact,pre_advance,DELTA_SA,2013:Q2:pre_advance:exact,2013-07-30,2013:Q2,-0.006310028729751,0.8419999999999999,-0.8483100287297509,33,0.5965539991783618,0.7723690822258241,-1.263801488289796,0.5188987238475902,0.8639680664911817,0.5032592050952738,0.3946909765859625,0.4009944787158185,False,True,False,-0.7786791109555751,0.7660590534960732,False,-1.2767441149740777,1.2641240575145756,True,expanding_residual_calibrated_gaussian
ar,exact,pre_advance,DELTA_SA,2013:Q3:pre_advance:exact,2013-11-06,2013:Q3,0.4736264614294589,0.7550000000000003,-0.2813735385705413,34,0.603912299441874,0.7771179443571445,-0.7323238689713444,0.22181365810630127,0.6413513145719705,0.27110801595200706,0.6376199258509733,0.19301852815437973,False,True,False,-0.30349148292768563,1.2507444057866035,True,-0.8046188079154626,1.7518717307743805,True,expanding_residual_calibrated_gaussian
ar,exact,pre_advance,DELTA_SA,2013:Q4:pre_advance:exact,2014-01-29,2013:Q4,0.3920541653838421,-0.8431000000000002,1.2351541653838425,35,0.5893693534627156,0.7677039490993358,-1.9488571467999536,0.8369678767730119,0.05381977681055331,0.3047861539721368,0.5987708835811637,0.22029385750105493,True,False,True,-0.37564978371549373,1.159758114483178,False,-0.8707064597171688,1.654814790484853,True,expanding_residual_calibrated_gaussian
ar,exact,pre_advance,DELTA_SA,2014:Q1:pre_advance:exact,2014-04-29,2014:Q1,-0.3707296002667286,-1.0928,0.7220703997332714,36,0.6118962719422345,0.7822379893243708,-1.0993831706801003,0.43132525150904244,0.1779820398903268,0.6822267055364226,0.23281393624365987,0.5863859024373897,True,False,True,-1.1529675895910994,0.41150838905764225,True,-1.657396594146147,0.9159373936126898,True,expanding_residual_calibrated_gaussian
ar,exact,pre_advance,DELTA_SA,2014:Q2:pre_advance:exact,2014-07-29,2014:Q2,-0.3807469573065625,0.2237999999999997,-0.6045469573065623,37,0.6061187067786769,0.7785362591290639,-0.9700884618422942,0.36034773600917935,0.7812782265435219,0.6875985782797698,0.22784964982621314,0.5917941151258977,False,True,False,-1.1592832164356264,0.3977893018225014,True,-1.6613251468482344,0.8998312322351094,True,expanding_residual_calibrated_gaussian
ar,exact,pre_advance,DELTA_SA,2014:Q3:pre_advance:exact,2014-10-29,2014:Q3,0.0960389505392824,0.3467000000000002,-0.2506610494607177,38,0.602621916044835,0.776287263868753,-0.7178372194563353,0.2134262828680568,0.6266134835281838,0.4507701757531954,0.4467325818293745,0.3514709171503958,False,True,False,-0.6802483133294707,0.8723262144080354,True,-1.1808399709914705,1.3729178720700355,True,expanding_residual_calibrated_gaussian
ar,exact,pre_advance,DELTA_SA,2014:Q4:pre_advance:exact,2015-01-29,2014:Q4,0.1688907339298215,-0.4497999999999997,0.6186907339298213,39,0.589512433759291,0.7677971306011054,-0.9793654161063403,0.3682178025575947,0.2101791618546902,0.4129480714314504,0.48384025396341823,0.315452519306341,True,False,True,-0.598906396671284,0.9366878645309269,True,-1.0940231611023399,1.431804628961983,True,expanding_residual_calibrated_gaussian
ar,exact,pre_advance,DELTA_SA,2015:Q1:pre_advance:exact,2015-04-28,2015:Q1,-0.1664187565321353,-0.9973,0.8308812434678646,40,0.5819679549174603,0.7628682421738765,-1.2413971558008312,0.5074387982689682,0.13804291899882515,0.5863433941091662,0.3155009215726744,0.48244434394875946,True,False,True,-0.9292869987060118,0.5964494856417412,False,-1.42122535155793,1.0883878384936594,True,expanding_residual_calibrated_gaussian
ar,exact,pre_advance,DELTA_SA,2015:Q2:pre_advance:exact,2015-07-29,2015:Q2,-0.3349089662402753,1.3627000000000002,-1.6976089662402756,41,0.5810925653894671,0.7622942774214346,-3.127220859549192,1.2744286892597698,0.9870254692630422,0.669793637376981,0.24143024320280715,0.5702369843510153,False,True,False,-1.0972032436617098,0.42738531118115936,False,-1.5887714732612739,0.9189535407807232,False,expanding_residual_calibrated_gaussian
ar,exact,pre_advance,DELTA_SA,2015:Q3:pre_advance:exact,2015-10-28,2015:Q3,0.677687720737902,0.5856999999999999,0.091987720737902,42,0.6438913268592905,0.8024283936023765,-0.7053966593985387,0.19172579676784313,0.4543665555412232,0.19918217423662754,0.7241793957358085,0.1370236635239864,False,True,False,-0.12474067286447454,1.4801161143402783,True,-0.6421895328478104,1.9975649743236144,True,expanding_residual_calibrated_gaussian
ar,exact,pre_advance,DELTA_SA,2015:Q4:pre_advance:exact,2016-01-28,2015:Q4,0.3567967296908301,0.314,0.04279672969083,43,0.6285881067771159,0.7928354853165415,-0.6882558798461244,0.18620305906183193,0.47847581554900886,0.32634577953522775,0.5783863337234652,0.24125062033941624,False,True,False,-0.43603875562571137,1.1496322150073714,True,-0.9473015939079139,1.660895053289574,True,expanding_residual_calibrated_gaussian
ar,exact,pre_advance,DELTA_SA,2016:Q1:pre_advance:exact,2016-04-27,2016:Q1,0.2661399341306913,0.3027000000000001,-0.0365600658693087,44,0.6139753007284686,0.7835657603089026,-0.6761267555224536,0.18379579110396738,0.5186073287096765,0.36705918336716054,0.5336343395051832,0.27595658195700956,False,True,False,-0.5174258261782112,1.049705694439594,True,-1.022711048668395,1.5549909169297778,True,expanding_residual_calibrated_gaussian
ar,exact,pre_advance,DELTA_SA,2016:Q2:pre_advance:exact,2016-07-28,2016:Q2,0.2681291742259852,-0.1195999999999999,0.3877291742259852,45,0.6002201447530114,0.7747387590362389,-0.7889414533631408,0.2568889937278131,0.3083740558361434,0.36463761822301954,0.5350371241973474,0.272841604939965,True,False,False,-0.5066095848102536,1.0428679332622242,True,-1.006202683514655,1.5424610319666254,True,expanding_residual_calibrated_gaussian
ar,exact,pre_advance,DELTA_SA,2016:Q3:pre_advance:exact,2016-10-27,2016:Q3,0.0452506389225619,0.2565999999999997,-0.2113493610774377,46,0.5892752251909242,0.767642641592378,-0.6924088332221303,0.20246284636944822,0.6084657951207002,0.4764969495261257,0.4201184887116549,0.3746792193177847,False,True,False,-0.7223920026698162,0.8128932805149399,True,-1.2174091443032702,1.3079104221483941,True,expanding_residual_calibrated_gaussian
ar,exact,pre_advance,DELTA_SA,2016:Q4:pre_advance:exact,2017-01-26,2016:Q4,0.1492374075003102,-0.0169999999999999,0.1662374075003101,47,0.5780679783539887,0.7603078181591905,-0.6688094199741477,0.19212296478211155,0.4134633468120972,0.42219335124457186,0.4733840579813309,0.32299614025339074,True,False,False,-0.6110704106588802,0.9095452256595007,True,-1.1013576647983947,1.3998324797990152,True,expanding_residual_calibrated_gaussian
ar,exact,pre_advance,DELTA_SA,2017:Q1:pre_advance:exact,2017-04-27,2017:Q1,0.0659129056715515,0.4599999999999998,-0.3940870943284483,48,0.5660158927960915,0.7523402772656077,-0.7715630298030036,0.2563386952535299,0.6997963773630892,0.4650931293965414,0.42927248686932096,0.36187643289587035,False,True,False,-0.6864273715940562,0.8182531829371592,True,-1.1715767280904597,1.3034025394335627,True,expanding_residual_calibrated_gaussian
ar,exact,pre_advance,DELTA_SA,2017:Q2:pre_advance:exact,2017-07-27,2017:Q2,0.3338386109932738,0.4662000000000001,-0.1323613890067263,49,0.5584239974626165,0.747277724452306,-0.6433067473119927,0.18396366867472547,0.5702948038701658,0.3275315143976687,0.5710710239615187,0.23749680024464262,False,True,False,-0.4134391134590322,1.0811163354455797,True,-0.8953238644121446,1.5630010863986923,True,expanding_residual_calibrated_gaussian
ar,exact,pre_advance,DELTA_SA,2017:Q3:pre_advance:exact,2017-10-26,2017:Q3,0.259901632394651,0.3077000000000001,-0.047798367605349,50,0.5476949804923225,0.7400641732257565,-0.62000588380572,0.1741804440563133,0.5257484976647616,0.36272366846617426,0.5322556159208367,0.26715679009257187,False,True,False,-0.48016254083110543,0.9999658056204075,True,-0.9573956071125771,1.4771988719018792,True,expanding_residual_calibrated_gaussian
ar,exact,pre_advance,DELTA_SA,2017:Q4:pre_advance:exact,2018-01-25,2017:Q4,0.1708964419460579,-0.0190000000000001,0.189896441946058,51,0.5369160240366202,0.7327455383942096,-0.641563028654198,0.1907629760218069,0.3977568921359906,0.407792359441727,0.4841587738367654,0.3063673955925226,True,False,False,-0.5618490964481517,0.9036419803402675,True,-1.034362714514167,1.3761555984062828,True,expanding_residual_calibrated_gaussian
ar,exact,pre_advance,DELTA_SA,2018:Q1:pre_advance:exact,2018-04-26,2018:Q1,0.0389715350373021,-0.1434999999999999,0.182471535037302,52,0.5267930880403595,0.7258051308997199,-0.6300672271324429,0.18782245572880818,0.40075023698916024,0.47858939689618335,0.41221071705530565,0.37098326472146176,True,False,False,-0.6868335958624178,0.764776665937022,True,-1.15487166698309,1.2328147370576943,True,expanding_residual_calibrated_gaussian
ar,exact,pre_advance,DELTA_SA,2018:Q2:pre_advance:exact,2018-07-26,2018:Q2,-0.0088385496543845,0.1665000000000001,-0.1753385496543846,53,0.5170056828139263,0.7190310722172766,-0.6188201954267755,0.18500749559632343,0.5963280229864637,0.5049037969207917,0.3857381395918008,0.3951735966590999,False,False,False,-0.727869621871661,0.7101925225628921,True,-1.1915394166817779,1.1738623173730087,True,expanding_residual_calibrated_gaussian
ar,exact,pre_advance,DELTA_SA,2018:Q3:pre_advance:exact,2018-10-25,2018:Q3,0.0614125513665548,0.0043999999999999,0.0570125513665549,54,0.5081923625633052,0.7128761200680699,-0.5836889470322514,0.1684136175513826,0.46812841145032674,0.46567455108395306,0.42292896665882285,0.35692094380805905,False,False,False,-0.6514635687015151,0.7742886714346247,True,-1.111164320294503,1.2339894230276127,True,expanding_residual_calibrated_gaussian
ar,exact,pre_advance,DELTA_SA,2019:Q1:pre_advance:exact,2019-04-25,2019:Q1,0.4648889202031996,-0.1047000000000002,0.5695889202031998,55,0.49878361160320517,0.7062461409474782,-0.8963698048573119,0.338986945399842,0.20997672967015596,0.2551876597507603,0.646194311491759,0.173239510998053,True,False,False,-0.24135722074427857,1.171135061150678,True,-0.6967826062547404,1.6265604466611396,True,expanding_residual_calibrated_gaussian
ar,exact,pre_advance,DELTA_SA,2019:Q2:pre_advance:exact,2019-07-25,2019:Q2,-0.026254198058714,-0.0171000000000001,-0.0091541980587139,56,0.49460715461731874,0.7032831255030357,-0.5670275169664123,0.1644012691111298,0.505192636358077,0.514889419407351,0.3738356707947246,0.4024349262110288,True,False,False,-0.7295373235617497,0.6770289274443217,True,-1.1830519978161498,1.1305436016987216,True,expanding_residual_calibrated_gaussian
ar,exact,pre_advance,DELTA_SA,2019:Q3:pre_advance:exact,2019-10-29,2019:Q3,0.0592963312990124,0.205,-0.1457036687009876,57,0.4858482509348452,0.6970281564864114,-0.5798569928225081,0.17499861097318486,0.5827897592463157,0.4661027869029366,0.42001220916046467,0.354945432834436,False,True,False,-0.637731825187399,0.7563244877854237,True,-1.0872129599849596,1.2058056225829845,True,expanding_residual_calibrated_gaussian
ar,exact,pre_advance,DELTA_SA,2019:Q4:pre_advance:exact,2020-01-29,2019:Q4,0.1665444581766966,0.0148000000000001,0.1517444581766964,58,0.47801482290201397,0.6913861604790871,-0.573967190113861,0.17480702992157698,0.4131386288307095,0.40482217849176655,0.4807030800863583,0.29800091637592757,False,False,False,-0.5248417023023905,0.8579306186557837,True,-0.9706845755113824,1.3037734918647756,True,expanding_residual_calibrated_gaussian
ar,exact,pre_advance,DELTA_SA,2020:Q1:pre_advance:exact,2020-04-28,2020:Q1,0.0727039693006021,-0.2644999999999999,0.3372039693006021,59,0.4699454540287458,0.6855256771476513,-0.6623476299446294,0.2250728918055988,0.31139817036391726,0.45776904267475726,0.4263434962570146,0.3453878112754757,True,False,True,-0.6128217078470493,0.7582296464482534,True,-1.054885427124076,1.2002933657252803,True,expanding_residual_calibrated_gaussian
ar,exact,pre_advance,DELTA_SA,2020:Q2:pre_advance:exact,2020-07-29,2020:Q2,0.2227703703745247,1.1996999999999964,-0.9769296296254716,60,0.4633299063050595,0.6806834112163007,-1.564207068240888,0.6390663462374115,0.9243876212217561,0.37173011244601023,0.5133430158022539,0.2672679277460793,False,True,False,-0.457913040841776,0.9034537815908255,False,-0.8968542073703079,1.3423949481193573,True,expanding_residual_calibrated_gaussian
ar,exact,pre_advance,DELTA_SA,2020:Q3:pre_advance:exact,2020-10-28,2020:Q3,2.555388340709694,-0.0142999999999986,2.5696883407096927,61,0.4731454145990595,0.6878556640742733,-7.522847625660335,2.1816380500082992,9.356121463487042e-05,0.0001015991902063265,0.999691748271003,3.09085051900985e-05,True,False,False,1.8675326766354208,3.2432440047839672,False,1.423966456838012,3.686810224581376,False,expanding_residual_calibrated_gaussian
ar,exact,pre_advance,DELTA_SA,2020:Q4:pre_advance:exact,2021-01-27,2020:Q4,0.6762934737196877,0.0797999999999996,0.5964934737196881,62,0.5685691512043828,0.7540352453329903,-0.9495169919172453,0.3552266664301345,0.21445203179130742,0.18488640114335683,0.7361952784454655,0.12258958265776666,False,False,False,-0.07774177161330253,1.430328719052678,True,-0.5639841344155245,1.9165710818549,True,expanding_residual_calibrated_gaussian
ar,exact,pre_advance,DELTA_SA,2021:Q1:pre_advance:exact,2021-04-28,2021:Q1,0.1141893782717202,0.0112000000000005,0.1029893782717197,63,0.5636130826110703,0.7507416883396515,-0.6416545472906743,0.1810721726427309,0.4454428732568482,0.43955320873099374,0.45449954421833627,0.33778885481779897,False,False,False,-0.6365523100679313,0.8649310666113716,True,-1.1206708106974272,1.3490495672408678,True,expanding_residual_calibrated_gaussian
ar,exact,pre_advance,DELTA_SA,2021:Q2:pre_advance:exact,2021-07-28,2021:Q2,0.1447917586216602,0.0527999999999995,0.0919917586216607,64,0.5546697293624968,0.7447615251625831,-0.6318757195786155,0.178574324882565,0.4508482988468616,0.4229260264958312,0.4704539692473926,0.32169798095919155,False,False,False,-0.5999697665409229,0.8895532837842433,True,-1.0802319372559246,1.3698154544992451,True,expanding_residual_calibrated_gaussian
ar,exact,pre_advance,DELTA_SA,2021:Q3:pre_advance:exact,2021-10-27,2021:Q3,0.1470672919152162,0.0880999999999998,0.0589672919152164,65,0.5460031020574964,0.7389202271270535,-0.6195573997266206,0.17455825520115806,0.46819737760534763,0.42111963918117234,0.47144610794346686,0.31928639496677,False,False,False,-0.5918529352118373,0.8859875190422697,True,-1.0683483237025233,1.3624829075329559,True,expanding_residual_calibrated_gaussian
ar,exact,pre_advance,DELTA_SA,2021:Q4:pre_advance:exact,2022-01-26,2021:Q4,0.0843496025345156,0.0993000000000003,-0.0149503974654847,66,0.5376173159953284,0.7332239194102497,-0.608842267951364,0.17147235565309304,0.5081338486733127,0.45420696644390685,0.4373353233686529,0.3490793143507632,False,False,False,-0.648874316875734,0.8175735219447653,True,-1.1216964206750075,1.2903956257440388,True,expanding_residual_calibrated_gaussian
ar,exact,pre_advance,DELTA_SA,2022:Q1:pre_advance:exact,2022-04-27,2022:Q1,0.1550189766333507,-0.0959000000000001,0.2509189766333508,67,0.5296334449502283,0.7277591943426261,-0.6605911189768326,0.20424931942728886,0.36512876836989094,0.415660122297059,0.47535803969186374,0.31283697507614683,True,False,False,-0.5727402177092754,0.8827781709759769,True,-1.0420383737283991,1.3520763269951006,True,expanding_residual_calibrated_gaussian
ar,exact,pre_advance,DELTA_SA,2022:Q2:pre_advance:exact,2022-07-27,2022:Q2,0.0252303062888912,0.3589,-0.3336696937111088,68,0.5221205833509792,0.7225791190942201,-0.7006287116837964,0.22926296027888418,0.6778790174938698,0.48607295624658386,0.40444072593853053,0.37763300444858006,False,True,False,-0.6973488128053289,0.7478094253831113,True,-1.1633065785126364,1.2137671910904189,True,expanding_residual_calibrated_gaussian
ar,exact,pre_advance,DELTA_SA,2022:Q3:pre_advance:exact,2022-10-26,2022:Q3,0.0582376027017708,0.3631999999999999,-0.3049623972982291,69,0.5170440952862215,0.7190577829953734,-0.6790612725907783,0.21887916290806014,0.6642586238929671,0.4677243372062921,0.4218549938661784,0.3597476813575712,False,True,False,-0.6608201802936026,0.7772953856971442,True,-1.1245071996458538,1.2409824050493954,True,expanding_residual_calibrated_gaussian
ar,exact,pre_advance,DELTA_SA,2022:Q4:pre_advance:exact,2023-01-25,2022:Q4,0.1085327350948528,-0.2158000000000002,0.324332735094853,70,0.5117107809798078,0.7153396263173234,-0.686725038944003,0.22485162629936795,0.32513150121792,0.43970311534100254,0.44912770367411214,0.3331216929101138,True,False,True,-0.6068068912224706,0.8238723614121762,True,-1.0680962437553074,1.285161713945013,True,expanding_residual_calibrated_gaussian
ar,exact,pre_advance,DELTA_SA,2023:Q1:pre_advance:exact,2023-04-26,2023:Q1,0.0808547693367951,0.2098999999999999,-0.1290452306632048,71,0.5052529556877762,0.7108114768964948,-0.5940700358033237,0.1754337822678137,0.5720306230750472,0.45471800788671946,0.4334416654304758,0.34637771568426445,False,True,False,-0.6299567075596997,0.79166624623329,True,-1.0883260665151369,1.2500356051887271,True,expanding_residual_calibrated_gaussian
ar,exact,pre_advance,DELTA_SA,2023:Q2:pre_advance:exact,2023-07-26,2023:Q2,0.0786861488683192,-0.3529,0.4315861488683192,72,0.49875415056219585,0.7062252831513439,-0.7578494222821266,0.2671058040228351,0.27056112282926886,0.45564247702903704,0.4318060952578118,0.3465640127398181,True,False,True,-0.6275391342830248,0.7849114320196631,True,-1.0829510695679991,1.2403233673046377,True,expanding_residual_calibrated_gaussian
ar,exact,pre_advance,DELTA_SA,2023:Q3:pre_advance:exact,2023-10-25,2023:Q3,0.0656009239904817,0.2763,-0.2106990760095182,73,0.4935312336732911,0.702517781748826,-0.6108299460340085,0.18919788661757594,0.6178808798020407,0.4628009448169175,0.42414114088482213,0.352689282983646,False,True,False,-0.6369168577583443,0.7681187057393076,True,-1.0899379973169774,1.221139845297941,True,expanding_residual_calibrated_gaussian
ar,exact,pre_advance,DELTA_SA,2023:Q4:pre_advance:exact,2024-01-24,2023:Q4,0.1337989225363234,-0.0709999999999997,0.2047989225363231,74,0.4879417764281283,0.6985282932194861,-0.6031380396936661,0.18702661406173296,0.3846898793666247,0.42404969507872153,0.4622478761620804,0.3163748284515161,True,False,False,-0.5647293706831626,0.8323272157558095,True,-1.0151778740939696,1.2827757191666165,True,expanding_residual_calibrated_gaussian
ar,exact,pre_advance,DELTA_SA,2024:Q1:pre_advance:exact,2024-04-24,2024:Q1,0.092510887819583,-0.3404999999999998,0.4330108878195828,75,0.4815565525077868,0.6939427588121276,-0.7482522844348619,0.26659644124024073,0.2663182375371325,0.44697332410781,0.43845156573823396,0.33668763337665986,True,False,True,-0.6014318709925446,0.7864536466317107,True,-1.0489233759092558,1.2339451515484219,True,expanding_residual_calibrated_gaussian
ar,exact,pre_advance,DELTA_SA,2024:Q2:pre_advance:exact,2024-07-24,2024:Q2,0.0533853342525936,0.1112999999999999,-0.0579146657474063,76,0.4767625909354181,0.6904799714223564,-0.5520878085058887,0.1632984869684089,0.5334224706171735,0.46918597497983255,0.4159219415244225,0.3568207523556608,False,False,False,-0.6370946371697628,0.74386530567495,True,-1.0823531510788182,1.1891238195840055,True,expanding_residual_calibrated_gaussian
ar,exact,pre_advance,DELTA_SA,2024:Q3:pre_advance:exact,2024-10-29,2024:Q3,0.0945532127990609,0.0087999999999999,0.085753212799061,77,0.47075844595313016,0.6861183906244827,-0.5500438374932397,0.16461260959286741,0.45026845942703964,0.44519572968709475,0.43892866417793464,0.3338510862541543,False,False,False,-0.5915651778254217,0.7806716034235436,True,-1.0340111105377263,1.2231175361358482,True,expanding_residual_calibrated_gaussian
ar,exact,pre_advance,DELTA_SA,2024:Q4:pre_advance:exact,2025-01-29,2024:Q4,0.0885662047910598,0.0939000000000001,-0.0053337952089402,78,0.46464473290488045,0.6816485406020323,-0.5357280569854314,0.1593144904134395,0.503121630258051,0.4483111308359709,0.43507147697158277,0.3360251526506964,False,False,False,-0.5930823358109725,0.7702147453930921,True,-1.0326458695243708,1.2097782791064904,True,expanding_residual_calibrated_gaussian
ar,exact,pre_second,DELTA_TS,2008:Q1:pre_second:exact,2008-05-28,2008:Q1,0.0600251098958206,0.0587,0.0013251098958205,12,0.05163235358648373,0.22722753703388093,0.5628478605106191,0.053105016943716485,0.4976735241943527,0.39582715674492175,0.26894329911285286,0.12624174069120236,False,False,False,-0.16720242713806033,0.28725264692970154,True,-0.3137309285376084,0.43378114832924963,True,expanding_residual_calibrated_gaussian
ar,exact,pre_second,DELTA_TS,2008:Q2:pre_second:exact,2008-08-27,2008:Q2,0.100772173228941,-0.4531,0.5538721732289411,13,0.04746467013458396,0.21786387983000755,-2.626661389178188,0.4317210799179194,0.005506509442518218,0.32184473524218626,0.3243899217635178,0.08370854605464599,True,False,True,-0.11709170660106655,0.31863605305894854,False,-0.2575820196911666,0.4591263661490486,False,expanding_residual_calibrated_gaussian
ar,exact,pre_second,DELTA_TS,2008:Q3:pre_second:exact,2008-11-24,2008:Q3,-0.1583427007994933,0.0033999999999999,-0.1617427007994932,14,0.0626755102994184,0.2503507745133184,0.25725416590968936,0.09880196316323268,0.7408811466455043,0.7364644631251928,0.0761631805420172,0.4339227681096104,False,False,False,-0.4086934753128117,0.09200807371382508,True,-0.5701330802678353,0.2534476786688486,True,expanding_residual_calibrated_gaussian
ar,exact,pre_second,DELTA_TS,2008:Q4:pre_second:exact,2009-02-26,2008:Q4,0.0931111879520567,-0.0942999999999996,0.1874111879520563,15,0.06198909538547986,0.24897609400398235,0.1881604110330149,0.11194906717547887,0.2258067981341495,0.35421093027849704,0.33384752677870155,0.11954459823414579,True,False,False,-0.15586490605192566,0.34208728195603905,True,-0.3164180432946044,0.5026404191987177,True,expanding_residual_calibrated_gaussian
ar,exact,pre_second,DELTA_TS,2009:Q1:pre_second:exact,2009-05-28,2009:Q1,0.1325678027393972,0.2259999999999999,-0.0934321972606027,16,0.05885829135750111,0.24260727803901744,0.4232151815776731,0.07087615222568355,0.6499246488105113,0.29238532708560366,0.390526154723689,0.08521753343635896,False,True,False,-0.11003947529962024,0.37517508077841466,True,-0.26648565846790484,0.5316212639466993,True,expanding_residual_calibrated_gaussian
ar,exact,pre_second,DELTA_TS,2009:Q2:pre_second:exact,2009-08-26,2009:Q2,0.2749823419517103,0.2766999999999999,-0.0017176580482896,17,0.05672629505267802,0.2381728260164833,0.5157941707708975,0.05566473500679489,0.5028770724614896,0.12413745714943411,0.6235520692102272,0.023060952301192175,False,True,False,0.036809515935226994,0.5131551679681936,True,-0.1167770947627842,0.6667417786662048,True,expanding_residual_calibrated_gaussian
ar,exact,pre_second,DELTA_TS,2009:Q3:pre_second:exact,2009-11-23,2009:Q3,0.2248763601779096,-0.5463999999999998,0.7712763601779095,18,0.05359548775522431,0.2315069928862286,-5.005395070078936,0.640714775976085,0.0004318240267668124,0.16568481293198595,0.5427856049816887,0.03323331986168307,True,False,True,-0.006630632708319012,0.45638335306413824,False,-0.15591875673563219,0.6056714770914514,False,expanding_residual_calibrated_gaussian
ar,exact,pre_second,DELTA_TS,2009:Q4:pre_second:exact,2010-02-25,2009:Q4,-0.2121082936084128,-0.3730000000000002,0.1608917063915873,19,0.07756059854534765,0.2784970350746084,0.1925324538513868,0.10116689856159168,0.28172852760375544,0.7768559200529646,0.06946888308410848,0.5173394623852479,True,False,True,-0.4906053286830212,0.06638874146619558,True,-0.6701951518461138,0.24597856462928816,True,expanding_residual_calibrated_gaussian
ar,exact,pre_second,DELTA_TS,2010:Q1:pre_second:exact,2010-05-26,2010:Q1,-0.1805736028353486,-0.2984,0.1178263971646513,20,0.07370585262747227,0.27148821821116337,0.29071918649301176,0.08353180887789231,0.332143537841117,0.747014729138133,0.08048670887325127,0.4714779419250762,True,False,True,-0.45206182104651194,0.09091461537581477,True,-0.6271319832345734,0.2659847775638762,True,expanding_residual_calibrated_gaussian
ar,exact,pre_second,DELTA_TS,2010:Q2:pre_second:exact,2010-08-26,2010:Q2,-0.1040265308932921,0.1048,-0.2088265308932921,21,0.0700415606353572,0.26465366167003473,0.09909011187963435,0.12437470579677638,0.7849603297327316,0.6528648761632992,0.12532514837710385,0.35843766766910873,False,False,False,-0.36868019256332685,0.16062713077674262,True,-0.5393430661772365,0.3312900043906523,True,expanding_residual_calibrated_gaussian
ar,exact,pre_second,DELTA_TS,2010:Q3:pre_second:exact,2010-11-22,2010:Q3,0.0998453241604311,0.0339999999999998,0.0658453241604313,22,0.07098060420561815,0.2664218538438958,0.3731949917430748,0.06872077705514933,0.40239728529551244,0.3539179886936769,0.35348627064948734,0.13019852213758082,False,False,False,-0.16657652968346467,0.36626717800432684,True,-0.33837962843383584,0.5380702767546981,True,expanding_residual_calibrated_gaussian
ar,exact,pre_second,DELTA_TS,2010:Q4:pre_second:exact,2011-02-24,2010:Q4,0.0543732040476938,0.3264,-0.2720267959523061,23,0.06776836589807013,0.26032357922030447,-0.11907560904074532,0.1649447553761277,0.8519784446421514,0.417275734649418,0.2879420404449108,0.16424933242644488,False,True,False,-0.20595037517261067,0.31469678326799827,False,-0.3738209794138129,0.48256738750920053,True,expanding_residual_calibrated_gaussian
ar,exact,pre_second,DELTA_TS,2011:Q1:pre_second:exact,2011-05-25,2011:Q1,0.1840968521247026,0.0726999999999999,0.1113968521247026,24,0.0700767944659788,0.264720219223955,0.3216028266462603,0.08029379847534159,0.336947001785482,0.24339000974642327,0.4760478291443523,0.07339633947728573,False,False,False,-0.08062336709925241,0.44881707134865756,True,-0.25132916059320864,0.6195228648426138,True,expanding_residual_calibrated_gaussian
ar,exact,pre_second,DELTA_TS,2011:Q2:pre_second:exact,2011-08-25,2011:Q2,0.0826892785471069,0.3447000000000001,-0.2620107214528931,25,0.06723120147378164,0.25928980210139707,-0.07967841508900364,0.15807132817787437,0.8438706010625454,0.3748985975254271,0.32547929126865394,0.13780272967867344,False,True,False,-0.17660052355429018,0.34197908064850396,False,-0.34380449287090553,0.5091830499651193,True,expanding_residual_calibrated_gaussian
ar,exact,pre_second,DELTA_TS,2011:Q3:pre_second:exact,2011-11-21,2011:Q3,0.2196184979915967,-0.1896000000000002,0.4092184979915969,26,0.0687823645686042,0.26226392159159867,-0.7978508272343043,0.27462997961339586,0.05934085370733408,0.20118528619185477,0.529814833620841,0.05480088895872976,True,False,False,-0.04264542360000198,0.48188241958319533,False,-0.21176726465686088,0.6510042606400542,True,expanding_residual_calibrated_gaussian
ar,exact,pre_second,DELTA_TS,2011:Q4:pre_second:exact,2012-02-28,2011:Q4,-0.0390680507254161,-0.0276,-0.0114680507254161,27,0.07072487799945637,0.26594149356476204,0.404610637026921,0.062346449860018395,0.5171980412315593,0.5583963721115561,0.18433970185714987,0.27254284697697373,True,False,False,-0.3050095442901781,0.22687344283934593,True,-0.47650288097230653,0.39836677952147437,True,expanding_residual_calibrated_gaussian
ar,exact,pre_second,DELTA_TS,2012:Q1:pre_second:exact,2012-05-30,2012:Q1,0.0201593821295551,0.0121,0.0080593821295551,28,0.06834419067188502,0.26142721868980096,0.42218562838517315,0.061193340410660345,0.4877031967548862,0.4692669093050167,0.2457520556546806,0.19985365773076,False,False,False,-0.24126783656024586,0.28158660081935605,True,-0.4098501267161997,0.4501688909753099,True,expanding_residual_calibrated_gaussian
ar,exact,pre_second,DELTA_TS,2012:Q2:pre_second:exact,2012-08-28,2012:Q2,0.0542284222174149,-0.4791000000000001,0.533328422217415,29,0.0660246454454121,0.2569526132293892,-1.7141130551230463,0.39191347773713875,0.018965916942470653,0.4164262942480924,0.28525206863840324,0.16123420674472477,True,False,True,-0.20272419101197434,0.31118103544680414,False,-0.36842101560760476,0.4768778600424346,False,expanding_residual_calibrated_gaussian
ar,exact,pre_second,DELTA_TS,2012:Q3:pre_second:exact,2012-11-28,2012:Q3,-0.1690199464195982,0.4342999999999999,-0.6033199464195982,30,0.07104872098788102,0.2665496595155976,-2.158330803572821,0.4551067689720561,0.9881958010258671,0.7369932068611247,0.08311306896121329,0.45373663711133916,False,True,False,-0.4355696059351958,0.09752971309599942,False,-0.607455120636509,0.26941522779731253,False,expanding_residual_calibrated_gaussian
ar,exact,pre_second,DELTA_TS,2012:Q4:pre_second:exact,2013-02-27,2012:Q4,0.2334352574488747,0.2525,-0.0190647425511252,31,0.08378353873722587,0.2894538628818518,0.31865176161176306,0.06814468083535447,0.5262571597856693,0.20998654633722774,0.5459801574542805,0.06714144039737346,False,True,False,-0.056018605432977125,0.5228891203307265,True,-0.24267397874745336,0.7095444936452028,True,expanding_residual_calibrated_gaussian
ar,exact,pre_second,DELTA_TS,2013:Q1:pre_second:exact,2013-05-29,2013:Q1,0.1899848579887264,-0.6094000000000002,0.7993848579887266,32,0.0812705840721508,0.2850799608393245,-3.595364050458443,0.6389737591489406,0.002523078400099465,0.25256924487584415,0.4859876440458337,0.08565852417387035,True,False,True,-0.0950951028505981,0.47506481882805096,False,-0.2789299495690202,0.6588996655464731,False,expanding_residual_calibrated_gaussian
ar,exact,pre_second,DELTA_TS,2013:Q2:pre_second:exact,2013-08-28,2013:Q2,-0.2371281731179624,-0.0339999999999998,-0.2031281731179626,33,0.09545799770109731,0.30896277720964593,0.03947442035874607,0.12364138035506043,0.7445548138215109,0.7786071239713733,0.07855994793814491,0.5478259079062668,True,False,False,-0.5460909503276083,0.07183460409168355,True,-0.7453267178042482,0.27107037156832336,True,expanding_residual_calibrated_gaussian
ar,exact,pre_second,DELTA_TS,2013:Q3:pre_second:exact,2013-12-04,2013:Q3,0.0214258366188206,0.5327999999999999,-0.5113741633811792,34,0.09490532510322071,0.3080670789020156,-1.119208189406339,0.3499810768410606,0.9515371615856058,0.4722762128366954,0.28107196091654185,0.23614486080226021,False,True,False,-0.28664124228319504,0.3294929155208362,False,-0.4852994154575052,0.5281510886951464,False,expanding_residual_calibrated_gaussian
ar,exact,pre_second,DELTA_TS,2013:Q4:pre_second:exact,2014-02-27,2013:Q4,0.2638284005265996,0.2418,0.0220284005265996,35,0.10179226846287516,0.31904900636559763,0.2210884969798185,0.0751666716739282,0.4724773218402137,0.20414085139415314,0.5792825054975095,0.07300307437371985,False,True,False,-0.055220605838998016,0.5828774068921972,True,-0.26096051476911697,0.7886173158223162,True,expanding_residual_calibrated_gaussian
ar,exact,pre_second,DELTA_TS,2014:Q1:pre_second:exact,2014-05-28,2014:Q1,0.1500423574002036,-1.9455,2.0955423574002037,36,0.09891233029446758,0.3145033072870102,-21.960106853684337,1.9181028674387677,1.341270282658598e-11,0.316653574594126,0.43689504011837244,0.13285409430669318,True,False,True,-0.1644609498868066,0.4645456646872138,False,-0.3672695482790685,0.6673542630794758,False,expanding_residual_calibrated_gaussian
ar,exact,pre_second,DELTA_TS,2014:Q2:pre_second:exact,2014-08-27,2014:Q2,-0.7957150664800472,0.4200999999999997,-1.215815066480047,37,0.20890749744655665,0.4570639971016714,-3.673951203083005,0.9590478704207419,0.9960935976632311,0.9591518148955602,0.01468432265697317,0.9037726143684184,False,True,False,-1.2527790635817186,-0.3386510693783758,False,-1.5475184398616686,-0.0439116930984258,False,expanding_residual_calibrated_gaussian
ar,exact,pre_second,DELTA_TS,2014:Q3:pre_second:exact,2014-11-24,2014:Q3,0.18616178702778,1.0710000000000002,-0.8848382129722201,38,0.24940188373217378,0.4994015255605191,-1.7942263043341802,0.6183835907356846,0.9617858842867542,0.3546599054901347,0.4889468863031383,0.219687482407362,False,True,False,-0.3132397385327391,0.6855633125882991,False,-0.6352806235955382,1.007604197651098,False,expanding_residual_calibrated_gaussian
ar,exact,pre_second,DELTA_TS,2014:Q4:pre_second:exact,2015-02-26,2014:Q4,0.4841223334290574,0.0249999999999999,0.4591223334290575,39,0.26638656437892777,0.5161265003649084,-0.6531882023533115,0.2735992402740629,0.18685273867317334,0.17412435772053028,0.709008237557719,0.09250375808583158,False,False,False,-0.03200416693585095,1.000248833793966,True,-0.3648302126619325,1.3330748795200473,True,expanding_residual_calibrated_gaussian
ar,exact,pre_second,DELTA_TS,2015:Q1:pre_second:exact,2015-05-28,2015:Q1,0.0561086229840617,0.5774,-0.5212913770159383,40,0.2637631042463154,0.513578722540484,-0.7677168126679716,0.31469429688913486,0.8449512506931195,0.4565019877419478,0.3896720274834713,0.3090043487816764,False,True,False,-0.45747009955642226,0.5696873455245457,False,-0.7886532015117571,0.9008704474798805,True,expanding_residual_calibrated_gaussian
ar,exact,pre_second,DELTA_TS,2015:Q2:pre_second:exact,2015-08-26,2015:Q2,0.3625495083294923,0.2363999999999997,0.1261495083294925,41,0.26538668172090285,0.515156948629156,-0.28563696004767425,0.1326520913798773,0.4032762711924958,0.24078951938843357,0.623821861974729,0.13741735243481168,False,True,False,-0.15260744029966367,0.8777064569586482,True,-0.4848082670724281,1.2099072837314127,True,expanding_residual_calibrated_gaussian
ar,exact,pre_second,DELTA_TS,2015:Q3:pre_second:exact,2015-11-23,2015:Q3,0.1202330462125123,-0.0944999999999998,0.2147330462125121,42,0.25907061689474675,0.508989800383806,-0.33260295500161696,0.1545625937710238,0.336555996684309,0.4066313801651713,0.43773425456550885,0.26462407061174276,True,False,False,-0.38875675417129374,0.6292228465963183,True,-0.7169806730300969,0.9574467654551215,True,expanding_residual_calibrated_gaussian
ar,exact,pre_second,DELTA_TS,2015:Q4:pre_second:exact,2016-02-25,2015:Q4,0.0072572058068582,0.3811,-0.3738427941931417,43,0.2535570656965029,0.5035445022006525,-0.5084509707760168,0.2235831457038956,0.7710843199291311,0.4942505458884808,0.3509443693140305,0.34031756149907777,False,True,False,-0.4962872963937943,0.5108017080075107,True,-0.8209997949693587,0.8355142065830751,True,expanding_residual_calibrated_gaussian
ar,exact,pre_second,DELTA_TS,2016:Q1:pre_second:exact,2016-05-26,2016:Q1,0.2376238772222749,0.2323999999999999,0.005223877222275,44,0.2517593208876505,0.501756236520933,-0.2293518677513138,0.11727960926123304,0.4958466129733301,0.3178981858409024,0.5298864276267643,0.19155394037537862,False,True,False,-0.26413235929865814,0.7393801137432079,True,-0.5876916882647025,1.0629394427092524,True,expanding_residual_calibrated_gaussian
ar,exact,pre_second,DELTA_TS,2016:Q2:pre_second:exact,2016-08-25,2016:Q2,0.1766591280750276,0.3151999999999999,-0.1385408719249723,45,0.2460662563463859,0.49605065905246604,-0.25686213427130694,0.13126116862113596,0.6099879963427686,0.36087114760604344,0.4812353323091414,0.22383181899284935,False,True,False,-0.31939153097743844,0.6727097871274936,True,-0.6392715976190892,0.9925898537691444,True,expanding_residual_calibrated_gaussian
ar,exact,pre_second,DELTA_TS,2016:Q3:pre_second:exact,2016-11-28,2016:Q3,0.2085726636292308,0.3584,-0.1498273363707691,46,0.24129409251548758,0.49121695055798675,-0.2545854677956068,0.13288624602575394,0.6198217043148541,0.3355627019827693,0.5069619429409071,0.2027733319796599,False,True,False,-0.282644286928756,0.6997896141872175,True,-0.5994073191161158,1.0165526463745773,True,expanding_residual_calibrated_gaussian
ar,exact,pre_second,DELTA_TS,2016:Q4:pre_second:exact,2017-02-27,2016:Q4,0.1857855496112392,0.2233,-0.0375144503887607,47,0.2367872182612091,0.48660786909092324,-0.2016135831236965,0.11487103734884474,0.530725537928748,0.35130587679389447,0.488348032900086,0.21394548319784243,False,True,False,-0.3008223194796841,0.6723934187021624,True,-0.6146131687660931,0.9861842679885714,True,expanding_residual_calibrated_gaussian
ar,exact,pre_second,DELTA_TS,2017:Q1:pre_second:exact,2017-05-25,2017:Q1,0.1537243117302007,0.2690000000000001,-0.1152756882697993,48,0.2318514113250413,0.48150951322382124,-0.21676657165166183,0.12348389992986362,0.5946041454675455,0.3747665828858534,0.4617184115826164,0.23128687309102655,False,True,False,-0.32778520149362056,0.6352338249540219,True,-0.6382883575076395,0.9457369809680409,True,expanding_residual_calibrated_gaussian
ar,exact,pre_second,DELTA_TS,2017:Q2:pre_second:exact,2017-08-29,2017:Q2,0.1888077505774061,0.0266999999999999,0.1621077505774062,49,0.22745827282961703,0.4769258567425518,-0.2363107660131393,0.13322793784225903,0.36696540364524977,0.346094966273672,0.4906386880831859,0.2074682437446462,False,False,False,-0.28811810616514566,0.6657336073199579,True,-0.5956654746725185,0.9732809758273306,True,expanding_residual_calibrated_gaussian
ar,exact,pre_second,DELTA_TS,2017:Q3:pre_second:exact,2017-11-28,2017:Q3,0.0439172242577536,-0.1394999999999999,0.1834172242577536,50,0.22317550364793337,0.4724145463974764,-0.2444110328971197,0.1384590624817563,0.348913734456343,0.4629663510241643,0.3705512619339195,0.3028153572713347,True,False,False,-0.4284973221397228,0.51633177065523,True,-0.73313555580877,0.8209700043242771,True,expanding_residual_calibrated_gaussian
ar,exact,pre_second,DELTA_TS,2017:Q4:pre_second:exact,2018-02-27,2017:Q4,-0.0345783611468029,0.3519000000000001,-0.386478361146803,51,0.21916890047584336,0.46815478260490234,-0.5007366030526792,0.22992405524329002,0.7954661625876999,0.5294394893698986,0.308160896408043,0.36191371603728917,False,True,False,-0.5027331437517052,0.43357642145809944,True,-0.8046244532891546,0.7354677309955487,True,expanding_residual_calibrated_gaussian
ar,exact,pre_second,DELTA_TS,2018:Q1:pre_second:exact,2018-05-29,2018:Q1,0.1964108625937384,-0.1833000000000002,0.3797108625937386,52,0.21826762422320553,0.46719120734791825,-0.48820524985274394,0.22594348558860722,0.2081799620159868,0.33709375818280596,0.49693520649642475,0.19808030862875098,True,False,False,-0.27078034475417984,0.6636020699416567,True,-0.5720502892923222,0.964872014479799,True,expanding_residual_calibrated_gaussian
ar,exact,pre_second,DELTA_TS,2018:Q2:pre_second:exact,2018-08-28,2018:Q2,-0.0306561516332095,-0.0674999999999999,0.0368438483667903,53,0.21643506008666558,0.4652258162297806,-0.15684214158590182,0.10988439083290294,0.468438512987047,0.5262693718708344,0.3100198919202387,0.3579276794640285,True,False,False,-0.4958819678629901,0.4345696645965711,True,-0.7958845228102231,0.7345722195438043,True,expanding_residual_calibrated_gaussian
ar,exact,pre_second,DELTA_TS,2018:Q3:pre_second:exact,2018-11-27,2018:Q3,-0.022605780705315,-0.1484999999999998,0.1258942192946848,54,0.21235175235477546,0.4608163976626434,-0.18150158170801217,0.12132701859610806,0.39235042433947254,0.5195626413202471,0.31452363080209733,0.35013486106789926,True,False,False,-0.48342217836795837,0.4382106169573284,True,-0.7805813037594259,0.7353697423487958,True,expanding_residual_calibrated_gaussian
ar,exact,pre_second,DELTA_TS,2019:Q1:pre_second:exact,2019-05-29,2019:Q1,-0.5635001866146694,0.0609999999999999,-0.6245001866146693,55,0.20857810327972326,0.4567035179191455,-1.0701204234341113,0.4028035885402158,0.9142513208101302,0.8913691907477836,0.04728550181228153,0.7869611920069371,False,False,False,-1.0202037045338148,-0.1067966686955239,False,-1.3147106245054725,0.18771025127613372,True,expanding_residual_calibrated_gaussian
ar,exact,pre_second,DELTA_TS,2019:Q2:pre_second:exact,2019-08-28,2019:Q2,0.0553867231403613,-0.0236,0.0789867231403613,56,0.21253233072143982,0.46101228912192765,-0.15928549171684772,0.11312199387282265,0.4319808777142586,0.45218551604069035,0.3768796224901223,0.28979987760523107,True,False,False,-0.40562556598156635,0.5163990122622889,True,-0.7029110126910422,0.8136844589717648,True,expanding_residual_calibrated_gaussian
ar,exact,pre_second,DELTA_TS,2019:Q3:pre_second:exact,2019-11-26,2019:Q3,0.0400819187290437,-0.0214000000000003,0.061481918729044,57,0.20879332912841236,0.4569390868905968,-0.14478542354478735,0.11007964753767821,0.44648317658023273,0.4650502882196565,0.3631780529197659,0.2996479205287914,True,False,False,-0.4168571681615531,0.4970210056196405,True,-0.7115159956388484,0.7916798330969357,True,expanding_residual_calibrated_gaussian
ar,exact,pre_second,DELTA_TS,2019:Q4:pre_second:exact,2020-02-26,2019:Q4,0.0389260285033676,0.0318999999999998,0.0070260285033678,58,0.20515532919709886,0.45294075682929974,-0.1270649029921758,0.10589345888753937,0.4938118454016518,0.4657567937189454,0.36106326021093604,0.2989233773759252,False,False,False,-0.4140147283259321,0.49186678533266737,True,-0.7060952181614509,0.7839472751681861,True,expanding_residual_calibrated_gaussian
ar,exact,pre_second,DELTA_TS,2020:Q1:pre_second:exact,2020-05-27,2020:Q1,0.0626050123543775,0.0540000000000002,0.0086050123543772,59,0.2016230683454751,0.44902457432246967,-0.1184444971086222,0.10500057310473883,0.49235522210441357,0.444557369294917,0.37980786098818875,0.27932953954852435,False,False,False,-0.3864195619680922,0.5116295866768472,True,-0.6759746873102775,0.8011847120190326,True,expanding_residual_calibrated_gaussian
ar,exact,pre_second,DELTA_TS,2020:Q2:pre_second:exact,2020-08-26,2020:Q2,0.2226642124584019,0.3214000000000006,-0.0987357875415986,60,0.19820954639415053,0.44520730721109075,-0.13431533073376267,0.1127427672537812,0.587755423924655,0.3084896510410943,0.52030022566393,0.1712175154600564,False,True,False,-0.22254309475268885,0.6678715196694927,True,-0.5096366415530591,0.9549650664698628,True,expanding_residual_calibrated_gaussian
ar,exact,pre_second,DELTA_TS,2020:Q3:pre_second:exact,2020-11-24,2020:Q3,1.0697573673306875,0.3727000000000018,0.6970573673306859,61,0.1951509519909051,0.4417589297240126,-1.346853044860015,0.4694498052851576,0.057292744597099446,0.007726465913984747,0.9755148794872268,0.0020244802708167743,False,True,False,0.627998437606675,1.5115162970547,False,0.34312858953594483,1.7963861451254302,True,expanding_residual_calibrated_gaussian
ar,exact,pre_second,DELTA_TS,2020:Q4:pre_second:exact,2021-02-24,2020:Q4,-0.0619677598879055,0.2328999999999998,-0.2948677598879055,62,0.19931301802343382,0.4464448656031714,-0.33061586638710216,0.1793217096729213,0.7455269714145007,0.5551969761452424,0.27867359765163524,0.3785919485169012,False,True,False,-0.5084126254910769,0.38447710571526594,True,-0.7963042163091446,0.6723686965333336,True,expanding_residual_calibrated_gaussian
ar,exact,pre_second,DELTA_TS,2021:Q1:pre_second:exact,2021-05-26,2021:Q1,0.0741194561374736,-0.0379000000000004,0.1120194561374741,63,0.1977981627476692,0.4447450536517176,-0.14040456804036788,0.11513159940420202,0.4005694539173775,0.43382034243053763,0.38857317012751524,0.2688311479393106,True,False,False,-0.370625597514244,0.5188645097891912,True,-0.6574210584302812,0.8056599707052284,True,expanding_residual_calibrated_gaussian
ar,exact,pre_second,DELTA_TS,2021:Q2:pre_second:exact,2021-08-25,2021:Q2,0.0542172340461517,0.1697000000000006,-0.1154827659538488,64,0.19477095607992942,0.4413286259466175,-0.13520881064513052,0.11512338292431931,0.6032123302227675,0.45111292883254944,0.37057644268517453,0.2822984432483866,False,False,False,-0.3871113919004658,0.4955458599927692,True,-0.6717037570196516,0.7801382251119551,True,expanding_residual_calibrated_gaussian
ar,exact,pre_second,DELTA_TS,2021:Q3:pre_second:exact,2021-11-23,2021:Q3,0.0647130031895999,0.1993999999999998,-0.1346869968103998,65,0.1920466532069789,0.4382312782161708,-0.14115969384649107,0.11879789154453695,0.6207085684682139,0.441302153264336,0.3787705309200946,0.27290565561512614,False,False,False,-0.3735182750265709,0.5029442814057707,True,-0.6561133042278483,0.7855393106070482,True,expanding_residual_calibrated_gaussian
ar,exact,pre_second,DELTA_TS,2021:Q4:pre_second:exact,2022-02-23,2021:Q4,0.0785903836922474,-0.0928000000000004,0.1713903836922479,66,0.18948475339593748,0.4352984647295893,-0.16472712099491824,0.12830588360755563,0.3468899242876061,0.42836288576559445,0.390156487313027,0.26108677293902655,True,False,False,-0.35670808103734186,0.5138888484218367,True,-0.637411874824625,0.7945926422091197,True,expanding_residual_calibrated_gaussian
ar,exact,pre_second,DELTA_TS,2022:Q1:pre_second:exact,2022-05-25,2022:Q1,0.0505502027361366,-0.0639,0.1144502027361367,67,0.18693863593858515,0.43236400860685104,-0.11548625715015426,0.11305752249098727,0.39561721532994754,0.4534633715080316,0.36480012036852794,0.28112962108955547,True,False,False,-0.38181380587071445,0.4829142113429876,True,-0.6606253049841199,0.7617257104563931,True,expanding_residual_calibrated_gaussian
ar,exact,pre_second,DELTA_TS,2022:Q2:pre_second:exact,2022-08-24,2022:Q2,0.0719132614688264,-0.0022999999999999,0.0742132614688264,68,0.18426340216141537,0.429259131715815,-0.08818895982650019,0.1054216193340154,0.43137018193818577,0.43347699958094177,0.38270266582336165,0.263220622601388,True,False,False,-0.3573458702469886,0.5011723931846414,True,-0.6341551782359717,0.7779817011736244,True,expanding_residual_calibrated_gaussian
ar,exact,pre_second,DELTA_TS,2022:Q3:pre_second:exact,2022-11-29,2022:Q3,0.0720417926744967,0.3147000000000002,-0.2426582073255034,69,0.18158546164621112,0.4261284567430473,-0.2280598895221308,0.1532677444311284,0.7154740919780425,0.43287424765857707,0.38198147660387427,0.2616056072005552,False,True,False,-0.3540866640685506,0.49817024941754395,True,-0.6288771449465381,0.7729607302955316,True,expanding_residual_calibrated_gaussian
ar,exact,pre_second,DELTA_TS,2022:Q4:pre_second:exact,2023-02-22,2022:Q4,0.0816900767583872,-0.1016999999999996,0.1833900767583869,70,0.18000059971529436,0.42426477548259217,-0.1549626744779048,0.130289771530442,0.33277846751960954,0.4236576468253189,0.39017663262893665,0.2533615495089084,True,False,False,-0.342574698724205,0.5059548522409794,True,-0.6161633779819066,0.779543531498681,True,expanding_residual_calibrated_gaussian
ar,exact,pre_second,DELTA_TS,2023:Q1:pre_second:exact,2023-05-24,2023:Q1,0.0603343116893237,0.7302,-0.6698656883106762,71,0.17778621232408265,0.4216470233786581,-1.317317021229071,0.4521053994033158,0.9439346079515206,0.44310876541507205,0.3702322057933657,0.26847807972181503,False,True,False,-0.36131271168933443,0.4819813350679818,False,-0.6332133240083543,0.7538819473870016,True,expanding_residual_calibrated_gaussian
ar,exact,pre_second,DELTA_TS,2023:Q2:pre_second:exact,2023-08-29,2023:Q2,0.1087417862766018,0.0009000000000001,0.1078417862766016,72,0.18201559123540537,0.4266328529724421,-0.09905447141681467,0.11051943428773629,0.4002213454983589,0.39940643935652054,0.41531119811894956,0.23463389722037573,False,False,False,-0.3178910666958403,0.5353746392490439,True,-0.5930068093117737,0.8104903818649773,True,expanding_residual_calibrated_gaussian
ar,exact,pre_second,DELTA_TS,2023:Q3:pre_second:exact,2023-11-28,2023:Q3,0.0694852593005626,-0.2930999999999999,0.3625852593005625,73,0.17960128035813674,0.42379391260155774,-0.4264303496931727,0.2157663533263277,0.1961178992066411,0.43488130776411127,0.37905354117386336,0.2624248693534569,True,False,True,-0.35430865330099515,0.49327917190212034,True,-0.6275936949220648,0.76656421352319,True,expanding_residual_calibrated_gaussian
ar,exact,pre_second,DELTA_TS,2023:Q4:pre_second:exact,2024-02-27,2023:Q4,0.0457694123409471,0.1876999999999999,-0.1419305876590528,74,0.17874564951655075,0.42278321811130437,-0.11439185573979256,0.11763413526882684,0.6314534639980091,0.45689575655365133,0.3576309973123907,0.28051473521035697,False,False,False,-0.37701380577035726,0.4685526304522515,True,-0.6496470973836472,0.7411859220655415,True,expanding_residual_calibrated_gaussian
ar,exact,pre_second,DELTA_TS,2024:Q1:pre_second:exact,2024-05-29,2024:Q1,0.0752473310114067,0.1602999999999999,-0.0850526689885931,75,0.17669131648409309,0.42034666227304945,-0.07273361701101388,0.10507517316651371,0.5801742790340901,0.4289639207894381,0.38331525199274397,0.25629494376970846,False,False,False,-0.34509933126164277,0.49559399328445614,True,-0.6161614010053643,0.7666560630281777,True,expanding_residual_calibrated_gaussian
ar,exact,pre_second,DELTA_TS,2024:Q2:pre_second:exact,2024-08-28,2024:Q2,0.0787934106925951,0.0381,0.0406934106925951,76,0.17448190073188005,0.4177103071889417,-0.050716746602249445,0.09919710156533919,0.4611963623064801,0.4251907378920229,0.3858434688477491,0.25224797435775,False,False,False,-0.3389168964963466,0.4965037178815368,True,-0.6082789031021492,0.7658657244873395,True,expanding_residual_calibrated_gaussian
ar,exact,pre_second,DELTA_TS,2024:Q3:pre_second:exact,2024-11-26,2024:Q3,0.0684695138011854,0.2393999999999998,-0.1709304861988143,77,0.1721921611365497,0.4149604332180957,-0.1242054561256252,0.12467302606905718,0.659800955831034,0.4344710024917958,0.37563274622479503,0.2588236816442986,False,True,False,-0.34649091941691035,0.4834299470192811,True,-0.6140796598189535,0.7510186874213243,True,expanding_residual_calibrated_gaussian
ar,exact,pre_second,DELTA_TS,2024:Q4:pre_second:exact,2025-02-26,2024:Q4,0.0796362276898672,0.1044,-0.0247637723101328,78,0.17042006966033174,0.41281965755076605,-0.03599330149312971,0.09706633238224974,0.5239169666732904,0.42351549729842974,0.3853096113646187,0.2490820980266065,False,False,False,-0.3331834298608989,0.4924558852406332,True,-0.599391683309375,0.7586641386891094,True,expanding_residual_calibrated_gaussian
ar,exact,pre_third,DELTA_MT,2008:Q1:pre_third:exact,2008-06-25,2008:Q1,1.4463676570113624,-0.0893868633111065,1.535754520322469,12,1.2901394229354248,1.1358430450266555,-1.9603784326667797,0.9874119736783156,0.08817431934291316,0.10144039133632703,0.8637462272183654,0.07360352545403648,True,False,False,0.31052461198470693,2.582210702038018,False,-0.42192789524833607,3.314663209271061,True,expanding_residual_calibrated_gaussian
ar,exact,pre_third,DELTA_MT,2008:Q2:pre_third:exact,2008-09-25,2008:Q2,1.1012882814473222,-0.0392156789353363,1.1405039603826586,13,1.2734359772890191,1.1284662056477452,-1.5505221595849337,0.6880837228672957,0.15608783219036498,0.1645530340054938,0.7877632639478529,0.12442486986907635,True,False,False,-0.027177924200423087,2.229754487095067,False,-0.7548734498045375,2.957450012699182,True,expanding_residual_calibrated_gaussian
ar,exact,pre_third,DELTA_MT,2008:Q3:pre_third:exact,2008-12-22,2008:Q3,0.6444948946528486,-2.2029583257560823,2.847453220408931,14,1.201856383470461,1.0962921068175493,-4.383983151877869,2.2321735123249202,0.004697320651382746,0.27830437240303174,0.6574277105251921,0.2205552752049473,True,False,True,-0.4517972121647007,1.7407870014703979,False,-1.158745153444268,2.4477349427499653,False,expanding_residual_calibrated_gaussian
ar,exact,pre_third,DELTA_MT,2008:Q4:pre_third:exact,2009-03-25,2008:Q4,1.1338700083524365,0.8198593660845592,0.3140106422678772,15,1.4599073543003662,1.2082662596879739,-1.1418952072781976,0.3147401303023695,0.3974761244180218,0.17401243839635183,0.7802094665284878,0.1348066112245474,False,True,False,-0.0743962513355374,2.3421362680404103,True,-0.8535511312184167,3.12129114792329,True,expanding_residual_calibrated_gaussian
ar,exact,pre_third,DELTA_MT,2009:Q1:pre_third:exact,2009-06-24,2009:Q1,5.255422454369711,-1.151292625429166,6.406715079798877,16,1.373273390393191,1.171867479876966,-16.02212079605145,5.745559663592365,2.2873078375984824e-08,3.6515840007216427e-06,0.9999919832238006,1.6173604616508504e-06,True,False,True,4.0835549744927455,6.4272899342466765,False,3.327871979787602,7.18297292895182,False,expanding_residual_calibrated_gaussian
ar,exact,pre_third,DELTA_MT,2009:Q2:pre_third:exact,2009-09-29,2009:Q2,3.9092754563658634,-0.0027136054968228,3.9119890618626862,17,3.20192423107866,1.789392140107545,-3.8905741214619063,2.920620493547241,0.014400080172767834,0.014455620929905771,0.9809103636145272,0.01082466946971728,True,False,False,2.1198833162583184,5.698667596473408,False,0.9659873046715113,6.8525636080602155,False,expanding_residual_calibrated_gaussian
ar,exact,pre_third,DELTA_MT,2009:Q3:pre_third:exact,2009-12-21,2009:Q3,1.1391242089486626,-0.6521762543589538,1.7913004633076164,18,3.4726541562035194,1.8635058776949214,-2.003401713776611,1.074044848861233,0.16821250727468318,0.27050705489828025,0.6928537083979954,0.23619223737789816,True,False,True,-0.7243816687462588,3.0026300866435838,True,-1.9260701928232153,4.204318610720541,True,expanding_residual_calibrated_gaussian
ar,exact,pre_third,DELTA_MT,2009:Q4:pre_third:exact,2010-03-25,2009:Q4,0.1762433660920956,-0.6637385429941904,0.8399819090862861,19,3.298313347398087,1.816125917275035,-1.6226033022413202,0.5767046696040792,0.3218567286028751,0.4613458917876568,0.4947816088422762,0.4179392874400086,True,False,True,-1.6398825511829394,1.9923692833671307,True,-2.811017935938315,3.1635046681225063,True,expanding_residual_calibrated_gaussian
ar,exact,pre_third,DELTA_MT,2010:Q1:pre_third:exact,2010-06-24,2010:Q1,-1.9396904630754284,0.9259423079932954,-2.8656327710687237,20,3.132259394039996,1.7698190286128117,-2.800666904390665,1.9457410120502103,0.9472943442957441,0.8634567562762091,0.11333367405308237,0.8371904905013823,False,True,False,-3.70950949168824,-0.16987143446261666,False,-4.850783711336943,0.9714027851860862,True,expanding_residual_calibrated_gaussian
ar,exact,pre_third,DELTA_MT,2010:Q2:pre_third:exact,2010-09-29,2010:Q2,0.603303532667756,-0.0146173547767129,0.617920887444469,21,3.7662213878651953,1.9406754978267735,-1.6326655297617194,0.5313611926189827,0.3750888523907536,0.37794860146223697,0.5823137032387864,0.33946273833385987,True,False,False,-1.3373719651590175,2.54397903049453,True,-2.5888235986684665,3.7954306640039785,True,expanding_residual_calibrated_gaussian
ar,exact,pre_third,DELTA_MT,2010:Q3:pre_third:exact,2010-12-21,2010:Q3,1.4310733280405468,-0.0819766166316546,1.5130499446722014,22,3.5940409719625137,1.8957956039516797,-1.8770654463918384,0.9007601252232903,0.21240386273133846,0.2251644275540991,0.7419504664256688,0.1947943515774188,True,False,False,-0.4647222759111329,3.3268689319922267,True,-1.68723294707803,4.549379603159124,True,expanding_residual_calibrated_gaussian
ar,exact,pre_third,DELTA_MT,2010:Q4:pre_third:exact,2011-03-24,2010:Q4,-0.8733747828134459,-0.792315142743643,-0.0810596400698029,23,3.4422603480329212,1.8553329480265588,-1.5379571113958612,0.43499462125469257,0.5174242756163978,0.6810858971360942,0.2814515353300695,0.6416751961238767,True,False,True,-2.7287077308400045,0.9819581652131129,True,-3.9251259115774983,2.178376345950607,True,expanding_residual_calibrated_gaussian
ar,exact,pre_third,DELTA_MT,2011:Q1:pre_third:exact,2011-06-23,2011:Q1,-0.7204801655808191,-1.557819186712678,0.837339021131859,24,3.3430467673487163,1.8284000567022296,-1.6272447476061944,0.5776516157902796,0.3234896207344212,0.6532277606087332,0.30732931478385983,0.6120493161482861,True,False,True,-2.5488802222830484,1.1079198911214105,True,-3.727930630365759,2.2869702992041208,True,expanding_residual_calibrated_gaussian
ar,exact,pre_third,DELTA_MT,2011:Q2:pre_third:exact,2011-09-28,2011:Q2,0.5878468860704991,-0.0088007653747232,0.5966476514452224,25,3.2044942494387088,1.7901101221541396,-1.5567608519506964,0.4969486234934475,0.36945308744010347,0.37130995922021826,0.585763692734031,0.32992841226794295,True,False,False,-1.2022632360836405,2.3779570082246386,True,-2.35662224099728,3.5323160131382783,True,expanding_residual_calibrated_gaussian
ar,exact,pre_third,DELTA_MT,2011:Q3:pre_third:exact,2011-12-21,2011:Q3,-1.345472068053237,-0.5439694943535944,-0.8015025736996426,26,3.0816187077329507,1.7554539890674865,-1.5858980096160409,0.5537489718198298,0.6760129872140914,0.7782964424579208,0.18932589760997565,0.7429677059588572,True,False,True,-3.1009260571207236,0.40998192101424946,True,-4.232936928917322,1.5419927928108483,True,expanding_residual_calibrated_gaussian
ar,exact,pre_third,DELTA_MT,2011:Q4:pre_third:exact,2012-03-28,2011:Q4,-2.778628223803417,1.0562157589820336,-3.8348439827854506,27,3.0771997261620387,1.7541948940075156,-3.8704633018424537,2.862981239388365,0.9855958242467939,0.9434020709609108,0.04475359613216179,0.9292161686132077,False,True,False,-4.532823117810933,-1.0244333297959014,False,-5.664022057591432,0.10676560998459816,False,expanding_residual_calibrated_gaussian
ar,exact,pre_third,DELTA_MT,2012:Q1:pre_third:exact,2012-06-27,2012:Q1,-3.9059188551191273,0.069864036734178,-3.9757828918533056,28,3.760087947657846,1.9390946206046382,-3.683085223465473,2.91051038371534,0.9798338558322085,0.9780109921848414,0.017111210016890643,0.9720079483327682,False,False,False,-5.845013475723766,-1.966824234514489,False,-7.095445674822756,-0.7163920354154993,False,expanding_residual_calibrated_gaussian
ar,exact,pre_third,DELTA_MT,2012:Q2:pre_third:exact,2012-09-26,2012:Q2,-0.9349508055368114,-0.0078228359869525,-0.9271279695498588,29,4.386163269893189,2.0943168981539517,-1.7561520939991677,0.6505459237144589,0.6710041174304208,0.6723540654181721,0.2939370407121461,0.6371781665663376,True,False,False,-3.0292677036907634,1.1593660926171403,True,-4.379795551451096,2.5098939403774727,True,expanding_residual_calibrated_gaussian
ar,exact,pre_third,DELTA_MT,2012:Q3:pre_third:exact,2012-12-19,2012:Q3,0.3230569418691855,-0.3593699979322817,0.6824269398014673,30,4.308445874544381,2.075679617509499,-1.7032729272870974,0.5737863222408233,0.3711637227428788,0.43815874505342145,0.5236374987219325,0.400523198490924,True,False,True,-1.7526226756403136,2.3987365593786847,True,-3.0911322053805588,3.73724608911893,True,expanding_residual_calibrated_gaussian
ar,exact,pre_third,DELTA_MT,2012:Q4:pre_third:exact,2013-03-27,2012:Q4,0.8702120466688621,-0.2343261659901803,1.1045382126590424,31,4.165805850680358,2.0410305854348088,-1.7788242140173824,0.7097885123655409,0.2941962718978437,0.3349230848175951,0.628683822387547,0.30001796189824015,True,False,True,-1.1708185387659467,2.911242632103671,True,-2.4869845145024696,4.227408607840194,True,expanding_residual_calibrated_gaussian
ar,exact,pre_third,DELTA_MT,2013:Q1:pre_third:exact,2013-06-25,2013:Q1,1.6014142690768227,-0.638109816268772,2.239524085345595,32,4.042315777402405,2.010551112854982,-2.2377180527209557,1.3736271646487475,0.13266411762049876,0.21286924841597918,0.757107963323544,0.18513163180247152,True,False,True,-0.40913684377815907,3.6119653819318045,False,-1.7056480210740128,4.908476559227658,True,expanding_residual_calibrated_gaussian
ar,exact,pre_third,DELTA_MT,2013:Q2:pre_third:exact,2013-09-25,2013:Q2,0.1474930134828143,-0.0302791822556791,0.1777721957384934,33,4.004279473478485,2.001069582368011,-1.6165665093377724,0.4739362777447096,0.46460509515312215,0.4706217290280893,0.48953317083984893,0.4310688375470595,True,False,False,-1.8535765688851966,2.148562595850825,True,-3.143973546857476,3.4389595738231047,True,expanding_residual_calibrated_gaussian
ar,exact,pre_third,DELTA_MT,2013:Q3:pre_third:exact,2013-12-19,2013:Q3,0.1506917353477339,0.2831306221085476,-0.1324388867608137,34,3.887800016581472,1.9717504955195198,-1.6001160398271432,0.4643357158758713,0.5267760906128034,0.46954034835204994,0.49002454849339405,0.4294172209752226,False,True,False,-1.8210587601717858,2.1224422308672537,True,-3.0925492186509107,3.3939326893463786,True,expanding_residual_calibrated_gaussian
ar,exact,pre_third,DELTA_MT,2013:Q4:pre_third:exact,2014-03-26,2013:Q4,-0.6676030823936783,0.8135920780190666,-1.481195160412745,35,3.78764753674685,1.9461879500055614,-1.8744287379113667,0.8840292863313335,0.7766938896534791,0.6342124853946918,0.327872253942492,0.594938031860782,False,True,False,-2.6137910323992397,1.2785848676118832,True,-3.8687973906895765,2.53359122590222,True,expanding_residual_calibrated_gaussian
ar,exact,pre_third,DELTA_MT,2014:Q1:pre_third:exact,2014-06-24,2014:Q1,-0.8137736004166378,0.8011202798105415,-1.6148938802271793,36,3.79428964162634,1.947893642277817,-1.9293459641065613,0.9607136532502168,0.7964608758968215,0.6619427456770804,0.3013763518226723,0.6236556377805526,False,True,False,-2.761667242694455,1.1341200418611792,True,-4.017773522833019,2.3902263219997426,True,expanding_residual_calibrated_gaussian
ar,exact,pre_third,DELTA_MT,2014:Q2:pre_third:exact,2014-09-25,2014:Q2,2.1177941484565603,-0.1022992301320337,2.220093378588594,37,3.80929719353243,1.951742091961033,-2.234606289608868,1.3675302082479373,0.1276660806036419,0.13894335740973476,0.8370993879189171,0.117505087820687,True,False,False,0.16605205649552723,4.069536240417594,False,-1.0925359103793988,5.32812420729252,True,expanding_residual_calibrated_gaussian
ar,exact,pre_third,DELTA_MT,2014:Q3:pre_third:exact,2014-12-22,2014:Q3,-1.296415354625716,-0.7802762968751695,-0.5161390577505465,38,3.7898490219860044,1.946753456908708,-1.6202480808255542,0.5092213971050701,0.6045446119750404,0.7472743476824597,0.22104395209447647,0.7133513144122123,True,False,True,-3.243168811534424,0.6503381022829919,True,-4.498539839002321,1.9057091297508886,True,expanding_residual_calibrated_gaussian
ar,exact,pre_third,DELTA_MT,2014:Q4:pre_third:exact,2015-03-26,2014:Q4,-0.3201218635116749,-0.1665081755590187,-0.1536136879526561,39,3.715847337812716,1.9276533240737859,-1.57841710854472,0.45536392685863564,0.5317578860743638,0.5659483492542925,0.393648880117871,0.5248440385759944,True,False,False,-2.247775187585461,1.607531460562111,True,-3.4908294251195033,2.8505856980961535,True,expanding_residual_calibrated_gaussian
ar,exact,pre_third,DELTA_MT,2015:Q1:pre_third:exact,2015-06-23,2015:Q1,0.0275088847650346,0.812616722074536,-0.7851078373095013,40,3.629980141483186,1.9052506768095336,-1.6484553848553685,0.5725190901621592,0.6598580941749108,0.4942400881631654,0.46393119848246234,0.45247466634271655,False,True,False,-1.877741792044499,1.9327595615745683,True,-3.106349601236874,3.161367370766943,True,expanding_residual_calibrated_gaussian
ar,exact,pre_third,DELTA_MT,2015:Q2:pre_third:exact,2015-09-24,2015:Q2,0.7939111919262376,-0.0748756733496311,0.8687868652758688,41,3.576112678957511,1.8910612573255026,-1.6616089920511048,0.5984210685621125,0.3229671481650426,0.33730734564728726,0.6232631678621416,0.29958870190248443,True,False,False,-1.097150065399265,2.68497244925174,True,-2.3166077759730266,3.904430159825502,True,expanding_residual_calibrated_gaussian
ar,exact,pre_third,DELTA_MT,2015:Q3:pre_third:exact,2015-12-21,2015:Q3,-0.3822581391102009,-0.0169480677569784,-0.3653100713532224,42,3.4938019805829916,1.8691714690158823,-1.5635321142863117,0.46520856706111086,0.5774755799411595,0.5810212321064789,0.37770798881543555,0.5388382899653446,True,False,False,-2.251429608126083,1.4869133299056814,True,-3.456771609315186,2.6922553310947843,True,expanding_residual_calibrated_gaussian
ar,exact,pre_third,DELTA_MT,2015:Q4:pre_third:exact,2016-03-24,2015:Q4,-0.6278908428344778,-0.5171878225742594,-0.1107030202602183,43,3.4251567932282247,1.8507179129268254,-1.5363011504238648,0.4351444252960869,0.5238490116449521,0.6327963773273914,0.3273166105344615,0.591421305281306,True,False,True,-2.4786087557613032,1.2228270700923476,True,-3.672050914376226,2.41626922870727,True,expanding_residual_calibrated_gaussian
ar,exact,pre_third,DELTA_MT,2016:Q1:pre_third:exact,2016-06-27,2016:Q1,0.048510524693349,-0.2417799609846682,0.2902904856780173,44,3.3515938580794344,1.830735878842012,-1.5362279555268792,0.4461586688880374,0.43700583495632095,0.48943013294137944,0.4670260144720837,0.44601202272610874,True,False,True,-1.782225354148663,1.879246403535361,True,-2.9627820256101254,3.0598030749968235,True,expanding_residual_calibrated_gaussian
ar,exact,pre_third,DELTA_MT,2016:Q2:pre_third:exact,2016-09-28,2016:Q2,0.7399752375124298,-0.0099125008024907,0.7498877383149205,45,3.2756661216109175,1.8098801401227975,-1.5980338526732074,0.5451684280606037,0.33931620282988806,0.34132370780703514,0.6172814492467971,0.30175565189862874,True,False,False,-1.0699049026103677,2.549855377635227,True,-2.2370126753159925,3.7169631503408516,True,expanding_residual_calibrated_gaussian
ar,exact,pre_third,DELTA_MT,2016:Q3:pre_third:exact,2016-12-21,2016:Q3,1.4207903657753471,-0.7748936461807103,2.1956840119560574,46,3.2056435781186083,1.7904311151559582,-2.2533544698902546,1.3758204153991063,0.11003467161582577,0.21372974090701924,0.7523304328893367,0.18266609488398572,True,False,True,-0.3696407493806111,3.2112214809313055,False,-1.5242067477956995,4.365787479346394,True,expanding_residual_calibrated_gaussian
ar,exact,pre_third,DELTA_MT,2016:Q4:pre_third:exact,2017-03-29,2016:Q4,0.0898572523719054,-0.3360900767881332,0.4259473291600386,47,3.2045092448818333,1.7901143105628292,-1.5295267343699352,0.4585845057459849,0.40596218407479856,0.4799829494223937,0.4754692257337807,0.4356839990435015,True,False,True,-1.7002570581909238,1.8799715629347347,True,-2.854618764015098,3.034333268758909,True,expanding_residual_calibrated_gaussian
ar,exact,pre_third,DELTA_MT,2017:Q1:pre_third:exact,2017-06-28,2017:Q1,-1.6183074345659518,-0.1954145132619609,-1.422892921303991,48,3.1363316802069856,1.7709691358708048,-1.8132349402637917,0.8469112021130117,0.7891439246809513,0.819588409248778,0.15227377035383372,0.7883951367305152,True,False,False,-3.3892765704367567,0.15266170130485301,True,-4.53129244092216,1.294677571790256,True,expanding_residual_calibrated_gaussian
ar,exact,pre_third,DELTA_MT,2017:Q2:pre_third:exact,2017-09-27,2017:Q2,1.4336961209247685,-0.0459474527561813,1.4796435736809497,49,3.141709518133822,1.7724868174781505,-1.8397542095939847,0.8802484137423104,0.20191967785156456,0.20929744470272163,0.7567935870248468,0.17834327306993,True,False,False,-0.338790696553382,3.206182938402919,True,-1.4817852495278394,4.349177491377376,True,expanding_residual_calibrated_gaussian
ar,exact,pre_third,DELTA_MT,2017:Q3:pre_third:exact,2017-12-20,2017:Q3,0.5942384069185964,-0.3735423667998003,0.9677807737183968,50,3.1008789097028586,1.760931262060748,-1.635802966747812,0.6185254194746098,0.29130214821693545,0.3678862482391553,0.5885749073484435,0.32598282177127297,True,False,True,-1.1666928551421516,2.3551696689793444,True,-2.3022357662942583,3.490712580131451,True,expanding_residual_calibrated_gaussian
ar,exact,pre_third,DELTA_MT,2017:Q4:pre_third:exact,2018-03-27,2017:Q4,-0.3328131871045796,-0.6207070580334442,0.2878938709288645,51,3.0446977966419984,1.7449062429374245,-1.4892503777354689,0.4266826744433888,0.43447552281749646,0.5756330540691813,0.3800484756115834,0.5303361166075933,True,False,True,-2.077719430042004,1.4120930558328448,True,-3.202928549490469,2.53730217528131,True,expanding_residual_calibrated_gaussian
ar,exact,pre_third,DELTA_MT,2018:Q1:pre_third:exact,2018-06-27,2018:Q1,-0.8045210139862047,0.2024975675838407,-1.0070185815700454,52,2.9854021811919345,1.727831641448881,-1.635646608326396,0.6315204951389498,0.7199934895939825,0.6792579044218601,0.2804933072491743,0.6367828586566566,False,True,False,-2.5323526554350857,0.9233106274626763,True,-3.6465511561849127,2.037509128212503,True,expanding_residual_calibrated_gaussian
ar,exact,pre_third,DELTA_MT,2018:Q2:pre_third:exact,2018-09-26,2018:Q2,0.915176966606492,-0.084145364999923,0.999322331606415,53,2.966959141466122,1.7224863254801537,-1.6310017023685623,0.6275553632420308,0.2809024495107556,0.297601433934801,0.6610023874852152,0.258679163027849,True,False,False,-0.8073093588736617,2.6376632920866454,True,-1.918060913233853,3.748414846446837,True,expanding_residual_calibrated_gaussian
ar,exact,pre_third,DELTA_MT,2018:Q3:pre_third:exact,2018-12-20,2018:Q3,-0.811444072908952,-0.4716060531771142,-0.3398380197318378,54,2.9175641404110007,1.7080878608581587,-1.4741052429584405,0.42605682887975727,0.5788522635607066,0.6826278654790509,0.27687510400960713,0.6398170874186537,True,False,True,-2.5195319337671105,0.8966437879492066,True,-3.620998585993276,1.9981104401753718,True,expanding_residual_calibrated_gaussian
ar,exact,pre_third,DELTA_MT,2018:Q4:pre_third:exact,2019-04-25,2018:Q4,-0.9204845692448188,-1.083633975233484,0.1631494059886651,55,2.8738683617946843,1.6952487610361744,-1.4513990179665526,0.40243023091825836,0.4616652940771211,0.7064278880466683,0.2543203169063921,0.6645824895077548,True,False,True,-2.6157333302809933,0.7747641917913556,True,-3.7089206424201597,1.867951503930522,True,expanding_residual_calibrated_gaussian
ar,exact,pre_third,DELTA_MT,2019:Q1:pre_third:exact,2019-06-26,2019:Q1,-0.4219099912869226,-0.0762002356491078,-0.3457097556378148,56,2.8226207458537,1.6800656968861962,-1.458942400591878,0.42090285214426515,0.581515324979714,0.5991420697814324,0.3556278979525376,0.5525411200263419,True,False,False,-2.101975688173119,1.2581557055992736,True,-3.185372146326935,2.34155216375309,True,expanding_residual_calibrated_gaussian
ar,exact,pre_third,DELTA_MT,2019:Q2:pre_third:exact,2019-09-25,2019:Q2,-0.6085120276903426,-0.0200509312139529,-0.5884610964763897,57,2.781870696362996,1.6678940902716204,-1.4927401958977164,0.4717578362217032,0.6378871151048493,0.64238402899749,0.3139267689484777,0.5967434600979273,True,False,False,-2.276406117961963,1.0593820625812778,True,-3.3519536714445435,2.1349296160638582,True,expanding_residual_calibrated_gaussian
ar,exact,pre_third,DELTA_MT,2019:Q3:pre_third:exact,2019-12-19,2019:Q3,0.4304330233127769,0.4362395785403694,-0.0058065552275925,58,2.7493399247151893,1.6581133630470473,-1.4246250926189632,0.38750087674927247,0.501397055051106,0.3975892401898676,0.5552642658895622,0.35189437857262806,False,True,False,-1.2276803397342704,2.088546386359824,True,-2.296920755791862,3.157786802417416,True,expanding_residual_calibrated_gaussian
ar,exact,pre_third,DELTA_MT,2019:Q4:pre_third:exact,2020-03-25,2019:Q4,-0.0210132188218619,0.2123520193644856,-0.2333652381863475,59,2.704284708097086,1.6444709508219006,-1.4264263382573688,0.39749409802512625,0.5564240597605423,0.5050975867380602,0.446544024815694,0.4566640803476838,False,True,False,-1.6654841696437626,1.6234577320000387,True,-2.725927226697601,2.6839007890538773,True,expanding_residual_calibrated_gaussian
ar,exact,pre_third,DELTA_MT,2020:Q1:pre_third:exact,2020-06-24,2020:Q1,-0.2476429043887273,-0.0909370507024123,-0.156705853686315,60,2.66431783185179,1.6322738225713815,-1.4135210041480895,0.38745147070176633,0.5382415545891623,0.5602947366155177,0.39194818119843844,0.5116426975816907,True,False,False,-1.879916726960109,1.3846309181826542,True,-2.932494421623208,2.4372086128457533,True,expanding_residual_calibrated_gaussian
ar,exact,pre_third,DELTA_MT,2020:Q2:pre_third:exact,2020-09-29,2020:Q2,3.628687172269853,-6.279795598055301,9.908482770325154,61,2.624123748262768,1.6199147348742675,-20.108133873046253,8.994543750914616,4.777567542949634e-10,0.012543895207263947,0.9828524563722489,0.009051331389665407,True,False,True,2.008772437395585,5.248601907144121,False,0.9641645452597816,6.293209799279924,False,expanding_residual_calibrated_gaussian
ar,exact,pre_third,DELTA_MT,2020:Q3:pre_third:exact,2020-12-21,2020:Q3,18.731412302637015,-4.33522518797264,23.066637490609654,62,4.057250268573317,2.0142617179932993,-67.18943341547518,21.930212010778824,1.153444061666709e-30,7.062455019984955e-21,1.0,2.7624495054482305e-21,True,False,True,16.717150584643715,20.745674020630315,False,15.418246610166232,22.044577995107797,False,expanding_residual_calibrated_gaussian
ar,exact,pre_third,DELTA_MT,2020:Q4:pre_third:exact,2021-03-24,2020:Q4,-1.4654611767655834,0.1112222161791782,-1.5766833929447617,63,12.077971029461503,3.475337541802451,-2.2675419022434373,1.0927391535246254,0.674969616092531,0.663368685615098,0.3158900485712708,0.6421180838119156,False,False,False,-4.940798718568034,2.0098763650368676,True,-7.181882737279958,4.250960383748792,True,expanding_residual_calibrated_gaussian
ar,exact,pre_third,DELTA_MT,2021:Q1:pre_third:exact,2021-06-23,2021:Q1,-0.1317048573033878,-0.2715464007518262,0.1398415434484383,64,11.978602469392627,3.461011769611977,-2.1613157730659807,0.8110748924892062,0.4838851954186444,0.5151776304823208,0.46182365319712093,0.492128298392986,True,False,True,-3.5927166269153648,3.329306912308589,True,-5.824562619471381,5.561152904864606,True,expanding_residual_calibrated_gaussian
ar,exact,pre_third,DELTA_MT,2021:Q2:pre_third:exact,2021-09-29,2021:Q2,0.5265149705916858,-0.2165241732052178,0.7430391437969037,65,11.798478831933057,3.434891385754877,-2.1763212263052516,0.8665919500327882,0.41436876997651895,0.43908703495287627,0.5378657441141468,0.4162445407199025,True,False,True,-2.908376415163191,3.9614063563465627,True,-5.123378583451592,6.176408524634963,True,expanding_residual_calibrated_gaussian
ar,exact,pre_third,DELTA_MT,2021:Q3:pre_third:exact,2021-12-21,2021:Q3,-0.0139951647717921,-0.0261522141770216,0.0121570494052294,66,11.617023818737087,3.408375539569706,-2.145180690725824,0.7965375430982309,0.4985770491917012,0.50163809627043,0.4749688194769942,0.47823937657169535,True,False,False,-3.4223707043414984,3.394380374797914,True,-5.620274033045704,5.59228370350212,True,expanding_residual_calibrated_gaussian
ar,exact,pre_third,DELTA_MT,2021:Q4:pre_third:exact,2022-03-29,2021:Q4,-0.5218154564867015,-0.1684316552736531,-0.3533838012130483,67,11.450391290611183,3.3838426811261755,-2.1434035784404526,0.80549656583834,0.5415870100589543,0.5612771145844415,0.4155416681087273,0.5378837113879805,True,False,False,-3.905658137612877,2.862027224639474,True,-6.087741363570284,5.044110450596882,True,expanding_residual_calibrated_gaussian
ar,exact,pre_third,DELTA_MT,2022:Q1:pre_third:exact,2022-06-28,2022:Q1,0.0295797776203223,-0.0708684972012017,0.100448274821524,68,11.29882320926318,3.3613722211714636,-2.1317343232661403,0.7867332236664615,0.48808013579856724,0.4964893886010566,0.4797824482526709,0.4727736423787401,True,False,False,-3.3317924435511412,3.390951998791786,True,-5.499385511907486,5.55854506714813,True,expanding_residual_calibrated_gaussian
ar,exact,pre_third,DELTA_MT,2022:Q2:pre_third:exact,2022-09-28,2022:Q2,0.0400957156964576,-0.0017125360380367,0.0418082517344944,69,11.13928480700916,3.33755671217871,-2.1242560071054313,0.7801791694318929,0.49500273866985195,0.4952074248088847,0.48089375295834014,0.47132579594281565,True,False,False,-3.2974609964822523,3.3776524278751676,True,-5.449696547486925,5.52988797887984,True,expanding_residual_calibrated_gaussian
ar,exact,pre_third,DELTA_MT,2022:Q3:pre_third:exact,2022-12-21,2022:Q3,0.2384555143792774,-0.0514930735264327,0.2899485879057102,70,10.98534940743524,3.3144153945206143,-2.121046258062603,0.7846749571347016,0.4651445679113874,0.4713228511426196,0.5046286251339848,0.44737847232846395,True,False,False,-3.075959880141337,3.5528709088998918,True,-5.21327266852175,5.690183697280304,True,expanding_residual_calibrated_gaussian
ar,exact,pre_third,DELTA_MT,2022:Q4:pre_third:exact,2023-03-29,2022:Q4,-0.0436412615758139,-0.0388835828711124,-0.0047576787047014,71,10.831477592082608,3.291121023615298,-2.1101678215002666,0.7691211965822635,0.5005767148996249,0.5052899404411741,0.4704933088155756,0.4810536734313087,True,False,False,-3.334762285191112,3.247479762039484,True,-5.4570536140056785,5.3697710908540515,True,expanding_residual_calibrated_gaussian
ar,exact,pre_third,DELTA_MT,2023:Q1:pre_third:exact,2023-06-28,2023:Q1,-3.0936540513295814,0.2157840881322998,-3.3094381394618813,72,10.686825671975342,3.269071071722874,-2.6158688174198033,1.9971019038151587,0.8443141962936831,0.8280125051762313,0.15684250773428277,0.8119650845017407,False,True,False,-6.3627251230524555,0.17541702039329277,False,-8.470797460415088,2.2834893577559248,True,expanding_residual_calibrated_gaussian
ar,exact,pre_third,DELTA_MT,2023:Q2:pre_third:exact,2023-09-27,2023:Q2,-19.435215375284805,-0.0209943194838029,-19.414221055801,73,10.762932561048558,3.280690866425631,-19.616717587980784,17.563289443842,0.9999999983678582,0.9999999984301555,1.0813809847576294e-09,0.9999999977292985,True,False,False,-22.715906241710435,-16.154524508859176,False,-24.831471645831574,-14.038959104738037,False,expanding_residual_calibrated_gaussian
ar,exact,pre_third,DELTA_MT,2023:Q3:pre_third:exact,2023-12-20,2023:Q3,4.49273799136097,-0.114455422807068,4.607193414168038,74,16.073954307219687,4.009233630909988,-2.9678065120752244,2.844058196860998,0.12524796231931432,0.13122957192975954,0.8578507197869015,0.12090341686047018,True,False,False,0.4835043604509819,8.501971622270958,False,-2.101864487737144,11.087340470459084,True,expanding_residual_calibrated_gaussian
ar,exact,pre_third,DELTA_MT,2023:Q4:pre_third:exact,2024-03-27,2023:Q4,0.2632694728572615,-0.2538048260606915,0.5170742989179531,75,16.09139000755533,4.011407484606286,-2.316388436096679,0.963999076936544,0.44871800623051616,0.47383612267016384,0.5062920113193407,0.4540291612509085,True,False,True,-3.7481380117490244,4.274676957463547,True,-6.33490867737767,6.861447623092192,True,expanding_residual_calibrated_gaussian
ar,exact,pre_third,DELTA_MT,2024:Q1:pre_third:exact,2024-06-26,2024:Q1,0.6009920585222952,0.2056592876951779,0.3953327708271172,76,15.876869790001974,3.984578997836782,-2.306292070124252,0.9468110737390892,0.46048350713926356,0.4400551073624256,0.5400802877145594,0.42034029147683205,False,True,False,-3.383586939314487,4.585571056359077,True,-5.953057157944198,7.155041274988789,True,expanding_residual_calibrated_gaussian
ar,exact,pre_third,DELTA_MT,2024:Q2:pre_third:exact,2024-09-25,2024:Q2,0.7888453633952031,-0.0437723642950023,0.8326177276902054,77,15.668033467436256,3.958286683331092,-2.3168729518243225,0.994645770289688,0.416698033323928,0.4210181076363989,0.5591295528397231,0.4013646258149144,True,False,False,-3.169441319935889,4.7471320467262945,True,-5.721956844195657,7.299647570986063,True,expanding_residual_calibrated_gaussian
ar,exact,pre_third,DELTA_MT,2024:Q3:pre_third:exact,2024-12-18,2024:Q3,0.0442923947004971,-0.0462312113229965,0.0905236060234937,78,15.466259542450452,3.9327165601464915,-2.288533873100314,0.9198873384654055,0.4908179233145842,0.4955069898573732,0.48420884887589466,0.4752344407496613,True,False,False,-3.8884241654459943,3.9770089548469887,True,-6.424450703028578,6.513035492429571,True,expanding_residual_calibrated_gaussian
ar,exact,pre_third,DELTA_MT,2024:Q4:pre_third:exact,2025-03-26,2024:Q4,0.7412054338564364,-0.615441403939172,1.3566468377956085,79,15.269820117309276,3.9076617199175874,-2.342143332185947,1.0992360775375463,0.3642295046009336,0.42477993105993306,0.5550767873689646,0.4048312142395335,True,False,True,-3.166456286061151,4.648867153774024,True,-5.6863261190494345,7.168736986762308,True,expanding_residual_calibrated_gaussian
ar,pseudo,pre_advance,DELTA_SA,2008:Q1:pre_advance:pseudo,2008-04-30,2008:Q1,0.1411112771385929,0.3031999999999999,-0.1620887228614069,12,0.4246599209606872,0.6516593596049145,-0.5216391003274016,0.16829114156909322,0.5982160639322176,0.41428285085886285,0.4639976547222556,0.3003304696330272,False,True,False,-0.5105480824663216,0.7927706367435075,True,-0.9307729840444243,1.2129955383216102,True,expanding_residual_calibrated_gaussian
ar,pseudo,pre_advance,DELTA_SA,2008:Q2:pre_advance:pseudo,2008-07-31,2008:Q2,0.282369571934375,1.3898,-1.1074304280656249,13,0.39034904148426913,0.6247791941832483,-2.0194860795511382,0.7740465723702007,0.9618454375419841,0.32565214687657407,0.5524437426826976,0.22003823857643454,False,True,False,-0.34240962224887334,0.9071487661176234,False,-0.7453007516617591,1.3100398955305093,False,expanding_residual_calibrated_gaussian
ar,pseudo,pre_advance,DELTA_SA,2008:Q3:pre_advance:pseudo,2008-10-31,2008:Q3,0.714132038935611,-0.2618,0.975932038935611,14,0.4397619285178273,0.6631454806585259,-1.5910855613659503,0.6432416168089662,0.07055485770722462,0.1407656143763366,0.7809167230844953,0.08402774221794611,True,False,True,0.05098655827708509,1.377277519594137,False,-0.37664521012204255,1.8049092879932644,True,expanding_residual_calibrated_gaussian
ar,pseudo,pre_advance,DELTA_SA,2008:Q4:pre_advance:pseudo,2009-01-31,2008:Q4,0.0793056065031563,-2.4444,2.523705606503156,15,0.489619774192295,0.6997283574304353,-7.065993877277928,2.128979418739733,0.00015506190326214565,0.45488141257423165,0.4315271446928919,0.3448865856738742,True,False,True,-0.6204227509272789,0.7790339639335916,False,-1.0716451200970913,1.230256333103404,False,expanding_residual_calibrated_gaussian
ar,pseudo,pre_advance,DELTA_SA,2009:Q1:pre_advance:pseudo,2009-04-30,2009:Q1,-0.8004772054187677,0.4245000000000001,-1.2249772054187678,16,0.8724453144493385,0.9340478116506341,-1.7106897986157223,0.780994262062496,0.9051507636642305,0.8042770342978589,0.14205775909989526,0.7398478170437643,False,True,False,-1.7345250170694018,0.13357060623186645,False,-2.3368491361583987,0.7358947253208634,True,expanding_residual_calibrated_gaussian
ar,pseudo,pre_advance,DELTA_SA,2009:Q2:pre_advance:pseudo,2009-07-31,2009:Q2,0.6102794438475987,0.0030000000000001,0.6072794438475986,17,0.9222140123109045,0.9603197448302854,-1.0783968070362877,0.3727179747460258,0.2635718699982457,0.2625524577173233,0.6653948670464631,0.1994017496000308,False,False,False,-0.3500403009826867,1.570599188677884,True,-0.9693059714696084,2.189864859164806,True,expanding_residual_calibrated_gaussian
ar,pseudo,pre_advance,DELTA_SA,2009:Q3:pre_advance:pseudo,2009-10-31,2009:Q3,0.1888383411693894,-0.7522000000000002,0.9410383411693896,18,0.8865924051252095,0.9415903595116135,-1.3581674818799925,0.5668761957151592,0.15879715367694366,0.4205242345632513,0.49527102916957677,0.3398182767319277,True,False,True,-0.752752018342224,1.130428700681003,True,-1.3599399767758287,1.7376166591146076,True,expanding_residual_calibrated_gaussian
ar,pseudo,pre_advance,DELTA_SA,2009:Q4:pre_advance:pseudo,2010-01-31,2009:Q4,-0.3373558541688579,0.1962000000000001,-0.5335558541688581,19,0.8781524605607329,0.9370978927309211,-1.0160623635177632,0.3370191538924492,0.715447618861339,0.6405766777250558,0.28317830477890693,0.5582665638673037,False,False,False,-1.274453746899779,0.5997420385620633,True,-1.8787447218358952,1.2040330134981794,True,expanding_residual_calibrated_gaussian
ar,pseudo,pre_advance,DELTA_SA,2010:Q1:pre_advance:pseudo,2010-04-30,2010:Q1,0.0283511514001251,-0.2023000000000001,0.2306511514001252,20,0.8524346657244032,0.9232738844592124,-0.8703138879330322,0.23863310708399726,0.40136374958436594,0.48775152646202025,0.42625639563367823,0.40232733454373865,True,False,True,-0.8949227330590873,0.9516250358593376,True,-1.490299246122185,1.5470015489224351,True,expanding_residual_calibrated_gaussian
ar,pseudo,pre_advance,DELTA_SA,2010:Q2:pre_advance:pseudo,2010-07-31,2010:Q2,-0.0683836223313969,-0.7725,0.704116377668603,21,0.8109702893599383,0.9005388883107371,-1.119847402563579,0.4195430597384302,0.2171415606048919,0.5302651252599597,0.3828418210323462,0.44190033995824335,True,False,True,-0.9689225106421341,0.8321552659793402,True,-1.5496382789801597,1.4128710343173658,True,expanding_residual_calibrated_gaussian
ar,pseudo,pre_advance,DELTA_SA,2010:Q3:pre_advance:pseudo,2010-10-31,2010:Q3,-0.3068047363098523,0.5148000000000001,-0.8216047363098524,22,0.7899349260972257,0.8887828340473424,-1.2283082997812595,0.4908373271508362,0.8223650178799067,0.6350266804700622,0.28426310615818984,0.5478256266795237,False,True,False,-1.1955875703571945,0.5819780977374901,True,-1.7687224044648318,1.1551129318451272,True,expanding_residual_calibrated_gaussian
ar,pseudo,pre_advance,DELTA_SA,2010:Q4:pre_advance:pseudo,2011-01-31,2010:Q4,0.3116384840461248,-0.3850000000000002,0.696638484046125,23,0.791799161277662,0.8898309734312815,-1.1086720253691276,0.41506072418806556,0.21684627977817628,0.3630860061712751,0.5499204339758466,0.2826510925885202,True,False,True,-0.5781924893851567,1.2014694574774063,True,-1.1520032199760777,1.7752801880683273,True,expanding_residual_calibrated_gaussian
ar,pseudo,pre_advance,DELTA_SA,2011:Q1:pre_advance:pseudo,2011-04-30,2011:Q1,-0.1541999785436481,0.0939000000000001,-0.2480999785436481,24,0.773738675420703,0.8796241671422534,-0.8304547245180531,0.23329698515263542,0.6110482781972977,0.5695788757440579,0.3435947858549575,0.4792373684179985,False,False,False,-1.0338241456859016,0.7254241885986054,True,-1.6010529802217517,1.2926530231344555,True,expanding_residual_calibrated_gaussian
ar,pseudo,pre_advance,DELTA_SA,2011:Q2:pre_advance:pseudo,2011-07-31,2011:Q2,0.1222021712976695,-0.2928,0.4150021712976696,25,0.7462367244305209,0.8638499432369727,-0.8879792263438715,0.2799198536520927,0.3154679342689032,0.44375238341098877,0.4641199963697782,0.3545801916097403,True,False,True,-0.7416477719393032,0.9860521145346423,True,-1.2987045409774884,1.5431088835728275,True,expanding_residual_calibrated_gaussian
ar,pseudo,pre_advance,DELTA_SA,2011:Q3:pre_advance:pseudo,2011-10-31,2011:Q3,-0.0436641708390723,-0.4595999999999995,0.4159358291609272,26,0.7206453648374204,0.8489083371232847,-0.8751675826735014,0.27809947979240607,0.31207914299835543,0.5205108199067936,0.3870437679428824,0.4269435671678316,True,False,True,-0.892572507962357,0.8052441662842125,True,-1.4399941281056503,1.3526657864275056,True,expanding_residual_calibrated_gaussian
ar,pseudo,pre_advance,DELTA_SA,2011:Q4:pre_advance:pseudo,2012-01-31,2011:Q4,-0.1664617652864937,0.2299000000000002,-0.3963617652864939,27,0.6967414461618726,0.834710396581876,-0.8510090843233009,0.268773725368105,0.6825528548970748,0.5790346803860846,0.3303203942617622,0.48397501610143684,False,True,False,-1.0011721618683698,0.6682486312953823,True,-1.5394381885582942,1.2065146579853068,True,expanding_residual_calibrated_gaussian
ar,pseudo,pre_advance,DELTA_SA,2012:Q1:pre_advance:pseudo,2012-04-30,2012:Q1,0.146748410605829,-0.3447,0.491448410605829,28,0.679983491168534,0.8246111151133811,-0.9036888332276318,0.30621476713210716,0.27559563941211634,0.4293769012051644,0.4742550718629621,0.3370603641563587,True,False,True,-0.6778627045075521,0.9713595257192101,True,-1.209616172912914,1.503112994124572,True,expanding_residual_calibrated_gaussian
ar,pseudo,pre_advance,DELTA_SA,2012:Q2:pre_advance:pseudo,2012-07-31,2012:Q2,-0.1038122691178062,0.1949,-0.2987122691178063,29,0.6612840302735421,0.8131937224754887,-0.7796191025501159,0.2333282296174999,0.6433143946520312,0.5507909566151604,0.3543495512289927,0.45292135399934796,False,False,False,-0.9170059915932949,0.7093814533576825,True,-1.4413969129457829,1.2337723747101703,True,expanding_residual_calibrated_gaussian
ar,pseudo,pre_advance,DELTA_SA,2012:Q3:pre_advance:pseudo,2012-10-31,2012:Q3,0.1733371102203946,0.6579000000000002,-0.4845628897796055,30,0.6438563178730354,0.8024065789068753,-0.8811384352741132,0.3008349535144477,0.7270406088693881,0.41448547613455494,0.4867461244701212,0.32086843260349873,False,True,False,-0.6290694686864806,0.9757436891272699,True,-1.1465042613843017,1.493178481825091,True,expanding_residual_calibrated_gaussian
ar,pseudo,pre_advance,DELTA_SA,2012:Q4:pre_advance:pseudo,2013-01-31,2012:Q4,0.3745038169834829,0.2694999999999999,0.1050038169834829,31,0.6330238634687501,0.7956279680031051,-0.699023789583475,0.19145478602830163,0.44750162737267873,0.3189267146195405,0.5868028835837016,0.23512389328080177,False,True,False,-0.4211241510196222,1.170131784986588,True,-0.9341877318904543,1.6831953658574201,True,expanding_residual_calibrated_gaussian
ar,pseudo,pre_advance,DELTA_SA,2013:Q1:pre_advance:pseudo,2013-04-30,2013:Q1,0.2735383342584925,-0.1162,0.3897383342584926,32,0.6126399752717877,0.7827132139371277,-0.797917996315205,0.25877542445430474,0.3092658155471392,0.3633665436816145,0.5374267943869613,0.27259083968523407,True,False,False,-0.5091748796786352,1.05625154819562,True,-1.0139103345488356,1.5609870030658206,True,expanding_residual_calibrated_gaussian
ar,pseudo,pre_advance,DELTA_SA,2013:Q2:pre_advance:pseudo,2013-07-31,2013:Q2,-0.006310028729751,0.8419999999999999,-0.8483100287297509,33,0.5965539991783618,0.7723690822258241,-1.263801488289796,0.5188987238475902,0.8639680664911817,0.5032592050952738,0.3946909765859625,0.4009944787158185,False,True,False,-0.7786791109555751,0.7660590534960732,False,-1.2767441149740777,1.2641240575145756,True,expanding_residual_calibrated_gaussian
ar,pseudo,pre_advance,DELTA_SA,2013:Q3:pre_advance:pseudo,2013-10-31,2013:Q3,0.4736264614294589,0.7550000000000003,-0.2813735385705413,34,0.603912299441874,0.7771179443571445,-0.7323238689713444,0.22181365810630127,0.6413513145719705,0.27110801595200706,0.6376199258509733,0.19301852815437973,False,True,False,-0.30349148292768563,1.2507444057866035,True,-0.8046188079154626,1.7518717307743805,True,expanding_residual_calibrated_gaussian
ar,pseudo,pre_advance,DELTA_SA,2013:Q4:pre_advance:pseudo,2014-01-31,2013:Q4,0.3920541653838421,-0.8431000000000002,1.2351541653838425,35,0.5893693534627156,0.7677039490993358,-1.9488571467999536,0.8369678767730119,0.05381977681055331,0.3047861539721368,0.5987708835811637,0.22029385750105493,True,False,True,-0.37564978371549373,1.159758114483178,False,-0.8707064597171688,1.654814790484853,True,expanding_residual_calibrated_gaussian
ar,pseudo,pre_advance,DELTA_SA,2014:Q1:pre_advance:pseudo,2014-04-30,2014:Q1,-0.3707296002667286,-1.0928,0.7220703997332714,36,0.6118962719422345,0.7822379893243708,-1.0993831706801003,0.43132525150904244,0.1779820398903268,0.6822267055364226,0.23281393624365987,0.5863859024373897,True,False,True,-1.1529675895910994,0.41150838905764225,True,-1.657396594146147,0.9159373936126898,True,expanding_residual_calibrated_gaussian
ar,pseudo,pre_advance,DELTA_SA,2014:Q2:pre_advance:pseudo,2014-07-31,2014:Q2,-0.3807469573065625,0.2237999999999997,-0.6045469573065623,37,0.6061187067786769,0.7785362591290639,-0.9700884618422942,0.36034773600917935,0.7812782265435219,0.6875985782797698,0.22784964982621314,0.5917941151258977,False,True,False,-1.1592832164356264,0.3977893018225014,True,-1.6613251468482344,0.8998312322351094,True,expanding_residual_calibrated_gaussian
ar,pseudo,pre_advance,DELTA_SA,2014:Q3:pre_advance:pseudo,2014-10-31,2014:Q3,0.0960389505392824,0.3467000000000002,-0.2506610494607177,38,0.602621916044835,0.776287263868753,-0.7178372194563353,0.2134262828680568,0.6266134835281838,0.4507701757531954,0.4467325818293745,0.3514709171503958,False,True,False,-0.6802483133294707,0.8723262144080354,True,-1.1808399709914705,1.3729178720700355,True,expanding_residual_calibrated_gaussian
ar,pseudo,pre_advance,DELTA_SA,2014:Q4:pre_advance:pseudo,2015-01-31,2014:Q4,0.1688907339298215,-0.4497999999999997,0.6186907339298213,39,0.589512433759291,0.7677971306011054,-0.9793654161063403,0.3682178025575947,0.2101791618546902,0.4129480714314504,0.48384025396341823,0.315452519306341,True,False,True,-0.598906396671284,0.9366878645309269,True,-1.0940231611023399,1.431804628961983,True,expanding_residual_calibrated_gaussian
ar,pseudo,pre_advance,DELTA_SA,2015:Q1:pre_advance:pseudo,2015-04-30,2015:Q1,-0.1664187565321353,-0.9973,0.8308812434678646,40,0.5819679549174603,0.7628682421738765,-1.2413971558008312,0.5074387982689682,0.13804291899882515,0.5863433941091662,0.3155009215726744,0.48244434394875946,True,False,True,-0.9292869987060118,0.5964494856417412,False,-1.42122535155793,1.0883878384936594,True,expanding_residual_calibrated_gaussian
