haminh109/Revision-Aware-DFM/outputs/full_state_space_release_revision_dfm/frozen/q2_manuscript_best_v1/mature_robustness_runs/mature_3y/run_dir/forecast_results.csv
model_id,timing_mode,forecast_origin,forecast_origin_date,checkpoint_id,target_id,target_quarter,forecast_value,forecast_variance,forecast_sd,density_source,realized_value,forecast_error,revision_target_flag,converged,n_iter,loglikelihood,llf_initial,llf_final,llf_last_improvement,llf_relative_last_improvement,llf_history_length,n_indicators,initialization_seed,initialization_jitter
ar,exact,2005:Q1:pre_advance:exact,2005-04-27,pre_advance,A,2005:Q1,2.91427503282673,,,not_available,3.0876,-0.17332496717326995,False,True,0,,,,,,,13,,0.0
no_revision,exact,2005:Q1:pre_advance:exact,2005-04-27,pre_advance,A,2005:Q1,2.979208231416087,,,not_available,3.0876,-0.10839176858391308,False,True,0,,,,,,,13,,0.0
bridge,exact,2005:Q1:pre_advance:exact,2005-04-27,pre_advance,A,2005:Q1,3.0281594575852124,,,not_available,3.0876,-0.05944054241478769,False,True,0,,,,,,,13,,0.0
midas_umidas,exact,2005:Q1:pre_advance:exact,2005-04-27,pre_advance,A,2005:Q1,16.786138488129456,,,not_available,3.0876,13.698538488129456,False,True,0,,,,,,,13,,0.0
monthly_mixed_frequency_kalman_em,exact,2005:Q1:pre_advance:exact,2005-04-27,pre_advance,A,2005:Q1,1.5980322240359188,4.120333146339949,2.029860376070223,model_implied_state_space,3.0876,-1.4895677759640813,False,False,100,-2933.81951364158,-3755.330564914717,-2933.81951364158,0.7336422759872221,0.0002499161953542984,101.0,13,,0.0
standard_dfm,exact,2005:Q1:pre_advance:exact,2005-04-27,pre_advance,A,2005:Q1,3.24407388138464,,,not_available,3.0876,0.15647388138464002,False,True,0,,,,,,,13,,0.0
release_dfm,exact,2005:Q1:pre_advance:exact,2005-04-27,pre_advance,A,2005:Q1,3.24407388138464,,,not_available,3.0876,0.15647388138464002,False,True,0,,,,,,,13,,0.0
revision_dfm_kalman_em,exact,2005:Q1:pre_advance:exact,2005-04-27,pre_advance,A,2005:Q1,2.9365355957865016,5.731160203033834,2.393984169336513,model_implied_state_space,3.0876,-0.15106440421349854,False,True,33,-1007.630137049425,-1765.7758579947883,-1007.630137049425,0.0966168199522599,9.578096306224378e-05,33.0,13,,0.0
indicator_revision_only_dfm_kalman_em,exact,2005:Q1:pre_advance:exact,2005-04-27,pre_advance,A,2005:Q1,4.502998238175803,7.255789492787107,2.6936572708470368,model_implied_state_space,3.0876,1.4153982381758032,False,True,41,-1776.4918796809106,-2604.3324388545207,-1776.4918796809106,0.16976250470975174,9.549764740439025e-05,41.0,13,,0.0
joint_indicator_revision_dfm_full_kalman_em,exact,2005:Q1:pre_advance:exact,2005-04-27,pre_advance,A,2005:Q1,3.4869825970363935,5.740480637192955,2.3959300150866167,model_implied_state_space,3.0876,0.39938259703639334,False,True,37,-1746.891676199521,-2616.2559306087965,-1746.891676199521,0.17180118563169344,9.828086213933311e-05,37.0,13,,0.0
ar,exact,2005:Q1:pre_second:exact,2005-05-25,pre_second,S,2005:Q1,3.2499698412702402,,,not_available,3.4827,-0.23273015872975966,False,True,0,,,,,,,13,,0.0
no_revision,exact,2005:Q1:pre_second:exact,2005-05-25,pre_second,S,2005:Q1,3.0876,,,not_available,3.4827,-0.3950999999999998,False,True,0,,,,,,,13,,0.0
bridge,exact,2005:Q1:pre_second:exact,2005-05-25,pre_second,S,2005:Q1,3.2504980081513053,,,not_available,3.4827,-0.2322019918486946,False,True,0,,,,,,,13,,0.0
midas_umidas,exact,2005:Q1:pre_second:exact,2005-05-25,pre_second,S,2005:Q1,2.991623437602582,,,not_available,3.4827,-0.49107656239741804,False,True,0,,,,,,,13,,0.0
monthly_mixed_frequency_kalman_em,exact,2005:Q1:pre_second:exact,2005-05-25,pre_second,S,2005:Q1,2.990435801376001,0.32148761089267003,0.5669987750363047,model_implied_state_space,3.4827,-0.49226419862399906,False,False,100,-2958.69402146228,-3774.293426444673,-2958.69402146228,0.6090730480941602,0.00020574685383521486,101.0,13,,0.0
standard_dfm,exact,2005:Q1:pre_second:exact,2005-05-25,pre_second,S,2005:Q1,3.3895048532491394,,,not_available,3.4827,-0.09319514675086049,False,True,0,,,,,,,13,,0.0
release_dfm,exact,2005:Q1:pre_second:exact,2005-05-25,pre_second,S,2005:Q1,3.254643629342127,,,not_available,3.4827,-0.22805637065787288,False,True,0,,,,,,,13,,0.0
revision_dfm_kalman_em,exact,2005:Q1:pre_second:exact,2005-05-25,pre_second,S,2005:Q1,3.1701008412174883,0.3943077883094505,0.627939318970751,model_implied_state_space,3.4827,-0.31259915878251165,False,True,39,-1008.207273308415,-1763.6301565040717,-1008.207273308415,0.09759523725131203,9.669549835020567e-05,39.0,13,,0.0
indicator_revision_only_dfm_kalman_em,exact,2005:Q1:pre_second:exact,2005-05-25,pre_second,S,2005:Q1,3.162379475806461,0.41725146968605714,0.6459500520056153,model_implied_state_space,3.4827,-0.32032052419353896,False,True,43,-1777.7673482685948,-2605.421336885396,-1777.7673482685948,0.17716430902305547,9.958956435709826e-05,43.0,13,,0.0
joint_indicator_revision_dfm_full_kalman_em,exact,2005:Q1:pre_second:exact,2005-05-25,pre_second,S,2005:Q1,3.3007397696466643,0.3800210822698631,0.6164585000386182,model_implied_state_space,3.4827,-0.18196023035333564,False,True,40,-1747.5883667064413,-2617.468346489962,-1747.5883667064413,0.1647904024773652,9.423308361587219e-05,40.0,13,,0.0
ar,exact,2005:Q1:pre_third:exact,2005-06-28,pre_third,T,2005:Q1,3.2971112010822035,,,not_available,3.7592,-0.4620887989177964,False,True,0,,,,,,,13,,0.0
no_revision,exact,2005:Q1:pre_third:exact,2005-06-28,pre_third,T,2005:Q1,3.4827,,,not_available,3.7592,-0.27649999999999997,False,True,0,,,,,,,13,,0.0
bridge,exact,2005:Q1:pre_third:exact,2005-06-28,pre_third,T,2005:Q1,3.424443690986255,,,not_available,3.7592,-0.33475630901374487,False,True,0,,,,,,,13,,0.0
midas_umidas,exact,2005:Q1:pre_third:exact,2005-06-28,pre_third,T,2005:Q1,2.7162909836537876,,,not_available,3.7592,-1.0429090163462122,False,True,0,,,,,,,13,,0.0
monthly_mixed_frequency_kalman_em,exact,2005:Q1:pre_third:exact,2005-06-28,pre_third,T,2005:Q1,3.418552243123207,0.13115634941296586,0.3621551455011593,model_implied_state_space,3.7592,-0.34064775687679294,False,False,100,-2978.1266223968196,-3793.441573085113,-2978.1266223968196,0.586529620690726,0.00019684096782725456,101.0,13,,0.0
standard_dfm,exact,2005:Q1:pre_third:exact,2005-06-28,pre_third,T,2005:Q1,3.499538269410058,,,not_available,3.7592,-0.2596617305899418,False,True,0,,,,,,,13,,0.0
release_dfm,exact,2005:Q1:pre_third:exact,2005-06-28,pre_third,T,2005:Q1,3.5257836412759955,,,not_available,3.7592,-0.23341635872400435,False,True,0,,,,,,,13,,0.0
revision_dfm_kalman_em,exact,2005:Q1:pre_third:exact,2005-06-28,pre_third,T,2005:Q1,3.466548508662628,0.13918895064764278,0.37308035414323654,model_implied_state_space,3.7592,-0.2926514913373719,False,True,34,-1008.0533602622246,-1768.1653181200043,-1008.0533602622246,0.09366155936493215,9.281260048299572e-05,34.0,13,,0.0
indicator_revision_only_dfm_kalman_em,exact,2005:Q1:pre_third:exact,2005-06-28,pre_third,T,2005:Q1,3.463675679755023,0.143354562794601,0.37862192592954913,model_implied_state_space,3.7592,-0.29552432024497666,False,True,30,-1774.7833963441635,-2609.5171758302617,-1774.7833963441635,0.17387909383046463,9.790725049260086e-05,30.0,13,,0.0
joint_indicator_revision_dfm_full_kalman_em,exact,2005:Q1:pre_third:exact,2005-06-28,pre_third,T,2005:Q1,3.4643535224925315,0.13736852642514394,0.3706326030250765,model_implied_state_space,3.7592,-0.2948464775074684,False,True,33,-1743.6114511167202,-2621.38811794112,-1743.6114511167202,0.1700702341449869,9.747365619353483e-05,33.0,13,,0.0
ar,pseudo,2005:Q1:pre_advance:pseudo,2005-04-30,pre_advance,A,2005:Q1,2.91427503282673,,,not_available,3.0876,-0.17332496717326995,False,True,0,,,,,,,13,,0.0
no_revision,pseudo,2005:Q1:pre_advance:pseudo,2005-04-30,pre_advance,A,2005:Q1,2.979208231416087,,,not_available,3.0876,-0.10839176858391308,False,True,0,,,,,,,13,,0.0
bridge,pseudo,2005:Q1:pre_advance:pseudo,2005-04-30,pre_advance,A,2005:Q1,3.0281594575852124,,,not_available,3.0876,-0.05944054241478769,False,True,0,,,,,,,13,,0.0
midas_umidas,pseudo,2005:Q1:pre_advance:pseudo,2005-04-30,pre_advance,A,2005:Q1,16.786138488129456,,,not_available,3.0876,13.698538488129456,False,True,0,,,,,,,13,,0.0
monthly_mixed_frequency_kalman_em,pseudo,2005:Q1:pre_advance:pseudo,2005-04-30,pre_advance,A,2005:Q1,1.5980322240359188,4.120333146339949,2.029860376070223,model_implied_state_space,3.0876,-1.4895677759640813,False,False,100,-2933.81951364158,-3755.330564914717,-2933.81951364158,0.7336422759872221,0.0002499161953542984,101.0,13,,0.0
standard_dfm,pseudo,2005:Q1:pre_advance:pseudo,2005-04-30,pre_advance,A,2005:Q1,3.24407388138464,,,not_available,3.0876,0.15647388138464002,False,True,0,,,,,,,13,,0.0
release_dfm,pseudo,2005:Q1:pre_advance:pseudo,2005-04-30,pre_advance,A,2005:Q1,3.24407388138464,,,not_available,3.0876,0.15647388138464002,False,True,0,,,,,,,13,,0.0
revision_dfm_kalman_em,pseudo,2005:Q1:pre_advance:pseudo,2005-04-30,pre_advance,A,2005:Q1,2.9365355957865016,5.731160203033834,2.393984169336513,model_implied_state_space,3.0876,-0.15106440421349854,False,True,33,-1007.630137049425,-1765.7758579947883,-1007.630137049425,0.0966168199522599,9.578096306224378e-05,33.0,13,,0.0
indicator_revision_only_dfm_kalman_em,pseudo,2005:Q1:pre_advance:pseudo,2005-04-30,pre_advance,A,2005:Q1,4.502998238175803,7.255789492787107,2.6936572708470368,model_implied_state_space,3.0876,1.4153982381758032,False,True,41,-1776.4918796809106,-2604.3324388545207,-1776.4918796809106,0.16976250470975174,9.549764740439025e-05,41.0,13,,0.0
joint_indicator_revision_dfm_full_kalman_em,pseudo,2005:Q1:pre_advance:pseudo,2005-04-30,pre_advance,A,2005:Q1,3.4869825970363935,5.740480637192955,2.3959300150866167,model_implied_state_space,3.0876,0.39938259703639334,False,True,37,-1746.891676199521,-2616.2559306087965,-1746.891676199521,0.17180118563169344,9.828086213933311e-05,37.0,13,,0.0
ar,pseudo,2005:Q1:pre_second:pseudo,2005-05-31,pre_second,S,2005:Q1,3.2499698412702402,,,not_available,3.4827,-0.23273015872975966,False,True,0,,,,,,,13,,0.0
no_revision,pseudo,2005:Q1:pre_second:pseudo,2005-05-31,pre_second,S,2005:Q1,3.0876,,,not_available,3.4827,-0.3950999999999998,False,True,0,,,,,,,13,,0.0
bridge,pseudo,2005:Q1:pre_second:pseudo,2005-05-31,pre_second,S,2005:Q1,3.2504980081513053,,,not_available,3.4827,-0.2322019918486946,False,True,0,,,,,,,13,,0.0
midas_umidas,pseudo,2005:Q1:pre_second:pseudo,2005-05-31,pre_second,S,2005:Q1,2.991623437602582,,,not_available,3.4827,-0.49107656239741804,False,True,0,,,,,,,13,,0.0
monthly_mixed_frequency_kalman_em,pseudo,2005:Q1:pre_second:pseudo,2005-05-31,pre_second,S,2005:Q1,2.990435801376001,0.32148761089267003,0.5669987750363047,model_implied_state_space,3.4827,-0.49226419862399906,False,False,100,-2958.69402146228,-3774.293426444673,-2958.69402146228,0.6090730480941602,0.00020574685383521486,101.0,13,,0.0
standard_dfm,pseudo,2005:Q1:pre_second:pseudo,2005-05-31,pre_second,S,2005:Q1,3.3895048532491394,,,not_available,3.4827,-0.09319514675086049,False,True,0,,,,,,,13,,0.0
release_dfm,pseudo,2005:Q1:pre_second:pseudo,2005-05-31,pre_second,S,2005:Q1,3.254643629342127,,,not_available,3.4827,-0.22805637065787288,False,True,0,,,,,,,13,,0.0
revision_dfm_kalman_em,pseudo,2005:Q1:pre_second:pseudo,2005-05-31,pre_second,S,2005:Q1,3.1701008412174883,0.3943077883094505,0.627939318970751,model_implied_state_space,3.4827,-0.31259915878251165,False,True,39,-1008.207273308415,-1763.6301565040717,-1008.207273308415,0.09759523725131203,9.669549835020567e-05,39.0,13,,0.0
indicator_revision_only_dfm_kalman_em,pseudo,2005:Q1:pre_second:pseudo,2005-05-31,pre_second,S,2005:Q1,3.162379475806461,0.41725146968605714,0.6459500520056153,model_implied_state_space,3.4827,-0.32032052419353896,False,True,43,-1777.7673482685948,-2605.421336885396,-1777.7673482685948,0.17716430902305547,9.958956435709826e-05,43.0,13,,0.0
joint_indicator_revision_dfm_full_kalman_em,pseudo,2005:Q1:pre_second:pseudo,2005-05-31,pre_second,S,2005:Q1,3.3007397696466643,0.3800210822698631,0.6164585000386182,model_implied_state_space,3.4827,-0.18196023035333564,False,True,40,-1747.5883667064413,-2617.468346489962,-1747.5883667064413,0.1647904024773652,9.423308361587219e-05,40.0,13,,0.0
ar,pseudo,2005:Q1:pre_third:pseudo,2005-06-30,pre_third,T,2005:Q1,3.2971112010822035,,,not_available,3.7592,-0.4620887989177964,False,True,0,,,,,,,13,,0.0
no_revision,pseudo,2005:Q1:pre_third:pseudo,2005-06-30,pre_third,T,2005:Q1,3.4827,,,not_available,3.7592,-0.27649999999999997,False,True,0,,,,,,,13,,0.0
bridge,pseudo,2005:Q1:pre_third:pseudo,2005-06-30,pre_third,T,2005:Q1,3.424443690986255,,,not_available,3.7592,-0.33475630901374487,False,True,0,,,,,,,13,,0.0
midas_umidas,pseudo,2005:Q1:pre_third:pseudo,2005-06-30,pre_third,T,2005:Q1,2.7162909836537876,,,not_available,3.7592,-1.0429090163462122,False,True,0,,,,,,,13,,0.0
monthly_mixed_frequency_kalman_em,pseudo,2005:Q1:pre_third:pseudo,2005-06-30,pre_third,T,2005:Q1,3.418552243123207,0.13115634941296586,0.3621551455011593,model_implied_state_space,3.7592,-0.34064775687679294,False,False,100,-2978.1266223968196,-3793.441573085113,-2978.1266223968196,0.586529620690726,0.00019684096782725456,101.0,13,,0.0
standard_dfm,pseudo,2005:Q1:pre_third:pseudo,2005-06-30,pre_third,T,2005:Q1,3.499538269410058,,,not_available,3.7592,-0.2596617305899418,False,True,0,,,,,,,13,,0.0
release_dfm,pseudo,2005:Q1:pre_third:pseudo,2005-06-30,pre_third,T,2005:Q1,3.5257836412759955,,,not_available,3.7592,-0.23341635872400435,False,True,0,,,,,,,13,,0.0
revision_dfm_kalman_em,pseudo,2005:Q1:pre_third:pseudo,2005-06-30,pre_third,T,2005:Q1,3.466548508662628,0.13918895064764278,0.37308035414323654,model_implied_state_space,3.7592,-0.2926514913373719,False,True,34,-1008.0533602622246,-1768.1653181200043,-1008.0533602622246,0.09366155936493215,9.281260048299572e-05,34.0,13,,0.0
indicator_revision_only_dfm_kalman_em,pseudo,2005:Q1:pre_third:pseudo,2005-06-30,pre_third,T,2005:Q1,3.463675679755023,0.143354562794601,0.37862192592954913,model_implied_state_space,3.7592,-0.29552432024497666,False,True,30,-1774.7833963441635,-2609.5171758302617,-1774.7833963441635,0.17387909383046463,9.790725049260086e-05,30.0,13,,0.0
joint_indicator_revision_dfm_full_kalman_em,pseudo,2005:Q1:pre_third:pseudo,2005-06-30,pre_third,T,2005:Q1,3.4643535224925315,0.13736852642514394,0.3706326030250765,model_implied_state_space,3.7592,-0.2948464775074684,False,True,33,-1743.6114511167202,-2621.38811794112,-1743.6114511167202,0.1700702341449869,9.747365619353483e-05,33.0,13,,0.0
ar,exact,2005:Q2:pre_advance:exact,2005-07-28,pre_advance,A,2005:Q2,2.8861030313857308,,,not_available,3.414,-0.5278969686142694,False,True,0,,,,,,,13,,0.0
no_revision,exact,2005:Q2:pre_advance:exact,2005-07-28,pre_advance,A,2005:Q2,2.8763111567077075,,,not_available,3.414,-0.5376888432922926,False,True,0,,,,,,,13,,0.0
bridge,exact,2005:Q2:pre_advance:exact,2005-07-28,pre_advance,A,2005:Q2,3.263586255310559,,,not_available,3.414,-0.15041374468944113,False,True,0,,,,,,,13,,0.0
midas_umidas,exact,2005:Q2:pre_advance:exact,2005-07-28,pre_advance,A,2005:Q2,-11.475117342172844,,,not_available,3.414,-14.889117342172844,False,True,0,,,,,,,13,,0.0
monthly_mixed_frequency_kalman_em,exact,2005:Q2:pre_advance:exact,2005-07-28,pre_advance,A,2005:Q2,3.7317797767582284,4.112988252052445,2.0280503573758826,model_implied_state_space,3.414,0.3177797767582282,False,False,100,-2994.0608460563953,-3814.449941000958,-2994.0608460563953,0.6350291883109094,0.00021198052631395248,101.0,13,,0.0
standard_dfm,exact,2005:Q2:pre_advance:exact,2005-07-28,pre_advance,A,2005:Q2,3.0949558019625814,,,not_available,3.414,-0.3190441980374188,False,True,0,,,,,,,13,,0.0
release_dfm,exact,2005:Q2:pre_advance:exact,2005-07-28,pre_advance,A,2005:Q2,3.0949558019625814,,,not_available,3.414,-0.3190441980374188,False,True,0,,,,,,,13,,0.0
revision_dfm_kalman_em,exact,2005:Q2:pre_advance:exact,2005-07-28,pre_advance,A,2005:Q2,2.591478789608059,5.759771986568558,2.3999524967316663,model_implied_state_space,3.414,-0.8225212103919413,False,True,33,-1026.204192244291,-1788.0409419895075,-1026.204192244291,0.0976508807780192,9.50556853679573e-05,33.0,13,,0.0
indicator_revision_only_dfm_kalman_em,exact,2005:Q2:pre_advance:exact,2005-07-28,pre_advance,A,2005:Q2,4.2103132882838725,6.810879792064726,2.6097662332218046,model_implied_state_space,3.414,0.7963132882838724,False,True,45,-1809.215765221028,-2643.496328535173,-1809.215765221028,0.17082698663011797,9.435939669758859e-05,45.0,13,,0.0
joint_indicator_revision_dfm_full_kalman_em,exact,2005:Q2:pre_advance:exact,2005-07-28,pre_advance,A,2005:Q2,3.630548036616702,3.785112054819627,1.9455364439710778,model_implied_state_space,3.414,0.21654803661670163,False,True,57,-1580.3367142344066,-2655.505608423725,-1580.3367142344066,0.14709089753955595,9.300815921240742e-05,57.0,13,,0.0
ar,exact,2005:Q2:pre_second:exact,2005-08-30,pre_second,S,2005:Q2,3.1044419421848652,,,not_available,3.2872,-0.18275805781513466,False,True,0,,,,,,,13,,0.0
no_revision,exact,2005:Q2:pre_second:exact,2005-08-30,pre_second,S,2005:Q2,3.414,,,not_available,3.2872,0.12680000000000025,False,True,0,,,,,,,13,,0.0
bridge,exact,2005:Q2:pre_second:exact,2005-08-30,pre_second,S,2005:Q2,3.4612755095476757,,,not_available,3.2872,0.1740755095476758,False,True,0,,,,,,,13,,0.0
midas_umidas,exact,2005:Q2:pre_second:exact,2005-08-30,pre_second,S,2005:Q2,2.398188482000378,,,not_available,3.2872,-0.8890115179996219,False,True,0,,,,,,,13,,0.0
monthly_mixed_frequency_kalman_em,exact,2005:Q2:pre_second:exact,2005-08-30,pre_second,S,2005:Q2,3.534872091909791,0.3204097297190572,0.5660474624261266,model_implied_state_space,3.2872,0.247672091909791,False,False,100,-3013.500197391709,-3834.337510643101,-3013.500197391709,0.6455810745164854,0.00021411272354628438,101.0,13,,0.0
standard_dfm,exact,2005:Q2:pre_second:exact,2005-08-30,pre_second,S,2005:Q2,3.1619076245312066,,,not_available,3.2872,-0.12529237546879335,False,True,0,,,,,,,13,,0.0
release_dfm,exact,2005:Q2:pre_second:exact,2005-08-30,pre_second,S,2005:Q2,3.5854204859407894,,,not_available,3.2872,0.29822048594078954,False,True,0,,,,,,,13,,0.0
revision_dfm_kalman_em,exact,2005:Q2:pre_second:exact,2005-08-30,pre_second,S,2005:Q2,3.525174109678266,0.39209473886196894,0.6261746871776029,model_implied_state_space,3.2872,0.23797410967826593,False,True,38,-1029.421388400459,-1787.6375936777606,-1029.421388400459,0.10263959567737402,9.959942018718155e-05,38.0,13,,0.0
indicator_revision_only_dfm_kalman_em,exact,2005:Q2:pre_second:exact,2005-08-30,pre_second,S,2005:Q2,3.4217352528754317,0.42039531206646913,0.6483789879896396,model_implied_state_space,3.2872,0.13453525287543178,False,True,31,-1812.3830914216444,-2650.0684041248837,-1812.3830914216444,0.17524181975795727,9.662871965344766e-05,31.0,13,,0.0
joint_indicator_revision_dfm_full_kalman_em,exact,2005:Q2:pre_second:exact,2005-08-30,pre_second,S,2005:Q2,3.674615617634941,0.37786573810352797,0.614707847764715,model_implied_state_space,3.2872,0.38741561763494126,False,True,33,-1781.3420537276286,-2662.043070788717,-1781.3420537276286,0.16925274531763534,9.495184950749941e-05,33.0,13,,0.0
ar,exact,2005:Q2:pre_third:exact,2005-09-28,pre_third,T,2005:Q2,3.2616822864055117,,,not_available,3.3096,-0.047917713594488376,False,True,0,,,,,,,13,,0.0
no_revision,exact,2005:Q2:pre_third:exact,2005-09-28,pre_third,T,2005:Q2,3.2872,,,not_available,3.3096,-0.022400000000000198,False,True,0,,,,,,,13,,0.0
bridge,exact,2005:Q2:pre_third:exact,2005-09-28,pre_third,T,2005:Q2,4.014211750324724,,,not_available,3.3096,0.7046117503247236,False,True,0,,,,,,,13,,0.0
midas_umidas,exact,2005:Q2:pre_third:exact,2005-09-28,pre_third,T,2005:Q2,3.8442442465060624,,,not_available,3.3096,0.5346442465060623,False,True,0,,,,,,,13,,0.0
monthly_mixed_frequency_kalman_em,exact,2005:Q2:pre_third:exact,2005-09-28,pre_third,T,2005:Q2,3.3752828947109226,0.12939421726304637,0.3597140770988069,model_implied_state_space,3.3096,0.06568289471092248,False,False,100,-3029.193678785222,-3854.259108337186,-3029.193678785222,0.7159222604145725,0.00023620706475956452,101.0,13,,0.0
standard_dfm,exact,2005:Q2:pre_third:exact,2005-09-28,pre_third,T,2005:Q2,3.2867577792956033,,,not_available,3.3096,-0.022842220704396787,False,True,0,,,,,,,13,,0.0
release_dfm,exact,2005:Q2:pre_third:exact,2005-09-28,pre_third,T,2005:Q2,3.468446939111133,,,not_available,3.3096,0.1588469391111329,False,True,0,,,,,,,13,,0.0
revision_dfm_kalman_em,exact,2005:Q2:pre_third:exact,2005-09-28,pre_third,T,2005:Q2,3.3052309122127745,0.13866009476474112,0.37237091020210095,model_implied_state_space,3.3096,-0.004369087787225556,False,True,33,-1029.2347877343298,-1791.651780070252,-1029.2347877343298,0.09815257438958724,9.526296845384534e-05,33.0,13,,0.0
indicator_revision_only_dfm_kalman_em,exact,2005:Q2:pre_third:exact,2005-09-28,pre_third,T,2005:Q2,3.2956358732821007,0.14295360326762774,0.37809205660477413,model_implied_state_space,3.3096,-0.013964126717899372,False,True,31,-1812.1848750566019,-2651.326659198518,-1812.1848750566019,0.1790219949753009,9.87237008889281e-05,31.0,13,,0.0
joint_indicator_revision_dfm_full_kalman_em,exact,2005:Q2:pre_third:exact,2005-09-28,pre_third,T,2005:Q2,3.3229341708236584,0.13701961351401656,0.37016160459185465,model_implied_state_space,3.3096,0.013334170823658287,False,True,33,-1781.2892847848132,-2663.278072118471,-1781.2892847848132,0.1750476839390558,9.820543432507898e-05,33.0,13,,0.0
ar,pseudo,2005:Q2:pre_advance:pseudo,2005-07-31,pre_advance,A,2005:Q2,2.8861030313857308,,,not_available,3.414,-0.5278969686142694,False,True,0,,,,,,,13,,0.0
no_revision,pseudo,2005:Q2:pre_advance:pseudo,2005-07-31,pre_advance,A,2005:Q2,2.8763111567077075,,,not_available,3.414,-0.5376888432922926,False,True,0,,,,,,,13,,0.0
bridge,pseudo,2005:Q2:pre_advance:pseudo,2005-07-31,pre_advance,A,2005:Q2,3.263586255310559,,,not_available,3.414,-0.15041374468944113,False,True,0,,,,,,,13,,0.0
midas_umidas,pseudo,2005:Q2:pre_advance:pseudo,2005-07-31,pre_advance,A,2005:Q2,-11.475117342172844,,,not_available,3.414,-14.889117342172844,False,True,0,,,,,,,13,,0.0
monthly_mixed_frequency_kalman_em,pseudo,2005:Q2:pre_advance:pseudo,2005-07-31,pre_advance,A,2005:Q2,3.7317797767582284,4.112988252052445,2.0280503573758826,model_implied_state_space,3.414,0.3177797767582282,False,False,100,-2994.0608460563953,-3814.449941000958,-2994.0608460563953,0.6350291883109094,0.00021198052631395248,101.0,13,,0.0
standard_dfm,pseudo,2005:Q2:pre_advance:pseudo,2005-07-31,pre_advance,A,2005:Q2,3.0949558019625814,,,not_available,3.414,-0.3190441980374188,False,True,0,,,,,,,13,,0.0
release_dfm,pseudo,2005:Q2:pre_advance:pseudo,2005-07-31,pre_advance,A,2005:Q2,3.0949558019625814,,,not_available,3.414,-0.3190441980374188,False,True,0,,,,,,,13,,0.0
revision_dfm_kalman_em,pseudo,2005:Q2:pre_advance:pseudo,2005-07-31,pre_advance,A,2005:Q2,2.591478789608059,5.759771986568558,2.3999524967316663,model_implied_state_space,3.414,-0.8225212103919413,False,True,33,-1026.204192244291,-1788.0409419895075,-1026.204192244291,0.0976508807780192,9.50556853679573e-05,33.0,13,,0.0
indicator_revision_only_dfm_kalman_em,pseudo,2005:Q2:pre_advance:pseudo,2005-07-31,pre_advance,A,2005:Q2,4.2103132882838725,6.810879792064726,2.6097662332218046,model_implied_state_space,3.414,0.7963132882838724,False,True,45,-1809.215765221028,-2643.496328535173,-1809.215765221028,0.17082698663011797,9.435939669758859e-05,45.0,13,,0.0
joint_indicator_revision_dfm_full_kalman_em,pseudo,2005:Q2:pre_advance:pseudo,2005-07-31,pre_advance,A,2005:Q2,3.630548036616702,3.785112054819627,1.9455364439710778,model_implied_state_space,3.414,0.21654803661670163,False,True,57,-1580.3367142344066,-2655.505608423725,-1580.3367142344066,0.14709089753955595,9.300815921240742e-05,57.0,13,,0.0
ar,pseudo,2005:Q2:pre_second:pseudo,2005-08-31,pre_second,S,2005:Q2,3.1044419421848652,,,not_available,3.2872,-0.18275805781513466,False,True,0,,,,,,,13,,0.0
no_revision,pseudo,2005:Q2:pre_second:pseudo,2005-08-31,pre_second,S,2005:Q2,3.414,,,not_available,3.2872,0.12680000000000025,False,True,0,,,,,,,13,,0.0
bridge,pseudo,2005:Q2:pre_second:pseudo,2005-08-31,pre_second,S,2005:Q2,3.4612755095476757,,,not_available,3.2872,0.1740755095476758,False,True,0,,,,,,,13,,0.0
midas_umidas,pseudo,2005:Q2:pre_second:pseudo,2005-08-31,pre_second,S,2005:Q2,2.398188482000378,,,not_available,3.2872,-0.8890115179996219,False,True,0,,,,,,,13,,0.0
monthly_mixed_frequency_kalman_em,pseudo,2005:Q2:pre_second:pseudo,2005-08-31,pre_second,S,2005:Q2,3.534872091909791,0.3204097297190572,0.5660474624261266,model_implied_state_space,3.2872,0.247672091909791,False,False,100,-3013.500197391709,-3834.337510643101,-3013.500197391709,0.6455810745164854,0.00021411272354628438,101.0,13,,0.0
standard_dfm,pseudo,2005:Q2:pre_second:pseudo,2005-08-31,pre_second,S,2005:Q2,3.1619076245312066,,,not_available,3.2872,-0.12529237546879335,False,True,0,,,,,,,13,,0.0
release_dfm,pseudo,2005:Q2:pre_second:pseudo,2005-08-31,pre_second,S,2005:Q2,3.5854204859407894,,,not_available,3.2872,0.29822048594078954,False,True,0,,,,,,,13,,0.0
revision_dfm_kalman_em,pseudo,2005:Q2:pre_second:pseudo,2005-08-31,pre_second,S,2005:Q2,3.525174109678266,0.39209473886196894,0.6261746871776029,model_implied_state_space,3.2872,0.23797410967826593,False,True,38,-1029.421388400459,-1787.6375936777606,-1029.421388400459,0.10263959567737402,9.959942018718155e-05,38.0,13,,0.0
indicator_revision_only_dfm_kalman_em,pseudo,2005:Q2:pre_second:pseudo,2005-08-31,pre_second,S,2005:Q2,3.4217352528754317,0.42039531206646913,0.6483789879896396,model_implied_state_space,3.2872,0.13453525287543178,False,True,31,-1812.3830914216444,-2650.0684041248837,-1812.3830914216444,0.17524181975795727,9.662871965344766e-05,31.0,13,,0.0
joint_indicator_revision_dfm_full_kalman_em,pseudo,2005:Q2:pre_second:pseudo,2005-08-31,pre_second,S,2005:Q2,3.674615617634941,0.37786573810352797,0.614707847764715,model_implied_state_space,3.2872,0.38741561763494126,False,True,33,-1781.3420537276286,-2662.043070788717,-1781.3420537276286,0.16925274531763534,9.495184950749941e-05,33.0,13,,0.0
ar,pseudo,2005:Q2:pre_third:pseudo,2005-09-30,pre_third,T,2005:Q2,3.2616822864055117,,,not_available,3.3096,-0.047917713594488376,False,True,0,,,,,,,13,,0.0
no_revision,pseudo,2005:Q2:pre_third:pseudo,2005-09-30,pre_third,T,2005:Q2,3.2872,,,not_available,3.3096,-0.022400000000000198,False,True,0,,,,,,,13,,0.0
bridge,pseudo,2005:Q2:pre_third:pseudo,2005-09-30,pre_third,T,2005:Q2,4.014211750324724,,,not_available,3.3096,0.7046117503247236,False,True,0,,,,,,,13,,0.0
midas_umidas,pseudo,2005:Q2:pre_third:pseudo,2005-09-30,pre_third,T,2005:Q2,3.8442442465060624,,,not_available,3.3096,0.5346442465060623,False,True,0,,,,,,,13,,0.0
monthly_mixed_frequency_kalman_em,pseudo,2005:Q2:pre_third:pseudo,2005-09-30,pre_third,T,2005:Q2,3.3752828947109226,0.12939421726304637,0.3597140770988069,model_implied_state_space,3.3096,0.06568289471092248,False,False,100,-3029.193678785222,-3854.259108337186,-3029.193678785222,0.7159222604145725,0.00023620706475956452,101.0,13,,0.0
standard_dfm,pseudo,2005:Q2:pre_third:pseudo,2005-09-30,pre_third,T,2005:Q2,3.2867577792956033,,,not_available,3.3096,-0.022842220704396787,False,True,0,,,,,,,13,,0.0
release_dfm,pseudo,2005:Q2:pre_third:pseudo,2005-09-30,pre_third,T,2005:Q2,3.468446939111133,,,not_available,3.3096,0.1588469391111329,False,True,0,,,,,,,13,,0.0
revision_dfm_kalman_em,pseudo,2005:Q2:pre_third:pseudo,2005-09-30,pre_third,T,2005:Q2,3.3052309122127745,0.13866009476474112,0.37237091020210095,model_implied_state_space,3.3096,-0.004369087787225556,False,True,33,-1029.2347877343298,-1791.651780070252,-1029.2347877343298,0.09815257438958724,9.526296845384534e-05,33.0,13,,0.0
indicator_revision_only_dfm_kalman_em,pseudo,2005:Q2:pre_third:pseudo,2005-09-30,pre_third,T,2005:Q2,3.2956358732821007,0.14295360326762774,0.37809205660477413,model_implied_state_space,3.3096,-0.013964126717899372,False,True,31,-1812.1848750566019,-2651.326659198518,-1812.1848750566019,0.1790219949753009,9.87237008889281e-05,31.0,13,,0.0
joint_indicator_revision_dfm_full_kalman_em,pseudo,2005:Q2:pre_third:pseudo,2005-09-30,pre_third,T,2005:Q2,3.3229341708236584,0.13701961351401656,0.37016160459185465,model_implied_state_space,3.3096,0.013334170823658287,False,True,33,-1781.2892847848132,-2663.278072118471,-1781.2892847848132,0.1750476839390558,9.820543432507898e-05,33.0,13,,0.0
ar,exact,2005:Q3:pre_advance:exact,2005-10-27,pre_advance,A,2005:Q3,3.04969286031635,,,not_available,3.8045,-0.75480713968365,False,True,0,,,,,,,13,,0.0
no_revision,exact,2005:Q3:pre_advance:exact,2005-10-27,pre_advance,A,2005:Q3,3.079947323602184,,,not_available,3.8045,-0.7245526763978161,False,True,0,,,,,,,13,,0.0
bridge,exact,2005:Q3:pre_advance:exact,2005-10-27,pre_advance,A,2005:Q3,2.977264671503475,,,not_available,3.8045,-0.827235328496525,False,True,0,,,,,,,13,,0.0
midas_umidas,exact,2005:Q3:pre_advance:exact,2005-10-27,pre_advance,A,2005:Q3,20.737297200182738,,,not_available,3.8045,16.932797200182737,False,True,0,,,,,,,13,,0.0
monthly_mixed_frequency_kalman_em,exact,2005:Q3:pre_advance:exact,2005-10-27,pre_advance,A,2005:Q3,0.7261014371147061,6.360811123379755,2.5220648531272456,model_implied_state_space,3.8045,-3.078398562885294,False,True,39,-3084.504199349503,-3870.0533747774975,-3084.504199349503,0.3043457896706059,9.862756720601392e-05,39.0,13,,0.0
standard_dfm,exact,2005:Q3:pre_advance:exact,2005-10-27,pre_advance,A,2005:Q3,2.746500840845433,,,not_available,3.8045,-1.057999159154567,False,True,0,,,,,,,13,,0.0
release_dfm,exact,2005:Q3:pre_advance:exact,2005-10-27,pre_advance,A,2005:Q3,2.746500840845433,,,not_available,3.8045,-1.057999159154567,False,True,0,,,,,,,13,,0.0
revision_dfm_kalman_em,exact,2005:Q3:pre_advance:exact,2005-10-27,pre_advance,A,2005:Q3,2.5540960994693407,6.004222739077182,2.4503515541809877,model_implied_state_space,3.8045,-1.2504039005306593,False,True,32,-1047.9733555523985,-1812.2075223234622,-1047.9733555523985,0.10370290313494479,9.88515593769801e-05,32.0,13,,0.0
indicator_revision_only_dfm_kalman_em,exact,2005:Q3:pre_advance:exact,2005-10-27,pre_advance,A,2005:Q3,3.968689181353586,6.209714266423295,2.4919298277486255,model_implied_state_space,3.8045,0.16418918135358584,False,True,43,-1857.1061359515088,-2686.2164162301765,-1857.1061359515088,0.18114287043999866,9.747839987089252e-05,43.0,13,,0.0
joint_indicator_revision_dfm_full_kalman_em,exact,2005:Q3:pre_advance:exact,2005-10-27,pre_advance,A,2005:Q3,3.400177617086328,4.8552921879179625,2.203472756336679,model_implied_state_space,3.8045,-0.40432238291367195,False,True,41,-1825.5015486382968,-2698.297561196207,-1825.5015486382968,0.18036299359710029,9.873804106154983e-05,41.0,13,,0.0
ar,exact,2005:Q3:pre_second:exact,2005-11-29,pre_second,S,2005:Q3,3.0178774499499244,,,not_available,4.2839,-1.2660225500500757,False,True,0,,,,,,,13,,0.0
no_revision,exact,2005:Q3:pre_second:exact,2005-11-29,pre_second,S,2005:Q3,3.8045,,,not_available,4.2839,-0.47940000000000005,False,True,0,,,,,,,13,,0.0
bridge,exact,2005:Q3:pre_second:exact,2005-11-29,pre_second,S,2005:Q3,2.9202077731301666,,,not_available,4.2839,-1.3636922268698335,False,True,0,,,,,,,13,,0.0
midas_umidas,exact,2005:Q3:pre_second:exact,2005-11-29,pre_second,S,2005:Q3,4.804219178181921,,,not_available,4.2839,0.5203191781819205,False,True,0,,,,,,,13,,0.0
monthly_mixed_frequency_kalman_em,exact,2005:Q3:pre_second:exact,2005-11-29,pre_second,S,2005:Q3,3.6260238728077105,0.32810793558940293,0.5728070666371033,model_implied_state_space,4.2839,-0.6578761271922895,False,True,85,-3038.3056766666828,-3894.7362017985993,-3038.3056766666828,0.27435455684644694,9.026067878726337e-05,85.0,13,,0.0
standard_dfm,exact,2005:Q3:pre_second:exact,2005-11-29,pre_second,S,2005:Q3,2.9173005702868537,,,not_available,4.2839,-1.3665994297131463,False,True,0,,,,,,,13,,0.0
release_dfm,exact,2005:Q3:pre_second:exact,2005-11-29,pre_second,S,2005:Q3,3.978465790622625,,,not_available,4.2839,-0.305434209377375,False,True,0,,,,,,,13,,0.0
revision_dfm_kalman_em,exact,2005:Q3:pre_second:exact,2005-11-29,pre_second,S,2005:Q3,4.005594518518527,0.3893734440391059,0.6239979519510508,model_implied_state_space,4.2839,-0.27830548148147294,False,True,38,-1051.7063877125613,-1810.8020026294569,-1051.7063877125613,0.10325927271946966,9.807971746379079e-05,38.0,13,,0.0
indicator_revision_only_dfm_kalman_em,exact,2005:Q3:pre_second:exact,2005-11-29,pre_second,S,2005:Q3,3.8840144058978874,0.4070592087317249,0.6380119189574164,model_implied_state_space,4.2839,-0.39988559410211266,False,True,46,-1860.204610711583,-2688.5305953598154,-1860.204610711583,0.1832429165576741,9.844424212853035e-05,46.0,13,,0.0
joint_indicator_revision_dfm_full_kalman_em,exact,2005:Q3:pre_second:exact,2005-11-29,pre_second,S,2005:Q3,4.154270789221139,0.36414152240226244,0.6034413993108713,model_implied_state_space,4.2839,-0.12962921077886147,False,True,47,-1828.469094039919,-2700.726588522971,-1828.469094039919,0.17344456164323674,9.479696606518802e-05,47.0,13,,0.0
ar,exact,2005:Q3:pre_third:exact,2005-12-20,pre_third,T,2005:Q3,3.0673509604805287,,,not_available,4.1425,-1.0751490395194714,False,True,0,,,,,,,13,,0.0
no_revision,exact,2005:Q3:pre_third:exact,2005-12-20,pre_third,T,2005:Q3,4.2839,,,not_available,4.1425,0.14139999999999997,False,True,0,,,,,,,13,,0.0
bridge,exact,2005:Q3:pre_third:exact,2005-12-20,pre_third,T,2005:Q3,3.4924246726879242,,,not_available,4.1425,-0.6500753273120758,False,True,0,,,,,,,13,,0.0
midas_umidas,exact,2005:Q3:pre_third:exact,2005-12-20,pre_third,T,2005:Q3,3.3176660699902745,,,not_available,4.1425,-0.8248339300097256,False,True,0,,,,,,,13,,0.0
monthly_mixed_frequency_kalman_em,exact,2005:Q3:pre_third:exact,2005-12-20,pre_third,T,2005:Q3,4.005352483779218,0.1293283410244412,0.35962249793977186,model_implied_state_space,4.1425,-0.13714751622078225,False,False,100,-3063.7008705170306,-3916.4653592622626,-3063.7008705170306,0.7534929195489894,0.00024580138218214197,101.0,13,,0.0
standard_dfm,exact,2005:Q3:pre_third:exact,2005-12-20,pre_third,T,2005:Q3,3.028406574059412,,,not_available,4.1425,-1.1140934259405881,False,True,0,,,,,,,13,,0.0
release_dfm,exact,2005:Q3:pre_third:exact,2005-12-20,pre_third,T,2005:Q3,4.29439784843032,,,not_available,4.1425,0.15189784843031973,False,True,0,,,,,,,13,,0.0
revision_dfm_kalman_em,exact,2005:Q3:pre_third:exact,2005-12-20,pre_third,T,2005:Q3,4.274131644029487,0.13788624411268177,0.3713303705767706,model_implied_state_space,4.1425,0.13163164402948713,False,True,33,-1051.3346633834742,-1815.3784309795208,-1051.3346633834742,0.0994131553909483,9.446022093648646e-05,33.0,13,,0.0
indicator_revision_only_dfm_kalman_em,exact,2005:Q3:pre_third:exact,2005-12-20,pre_third,T,2005:Q3,4.263186954355266,0.14191989335721525,0.37672256815488936,model_implied_state_space,4.1425,0.120686954355266,False,True,46,-1859.87964270377,-2689.5447973106234,-1859.87964270377,0.18543011219094296,9.963655484134701e-05,46.0,13,,0.0
joint_indicator_revision_dfm_full_kalman_em,exact,2005:Q3:pre_third:exact,2005-12-20,pre_third,T,2005:Q3,4.287459539796049,0.13687329490622194,0.36996391027534287,model_implied_state_space,4.1425,0.1449595397960488,False,True,47,-1827.9936247321846,-2701.717338440812,-1827.9936247321846,0.1814206972574084,9.918170363778147e-05,47.0,13,,0.0
ar,pseudo,2005:Q3:pre_advance:pseudo,2005-10-31,pre_advance,A,2005:Q3,3.04969286031635,,,not_available,3.8045,-0.75480713968365,False,True,0,,,,,,,13,,0.0
no_revision,pseudo,2005:Q3:pre_advance:pseudo,2005-10-31,pre_advance,A,2005:Q3,3.079947323602184,,,not_available,3.8045,-0.7245526763978161,False,True,0,,,,,,,13,,0.0
bridge,pseudo,2005:Q3:pre_advance:pseudo,2005-10-31,pre_advance,A,2005:Q3,2.977264671503475,,,not_available,3.8045,-0.827235328496525,False,True,0,,,,,,,13,,0.0
midas_umidas,pseudo,2005:Q3:pre_advance:pseudo,2005-10-31,pre_advance,A,2005:Q3,20.737297200182738,,,not_available,3.8045,16.932797200182737,False,True,0,,,,,,,13,,0.0
monthly_mixed_frequency_kalman_em,pseudo,2005:Q3:pre_advance:pseudo,2005-10-31,pre_advance,A,2005:Q3,0.7261014371147061,6.360811123379755,2.5220648531272456,model_implied_state_space,3.8045,-3.078398562885294,False,True,39,-3084.504199349503,-3870.0533747774975,-3084.504199349503,0.3043457896706059,9.862756720601392e-05,39.0,13,,0.0
standard_dfm,pseudo,2005:Q3:pre_advance:pseudo,2005-10-31,pre_advance,A,2005:Q3,2.746500840845433,,,not_available,3.8045,-1.057999159154567,False,True,0,,,,,,,13,,0.0
release_dfm,pseudo,2005:Q3:pre_advance:pseudo,2005-10-31,pre_advance,A,2005:Q3,2.746500840845433,,,not_available,3.8045,-1.057999159154567,False,True,0,,,,,,,13,,0.0
revision_dfm_kalman_em,pseudo,2005:Q3:pre_advance:pseudo,2005-10-31,pre_advance,A,2005:Q3,2.5540960994693407,6.004222739077182,2.4503515541809877,model_implied_state_space,3.8045,-1.2504039005306593,False,True,32,-1047.9733555523985,-1812.2075223234622,-1047.9733555523985,0.10370290313494479,9.88515593769801e-05,32.0,13,,0.0
indicator_revision_only_dfm_kalman_em,pseudo,2005:Q3:pre_advance:pseudo,2005-10-31,pre_advance,A,2005:Q3,3.968689181353586,6.209714266423295,2.4919298277486255,model_implied_state_space,3.8045,0.16418918135358584,False,True,43,-1857.1061359515088,-2686.2164162301765,-1857.1061359515088,0.18114287043999866,9.747839987089252e-05,43.0,13,,0.0
joint_indicator_revision_dfm_full_kalman_em,pseudo,2005:Q3:pre_advance:pseudo,2005-10-31,pre_advance,A,2005:Q3,3.400177617086328,4.8552921879179625,2.203472756336679,model_implied_state_space,3.8045,-0.40432238291367195,False,True,41,-1825.5015486382968,-2698.297561196207,-1825.5015486382968,0.18036299359710029,9.873804106154983e-05,41.0,13,,0.0
ar,pseudo,2005:Q3:pre_second:pseudo,2005-11-30,pre_second,S,2005:Q3,3.0178774499499244,,,not_available,4.2839,-1.2660225500500757,False,True,0,,,,,,,13,,0.0
no_revision,pseudo,2005:Q3:pre_second:pseudo,2005-11-30,pre_second,S,2005:Q3,3.8045,,,not_available,4.2839,-0.47940000000000005,False,True,0,,,,,,,13,,0.0
bridge,pseudo,2005:Q3:pre_second:pseudo,2005-11-30,pre_second,S,2005:Q3,2.9202077731301666,,,not_available,4.2839,-1.3636922268698335,False,True,0,,,,,,,13,,0.0
midas_umidas,pseudo,2005:Q3:pre_second:pseudo,2005-11-30,pre_second,S,2005:Q3,4.804219178181921,,,not_available,4.2839,0.5203191781819205,False,True,0,,,,,,,13,,0.0
monthly_mixed_frequency_kalman_em,pseudo,2005:Q3:pre_second:pseudo,2005-11-30,pre_second,S,2005:Q3,3.6260238728077105,0.32810793558940293,0.5728070666371033,model_implied_state_space,4.2839,-0.6578761271922895,False,True,85,-3038.3056766666828,-3894.7362017985993,-3038.3056766666828,0.27435455684644694,9.026067878726337e-05,85.0,13,,0.0
standard_dfm,pseudo,2005:Q3:pre_second:pseudo,2005-11-30,pre_second,S,2005:Q3,2.9173005702868537,,,not_available,4.2839,-1.3665994297131463,False,True,0,,,,,,,13,,0.0
release_dfm,pseudo,2005:Q3:pre_second:pseudo,2005-11-30,pre_second,S,2005:Q3,3.978465790622625,,,not_available,4.2839,-0.305434209377375,False,True,0,,,,,,,13,,0.0
revision_dfm_kalman_em,pseudo,2005:Q3:pre_second:pseudo,2005-11-30,pre_second,S,2005:Q3,4.005594518518527,0.3893734440391059,0.6239979519510508,model_implied_state_space,4.2839,-0.27830548148147294,False,True,38,-1051.7063877125613,-1810.8020026294569,-1051.7063877125613,0.10325927271946966,9.807971746379079e-05,38.0,13,,0.0
indicator_revision_only_dfm_kalman_em,pseudo,2005:Q3:pre_second:pseudo,2005-11-30,pre_second,S,2005:Q3,3.8840144058978874,0.4070592087317249,0.6380119189574164,model_implied_state_space,4.2839,-0.39988559410211266,False,True,46,-1860.204610711583,-2688.5305953598154,-1860.204610711583,0.1832429165576741,9.844424212853035e-05,46.0,13,,0.0
joint_indicator_revision_dfm_full_kalman_em,pseudo,2005:Q3:pre_second:pseudo,2005-11-30,pre_second,S,2005:Q3,4.154270789221139,0.36414152240226244,0.6034413993108713,model_implied_state_space,4.2839,-0.12962921077886147,False,True,47,-1828.469094039919,-2700.726588522971,-1828.469094039919,0.17344456164323674,9.479696606518802e-05,47.0,13,,0.0
ar,pseudo,2005:Q3:pre_third:pseudo,2005-12-31,pre_third,T,2005:Q3,3.0673509604805287,,,not_available,4.1425,-1.0751490395194714,False,True,0,,,,,,,13,,0.0
no_revision,pseudo,2005:Q3:pre_third:pseudo,2005-12-31,pre_third,T,2005:Q3,4.2839,,,not_available,4.1425,0.14139999999999997,False,True,0,,,,,,,13,,0.0
bridge,pseudo,2005:Q3:pre_third:pseudo,2005-12-31,pre_third,T,2005:Q3,3.4924246726879242,,,not_available,4.1425,-0.6500753273120758,False,True,0,,,,,,,13,,0.0
midas_umidas,pseudo,2005:Q3:pre_third:pseudo,2005-12-31,pre_third,T,2005:Q3,3.3176660699902745,,,not_available,4.1425,-0.8248339300097256,False,True,0,,,,,,,13,,0.0
monthly_mixed_frequency_kalman_em,pseudo,2005:Q3:pre_third:pseudo,2005-12-31,pre_third,T,2005:Q3,4.004113342710012,0.12932319340590717,0.35961534089344294,model_implied_state_space,4.1425,-0.13838665728998834,False,False,100,-3064.975793505952,-3917.7792645457725,-3064.975793505952,0.7510073021271637,0.00024488888346013547,101.0,13,,0.0
standard_dfm,pseudo,2005:Q3:pre_third:pseudo,2005-12-31,pre_third,T,2005:Q3,3.028406574059412,,,not_available,4.1425,-1.1140934259405881,False,True,0,,,,,,,13,,0.0
release_dfm,pseudo,2005:Q3:pre_third:pseudo,2005-12-31,pre_third,T,2005:Q3,4.29439784843032,,,not_available,4.1425,0.15189784843031973,False,True,0,,,,,,,13,,0.0
revision_dfm_kalman_em,pseudo,2005:Q3:pre_third:pseudo,2005-12-31,pre_third,T,2005:Q3,4.274131644029487,0.13788624411268177,0.3713303705767706,model_implied_state_space,4.1425,0.13163164402948713,False,True,33,-1051.3346633834742,-1815.3784309795208,-1051.3346633834742,0.0994131553909483,9.446022093648646e-05,33.0,13,,0.0
indicator_revision_only_dfm_kalman_em,pseudo,2005:Q3:pre_third:pseudo,2005-12-31,pre_third,T,2005:Q3,4.263186954355266,0.14191989335721525,0.37672256815488936,model_implied_state_space,4.1425,0.120686954355266,False,True,46,-1859.87964270377,-2689.5447973106234,-1859.87964270377,0.18543011219094296,9.963655484134701e-05,46.0,13,,0.0
joint_indicator_revision_dfm_full_kalman_em,pseudo,2005:Q3:pre_third:pseudo,2005-12-31,pre_third,T,2005:Q3,4.287459539796049,0.13687329490622194,0.36996391027534287,model_implied_state_space,4.1425,0.1449595397960488,False,True,47,-1827.9936247321846,-2701.717338440812,-1827.9936247321846,0.1814206972574084,9.918170363778147e-05,47.0,13,,0.0
ar,exact,2005:Q4:pre_advance:exact,2006-01-26,pre_advance,A,2005:Q4,3.2464479729838,,,not_available,1.1187,2.1277479729838,False,True,0,,,,,,,13,,0.0
no_revision,exact,2005:Q4:pre_advance:exact,2006-01-26,pre_advance,A,2005:Q4,3.2478332834395918,,,not_available,1.1187,2.1291332834395917,False,True,0,,,,,,,13,,0.0
bridge,exact,2005:Q4:pre_advance:exact,2006-01-26,pre_advance,A,2005:Q4,3.4839409715421383,,,not_available,1.1187,2.3652409715421383,False,True,0,,,,,,,13,,0.0
midas_umidas,exact,2005:Q4:pre_advance:exact,2006-01-26,pre_advance,A,2005:Q4,12.327170197625122,,,not_available,1.1187,11.208470197625122,False,True,0,,,,,,,13,,0.0
monthly_mixed_frequency_kalman_em,exact,2005:Q4:pre_advance:exact,2006-01-26,pre_advance,A,2005:Q4,5.986459428967715,5.07139593753787,2.251976007318433,model_implied_state_space,1.1187,4.867759428967714,False,True,89,-3075.727786690872,-3933.722181110848,-3075.727786690872,0.27706402401508967,9.004341476768189e-05,89.0,13,,0.0
standard_dfm,exact,2005:Q4:pre_advance:exact,2006-01-26,pre_advance,A,2005:Q4,3.593739825984927,,,not_available,1.1187,2.475039825984927,False,True,0,,,,,,,13,,0.0
release_dfm,exact,2005:Q4:pre_advance:exact,2006-01-26,pre_advance,A,2005:Q4,3.593739825984927,,,not_available,1.1187,2.475039825984927,False,True,0,,,,,,,13,,0.0
revision_dfm_kalman_em,exact,2005:Q4:pre_advance:exact,2006-01-26,pre_advance,A,2005:Q4,4.193777756718343,6.087882434987688,2.467363458225741,model_implied_state_space,1.1187,3.075077756718343,False,True,38,-1067.877681032739,-1831.2637450651694,-1067.877681032739,0.09945974593392748,9.304197642755785e-05,38.0,13,,0.0
indicator_revision_only_dfm_kalman_em,exact,2005:Q4:pre_advance:exact,2006-01-26,pre_advance,A,2005:Q4,6.419087142676133,6.637672530321848,2.5763680890590632,model_implied_state_space,1.1187,5.300387142676133,False,True,37,-1889.7597361051064,-2730.218308161178,-1889.7597361051064,0.1858514032817311,9.828490280707597e-05,37.0,13,,0.0
joint_indicator_revision_dfm_full_kalman_em,exact,2005:Q4:pre_advance:exact,2006-01-26,pre_advance,A,2005:Q4,5.864414942277431,5.263692660263372,2.294273885189685,model_implied_state_space,1.1187,4.745714942277431,False,True,34,-1858.2621631706381,-2742.2584553334273,-1858.2621631706381,0.18556958330100315,9.979822504941557e-05,34.0,13,,0.0
ar,exact,2005:Q4:pre_second:exact,2006-02-27,pre_second,S,2005:Q4,3.4737475066981256,,,not_available,1.6274,1.8463475066981256,False,True,0,,,,,,,13,,0.0
no_revision,exact,2005:Q4:pre_second:exact,2006-02-27,pre_second,S,2005:Q4,1.1187,,,not_available,1.6274,-0.5086999999999999,False,True,0,,,,,,,13,,0.0
bridge,exact,2005:Q4:pre_second:exact,2006-02-27,pre_second,S,2005:Q4,4.076053773320742,,,not_available,1.6274,2.448653773320742,False,True,0,,,,,,,13,,0.0
midas_umidas,exact,2005:Q4:pre_second:exact,2006-02-27,pre_second,S,2005:Q4,-0.5649122578015284,,,not_available,1.6274,-2.1923122578015284,False,True,0,,,,,,,13,,0.0
monthly_mixed_frequency_kalman_em,exact,2005:Q4:pre_second:exact,2006-02-27,pre_second,S,2005:Q4,1.5507169545100765,0.33080894560650603,0.5751599304597862,model_implied_state_space,1.6274,-0.07668304548992344,False,False,100,-3098.5021104072725,-3958.2539709897565,-3098.5021104072725,0.3236839178016453,0.00010442003495622923,101.0,13,,0.0
standard_dfm,exact,2005:Q4:pre_second:exact,2006-02-27,pre_second,S,2005:Q4,4.011089933926364,,,not_available,1.6274,2.383689933926364,False,True,0,,,,,,,13,,0.0
release_dfm,exact,2005:Q4:pre_second:exact,2006-02-27,pre_second,S,2005:Q4,1.2384132484984514,,,not_available,1.6274,-0.3889867515015486,False,True,0,,,,,,,13,,0.0
revision_dfm_kalman_em,exact,2005:Q4:pre_second:exact,2006-02-27,pre_second,S,2005:Q4,1.1400805600955883,0.38761858330251464,0.6225902210142034,model_implied_state_space,1.6274,-0.4873194399044116,False,True,38,-1069.9418957508867,-1832.7694067153163,-1069.9418957508867,0.09887489826928686,9.23166521563497e-05,38.0,13,,0.0
indicator_revision_only_dfm_kalman_em,exact,2005:Q4:pre_second:exact,2006-02-27,pre_second,S,2005:Q4,1.4034590561901854,0.4156235893471437,0.644688753855024,model_implied_state_space,1.6274,-0.22394094380981455,False,True,34,-1893.5331469038601,-2731.8225088135514,-1893.5331469038601,0.1869795449144931,9.868451931470431e-05,34.0,13,,0.0
joint_indicator_revision_dfm_full_kalman_em,exact,2005:Q4:pre_second:exact,2006-02-27,pre_second,S,2005:Q4,1.101496278782684,0.368460837009002,0.6070097503409662,model_implied_state_space,1.6274,-0.5259037212173159,False,True,34,-1861.4374523037434,-2743.9585650442555,-1861.4374523037434,0.17112773049871066,9.187530452348966e-05,34.0,13,,0.0
ar,exact,2005:Q4:pre_third:exact,2006-03-29,pre_third,T,2005:Q4,3.434949731336563,,,not_available,1.6527,1.7822497313365628,False,True,0,,,,,,,13,,0.0
no_revision,exact,2005:Q4:pre_third:exact,2006-03-29,pre_third,T,2005:Q4,1.6274,,,not_available,1.6527,-0.0253000000000001,False,True,0,,,,,,,13,,0.0
bridge,exact,2005:Q4:pre_third:exact,2006-03-29,pre_third,T,2005:Q4,4.0602604490807135,,,not_available,1.6527,2.407560449080713,False,True,0,,,,,,,13,,0.0
midas_umidas,exact,2005:Q4:pre_third:exact,2006-03-29,pre_third,T,2005:Q4,4.1201324831483594,,,not_available,1.6527,2.467432483148359,False,True,0,,,,,,,13,,0.0
monthly_mixed_frequency_kalman_em,exact,2005:Q4:pre_third:exact,2006-03-29,pre_third,T,2005:Q4,1.8623821847127113,0.12794848345604393,0.35769887259543315,model_implied_state_space,1.6527,0.20968218471271127,False,False,100,-3116.8457639515022,-3977.4122302440474,-3116.8457639515022,0.4737295306872511,0.00015191821481968902,101.0,13,,0.0
standard_dfm,exact,2005:Q4:pre_third:exact,2006-03-29,pre_third,T,2005:Q4,4.1259477507131495,,,not_available,1.6527,2.473247750713149,False,True,0,,,,,,,13,,0.0
release_dfm,exact,2005:Q4:pre_third:exact,2006-03-29,pre_third,T,2005:Q4,1.614435166027049,,,not_available,1.6527,-0.038264833972950996,False,True,0,,,,,,,13,,0.0
revision_dfm_kalman_em,exact,2005:Q4:pre_third:exact,2006-03-29,pre_third,T,2005:Q4,1.601651180667583,0.13747861411703105,0.370781086514713,model_implied_state_space,1.6527,-0.051048819332417006,False,True,38,-1069.8527044532868,-1833.94269592791,-1069.8527044532868,0.09826619316800134,9.175601485162782e-05,38.0,13,,0.0
indicator_revision_only_dfm_kalman_em,exact,2005:Q4:pre_third:exact,2006-03-29,pre_third,T,2005:Q4,1.6143836241193654,0.14126207910566774,0.37584847891892254,model_implied_state_space,1.6527,-0.038316375880634634,False,True,35,-1892.9447969909909,-2732.895841162658,-1892.9447969909909,0.17737564745448253,9.364530441423666e-05,35.0,13,,0.0
joint_indicator_revision_dfm_full_kalman_em,exact,2005:Q4:pre_third:exact,2006-03-29,pre_third,T,2005:Q4,1.589120099297042,0.1353086676396486,0.3678432650459277,model_implied_state_space,1.6527,-0.06357990070295805,False,True,34,-1861.3336628442653,-2745.0037017558593,-1861.3336628442653,0.17092809015252897,9.177324500809655e-05,34.0,13,,0.0
ar,pseudo,2005:Q4:pre_advance:pseudo,2006-01-31,pre_advance,A,2005:Q4,3.2464479729838,,,not_available,1.1187,2.1277479729838,False,True,0,,,,,,,13,,0.0
no_revision,pseudo,2005:Q4:pre_advance:pseudo,2006-01-31,pre_advance,A,2005:Q4,3.2478332834395918,,,not_available,1.1187,2.1291332834395917,False,True,0,,,,,,,13,,0.0
bridge,pseudo,2005:Q4:pre_advance:pseudo,2006-01-31,pre_advance,A,2005:Q4,3.496905730222601,,,not_available,1.1187,2.378205730222601,False,True,0,,,,,,,13,,0.0
midas_umidas,pseudo,2005:Q4:pre_advance:pseudo,2006-01-31,pre_advance,A,2005:Q4,12.362913455034136,,,not_available,1.1187,11.244213455034135,False,True,0,,,,,,,13,,0.0
monthly_mixed_frequency_kalman_em,pseudo,2005:Q4:pre_advance:pseudo,2006-01-31,pre_advance,A,2005:Q4,5.984562949889275,5.0708517490112195,2.251855179404577,model_implied_state_space,1.1187,4.865862949889275,False,True,89,-3075.69955809425,-3933.7266907405456,-3075.69955809425,0.2745298743193416,8.922072999990305e-05,89.0,13,,0.0
standard_dfm,pseudo,2005:Q4:pre_advance:pseudo,2006-01-31,pre_advance,A,2005:Q4,3.593304057725815,,,not_available,1.1187,2.474604057725815,False,True,0,,,,,,,13,,0.0
release_dfm,pseudo,2005:Q4:pre_advance:pseudo,2006-01-31,pre_advance,A,2005:Q4,3.593304057725815,,,not_available,1.1187,2.474604057725815,False,True,0,,,,,,,13,,0.0
revision_dfm_kalman_em,pseudo,2005:Q4:pre_advance:pseudo,2006-01-31,pre_advance,A,2005:Q4,4.193318361781156,6.0877416843621734,2.467334935585798,model_implied_state_space,1.1187,3.0746183617811558,False,True,38,-1067.878457736426,-1831.2634655840895,-1067.878457736426,0.09946203893787242,9.304405366836153e-05,38.0,13,,0.0
indicator_revision_only_dfm_kalman_em,pseudo,2005:Q4:pre_advance:pseudo,2006-01-31,pre_advance,A,2005:Q4,6.418417469400587,6.637585763541824,2.5763512500320727,model_implied_state_space,1.1187,5.299717469400587,False,True,37,-1889.7578673650034,-2730.21645311373,-1889.7578673650034,0.18589133914861122,9.830611740457104e-05,37.0,13,,0.0
joint_indicator_revision_dfm_full_kalman_em,pseudo,2005:Q4:pre_advance:pseudo,2006-01-31,pre_advance,A,2005:Q4,5.863666282455814,5.263653475177291,2.2942653454161075,model_implied_state_space,1.1187,4.744966282455813,False,True,34,-1858.2604767571631,-2742.2566053309415,-1858.2604767571631,0.1855656411153177,9.979619568631237e-05,34.0,13,,0.0
ar,pseudo,2005:Q4:pre_second:pseudo,2006-02-28,pre_second,S,2005:Q4,3.4737475066981256,,,not_available,1.6274,1.8463475066981256,False,True,0,,,,,,,13,,0.0
no_revision,pseudo,2005:Q4:pre_second:pseudo,2006-02-28,pre_second,S,2005:Q4,1.1187,,,not_available,1.6274,-0.5086999999999999,False,True,0,,,,,,,13,,0.0
bridge,pseudo,2005:Q4:pre_second:pseudo,2006-02-28,pre_second,S,2005:Q4,4.076053773320742,,,not_available,1.6274,2.448653773320742,False,True,0,,,,,,,13,,0.0
midas_umidas,pseudo,2005:Q4:pre_second:pseudo,2006-02-28,pre_second,S,2005:Q4,-0.5649122578015284,,,not_available,1.6274,-2.1923122578015284,False,True,0,,,,,,,13,,0.0
monthly_mixed_frequency_kalman_em,pseudo,2005:Q4:pre_second:pseudo,2006-02-28,pre_second,S,2005:Q4,1.5507169545100765,0.33080894560650603,0.5751599304597862,model_implied_state_space,1.6274,-0.07668304548992344,False,False,100,-3098.5021104072725,-3958.2539709897565,-3098.5021104072725,0.3236839178016453,0.00010442003495622923,101.0,13,,0.0
standard_dfm,pseudo,2005:Q4:pre_second:pseudo,2006-02-28,pre_second,S,2005:Q4,4.011089933926364,,,not_available,1.6274,2.383689933926364,False,True,0,,,,,,,13,,0.0
release_dfm,pseudo,2005:Q4:pre_second:pseudo,2006-02-28,pre_second,S,2005:Q4,1.2384132484984514,,,not_available,1.6274,-0.3889867515015486,False,True,0,,,,,,,13,,0.0
revision_dfm_kalman_em,pseudo,2005:Q4:pre_second:pseudo,2006-02-28,pre_second,S,2005:Q4,1.1400805600955883,0.38761858330251464,0.6225902210142034,model_implied_state_space,1.6274,-0.4873194399044116,False,True,38,-1069.9418957508867,-1832.7694067153163,-1069.9418957508867,0.09887489826928686,9.23166521563497e-05,38.0,13,,0.0
indicator_revision_only_dfm_kalman_em,pseudo,2005:Q4:pre_second:pseudo,2006-02-28,pre_second,S,2005:Q4,1.4034590561901854,0.4156235893471437,0.644688753855024,model_implied_state_space,1.6274,-0.22394094380981455,False,True,34,-1893.5331469038601,-2731.8225088135514,-1893.5331469038601,0.1869795449144931,9.868451931470431e-05,34.0,13,,0.0
joint_indicator_revision_dfm_full_kalman_em,pseudo,2005:Q4:pre_second:pseudo,2006-02-28,pre_second,S,2005:Q4,1.101496278782684,0.368460837009002,0.6070097503409662,model_implied_state_space,1.6274,-0.5259037212173159,False,True,34,-1861.4374523037434,-2743.9585650442555,-1861.4374523037434,0.17112773049871066,9.187530452348966e-05,34.0,13,,0.0
ar,pseudo,2005:Q4:pre_third:pseudo,2006-03-31,pre_third,T,2005:Q4,3.434949731336563,,,not_available,1.6527,1.7822497313365628,False,True,0,,,,,,,13,,0.0
no_revision,pseudo,2005:Q4:pre_third:pseudo,2006-03-31,pre_third,T,2005:Q4,1.6274,,,not_available,1.6527,-0.0253000000000001,False,True,0,,,,,,,13,,0.0
bridge,pseudo,2005:Q4:pre_third:pseudo,2006-03-31,pre_third,T,2005:Q4,4.005852251483771,,,not_available,1.6527,2.3531522514837704,False,True,0,,,,,,,13,,0.0
midas_umidas,pseudo,2005:Q4:pre_third:pseudo,2006-03-31,pre_third,T,2005:Q4,3.9813562507240245,,,not_available,1.6527,2.3286562507240243,False,True,0,,,,,,,13,,0.0
monthly_mixed_frequency_kalman_em,pseudo,2005:Q4:pre_third:pseudo,2006-03-31,pre_third,T,2005:Q4,1.855984225892024,0.127727705860218,0.35739013117350904,model_implied_state_space,1.6527,0.203284225892024,False,False,100,-3115.113720451655,-3977.6557839990337,-3115.113720451655,0.33892322960491583,0.00010875288937635458,101.0,13,,0.0
standard_dfm,pseudo,2005:Q4:pre_third:pseudo,2006-03-31,pre_third,T,2005:Q4,4.130967524639935,,,not_available,1.6527,2.478267524639935,False,True,0,,,,,,,13,,0.0
release_dfm,pseudo,2005:Q4:pre_third:pseudo,2006-03-31,pre_third,T,2005:Q4,1.6154042763820449,,,not_available,1.6527,-0.03729572361795519,False,True,0,,,,,,,13,,0.0
revision_dfm_kalman_em,pseudo,2005:Q4:pre_third:pseudo,2006-03-31,pre_third,T,2005:Q4,1.601624685035026,0.1374749134582463,0.37077609612574314,model_implied_state_space,1.6527,-0.05107531496497408,False,True,38,-1069.8629095421068,-1834.0469584893299,-1069.8629095421068,0.09779795277336234,9.131796534545584e-05,38.0,13,,0.0
indicator_revision_only_dfm_kalman_em,pseudo,2005:Q4:pre_third:pseudo,2006-03-31,pre_third,T,2005:Q4,1.6143771364421833,0.14126209119339667,0.37584849499950995,model_implied_state_space,1.6527,-0.03832286355781678,False,True,35,-1892.9771550616372,-2733.051605938169,-1892.9771550616372,0.17724869392372966,9.357668708120981e-05,35.0,13,,0.0
joint_indicator_revision_dfm_full_kalman_em,pseudo,2005:Q4:pre_third:pseudo,2006-03-31,pre_third,T,2005:Q4,1.5892042607785315,0.13530702362808816,0.3678410303760147,model_implied_state_space,1.6527,-0.06349573922146856,False,True,34,-1861.3648450475275,-2745.158537704772,-1861.3648450475275,0.17081325578669748,9.171005936192418e-05,34.0,13,,0.0
ar,exact,2006:Q1:pre_advance:exact,2006-04-27,pre_advance,A,2006:Q1,1.9162734650651858,,,not_available,4.8178,-2.9015265349348143,False,True,0,,,,,,,13,,0.0
no_revision,exact,2006:Q1:pre_advance:exact,2006-04-27,pre_advance,A,2006:Q1,1.9412571709533264,,,not_available,4.8178,-2.8765428290466737,False,True,0,,,,,,,13,,0.0
bridge,exact,2006:Q1:pre_advance:exact,2006-04-27,pre_advance,A,2006:Q1,2.213341110458662,,,not_available,4.8178,-2.604458889541338,False,True,0,,,,,,,13,,0.0
midas_umidas,exact,2006:Q1:pre_advance:exact,2006-04-27,pre_advance,A,2006:Q1,25.435897295723727,,,not_available,4.8178,20.61809729572373,False,True,0,,,,,,,13,,0.0
monthly_mixed_frequency_kalman_em,exact,2006:Q1:pre_advance:exact,2006-04-27,pre_advance,A,2006:Q1,2.9425042063140814,5.782294691015922,2.4046402414947483,model_implied_state_space,4.8178,-1.8752957936859187,False,True,88,-3129.050309870977,-3994.394021652109,-3129.050309870977,0.26538895917792615,8.478025372236606e-05,88.0,13,,0.0
standard_dfm,exact,2006:Q1:pre_advance:exact,2006-04-27,pre_advance,A,2006:Q1,3.2292499067701845,,,not_available,4.8178,-1.5885500932298156,False,True,0,,,,,,,13,,0.0
release_dfm,exact,2006:Q1:pre_advance:exact,2006-04-27,pre_advance,A,2006:Q1,3.2292499067701845,,,not_available,4.8178,-1.5885500932298156,False,True,0,,,,,,,13,,0.0
revision_dfm_kalman_em,exact,2006:Q1:pre_advance:exact,2006-04-27,pre_advance,A,2006:Q1,2.4567329937089055,6.536495637277403,2.5566571215705487,model_implied_state_space,4.8178,-2.3610670062910946,False,True,37,-1086.23369098475,-1853.7869649691054,-1086.23369098475,0.10227374024452729,9.405900619721894e-05,37.0,13,,0.0
indicator_revision_only_dfm_kalman_em,exact,2006:Q1:pre_advance:exact,2006-04-27,pre_advance,A,2006:Q1,4.314902423602564,7.8609572184458605,2.8037398628342576,model_implied_state_space,4.8178,-0.5028975763974364,False,True,34,-1922.674981086658,-2766.3391547807764,-1922.674981086658,0.19111458826114358,9.933882024886868e-05,34.0,13,,0.0
joint_indicator_revision_dfm_full_kalman_em,exact,2006:Q1:pre_advance:exact,2006-04-27,pre_advance,A,2006:Q1,3.4124544485235955,6.197114114847269,2.4894003524638757,model_implied_state_space,4.8178,-1.4053455514764046,False,True,33,-1891.6072169778934,-2778.556192881141,-1891.6072169778934,0.1699275658240822,8.977684790516942e-05,33.0,13,,0.0
ar,exact,2006:Q1:pre_second:exact,2006-05-24,pre_second,S,2006:Q1,2.270568285238669,,,not_available,5.3086,-3.038031714761331,False,True,0,,,,,,,13,,0.0
no_revision,exact,2006:Q1:pre_second:exact,2006-05-24,pre_second,S,2006:Q1,4.8178,,,not_available,5.3086,-0.4908000000000001,False,True,0,,,,,,,13,,0.0
bridge,exact,2006:Q1:pre_second:exact,2006-05-24,pre_second,S,2006:Q1,2.4034774071399516,,,not_available,5.3086,-2.9051225928600486,False,True,0,,,,,,,13,,0.0
midas_umidas,exact,2006:Q1:pre_second:exact,2006-05-24,pre_second,S,2006:Q1,5.427090905632891,,,not_available,5.3086,0.11849090563289089,False,True,0,,,,,,,13,,0.0
monthly_mixed_frequency_kalman_em,exact,2006:Q1:pre_second:exact,2006-05-24,pre_second,S,2006:Q1,4.998702952326917,0.3314961042125267,0.5757569836419935,model_implied_state_space,5.3086,-0.30989704767308357,False,True,84,-3146.327069073372,-4013.3111562951703,-3146.327069073372,0.291275818043232,9.253848024998732e-05,84.0,13,,0.0
standard_dfm,exact,2006:Q1:pre_second:exact,2006-05-24,pre_second,S,2006:Q1,3.4622736293107423,,,not_available,5.3086,-1.8463263706892579,False,True,0,,,,,,,13,,0.0
release_dfm,exact,2006:Q1:pre_second:exact,2006-05-24,pre_second,S,2006:Q1,5.058042305107192,,,not_available,5.3086,-0.2505576948928079,False,True,0,,,,,,,13,,0.0
revision_dfm_kalman_em,exact,2006:Q1:pre_second:exact,2006-05-24,pre_second,S,2006:Q1,5.077509689756189,0.386923435613675,0.622031699846298,model_implied_state_space,5.3086,-0.2310903102438111,False,True,32,-1086.1078844449007,-1858.1848245681826,-1086.1078844449007,0.10257014132139375,9.434248989118724e-05,32.0,13,,0.0
indicator_revision_only_dfm_kalman_em,exact,2006:Q1:pre_second:exact,2006-05-24,pre_second,S,2006:Q1,4.822929381455214,0.41391326834307707,0.6433609160829379,model_implied_state_space,5.3086,-0.4856706185447859,False,True,33,-1924.7646853123283,-2770.1848326556747,-1924.7646853123283,0.1890422119734012,9.8155116227223e-05,33.0,13,,0.0
joint_indicator_revision_dfm_full_kalman_em,exact,2006:Q1:pre_second:exact,2006-05-24,pre_second,S,2006:Q1,5.356861095449608,0.3690191207261875,0.6074694401582581,model_implied_state_space,5.3086,0.04826109544960744,False,True,33,-1892.7630952120571,-2782.390137164648,-1892.7630952120571,0.1828620308126574,9.655081767953959e-05,33.0,13,,0.0
ar,exact,2006:Q1:pre_third:exact,2006-06-28,pre_third,T,2006:Q1,2.346837837693795,,,not_available,5.638,-3.291162162306205,False,True,0,,,,,,,13,,0.0
no_revision,exact,2006:Q1:pre_third:exact,2006-06-28,pre_third,T,2006:Q1,5.3086,,,not_available,5.638,-0.3293999999999997,False,True,0,,,,,,,13,,0.0
bridge,exact,2006:Q1:pre_third:exact,2006-06-28,pre_third,T,2006:Q1,2.6577374910833718,,,not_available,5.638,-2.980262508916628,False,True,0,,,,,,,13,,0.0
midas_umidas,exact,2006:Q1:pre_third:exact,2006-06-28,pre_third,T,2006:Q1,6.021006258694043,,,not_available,5.638,0.38300625869404303,False,True,0,,,,,,,13,,0.0
monthly_mixed_frequency_kalman_em,exact,2006:Q1:pre_third:exact,2006-06-28,pre_third,T,2006:Q1,5.368181547179588,0.13037672576775722,0.36107717425469754,model_implied_state_space,5.638,-0.26981845282041217,False,True,87,-3165.219847323746,-4037.566967112702,-3165.219847323746,0.30845195695974326,9.74101374776312e-05,87.0,13,,0.0
standard_dfm,exact,2006:Q1:pre_third:exact,2006-06-28,pre_third,T,2006:Q1,3.5049689406413282,,,not_available,5.638,-2.1330310593586717,False,True,0,,,,,,,13,,0.0
release_dfm,exact,2006:Q1:pre_third:exact,2006-06-28,pre_third,T,2006:Q1,5.357868818750799,,,not_available,5.638,-0.28013118124920133,False,True,0,,,,,,,13,,0.0
revision_dfm_kalman_em,exact,2006:Q1:pre_third:exact,2006-06-28,pre_third,T,2006:Q1,5.303798955738622,0.13627508949441597,0.369154560441038,model_implied_state_space,5.638,-0.33420104426137787,False,True,32,-1086.564308537413,-1860.3027787623305,-1086.564308537413,0.10106157807240379,9.291605750183381e-05,32.0,13,,0.0
indicator_revision_only_dfm_kalman_em,exact,2006:Q1:pre_third:exact,2006-06-28,pre_third,T,2006:Q1,5.279907047056651,0.14038704507209243,0.37468259243270485,model_implied_state_space,5.638,-0.3580929529433492,False,True,35,-1924.901250525644,-2772.2989861601236,-1924.901250525644,0.19015579274878291,9.87262557347962e-05,35.0,13,,0.0
joint_indicator_revision_dfm_full_kalman_em,exact,2006:Q1:pre_third:exact,2006-06-28,pre_third,T,2006:Q1,5.329065403662749,0.1343821374576666,0.3665816927475602,model_implied_state_space,5.638,-0.3089345963372505,False,True,34,-1892.656209955986,-2784.470077759342,-1892.656209955986,0.17625705088562427,9.306897730198472e-05,34.0,13,,0.0
ar,pseudo,2006:Q1:pre_advance:pseudo,2006-04-30,pre_advance,A,2006:Q1,1.9162734650651858,,,not_available,4.8178,-2.9015265349348143,False,True,0,,,,,,,13,,0.0
no_revision,pseudo,2006:Q1:pre_advance:pseudo,2006-04-30,pre_advance,A,2006:Q1,1.9412571709533264,,,not_available,4.8178,-2.8765428290466737,False,True,0,,,,,,,13,,0.0
bridge,pseudo,2006:Q1:pre_advance:pseudo,2006-04-30,pre_advance,A,2006:Q1,2.213341110458662,,,not_available,4.8178,-2.604458889541338,False,True,0,,,,,,,13,,0.0
midas_umidas,pseudo,2006:Q1:pre_advance:pseudo,2006-04-30,pre_advance,A,2006:Q1,25.435897295723727,,,not_available,4.8178,20.61809729572373,False,True,0,,,,,,,13,,0.0
monthly_mixed_frequency_kalman_em,pseudo,2006:Q1:pre_advance:pseudo,2006-04-30,pre_advance,A,2006:Q1,2.9425042063140814,5.782294691015922,2.4046402414947483,model_implied_state_space,4.8178,-1.8752957936859187,False,True,88,-3129.050309870977,-3994.394021652109,-3129.050309870977,0.26538895917792615,8.478025372236606e-05,88.0,13,,0.0
standard_dfm,pseudo,2006:Q1:pre_advance:pseudo,2006-04-30,pre_advance,A,2006:Q1,3.2292499067701845,,,not_available,4.8178,-1.5885500932298156,False,True,0,,,,,,,13,,0.0
release_dfm,pseudo,2006:Q1:pre_advance:pseudo,2006-04-30,pre_advance,A,2006:Q1,3.2292499067701845,,,not_available,4.8178,-1.5885500932298156,False,True,0,,,,,,,13,,0.0
revision_dfm_kalman_em,pseudo,2006:Q1:pre_advance:pseudo,2006-04-30,pre_advance,A,2006:Q1,2.4567329937089055,6.536495637277403,2.5566571215705487,model_implied_state_space,4.8178,-2.3610670062910946,False,True,37,-1086.23369098475,-1853.7869649691054,-1086.23369098475,0.10227374024452729,9.405900619721894e-05,37.0,13,,0.0
indicator_revision_only_dfm_kalman_em,pseudo,2006:Q1:pre_advance:pseudo,2006-04-30,pre_advance,A,2006:Q1,4.314902423602564,7.8609572184458605,2.8037398628342576,model_implied_state_space,4.8178,-0.5028975763974364,False,True,34,-1922.674981086658,-2766.3391547807764,-1922.674981086658,0.19111458826114358,9.933882024886868e-05,34.0,13,,0.0
joint_indicator_revision_dfm_full_kalman_em,pseudo,2006:Q1:pre_advance:pseudo,2006-04-30,pre_advance,A,2006:Q1,3.4124544485235955,6.197114114847269,2.4894003524638757,model_implied_state_space,4.8178,-1.4053455514764046,False,True,33,-1891.6072169778934,-2778.556192881141,-1891.6072169778934,0.1699275658240822,8.977684790516942e-05,33.0,13,,0.0
ar,pseudo,2006:Q1:pre_second:pseudo,2006-05-31,pre_second,S,2006:Q1,2.270568285238669,,,not_available,5.3086,-3.038031714761331,False,True,0,,,,,,,13,,0.0
no_revision,pseudo,2006:Q1:pre_second:pseudo,2006-05-31,pre_second,S,2006:Q1,4.8178,,,not_available,5.3086,-0.4908000000000001,False,True,0,,,,,,,13,,0.0
bridge,pseudo,2006:Q1:pre_second:pseudo,2006-05-31,pre_second,S,2006:Q1,2.4034774071399516,,,not_available,5.3086,-2.9051225928600486,False,True,0,,,,,,,13,,0.0
midas_umidas,pseudo,2006:Q1:pre_second:pseudo,2006-05-31,pre_second,S,2006:Q1,5.427090905632891,,,not_available,5.3086,0.11849090563289089,False,True,0,,,,,,,13,,0.0
monthly_mixed_frequency_kalman_em,pseudo,2006:Q1:pre_second:pseudo,2006-05-31,pre_second,S,2006:Q1,4.998702952326917,0.3314961042125267,0.5757569836419935,model_implied_state_space,5.3086,-0.30989704767308357,False,True,84,-3146.327069073372,-4013.3111562951703,-3146.327069073372,0.291275818043232,9.253848024998732e-05,84.0,13,,0.0
standard_dfm,pseudo,2006:Q1:pre_second:pseudo,2006-05-31,pre_second,S,2006:Q1,3.4622736293107423,,,not_available,5.3086,-1.8463263706892579,False,True,0,,,,,,,13,,0.0
release_dfm,pseudo,2006:Q1:pre_second:pseudo,2006-05-31,pre_second,S,2006:Q1,5.058042305107192,,,not_available,5.3086,-0.2505576948928079,False,True,0,,,,,,,13,,0.0
revision_dfm_kalman_em,pseudo,2006:Q1:pre_second:pseudo,2006-05-31,pre_second,S,2006:Q1,5.077509689756189,0.386923435613675,0.622031699846298,model_implied_state_space,5.3086,-0.2310903102438111,False,True,32,-1086.1078844449007,-1858.1848245681826,-1086.1078844449007,0.10257014132139375,9.434248989118724e-05,32.0,13,,0.0
indicator_revision_only_dfm_kalman_em,pseudo,2006:Q1:pre_second:pseudo,2006-05-31,pre_second,S,2006:Q1,4.822929381455214,0.41391326834307707,0.6433609160829379,model_implied_state_space,5.3086,-0.4856706185447859,False,True,33,-1924.7646853123283,-2770.1848326556747,-1924.7646853123283,0.1890422119734012,9.8155116227223e-05,33.0,13,,0.0
joint_indicator_revision_dfm_full_kalman_em,pseudo,2006:Q1:pre_second:pseudo,2006-05-31,pre_second,S,2006:Q1,5.356861095449608,0.3690191207261875,0.6074694401582581,model_implied_state_space,5.3086,0.04826109544960744,False,True,33,-1892.7630952120571,-2782.390137164648,-1892.7630952120571,0.1828620308126574,9.655081767953959e-05,33.0,13,,0.0
ar,pseudo,2006:Q1:pre_third:pseudo,2006-06-30,pre_third,T,2006:Q1,2.346837837693795,,,not_available,5.638,-3.291162162306205,False,True,0,,,,,,,13,,0.0
no_revision,pseudo,2006:Q1:pre_third:pseudo,2006-06-30,pre_third,T,2006:Q1,5.3086,,,not_available,5.638,-0.3293999999999997,False,True,0,,,,,,,13,,0.0
bridge,pseudo,2006:Q1:pre_third:pseudo,2006-06-30,pre_third,T,2006:Q1,2.6577374910833718,,,not_available,5.638,-2.980262508916628,False,True,0,,,,,,,13,,0.0
midas_umidas,pseudo,2006:Q1:pre_third:pseudo,2006-06-30,pre_third,T,2006:Q1,6.021006258694043,,,not_available,5.638,0.38300625869404303,False,True,0,,,,,,,13,,0.0
monthly_mixed_frequency_kalman_em,pseudo,2006:Q1:pre_third:pseudo,2006-06-30,pre_third,T,2006:Q1,5.368181547179588,0.13037672576775722,0.36107717425469754,model_implied_state_space,5.638,-0.26981845282041217,False,True,87,-3165.219847323746,-4037.566967112702,-3165.219847323746,0.30845195695974326,9.74101374776312e-05,87.0,13,,0.0
standard_dfm,pseudo,2006:Q1:pre_third:pseudo,2006-06-30,pre_third,T,2006:Q1,3.5049689406413282,,,not_available,5.638,-2.1330310593586717,False,True,0,,,,,,,13,,0.0
release_dfm,pseudo,2006:Q1:pre_third:pseudo,2006-06-30,pre_third,T,2006:Q1,5.357868818750799,,,not_available,5.638,-0.28013118124920133,False,True,0,,,,,,,13,,0.0
revision_dfm_kalman_em,pseudo,2006:Q1:pre_third:pseudo,2006-06-30,pre_third,T,2006:Q1,5.303798955738622,0.13627508949441597,0.369154560441038,model_implied_state_space,5.638,-0.33420104426137787,False,True,32,-1086.564308537413,-1860.3027787623305,-1086.564308537413,0.10106157807240379,9.291605750183381e-05,32.0,13,,0.0
indicator_revision_only_dfm_kalman_em,pseudo,2006:Q1:pre_third:pseudo,2006-06-30,pre_third,T,2006:Q1,5.279907047056651,0.14038704507209243,0.37468259243270485,model_implied_state_space,5.638,-0.3580929529433492,False,True,35,-1924.901250525644,-2772.2989861601236,-1924.901250525644,0.19015579274878291,9.87262557347962e-05,35.0,13,,0.0
joint_indicator_revision_dfm_full_kalman_em,pseudo,2006:Q1:pre_third:pseudo,2006-06-30,pre_third,T,2006:Q1,5.329065403662749,0.1343821374576666,0.3665816927475602,model_implied_state_space,5.638,-0.3089345963372505,False,True,34,-1892.656209955986,-2784.470077759342,-1892.656209955986,0.17625705088562427,9.306897730198472e-05,34.0,13,,0.0
ar,exact,2006:Q2:pre_advance:exact,2006-07-27,pre_advance,A,2006:Q2,3.740059135204821,,,not_available,2.4577,1.2823591352048211,False,True,0,,,,,,,13,,0.0
no_revision,exact,2006:Q2:pre_advance:exact,2006-07-27,pre_advance,A,2006:Q2,3.697855652198896,,,not_available,2.4577,1.240155652198896,False,True,0,,,,,,,13,,0.0
bridge,exact,2006:Q2:pre_advance:exact,2006-07-27,pre_advance,A,2006:Q2,1.5213527369938808,,,not_available,2.4577,-0.9363472630061191,False,True,0,,,,,,,13,,0.0
midas_umidas,exact,2006:Q2:pre_advance:exact,2006-07-27,pre_advance,A,2006:Q2,-12.42670128338963,,,not_available,2.4577,-14.884401283389629,False,True,0,,,,,,,13,,0.0
monthly_mixed_frequency_kalman_em,exact,2006:Q2:pre_advance:exact,2006-07-27,pre_advance,A,2006:Q2,4.901439010601046,5.3594336511892795,2.3150450646130585,model_implied_state_space,2.4577,2.443739010601046,False,True,90,-3182.6641132162968,-4057.924847392032,-3182.6641132162968,0.29232906012020976,9.181314676252441e-05,90.0,13,,0.0
standard_dfm,exact,2006:Q2:pre_advance:exact,2006-07-27,pre_advance,A,2006:Q2,3.463575640485881,,,not_available,2.4577,1.0058756404858809,False,True,0,,,,,,,13,,0.0
release_dfm,exact,2006:Q2:pre_advance:exact,2006-07-27,pre_advance,A,2006:Q2,3.463575640485881,,,not_available,2.4577,1.0058756404858809,False,True,0,,,,,,,13,,0.0
revision_dfm_kalman_em,exact,2006:Q2:pre_advance:exact,2006-07-27,pre_advance,A,2006:Q2,3.5940688150227853,6.4299134953940325,2.535727409520596,model_implied_state_space,2.4577,1.1363688150227853,False,True,32,-1102.4861513695662,-1879.262631083548,-1102.4861513695662,0.10048317161727027,9.10514575586956e-05,32.0,13,,0.0
indicator_revision_only_dfm_kalman_em,exact,2006:Q2:pre_advance:exact,2006-07-27,pre_advance,A,2006:Q2,4.641890318265883,7.0328671556611315,2.651955345714013,model_implied_state_space,2.4577,2.184190318265883,False,True,38,-1958.949015296885,-2808.6585228294966,-1958.949015296885,0.19275492282213236,9.833723547482332e-05,38.0,13,,0.0
joint_indicator_revision_dfm_full_kalman_em,exact,2006:Q2:pre_advance:exact,2006-07-27,pre_advance,A,2006:Q2,3.807580662383993,5.598365702679109,2.366086579709016,model_implied_state_space,2.4577,1.3498806623839932,False,True,37,-1926.3536521664882,-2820.8320545102697,-1926.3536521664882,0.18715463426565293,9.709503093544558e-05,37.0,13,,0.0
ar,exact,2006:Q2:pre_second:exact,2006-08-29,pre_second,S,2006:Q2,3.932818675395525,,,not_available,2.9012,1.0316186753955252,False,True,0,,,,,,,13,,0.0
no_revision,exact,2006:Q2:pre_second:exact,2006-08-29,pre_second,S,2006:Q2,2.4577,,,not_available,2.9012,-0.4434999999999998,False,True,0,,,,,,,13,,0.0
bridge,exact,2006:Q2:pre_second:exact,2006-08-29,pre_second,S,2006:Q2,1.499435175185744,,,not_available,2.9012,-1.4017648248142558,False,True,0,,,,,,,13,,0.0
midas_umidas,exact,2006:Q2:pre_second:exact,2006-08-29,pre_second,S,2006:Q2,2.814357793226411,,,not_available,2.9012,-0.08684220677358878,False,True,0,,,,,,,13,,0.0
monthly_mixed_frequency_kalman_em,exact,2006:Q2:pre_second:exact,2006-08-29,pre_second,S,2006:Q2,2.82058397931198,0.32459025934836105,0.5697282328868397,model_implied_state_space,2.9012,-0.08061602068801976,False,True,90,-3201.1007938032344,-4077.6810896642887,-3201.1007938032344,0.3027703383045264,9.454471687914491e-05,90.0,13,,0.0
standard_dfm,exact,2006:Q2:pre_second:exact,2006-08-29,pre_second,S,2006:Q2,3.71184482521998,,,not_available,2.9012,0.8106448252199803,False,True,0,,,,,,,13,,0.0
release_dfm,exact,2006:Q2:pre_second:exact,2006-08-29,pre_second,S,2006:Q2,2.626470480063652,,,not_available,2.9012,-0.274729519936348,False,True,0,,,,,,,13,,0.0
revision_dfm_kalman_em,exact,2006:Q2:pre_second:exact,2006-08-29,pre_second,S,2006:Q2,2.460558436691242,0.3860785908058339,0.6213522276501742,model_implied_state_space,2.9012,-0.4406415633087577,False,True,32,-1103.4160545447357,-1880.393211555206,-1103.4160545447357,0.10386872966250849,9.403970673030961e-05,32.0,13,,0.0
indicator_revision_only_dfm_kalman_em,exact,2006:Q2:pre_second:exact,2006-08-29,pre_second,S,2006:Q2,2.5795447350554586,0.4119149538718085,0.6418060095323262,model_implied_state_space,2.9012,-0.3216552649445412,False,True,35,-1960.0561450867751,-2809.5254454357246,-1960.0561450867751,0.18433326734134425,9.398810058011739e-05,35.0,13,,0.0
joint_indicator_revision_dfm_full_kalman_em,exact,2006:Q2:pre_second:exact,2006-08-29,pre_second,S,2006:Q2,2.6459122751535347,0.36496677295606095,0.6041247991566485,model_implied_state_space,2.9012,-0.2552877248464651,False,True,35,-1927.3105247571002,-2821.818503515536,-1927.3105247571002,0.188590841694122,9.779151059427113e-05,35.0,13,,0.0
ar,exact,2006:Q2:pre_third:exact,2006-09-27,pre_third,T,2006:Q2,4.082856331839703,,,not_available,2.5586,1.5242563318397027,False,True,0,,,,,,,13,,0.0
no_revision,exact,2006:Q2:pre_third:exact,2006-09-27,pre_third,T,2006:Q2,2.9012,,,not_available,2.5586,0.34259999999999957,False,True,0,,,,,,,13,,0.0
bridge,exact,2006:Q2:pre_third:exact,2006-09-27,pre_third,T,2006:Q2,1.3605661913180507,,,not_available,2.5586,-1.1980338086819495,False,True,0,,,,,,,13,,0.0
midas_umidas,exact,2006:Q2:pre_third:exact,2006-09-27,pre_third,T,2006:Q2,2.92544322167445,,,not_available,2.5586,0.3668432216744497,False,True,0,,,,,,,13,,0.0
monthly_mixed_frequency_kalman_em,exact,2006:Q2:pre_third:exact,2006-09-27,pre_third,T,2006:Q2,3.0775234305384087,0.13251323111958974,0.36402366835082267,model_implied_state_space,2.5586,0.5189234305384085,False,True,79,-3215.3537701959312,-4093.01924278198,-3215.3537701959312,0.27300520325070465,8.487313646042283e-05,79.0,13,,0.0
standard_dfm,exact,2006:Q2:pre_third:exact,2006-09-27,pre_third,T,2006:Q2,3.860234574726476,,,not_available,2.5586,1.3016345747264757,False,True,0,,,,,,,13,,0.0
release_dfm,exact,2006:Q2:pre_third:exact,2006-09-27,pre_third,T,2006:Q2,2.926864278416584,,,not_available,2.5586,0.36826427841658393,False,True,0,,,,,,,13,,0.0
revision_dfm_kalman_em,exact,2006:Q2:pre_third:exact,2006-09-27,pre_third,T,2006:Q2,2.877791755890372,0.13646674153377028,0.3694140516192776,model_implied_state_space,2.5586,0.31919175589037163,False,True,38,-1103.250898198182,-1878.0536547694117,-1103.250898198182,0.10473855251848363,9.484132559566726e-05,38.0,13,,0.0
indicator_revision_only_dfm_kalman_em,exact,2006:Q2:pre_third:exact,2006-09-27,pre_third,T,2006:Q2,2.8824629044025296,0.14024861290299112,0.37449781428332946,model_implied_state_space,2.5586,0.3238629044025294,False,True,35,-1959.885168398158,-2810.647252029133,-1959.885168398158,0.18448608335393146,9.407421247498107e-05,35.0,13,,0.0
joint_indicator_revision_dfm_full_kalman_em,exact,2006:Q2:pre_third:exact,2006-09-27,pre_third,T,2006:Q2,2.888178251013229,0.13424343263038094,0.366392457114473,model_implied_state_space,2.5586,0.3295782510132286,False,True,35,-1927.037648915445,-2822.9145353090903,-1927.037648915445,0.18852727810440228,9.77723881316496e-05,35.0,13,,0.0
ar,pseudo,2006:Q2:pre_advance:pseudo,2006-07-31,pre_advance,A,2006:Q2,3.740059135204821,,,not_available,2.4577,1.2823591352048211,False,True,0,,,,,,,13,,0.0
no_revision,pseudo,2006:Q2:pre_advance:pseudo,2006-07-31,pre_advance,A,2006:Q2,3.697855652198896,,,not_available,2.4577,1.240155652198896,False,True,0,,,,,,,13,,0.0
bridge,pseudo,2006:Q2:pre_advance:pseudo,2006-07-31,pre_advance,A,2006:Q2,1.5213527369938808,,,not_available,2.4577,-0.9363472630061191,False,True,0,,,,,,,13,,0.0
midas_umidas,pseudo,2006:Q2:pre_advance:pseudo,2006-07-31,pre_advance,A,2006:Q2,-12.42670128338963,,,not_available,2.4577,-14.884401283389629,False,True,0,,,,,,,13,,0.0
monthly_mixed_frequency_kalman_em,pseudo,2006:Q2:pre_advance:pseudo,2006-07-31,pre_advance,A,2006:Q2,4.901439010601046,5.3594336511892795,2.3150450646130585,model_implied_state_space,2.4577,2.443739010601046,False,True,90,-3182.6641132162968,-4057.924847392032,-3182.6641132162968,0.29232906012020976,9.181314676252441e-05,90.0,13,,0.0
standard_dfm,pseudo,2006:Q2:pre_advance:pseudo,2006-07-31,pre_advance,A,2006:Q2,3.463575640485881,,,not_available,2.4577,1.0058756404858809,False,True,0,,,,,,,13,,0.0
release_dfm,pseudo,2006:Q2:pre_advance:pseudo,2006-07-31,pre_advance,A,2006:Q2,3.463575640485881,,,not_available,2.4577,1.0058756404858809,False,True,0,,,,,,,13,,0.0
revision_dfm_kalman_em,pseudo,2006:Q2:pre_advance:pseudo,2006-07-31,pre_advance,A,2006:Q2,3.5940688150227853,6.4299134953940325,2.535727409520596,model_implied_state_space,2.4577,1.1363688150227853,False,True,32,-1102.4861513695662,-1879.262631083548,-1102.4861513695662,0.10048317161727027,9.10514575586956e-05,32.0,13,,0.0
indicator_revision_only_dfm_kalman_em,pseudo,2006:Q2:pre_advance:pseudo,2006-07-31,pre_advance,A,2006:Q2,4.641890318265883,7.0328671556611315,2.651955345714013,model_implied_state_space,2.4577,2.184190318265883,False,True,38,-1958.949015296885,-2808.6585228294966,-1958.949015296885,0.19275492282213236,9.833723547482332e-05,38.0,13,,0.0
joint_indicator_revision_dfm_full_kalman_em,pseudo,2006:Q2:pre_advance:pseudo,2006-07-31,pre_advance,A,2006:Q2,3.807580662383993,5.598365702679109,2.366086579709016,model_implied_state_space,2.4577,1.3498806623839932,False,True,37,-1926.3536521664882,-2820.8320545102697,-1926.3536521664882,0.18715463426565293,9.709503093544558e-05,37.0,13,,0.0
ar,pseudo,2006:Q2:pre_second:pseudo,2006-08-31,pre_second,S,2006:Q2,3.932818675395525,,,not_available,2.9012,1.0316186753955252,False,True,0,,,,,,,13,,0.0
no_revision,pseudo,2006:Q2:pre_second:pseudo,2006-08-31,pre_second,S,2006:Q2,2.4577,,,not_available,2.9012,-0.4434999999999998,False,True,0,,,,,,,13,,0.0
bridge,pseudo,2006:Q2:pre_second:pseudo,2006-08-31,pre_second,S,2006:Q2,1.4822875599996792,,,not_available,2.9012,-1.4189124400003206,False,True,0,,,,,,,13,,0.0
midas_umidas,pseudo,2006:Q2:pre_second:pseudo,2006-08-31,pre_second,S,2006:Q2,2.8146128598667763,,,not_available,2.9012,-0.08658714013322344,False,True,0,,,,,,,13,,0.0
monthly_mixed_frequency_kalman_em,pseudo,2006:Q2:pre_second:pseudo,2006-08-31,pre_second,S,2006:Q2,2.8204757107487217,0.324589772337753,0.5697278054806111,model_implied_state_space,2.9012,-0.08072428925127806,False,True,90,-3201.1261574898354,-4077.6850877063525,-3201.1261574898354,0.303349231269749,9.472471779100655e-05,90.0,13,,0.0
standard_dfm,pseudo,2006:Q2:pre_second:pseudo,2006-08-31,pre_second,S,2006:Q2,3.706999177207295,,,not_available,2.9012,0.8057991772072954,False,True,0,,,,,,,13,,0.0
release_dfm,pseudo,2006:Q2:pre_second:pseudo,2006-08-31,pre_second,S,2006:Q2,2.6262455339766513,,,not_available,2.9012,-0.2749544660233485,False,True,0,,,,,,,13,,0.0
revision_dfm_kalman_em,pseudo,2006:Q2:pre_second:pseudo,2006-08-31,pre_second,S,2006:Q2,2.460333850078201,0.3860737673981879,0.6213483462585121,model_implied_state_space,2.9012,-0.44086614992179873,False,True,32,-1103.4368790153349,-1880.4070034610866,-1103.4368790153349,0.10387838756173551,9.404667674372149e-05,32.0,13,,0.0
indicator_revision_only_dfm_kalman_em,pseudo,2006:Q2:pre_second:pseudo,2006-08-31,pre_second,S,2006:Q2,2.579338617385261,0.41191572243455343,0.6418066082820848,model_implied_state_space,2.9012,-0.32186138261473873,False,True,35,-1960.0787364902346,-2809.5423225228833,-1960.0787364902346,0.1843339018628285,9.398734144623255e-05,35.0,13,,0.0
joint_indicator_revision_dfm_full_kalman_em,pseudo,2006:Q2:pre_second:pseudo,2006-08-31,pre_second,S,2006:Q2,2.6461826932439036,0.36496955190751845,0.6041270991335502,model_implied_state_space,2.9012,-0.25501730675609613,False,True,35,-1927.3314070139872,-2821.835363637667,-1927.3314070139872,0.18863924341394522,9.781554709790524e-05,35.0,13,,0.0
ar,pseudo,2006:Q2:pre_third:pseudo,2006-09-30,pre_third,T,2006:Q2,4.082856331839703,,,not_available,2.5586,1.5242563318397027,False,True,0,,,,,,,13,,0.0
no_revision,pseudo,2006:Q2:pre_third:pseudo,2006-09-30,pre_third,T,2006:Q2,2.9012,,,not_available,2.5586,0.34259999999999957,False,True,0,,,,,,,13,,0.0
bridge,pseudo,2006:Q2:pre_third:pseudo,2006-09-30,pre_third,T,2006:Q2,1.3605661913180507,,,not_available,2.5586,-1.1980338086819495,False,True,0,,,,,,,13,,0.0
midas_umidas,pseudo,2006:Q2:pre_third:pseudo,2006-09-30,pre_third,T,2006:Q2,2.92544322167445,,,not_available,2.5586,0.3668432216744497,False,True,0,,,,,,,13,,0.0
monthly_mixed_frequency_kalman_em,pseudo,2006:Q2:pre_third:pseudo,2006-09-30,pre_third,T,2006:Q2,3.0775234305384087,0.13251323111958974,0.36402366835082267,model_implied_state_space,2.5586,0.5189234305384085,False,True,79,-3215.3537701959312,-4093.01924278198,-3215.3537701959312,0.27300520325070465,8.487313646042283e-05,79.0,13,,0.0
standard_dfm,pseudo,2006:Q2:pre_third:pseudo,2006-09-30,pre_third,T,2006:Q2,3.860234574726476,,,not_available,2.5586,1.3016345747264757,False,True,0,,,,,,,13,,0.0
release_dfm,pseudo,2006:Q2:pre_third:pseudo,2006-09-30,pre_third,T,2006:Q2,2.926864278416584,,,not_available,2.5586,0.36826427841658393,False,True,0,,,,,,,13,,0.0
revision_dfm_kalman_em,pseudo,2006:Q2:pre_third:pseudo,2006-09-30,pre_third,T,2006:Q2,2.877791755890372,0.13646674153377028,0.3694140516192776,model_implied_state_space,2.5586,0.31919175589037163,False,True,38,-1103.250898198182,-1878.0536547694117,-1103.250898198182,0.10473855251848363,9.484132559566726e-05,38.0,13,,0.0
indicator_revision_only_dfm_kalman_em,pseudo,2006:Q2:pre_third:pseudo,2006-09-30,pre_third,T,2006:Q2,2.8824629044025296,0.14024861290299112,0.37449781428332946,model_implied_state_space,2.5586,0.3238629044025294,False,True,35,-1959.885168398158,-2810.647252029133,-1959.885168398158,0.18448608335393146,9.407421247498107e-05,35.0,13,,0.0
joint_indicator_revision_dfm_full_kalman_em,pseudo,2006:Q2:pre_third:pseudo,2006-09-30,pre_third,T,2006:Q2,2.888178251013229,0.13424343263038094,0.366392457114473,model_implied_state_space,2.5586,0.3295782510132286,False,True,35,-1927.037648915445,-2822.9145353090903,-1927.037648915445,0.18852727810440228,9.77723881316496e-05,35.0,13,,0.0
ar,exact,2006:Q3:pre_advance:exact,2006-10-26,pre_advance,A,2006:Q3,2.58335724396098,,,not_available,1.5829,1.0004572439609802,False,True,0,,,,,,,13,,0.0
no_revision,exact,2006:Q3:pre_advance:exact,2006-10-26,pre_advance,A,2006:Q3,2.697548595025026,,,not_available,1.5829,1.114648595025026,False,True,0,,,,,,,13,,0.0
bridge,exact,2006:Q3:pre_advance:exact,2006-10-26,pre_advance,A,2006:Q3,0.5269397185662135,,,not_available,1.5829,-1.0559602814337865,False,True,0,,,,,,,13,,0.0
midas_umidas,exact,2006:Q3:pre_advance:exact,2006-10-26,pre_advance,A,2006:Q3,-2.631757524580263,,,not_available,1.5829,-4.214657524580263,False,True,0,,,,,,,13,,0.0
monthly_mixed_frequency_kalman_em,exact,2006:Q3:pre_advance:exact,2006-10-26,pre_advance,A,2006:Q3,1.531878218851632,5.223087592416478,2.285407533114494,model_implied_state_space,1.5829,-0.05102178114836797,False,True,84,-3233.3626369261274,-4117.893451623774,-3233.3626369261274,0.2942725674083704,9.097489336340338e-05,84.0,13,,0.0
standard_dfm,exact,2006:Q3:pre_advance:exact,2006-10-26,pre_advance,A,2006:Q3,3.0602179516245127,,,not_available,1.5829,1.4773179516245127,False,True,0,,,,,,,13,,0.0
release_dfm,exact,2006:Q3:pre_advance:exact,2006-10-26,pre_advance,A,2006:Q3,3.0602179516245127,,,not_available,1.5829,1.4773179516245127,False,True,0,,,,,,,13,,0.0
revision_dfm_kalman_em,exact,2006:Q3:pre_advance:exact,2006-10-26,pre_advance,A,2006:Q3,1.5851562166470436,6.365589466655732,2.5230119830582916,model_implied_state_space,1.5829,0.002256216647043674,False,True,37,-1120.2465256763621,-1897.9899769926137,-1120.2465256763621,0.11083984825745574,9.88443574413943e-05,37.0,13,,0.0
indicator_revision_only_dfm_kalman_em,exact,2006:Q3:pre_advance:exact,2006-10-26,pre_advance,A,2006:Q3,-0.42796670303911455,4.419415979866527,2.102240704549916,model_implied_state_space,1.5829,-2.0108667030391145,False,True,45,-1750.4950790215012,-2846.781155839394,-1750.4950790215012,0.035311723938093564,2.016049742823197e-05,45.0,13,,0.0
joint_indicator_revision_dfm_full_kalman_em,exact,2006:Q3:pre_advance:exact,2006-10-26,pre_advance,A,2006:Q3,-0.6558678003781666,3.5780420306334038,1.891571312595273,model_implied_state_space,1.5829,-2.2387678003781666,False,True,46,-1724.4817746903334,-2859.0660943547246,-1724.4817746903334,0.03182999976638712,1.8446681428573117e-05,46.0,13,,0.0
ar,exact,2006:Q3:pre_second:exact,2006-11-28,pre_second,S,2006:Q3,2.8532262466469804,,,not_available,2.2098,0.6434262466469804,False,True,0,,,,,,,13,,0.0
no_revision,exact,2006:Q3:pre_second:exact,2006-11-28,pre_second,S,2006:Q3,1.5829,,,not_available,2.2098,-0.6269,False,True,0,,,,,,,13,,0.0
bridge,exact,2006:Q3:pre_second:exact,2006-11-28,pre_second,S,2006:Q3,0.8757358874923964,,,not_available,2.2098,-1.3340641125076036,False,True,0,,,,,,,13,,0.0
midas_umidas,exact,2006:Q3:pre_second:exact,2006-11-28,pre_second,S,2006:Q3,2.379159096491427,,,not_available,2.2098,0.16935909649142689,False,True,0,,,,,,,13,,0.0
monthly_mixed_frequency_kalman_em,exact,2006:Q3:pre_second:exact,2006-11-28,pre_second,S,2006:Q3,1.6753644426734318,0.3291094024238659,0.573680575254092,model_implied_state_space,2.2098,-0.5344355573265682,False,True,78,-3251.65893448755,-4133.400250972815,-3251.65893448755,0.3032836862316799,9.323307984866294e-05,78.0,13,,0.0
standard_dfm,exact,2006:Q3:pre_second:exact,2006-11-28,pre_second,S,2006:Q3,3.2571987903906794,,,not_available,2.2098,1.0473987903906794,False,True,0,,,,,,,13,,0.0
release_dfm,exact,2006:Q3:pre_second:exact,2006-11-28,pre_second,S,2006:Q3,1.7024898218654105,,,not_available,2.2098,-0.5073101781345895,False,True,0,,,,,,,13,,0.0
revision_dfm_kalman_em,exact,2006:Q3:pre_second:exact,2006-11-28,pre_second,S,2006:Q3,1.6139118532751435,0.38408325220397577,0.6197445055859517,model_implied_state_space,2.2098,-0.5958881467248565,False,True,37,-1121.1366454563808,-1899.2736420079505,-1121.1366454563808,0.111484318462999,9.934016863575977e-05,37.0,13,,0.0
indicator_revision_only_dfm_kalman_em,exact,2006:Q3:pre_second:exact,2006-11-28,pre_second,S,2006:Q3,1.4262933393542583,0.3927645944617847,0.6267093381000356,model_implied_state_space,2.2098,-0.7835066606457417,False,True,45,-1751.7797547529285,-2847.887643772743,-1751.7797547529285,0.03733600241730528,2.130056958836246e-05,45.0,13,,0.0
joint_indicator_revision_dfm_full_kalman_em,exact,2006:Q3:pre_second:exact,2006-11-28,pre_second,S,2006:Q3,1.297007424582791,0.36024877475252987,0.6002072764908218,model_implied_state_space,2.2098,-0.912792575417209,False,True,46,-1725.8731357545041,-2860.282286052776,-1725.8731357545041,0.031092732359866204,1.800489676668987e-05,46.0,13,,0.0
ar,exact,2006:Q3:pre_third:exact,2006-12-20,pre_third,T,2006:Q3,2.75074084743836,,,not_available,1.9601,0.7906408474383599,False,True,0,,,,,,,13,,0.0
no_revision,exact,2006:Q3:pre_third:exact,2006-12-20,pre_third,T,2006:Q3,2.2098,,,not_available,1.9601,0.24970000000000003,False,True,0,,,,,,,13,,0.0
bridge,exact,2006:Q3:pre_third:exact,2006-12-20,pre_third,T,2006:Q3,0.39348429457032186,,,not_available,1.9601,-1.566615705429678,False,True,0,,,,,,,13,,0.0
midas_umidas,exact,2006:Q3:pre_third:exact,2006-12-20,pre_third,T,2006:Q3,1.9864144975800373,,,not_available,1.9601,0.026314497580037344,False,True,0,,,,,,,13,,0.0
monthly_mixed_frequency_kalman_em,exact,2006:Q3:pre_third:exact,2006-12-20,pre_third,T,2006:Q3,2.2485890828230914,0.13328988050619964,0.36508886658757433,model_implied_state_space,1.9601,0.2884890828230915,False,True,83,-3279.8844825143187,-4152.602368779163,-3279.8844825143187,0.2688412594043257,8.193498836412976e-05,83.0,13,,0.0
standard_dfm,exact,2006:Q3:pre_third:exact,2006-12-20,pre_third,T,2006:Q3,3.3095218036059553,,,not_available,1.9601,1.3494218036059553,False,True,0,,,,,,,13,,0.0
release_dfm,exact,2006:Q3:pre_third:exact,2006-12-20,pre_third,T,2006:Q3,2.1333595250762545,,,not_available,1.9601,0.17325952507625453,False,True,0,,,,,,,13,,0.0
revision_dfm_kalman_em,exact,2006:Q3:pre_third:exact,2006-12-20,pre_third,T,2006:Q3,2.172745032651508,0.13589560556457755,0.3686402115404362,model_implied_state_space,1.9601,0.21264503265150814,False,True,32,-1122.4297922020226,-1903.7090415265504,-1122.4297922020226,0.10273054887875332,9.143531388590675e-05,32.0,13,,0.0
indicator_revision_only_dfm_kalman_em,exact,2006:Q3:pre_third:exact,2006-12-20,pre_third,T,2006:Q3,2.1805273934020484,0.14011102821105684,0.37431407696085495,model_implied_state_space,1.9601,0.22042739340204842,False,True,44,-1762.5387132963433,-2846.9155843179615,-1762.5387132963433,0.08831255043196506,5.007439165861234e-05,44.0,13,,0.0
joint_indicator_revision_dfm_full_kalman_em,exact,2006:Q3:pre_third:exact,2006-12-20,pre_third,T,2006:Q3,2.187589097388361,0.13404418090235845,0.3661204458950066,model_implied_state_space,1.9601,0.22748909738836098,False,True,46,-1959.412144732901,-2859.4066488182393,-1959.412144732901,0.18671190462055165,9.523207870312006e-05,46.0,13,,0.0
ar,pseudo,2006:Q3:pre_advance:pseudo,2006-10-31,pre_advance,A,2006:Q3,2.58335724396098,,,not_available,1.5829,1.0004572439609802,False,True,0,,,,,,,13,,0.0
no_revision,pseudo,2006:Q3:pre_advance:pseudo,2006-10-31,pre_advance,A,2006:Q3,2.697548595025026,,,not_available,1.5829,1.114648595025026,False,True,0,,,,,,,13,,0.0
bridge,pseudo,2006:Q3:pre_advance:pseudo,2006-10-31,pre_advance,A,2006:Q3,0.5269397185662135,,,not_available,1.5829,-1.0559602814337865,False,True,0,,,,,,,13,,0.0
midas_umidas,pseudo,2006:Q3:pre_advance:pseudo,2006-10-31,pre_advance,A,2006:Q3,-2.631757524580263,,,not_available,1.5829,-4.214657524580263,False,True,0,,,,,,,13,,0.0
monthly_mixed_frequency_kalman_em,pseudo,2006:Q3:pre_advance:pseudo,2006-10-31,pre_advance,A,2006:Q3,1.531878218851632,5.223087592416478,2.285407533114494,model_implied_state_space,1.5829,-0.05102178114836797,False,True,84,-3233.3626369261274,-4117.893451623774,-3233.3626369261274,0.2942725674083704,9.097489336340338e-05,84.0,13,,0.0
standard_dfm,pseudo,2006:Q3:pre_advance:pseudo,2006-10-31,pre_advance,A,2006:Q3,3.0602179516245127,,,not_available,1.5829,1.4773179516245127,False,True,0,,,,,,,13,,0.0
release_dfm,pseudo,2006:Q3:pre_advance:pseudo,2006-10-31,pre_advance,A,2006:Q3,3.0602179516245127,,,not_available,1.5829,1.4773179516245127,False,True,0,,,,,,,13,,0.0
revision_dfm_kalman_em,pseudo,2006:Q3:pre_advance:pseudo,2006-10-31,pre_advance,A,2006:Q3,1.5851562166470436,6.365589466655732,2.5230119830582916,model_implied_state_space,1.5829,0.002256216647043674,False,True,37,-1120.2465256763621,-1897.9899769926137,-1120.2465256763621,0.11083984825745574,9.88443574413943e-05,37.0,13,,0.0
indicator_revision_only_dfm_kalman_em,pseudo,2006:Q3:pre_advance:pseudo,2006-10-31,pre_advance,A,2006:Q3,-0.42796670303911455,4.419415979866527,2.102240704549916,model_implied_state_space,1.5829,-2.0108667030391145,False,True,45,-1750.4950790215012,-2846.781155839394,-1750.4950790215012,0.035311723938093564,2.016049742823197e-05,45.0,13,,0.0
joint_indicator_revision_dfm_full_kalman_em,pseudo,2006:Q3:pre_advance:pseudo,2006-10-31,pre_advance,A,2006:Q3,-0.6558678003781666,3.5780420306334038,1.891571312595273,model_implied_state_space,1.5829,-2.2387678003781666,False,True,46,-1724.4817746903334,-2859.0660943547246,-1724.4817746903334,0.03182999976638712,1.8446681428573117e-05,46.0,13,,0.0
ar,pseudo,2006:Q3:pre_second:pseudo,2006-11-30,pre_second,S,2006:Q3,2.8532262466469804,,,not_available,2.2098,0.6434262466469804,False,True,0,,,,,,,13,,0.0
no_revision,pseudo,2006:Q3:pre_second:pseudo,2006-11-30,pre_second,S,2006:Q3,1.5829,,,not_available,2.2098,-0.6269,False,True,0,,,,,,,13,,0.0
bridge,pseudo,2006:Q3:pre_second:pseudo,2006-11-30,pre_second,S,2006:Q3,0.897347254249764,,,not_available,2.2098,-1.312452745750236,False,True,0,,,,,,,13,,0.0
midas_umidas,pseudo,2006:Q3:pre_second:pseudo,2006-11-30,pre_second,S,2006:Q3,2.375457847401134,,,not_available,2.2098,0.1656578474011341,False,True,0,,,,,,,13,,0.0
monthly_mixed_frequency_kalman_em,pseudo,2006:Q3:pre_second:pseudo,2006-11-30,pre_second,S,2006:Q3,1.675324884335185,0.3291058529185254,0.5736774816205752,model_implied_state_space,2.2098,-0.5344751156648151,False,True,78,-3251.6682269847624,-4133.405324364352,-3251.6682269847624,0.30331050568202045,9.324105734906431e-05,78.0,13,,0.0
standard_dfm,pseudo,2006:Q3:pre_second:pseudo,2006-11-30,pre_second,S,2006:Q3,3.2601675921758497,,,not_available,2.2098,1.0503675921758497,False,True,0,,,,,,,13,,0.0
release_dfm,pseudo,2006:Q3:pre_second:pseudo,2006-11-30,pre_second,S,2006:Q3,1.7026518268415933,,,not_available,2.2098,-0.5071481731584067,False,True,0,,,,,,,13,,0.0
revision_dfm_kalman_em,pseudo,2006:Q3:pre_second:pseudo,2006-11-30,pre_second,S,2006:Q3,1.6140144160687955,0.38408048900363906,0.6197422762759041,model_implied_state_space,2.2098,-0.5957855839312045,False,True,37,-1121.1233745928896,-1899.2405285308143,-1121.1233745928896,0.11149732482817853,9.935293192025628e-05,37.0,13,,0.0
indicator_revision_only_dfm_kalman_em,pseudo,2006:Q3:pre_second:pseudo,2006-11-30,pre_second,S,2006:Q3,1.426327114887984,0.39276705032407055,0.6267112974281464,model_implied_state_space,2.2098,-0.7834728851120161,False,True,45,-1751.7814207727401,-2847.8591363006403,-1751.7814207727401,0.037348682237734465,2.1307783148253073e-05,45.0,13,,0.0
joint_indicator_revision_dfm_full_kalman_em,pseudo,2006:Q3:pre_second:pseudo,2006-11-30,pre_second,S,2006:Q3,1.2970751236161655,0.36025783092730423,0.6002148206494939,model_implied_state_space,2.2098,-0.9127248763838345,False,True,46,-1725.8751434886929,-2860.2539584621786,-1725.8751434886929,0.031153224453646544,1.803990437288987e-05,46.0,13,,0.0
ar,pseudo,2006:Q3:pre_third:pseudo,2006-12-31,pre_third,T,2006:Q3,2.75074084743836,,,not_available,1.9601,0.7906408474383599,False,True,0,,,,,,,13,,0.0
no_revision,pseudo,2006:Q3:pre_third:pseudo,2006-12-31,pre_third,T,2006:Q3,2.2098,,,not_available,1.9601,0.24970000000000003,False,True,0,,,,,,,13,,0.0
bridge,pseudo,2006:Q3:pre_third:pseudo,2006-12-31,pre_third,T,2006:Q3,0.39348429457032186,,,not_available,1.9601,-1.566615705429678,False,True,0,,,,,,,13,,0.0
midas_umidas,pseudo,2006:Q3:pre_third:pseudo,2006-12-31,pre_third,T,2006:Q3,1.9864144975800373,,,not_available,1.9601,0.026314497580037344,False,True,0,,,,,,,13,,0.0
monthly_mixed_frequency_kalman_em,pseudo,2006:Q3:pre_third:pseudo,2006-12-31,pre_third,T,2006:Q3,2.248940069353728,0.1332930158309147,0.36509316048224555,model_implied_state_space,1.9601,0.28884006935372786,False,True,83,-3281.309168549237,-4154.025272959819,-3281.309168549237,0.2719424388446896,8.284408812759936e-05,83.0,13,,0.0
standard_dfm,pseudo,2006:Q3:pre_third:pseudo,2006-12-31,pre_third,T,2006:Q3,3.3095218036059553,,,not_available,1.9601,1.3494218036059553,False,True,0,,,,,,,13,,0.0
release_dfm,pseudo,2006:Q3:pre_third:pseudo,2006-12-31,pre_third,T,2006:Q3,2.1333595250762545,,,not_available,1.9601,0.17325952507625453,False,True,0,,,,,,,13,,0.0
revision_dfm_kalman_em,pseudo,2006:Q3:pre_third:pseudo,2006-12-31,pre_third,T,2006:Q3,2.172745032651508,0.13589560556457755,0.3686402115404362,model_implied_state_space,1.9601,0.21264503265150814,False,True,32,-1122.4297922020226,-1903.7090415265504,-1122.4297922020226,0.10273054887875332,9.143531388590675e-05,32.0,13,,0.0
indicator_revision_only_dfm_kalman_em,pseudo,2006:Q3:pre_third:pseudo,2006-12-31,pre_third,T,2006:Q3,2.1805273934020484,0.14011102821105684,0.37431407696085495,model_implied_state_space,1.9601,0.22042739340204842,False,True,44,-1762.5387132963433,-2846.9155843179615,-1762.5387132963433,0.08831255043196506,5.007439165861234e-05,44.0,13,,0.0
joint_indicator_revision_dfm_full_kalman_em,pseudo,2006:Q3:pre_third:pseudo,2006-12-31,pre_third,T,2006:Q3,2.187589097388361,0.13404418090235845,0.3661204458950066,model_implied_state_space,1.9601,0.22748909738836098,False,True,46,-1959.412144732901,-2859.4066488182393,-1959.412144732901,0.18671190462055165,9.523207870312006e-05,46.0,13,,0.0
ar,exact,2006:Q4:pre_advance:exact,2007-01-30,pre_advance,A,2006:Q4,2.1524610748667694,,,not_available,3.4734,-1.3209389251332304,False,True,0,,,,,,,13,,0.0
no_revision,exact,2006:Q4:pre_advance:exact,2007-01-30,pre_advance,A,2006:Q4,2.0405286021231293,,,not_available,3.4734,-1.4328713978768706,False,True,0,,,,,,,13,,0.0
bridge,exact,2006:Q4:pre_advance:exact,2007-01-30,pre_advance,A,2006:Q4,-0.15545872254795334,,,not_available,3.4734,-3.628858722547953,False,True,0,,,,,,,13,,0.0
midas_umidas,exact,2006:Q4:pre_advance:exact,2007-01-30,pre_advance,A,2006:Q4,-1.1680154957368956,,,not_available,3.4734,-4.641415495736895,False,True,0,,,,,,,13,,0.0
monthly_mixed_frequency_kalman_em,exact,2006:Q4:pre_advance:exact,2007-01-30,pre_advance,A,2006:Q4,1.4067735745603474,5.356152910281509,2.314336386587202,model_implied_state_space,3.4734,-2.0666264254396527,False,True,86,-3298.451787023715,-4178.69302758692,-3298.451787023715,0.2893176807060627,8.767890313988094e-05,86.0,13,,0.0
standard_dfm,exact,2006:Q4:pre_advance:exact,2007-01-30,pre_advance,A,2006:Q4,2.1189648572353583,,,not_available,3.4734,-1.3544351427646415,False,True,0,,,,,,,13,,0.0
release_dfm,exact,2006:Q4:pre_advance:exact,2007-01-30,pre_advance,A,2006:Q4,2.1189648572353583,,,not_available,3.4734,-1.3544351427646415,False,True,0,,,,,,,13,,0.0
revision_dfm_kalman_em,exact,2006:Q4:pre_advance:exact,2007-01-30,pre_advance,A,2006:Q4,0.5540642643509481,6.347788065396212,2.5194817057077854,model_implied_state_space,3.4734,-2.9193357356490517,False,True,31,-1142.101167163676,-1925.612763854463,-1142.101167163676,0.1104921295366239,9.665063213660306e-05,31.0,13,,0.0
indicator_revision_only_dfm_kalman_em,exact,2006:Q4:pre_advance:exact,2007-01-30,pre_advance,A,2006:Q4,-1.1123939099449895,4.4475842455037125,2.108929644512522,model_implied_state_space,3.4734,-4.585793909944989,False,True,37,-1782.8461102001925,-2887.5661347690507,-1782.8461102001925,0.07083423710560055,3.970713845534094e-05,37.0,13,,0.0
joint_indicator_revision_dfm_full_kalman_em,exact,2006:Q4:pre_advance:exact,2007-01-30,pre_advance,A,2006:Q4,-1.2364359918513665,3.5347209020668258,1.8800853443572252,model_implied_state_space,3.4734,-4.709835991851366,False,True,38,-1755.9405123519475,-2900.030222743443,-1755.9405123519475,0.061045682096846576,3.474423902341453e-05,38.0,13,,0.0
ar,exact,2006:Q4:pre_second:exact,2007-02-27,pre_second,S,2006:Q4,2.5420474751814193,,,not_available,2.2204,0.3216474751814191,False,True,0,,,,,,,13,,0.0
no_revision,exact,2006:Q4:pre_second:exact,2007-02-27,pre_second,S,2006:Q4,3.4734,,,not_available,2.2204,1.2529999999999997,False,True,0,,,,,,,13,,0.0
