haminh109/Revision-Aware-DFM/outputs/full_state_space_release_revision_dfm/frozen/q2_manuscript_best_v1/mature_robustness_runs/mature_3y/run_dir/revision_forecast_results.csv
model_id,timing_mode,forecast_origin,forecast_origin_date,checkpoint_id,target_id,revision_target_id,target_quarter,forecast_value,forecast_variance,forecast_sd,density_source,realized_value,forecast_error,revision_target_flag,converged,n_iter,loglikelihood,llf_initial,llf_final,llf_last_improvement,llf_relative_last_improvement,llf_history_length,n_indicators,initialization_seed,initialization_jitter
ar,exact,2005:Q1:pre_advance:exact,2005-04-27,pre_advance,DELTA_SA,DELTA_SA,2005:Q1,0.3356948084435101,,,not_available,0.3950999999999998,-0.05940519155648971,True,True,0,,,,,,,13,,0.0
no_revision,exact,2005:Q1:pre_advance:exact,2005-04-27,pre_advance,DELTA_SA,DELTA_SA,2005:Q1,0.0,,,not_available,0.3950999999999998,-0.3950999999999998,True,True,0,,,,,,,13,,0.0
bridge,exact,2005:Q1:pre_advance:exact,2005-04-27,pre_advance,DELTA_SA,DELTA_SA,2005:Q1,0.26328560705155235,,,not_available,0.3950999999999998,-0.13181439294844743,True,True,0,,,,,,,13,,0.0
midas_umidas,exact,2005:Q1:pre_advance:exact,2005-04-27,pre_advance,DELTA_SA,DELTA_SA,2005:Q1,-5.913731381630731,,,not_available,0.3950999999999998,-6.30883138163073,True,True,0,,,,,,,13,,0.0
monthly_mixed_frequency_kalman_em,exact,2005:Q1:pre_advance:exact,2005-04-27,pre_advance,DELTA_SA,DELTA_SA,2005:Q1,-0.018015000188702945,0.32023330985648535,0.5658916061018093,model_implied_state_space,0.3950999999999998,-0.41311500018870273,True,False,100,-2933.81951364158,-3755.330564914717,-2933.81951364158,0.7336422759872221,0.0002499161953542984,101.0,13,,0.0
standard_dfm,exact,2005:Q1:pre_advance:exact,2005-04-27,pre_advance,DELTA_SA,DELTA_SA,2005:Q1,0.13413726161412365,,,not_available,0.3950999999999998,-0.26096273838587614,True,True,0,,,,,,,13,,0.0
release_dfm,exact,2005:Q1:pre_advance:exact,2005-04-27,pre_advance,DELTA_SA,DELTA_SA,2005:Q1,0.13413726161412365,,,not_available,0.3950999999999998,-0.26096273838587614,True,True,0,,,,,,,13,,0.0
revision_dfm_kalman_em,exact,2005:Q1:pre_advance:exact,2005-04-27,pre_advance,DELTA_SA,DELTA_SA,2005:Q1,0.06811620539538765,0.41278093592144316,0.6424803000259566,model_implied_state_space,0.3950999999999998,-0.32698379460461213,True,True,33,-1007.630137049425,-1765.7758579947883,-1007.630137049425,0.0966168199522599,9.578096306224378e-05,33.0,13,,0.0
indicator_revision_only_dfm_kalman_em,exact,2005:Q1:pre_advance:exact,2005-04-27,pre_advance,DELTA_SA,DELTA_SA,2005:Q1,0.0,0.4425591220746501,0.6652511721708201,model_implied_state_space,0.3950999999999998,-0.3950999999999998,True,True,41,-1776.4918796809106,-2604.3324388545207,-1776.4918796809106,0.16976250470975174,9.549764740439025e-05,41.0,13,,0.0
joint_indicator_revision_dfm_full_kalman_em,exact,2005:Q1:pre_advance:exact,2005-04-27,pre_advance,DELTA_SA,DELTA_SA,2005:Q1,0.2510798942148762,0.40968442891373336,0.6400659566901941,model_implied_state_space,0.3950999999999998,-0.1440201057851236,True,True,37,-1746.891676199521,-2616.2559306087965,-1746.891676199521,0.17180118563169344,9.828086213933311e-05,37.0,13,,0.0
ar,exact,2005:Q1:pre_second:exact,2005-05-25,pre_second,DELTA_TS,DELTA_TS,2005:Q1,0.04714135981196321,,,not_available,0.27649999999999997,-0.22935864018803676,True,True,0,,,,,,,13,,0.0
no_revision,exact,2005:Q1:pre_second:exact,2005-05-25,pre_second,DELTA_TS,DELTA_TS,2005:Q1,0.0,,,not_available,0.27649999999999997,-0.27649999999999997,True,True,0,,,,,,,13,,0.0
bridge,exact,2005:Q1:pre_second:exact,2005-05-25,pre_second,DELTA_TS,DELTA_TS,2005:Q1,0.19854853703044162,,,not_available,0.27649999999999997,-0.07795146296955835,True,True,0,,,,,,,13,,0.0
midas_umidas,exact,2005:Q1:pre_second:exact,2005-05-25,pre_second,DELTA_TS,DELTA_TS,2005:Q1,0.6899398299977455,,,not_available,0.27649999999999997,0.41343982999774553,True,True,0,,,,,,,13,,0.0
monthly_mixed_frequency_kalman_em,exact,2005:Q1:pre_second:exact,2005-05-25,pre_second,DELTA_TS,DELTA_TS,2005:Q1,-0.038879747588137725,0.1330579243873552,0.36477105749682937,model_implied_state_space,0.27649999999999997,-0.3153797475881377,True,False,100,-2958.69402146228,-3774.293426444673,-2958.69402146228,0.6090730480941602,0.00020574685383521486,101.0,13,,0.0
standard_dfm,exact,2005:Q1:pre_second:exact,2005-05-25,pre_second,DELTA_TS,DELTA_TS,2005:Q1,0.1165898545711248,,,not_available,0.27649999999999997,-0.15991014542887516,True,True,0,,,,,,,13,,0.0
release_dfm,exact,2005:Q1:pre_second:exact,2005-05-25,pre_second,DELTA_TS,DELTA_TS,2005:Q1,0.07710214238409208,,,not_available,0.27649999999999997,-0.1993978576159079,True,True,0,,,,,,,13,,0.0
revision_dfm_kalman_em,exact,2005:Q1:pre_second:exact,2005-05-25,pre_second,DELTA_TS,DELTA_TS,2005:Q1,0.0026544769301093396,0.14061120759905565,0.37498160968113575,model_implied_state_space,0.27649999999999997,-0.27384552306989063,True,True,39,-1008.207273308415,-1763.6301565040717,-1008.207273308415,0.09759523725131203,9.669549835020567e-05,39.0,13,,0.0
indicator_revision_only_dfm_kalman_em,exact,2005:Q1:pre_second:exact,2005-05-25,pre_second,DELTA_TS,DELTA_TS,2005:Q1,0.0,0.14433637654456188,0.3799162757036896,model_implied_state_space,0.27649999999999997,-0.27649999999999997,True,True,43,-1777.7673482685948,-2605.421336885396,-1777.7673482685948,0.17716430902305547,9.958956435709826e-05,43.0,13,,0.0
joint_indicator_revision_dfm_full_kalman_em,exact,2005:Q1:pre_second:exact,2005-05-25,pre_second,DELTA_TS,DELTA_TS,2005:Q1,0.006542717680163346,0.13912595814791395,0.3729959224279991,model_implied_state_space,0.27649999999999997,-0.2699572823198366,True,True,40,-1747.5883667064413,-2617.468346489962,-1747.5883667064413,0.1647904024773652,9.423308361587219e-05,40.0,13,,0.0
ar,exact,2005:Q1:pre_third:exact,2005-06-28,pre_third,DELTA_MT,DELTA_MT,2005:Q1,-0.08177802693441016,,,not_available,-0.7326293755514897,0.6508513486170795,True,True,0,,,,,,,13,,0.0
no_revision,exact,2005:Q1:pre_third:exact,2005-06-28,pre_third,DELTA_MT,DELTA_MT,2005:Q1,0.0,,,not_available,-0.7326293755514897,0.7326293755514897,True,True,0,,,,,,,13,,0.0
bridge,exact,2005:Q1:pre_third:exact,2005-06-28,pre_third,DELTA_MT,DELTA_MT,2005:Q1,-1.6489558701230516,,,not_available,-0.7326293755514897,-0.9163264945715619,True,True,0,,,,,,,13,,0.0
midas_umidas,exact,2005:Q1:pre_third:exact,2005-06-28,pre_third,DELTA_MT,DELTA_MT,2005:Q1,1.5975274267725075,,,not_available,-0.7326293755514897,2.330156802323997,True,True,0,,,,,,,13,,0.0
monthly_mixed_frequency_kalman_em,exact,2005:Q1:pre_third:exact,2005-06-28,pre_third,DELTA_MT,DELTA_MT,2005:Q1,0.048042814227846176,2.3467950928390087,1.5319252895748567,model_implied_state_space,-0.7326293755514897,0.7806721897793358,True,False,100,-2978.1266223968196,-3793.441573085113,-2978.1266223968196,0.586529620690726,0.00019684096782725456,101.0,13,,0.0
standard_dfm,exact,2005:Q1:pre_third:exact,2005-06-28,pre_third,DELTA_MT,DELTA_MT,2005:Q1,0.21641287901400963,,,not_available,-0.7326293755514897,0.9490422545654993,True,True,0,,,,,,,13,,0.0
release_dfm,exact,2005:Q1:pre_third:exact,2005-06-28,pre_third,DELTA_MT,DELTA_MT,2005:Q1,0.3385837192074108,,,not_available,-0.7326293755514897,1.0712130947589005,True,True,0,,,,,,,13,,0.0
revision_dfm_kalman_em,exact,2005:Q1:pre_third:exact,2005-06-28,pre_third,DELTA_MT,DELTA_MT,2005:Q1,0.00578770258349337,2.391499434580338,1.5464473591365269,model_implied_state_space,-0.7326293755514897,0.738417078134983,True,True,34,-1008.0533602622246,-1768.1653181200043,-1008.0533602622246,0.09366155936493215,9.281260048299572e-05,34.0,13,,0.0
indicator_revision_only_dfm_kalman_em,exact,2005:Q1:pre_third:exact,2005-06-28,pre_third,DELTA_MT,DELTA_MT,2005:Q1,0.0,2.397007225554668,1.548227123375207,model_implied_state_space,-0.7326293755514897,0.7326293755514897,True,True,30,-1774.7833963441635,-2609.5171758302617,-1774.7833963441635,0.17387909383046463,9.790725049260086e-05,30.0,13,,0.0
joint_indicator_revision_dfm_full_kalman_em,exact,2005:Q1:pre_third:exact,2005-06-28,pre_third,DELTA_MT,DELTA_MT,2005:Q1,0.005700758747467116,2.3653199840472645,1.5379596821917227,model_implied_state_space,-0.7326293755514897,0.7383301342989568,True,True,33,-1743.6114511167202,-2621.38811794112,-1743.6114511167202,0.1700702341449869,9.747365619353483e-05,33.0,13,,0.0
ar,pseudo,2005:Q1:pre_advance:pseudo,2005-04-30,pre_advance,DELTA_SA,DELTA_SA,2005:Q1,0.3356948084435101,,,not_available,0.3950999999999998,-0.05940519155648971,True,True,0,,,,,,,13,,0.0
no_revision,pseudo,2005:Q1:pre_advance:pseudo,2005-04-30,pre_advance,DELTA_SA,DELTA_SA,2005:Q1,0.0,,,not_available,0.3950999999999998,-0.3950999999999998,True,True,0,,,,,,,13,,0.0
bridge,pseudo,2005:Q1:pre_advance:pseudo,2005-04-30,pre_advance,DELTA_SA,DELTA_SA,2005:Q1,0.26328560705155235,,,not_available,0.3950999999999998,-0.13181439294844743,True,True,0,,,,,,,13,,0.0
midas_umidas,pseudo,2005:Q1:pre_advance:pseudo,2005-04-30,pre_advance,DELTA_SA,DELTA_SA,2005:Q1,-5.913731381630731,,,not_available,0.3950999999999998,-6.30883138163073,True,True,0,,,,,,,13,,0.0
monthly_mixed_frequency_kalman_em,pseudo,2005:Q1:pre_advance:pseudo,2005-04-30,pre_advance,DELTA_SA,DELTA_SA,2005:Q1,-0.018015000188702945,0.32023330985648535,0.5658916061018093,model_implied_state_space,0.3950999999999998,-0.41311500018870273,True,False,100,-2933.81951364158,-3755.330564914717,-2933.81951364158,0.7336422759872221,0.0002499161953542984,101.0,13,,0.0
standard_dfm,pseudo,2005:Q1:pre_advance:pseudo,2005-04-30,pre_advance,DELTA_SA,DELTA_SA,2005:Q1,0.13413726161412365,,,not_available,0.3950999999999998,-0.26096273838587614,True,True,0,,,,,,,13,,0.0
release_dfm,pseudo,2005:Q1:pre_advance:pseudo,2005-04-30,pre_advance,DELTA_SA,DELTA_SA,2005:Q1,0.13413726161412365,,,not_available,0.3950999999999998,-0.26096273838587614,True,True,0,,,,,,,13,,0.0
revision_dfm_kalman_em,pseudo,2005:Q1:pre_advance:pseudo,2005-04-30,pre_advance,DELTA_SA,DELTA_SA,2005:Q1,0.06811620539538765,0.41278093592144316,0.6424803000259566,model_implied_state_space,0.3950999999999998,-0.32698379460461213,True,True,33,-1007.630137049425,-1765.7758579947883,-1007.630137049425,0.0966168199522599,9.578096306224378e-05,33.0,13,,0.0
indicator_revision_only_dfm_kalman_em,pseudo,2005:Q1:pre_advance:pseudo,2005-04-30,pre_advance,DELTA_SA,DELTA_SA,2005:Q1,0.0,0.4425591220746501,0.6652511721708201,model_implied_state_space,0.3950999999999998,-0.3950999999999998,True,True,41,-1776.4918796809106,-2604.3324388545207,-1776.4918796809106,0.16976250470975174,9.549764740439025e-05,41.0,13,,0.0
joint_indicator_revision_dfm_full_kalman_em,pseudo,2005:Q1:pre_advance:pseudo,2005-04-30,pre_advance,DELTA_SA,DELTA_SA,2005:Q1,0.2510798942148762,0.40968442891373336,0.6400659566901941,model_implied_state_space,0.3950999999999998,-0.1440201057851236,True,True,37,-1746.891676199521,-2616.2559306087965,-1746.891676199521,0.17180118563169344,9.828086213933311e-05,37.0,13,,0.0
ar,pseudo,2005:Q1:pre_second:pseudo,2005-05-31,pre_second,DELTA_TS,DELTA_TS,2005:Q1,0.04714135981196321,,,not_available,0.27649999999999997,-0.22935864018803676,True,True,0,,,,,,,13,,0.0
no_revision,pseudo,2005:Q1:pre_second:pseudo,2005-05-31,pre_second,DELTA_TS,DELTA_TS,2005:Q1,0.0,,,not_available,0.27649999999999997,-0.27649999999999997,True,True,0,,,,,,,13,,0.0
bridge,pseudo,2005:Q1:pre_second:pseudo,2005-05-31,pre_second,DELTA_TS,DELTA_TS,2005:Q1,0.19854853703044162,,,not_available,0.27649999999999997,-0.07795146296955835,True,True,0,,,,,,,13,,0.0
midas_umidas,pseudo,2005:Q1:pre_second:pseudo,2005-05-31,pre_second,DELTA_TS,DELTA_TS,2005:Q1,0.6899398299977455,,,not_available,0.27649999999999997,0.41343982999774553,True,True,0,,,,,,,13,,0.0
monthly_mixed_frequency_kalman_em,pseudo,2005:Q1:pre_second:pseudo,2005-05-31,pre_second,DELTA_TS,DELTA_TS,2005:Q1,-0.038879747588137725,0.1330579243873552,0.36477105749682937,model_implied_state_space,0.27649999999999997,-0.3153797475881377,True,False,100,-2958.69402146228,-3774.293426444673,-2958.69402146228,0.6090730480941602,0.00020574685383521486,101.0,13,,0.0
standard_dfm,pseudo,2005:Q1:pre_second:pseudo,2005-05-31,pre_second,DELTA_TS,DELTA_TS,2005:Q1,0.1165898545711248,,,not_available,0.27649999999999997,-0.15991014542887516,True,True,0,,,,,,,13,,0.0
release_dfm,pseudo,2005:Q1:pre_second:pseudo,2005-05-31,pre_second,DELTA_TS,DELTA_TS,2005:Q1,0.07710214238409208,,,not_available,0.27649999999999997,-0.1993978576159079,True,True,0,,,,,,,13,,0.0
revision_dfm_kalman_em,pseudo,2005:Q1:pre_second:pseudo,2005-05-31,pre_second,DELTA_TS,DELTA_TS,2005:Q1,0.0026544769301093396,0.14061120759905565,0.37498160968113575,model_implied_state_space,0.27649999999999997,-0.27384552306989063,True,True,39,-1008.207273308415,-1763.6301565040717,-1008.207273308415,0.09759523725131203,9.669549835020567e-05,39.0,13,,0.0
indicator_revision_only_dfm_kalman_em,pseudo,2005:Q1:pre_second:pseudo,2005-05-31,pre_second,DELTA_TS,DELTA_TS,2005:Q1,0.0,0.14433637654456188,0.3799162757036896,model_implied_state_space,0.27649999999999997,-0.27649999999999997,True,True,43,-1777.7673482685948,-2605.421336885396,-1777.7673482685948,0.17716430902305547,9.958956435709826e-05,43.0,13,,0.0
joint_indicator_revision_dfm_full_kalman_em,pseudo,2005:Q1:pre_second:pseudo,2005-05-31,pre_second,DELTA_TS,DELTA_TS,2005:Q1,0.006542717680163346,0.13912595814791395,0.3729959224279991,model_implied_state_space,0.27649999999999997,-0.2699572823198366,True,True,40,-1747.5883667064413,-2617.468346489962,-1747.5883667064413,0.1647904024773652,9.423308361587219e-05,40.0,13,,0.0
ar,pseudo,2005:Q1:pre_third:pseudo,2005-06-30,pre_third,DELTA_MT,DELTA_MT,2005:Q1,-0.08177802693441016,,,not_available,-0.7326293755514897,0.6508513486170795,True,True,0,,,,,,,13,,0.0
no_revision,pseudo,2005:Q1:pre_third:pseudo,2005-06-30,pre_third,DELTA_MT,DELTA_MT,2005:Q1,0.0,,,not_available,-0.7326293755514897,0.7326293755514897,True,True,0,,,,,,,13,,0.0
bridge,pseudo,2005:Q1:pre_third:pseudo,2005-06-30,pre_third,DELTA_MT,DELTA_MT,2005:Q1,-1.6489558701230516,,,not_available,-0.7326293755514897,-0.9163264945715619,True,True,0,,,,,,,13,,0.0
midas_umidas,pseudo,2005:Q1:pre_third:pseudo,2005-06-30,pre_third,DELTA_MT,DELTA_MT,2005:Q1,1.5975274267725075,,,not_available,-0.7326293755514897,2.330156802323997,True,True,0,,,,,,,13,,0.0
monthly_mixed_frequency_kalman_em,pseudo,2005:Q1:pre_third:pseudo,2005-06-30,pre_third,DELTA_MT,DELTA_MT,2005:Q1,0.048042814227846176,2.3467950928390087,1.5319252895748567,model_implied_state_space,-0.7326293755514897,0.7806721897793358,True,False,100,-2978.1266223968196,-3793.441573085113,-2978.1266223968196,0.586529620690726,0.00019684096782725456,101.0,13,,0.0
standard_dfm,pseudo,2005:Q1:pre_third:pseudo,2005-06-30,pre_third,DELTA_MT,DELTA_MT,2005:Q1,0.21641287901400963,,,not_available,-0.7326293755514897,0.9490422545654993,True,True,0,,,,,,,13,,0.0
release_dfm,pseudo,2005:Q1:pre_third:pseudo,2005-06-30,pre_third,DELTA_MT,DELTA_MT,2005:Q1,0.3385837192074108,,,not_available,-0.7326293755514897,1.0712130947589005,True,True,0,,,,,,,13,,0.0
revision_dfm_kalman_em,pseudo,2005:Q1:pre_third:pseudo,2005-06-30,pre_third,DELTA_MT,DELTA_MT,2005:Q1,0.00578770258349337,2.391499434580338,1.5464473591365269,model_implied_state_space,-0.7326293755514897,0.738417078134983,True,True,34,-1008.0533602622246,-1768.1653181200043,-1008.0533602622246,0.09366155936493215,9.281260048299572e-05,34.0,13,,0.0
indicator_revision_only_dfm_kalman_em,pseudo,2005:Q1:pre_third:pseudo,2005-06-30,pre_third,DELTA_MT,DELTA_MT,2005:Q1,0.0,2.397007225554668,1.548227123375207,model_implied_state_space,-0.7326293755514897,0.7326293755514897,True,True,30,-1774.7833963441635,-2609.5171758302617,-1774.7833963441635,0.17387909383046463,9.790725049260086e-05,30.0,13,,0.0
joint_indicator_revision_dfm_full_kalman_em,pseudo,2005:Q1:pre_third:pseudo,2005-06-30,pre_third,DELTA_MT,DELTA_MT,2005:Q1,0.005700758747467116,2.3653199840472645,1.5379596821917227,model_implied_state_space,-0.7326293755514897,0.7383301342989568,True,True,33,-1743.6114511167202,-2621.38811794112,-1743.6114511167202,0.1700702341449869,9.747365619353483e-05,33.0,13,,0.0
ar,exact,2005:Q2:pre_advance:exact,2005-07-28,pre_advance,DELTA_SA,DELTA_SA,2005:Q2,0.21833891079913448,,,not_available,-0.12680000000000025,0.3451389107991347,True,True,0,,,,,,,13,,0.0
no_revision,exact,2005:Q2:pre_advance:exact,2005-07-28,pre_advance,DELTA_SA,DELTA_SA,2005:Q2,0.0,,,not_available,-0.12680000000000025,0.12680000000000025,True,True,0,,,,,,,13,,0.0
bridge,exact,2005:Q2:pre_advance:exact,2005-07-28,pre_advance,DELTA_SA,DELTA_SA,2005:Q2,0.22072143379207043,,,not_available,-0.12680000000000025,0.3475214337920707,True,True,0,,,,,,,13,,0.0
midas_umidas,exact,2005:Q2:pre_advance:exact,2005-07-28,pre_advance,DELTA_SA,DELTA_SA,2005:Q2,3.1834937249368505,,,not_available,-0.12680000000000025,3.3102937249368507,True,True,0,,,,,,,13,,0.0
monthly_mixed_frequency_kalman_em,exact,2005:Q2:pre_advance:exact,2005-07-28,pre_advance,DELTA_SA,DELTA_SA,2005:Q2,0.17154622723577306,0.3207993306286152,0.566391499431811,model_implied_state_space,-0.12680000000000025,0.2983462272357733,True,False,100,-2994.0608460563953,-3814.449941000958,-2994.0608460563953,0.6350291883109094,0.00021198052631395248,101.0,13,,0.0
standard_dfm,exact,2005:Q2:pre_advance:exact,2005-07-28,pre_advance,DELTA_SA,DELTA_SA,2005:Q2,0.12854263391274845,,,not_available,-0.12680000000000025,0.2553426339127487,True,True,0,,,,,,,13,,0.0
release_dfm,exact,2005:Q2:pre_advance:exact,2005-07-28,pre_advance,DELTA_SA,DELTA_SA,2005:Q2,0.12854263391274845,,,not_available,-0.12680000000000025,0.2553426339127487,True,True,0,,,,,,,13,,0.0
revision_dfm_kalman_em,exact,2005:Q2:pre_advance:exact,2005-07-28,pre_advance,DELTA_SA,DELTA_SA,2005:Q2,0.0684336958192513,0.4104951448901879,0.6406989502802294,model_implied_state_space,-0.12680000000000025,0.19523369581925154,True,True,33,-1026.204192244291,-1788.0409419895075,-1026.204192244291,0.0976508807780192,9.50556853679573e-05,33.0,13,,0.0
indicator_revision_only_dfm_kalman_em,exact,2005:Q2:pre_advance:exact,2005-07-28,pre_advance,DELTA_SA,DELTA_SA,2005:Q2,0.0,0.4400240954545449,0.6633431204546746,model_implied_state_space,-0.12680000000000025,0.12680000000000025,True,True,45,-1809.215765221028,-2643.496328535173,-1809.215765221028,0.17082698663011797,9.435939669758859e-05,45.0,13,,0.0
joint_indicator_revision_dfm_full_kalman_em,exact,2005:Q2:pre_advance:exact,2005-07-28,pre_advance,DELTA_SA,DELTA_SA,2005:Q2,0.24630058286102763,0.3655342734930551,0.6045943048797724,model_implied_state_space,-0.12680000000000025,0.3731005828610279,True,True,57,-1580.3367142344066,-2655.505608423725,-1580.3367142344066,0.14709089753955595,9.300815921240742e-05,57.0,13,,0.0
ar,exact,2005:Q2:pre_second:exact,2005-08-30,pre_second,DELTA_TS,DELTA_TS,2005:Q2,0.15724034422064648,,,not_available,0.022400000000000198,0.13484034422064628,True,True,0,,,,,,,13,,0.0
no_revision,exact,2005:Q2:pre_second:exact,2005-08-30,pre_second,DELTA_TS,DELTA_TS,2005:Q2,0.0,,,not_available,0.022400000000000198,-0.022400000000000198,True,True,0,,,,,,,13,,0.0
bridge,exact,2005:Q2:pre_second:exact,2005-08-30,pre_second,DELTA_TS,DELTA_TS,2005:Q2,0.48923325473563883,,,not_available,0.022400000000000198,0.46683325473563864,True,True,0,,,,,,,13,,0.0
midas_umidas,exact,2005:Q2:pre_second:exact,2005-08-30,pre_second,DELTA_TS,DELTA_TS,2005:Q2,0.40318921264596463,,,not_available,0.022400000000000198,0.38078921264596444,True,True,0,,,,,,,13,,0.0
monthly_mixed_frequency_kalman_em,exact,2005:Q2:pre_second:exact,2005-08-30,pre_second,DELTA_TS,DELTA_TS,2005:Q2,0.08298955045302137,0.1326089543830261,0.3641551240653166,model_implied_state_space,0.022400000000000198,0.06058955045302117,True,False,100,-3013.500197391709,-3834.337510643101,-3013.500197391709,0.6455810745164854,0.00021411272354628438,101.0,13,,0.0
standard_dfm,exact,2005:Q2:pre_second:exact,2005-08-30,pre_second,DELTA_TS,DELTA_TS,2005:Q2,0.10196425444292556,,,not_available,0.022400000000000198,0.07956425444292536,True,True,0,,,,,,,13,,0.0
release_dfm,exact,2005:Q2:pre_second:exact,2005-08-30,pre_second,DELTA_TS,DELTA_TS,2005:Q2,0.07100598606757691,,,not_available,0.022400000000000198,0.04860598606757671,True,True,0,,,,,,,13,,0.0
revision_dfm_kalman_em,exact,2005:Q2:pre_second:exact,2005-08-30,pre_second,DELTA_TS,DELTA_TS,2005:Q2,0.0041552092812406904,0.14013112789166393,0.3743409246818519,model_implied_state_space,0.022400000000000198,-0.018244790718759507,True,True,38,-1029.421388400459,-1787.6375936777606,-1029.421388400459,0.10263959567737402,9.959942018718155e-05,38.0,13,,0.0
indicator_revision_only_dfm_kalman_em,exact,2005:Q2:pre_second:exact,2005-08-30,pre_second,DELTA_TS,DELTA_TS,2005:Q2,0.0,0.14459468068002024,0.38025607250906623,model_implied_state_space,0.022400000000000198,-0.022400000000000198,True,True,31,-1812.3830914216444,-2650.0684041248837,-1812.3830914216444,0.17524181975795727,9.662871965344766e-05,31.0,13,,0.0
joint_indicator_revision_dfm_full_kalman_em,exact,2005:Q2:pre_second:exact,2005-08-30,pre_second,DELTA_TS,DELTA_TS,2005:Q2,0.00844956047687262,0.1391417947932011,0.3730171508030175,model_implied_state_space,0.022400000000000198,-0.013950439523127578,True,True,33,-1781.3420537276286,-2662.043070788717,-1781.3420537276286,0.16925274531763534,9.495184950749941e-05,33.0,13,,0.0
ar,exact,2005:Q2:pre_third:exact,2005-09-28,pre_third,DELTA_MT,DELTA_MT,2005:Q2,-0.4660089511833525,,,not_available,-0.5357425539727498,0.06973360278939733,True,True,0,,,,,,,13,,0.0
no_revision,exact,2005:Q2:pre_third:exact,2005-09-28,pre_third,DELTA_MT,DELTA_MT,2005:Q2,0.0,,,not_available,-0.5357425539727498,0.5357425539727498,True,True,0,,,,,,,13,,0.0
bridge,exact,2005:Q2:pre_third:exact,2005-09-28,pre_third,DELTA_MT,DELTA_MT,2005:Q2,-1.881378146964829,,,not_available,-0.5357425539727498,-1.3456355929920791,True,True,0,,,,,,,13,,0.0
midas_umidas,exact,2005:Q2:pre_third:exact,2005-09-28,pre_third,DELTA_MT,DELTA_MT,2005:Q2,3.4863359819636477,,,not_available,-0.5357425539727498,4.022078535936398,True,True,0,,,,,,,13,,0.0
monthly_mixed_frequency_kalman_em,exact,2005:Q2:pre_third:exact,2005-09-28,pre_third,DELTA_MT,DELTA_MT,2005:Q2,0.024241363871563504,2.3430626510971613,1.5307065855666662,model_implied_state_space,-0.5357425539727498,0.5599839178443133,True,False,100,-3029.193678785222,-3854.259108337186,-3029.193678785222,0.7159222604145725,0.00023620706475956452,101.0,13,,0.0
standard_dfm,exact,2005:Q2:pre_third:exact,2005-09-28,pre_third,DELTA_MT,DELTA_MT,2005:Q2,0.2157796704453725,,,not_available,-0.5357425539727498,0.7515222244181223,True,True,0,,,,,,,13,,0.0
release_dfm,exact,2005:Q2:pre_third:exact,2005-09-28,pre_third,DELTA_MT,DELTA_MT,2005:Q2,0.045942168979695275,,,not_available,-0.5357425539727498,0.5816847229524451,True,True,0,,,,,,,13,,0.0
revision_dfm_kalman_em,exact,2005:Q2:pre_third:exact,2005-09-28,pre_third,DELTA_MT,DELTA_MT,2005:Q2,-0.00039015442669887435,2.3861490482744645,1.5447164944657206,model_implied_state_space,-0.5357425539727498,0.535352399546051,True,True,33,-1029.2347877343298,-1791.651780070252,-1029.2347877343298,0.09815257438958724,9.526296845384534e-05,33.0,13,,0.0
indicator_revision_only_dfm_kalman_em,exact,2005:Q2:pre_third:exact,2005-09-28,pre_third,DELTA_MT,DELTA_MT,2005:Q2,0.0,2.3929616015226376,1.5469200372102747,model_implied_state_space,-0.5357425539727498,0.5357425539727498,True,True,31,-1812.1848750566019,-2651.326659198518,-1812.1848750566019,0.1790219949753009,9.87237008889281e-05,31.0,13,,0.0
joint_indicator_revision_dfm_full_kalman_em,exact,2005:Q2:pre_third:exact,2005-09-28,pre_third,DELTA_MT,DELTA_MT,2005:Q2,0.00032161624346649376,2.3609592022728196,1.5365413116063036,model_implied_state_space,-0.5357425539727498,0.5360641702162163,True,True,33,-1781.2892847848132,-2663.278072118471,-1781.2892847848132,0.1750476839390558,9.820543432507898e-05,33.0,13,,0.0
ar,pseudo,2005:Q2:pre_advance:pseudo,2005-07-31,pre_advance,DELTA_SA,DELTA_SA,2005:Q2,0.21833891079913448,,,not_available,-0.12680000000000025,0.3451389107991347,True,True,0,,,,,,,13,,0.0
no_revision,pseudo,2005:Q2:pre_advance:pseudo,2005-07-31,pre_advance,DELTA_SA,DELTA_SA,2005:Q2,0.0,,,not_available,-0.12680000000000025,0.12680000000000025,True,True,0,,,,,,,13,,0.0
bridge,pseudo,2005:Q2:pre_advance:pseudo,2005-07-31,pre_advance,DELTA_SA,DELTA_SA,2005:Q2,0.22072143379207043,,,not_available,-0.12680000000000025,0.3475214337920707,True,True,0,,,,,,,13,,0.0
midas_umidas,pseudo,2005:Q2:pre_advance:pseudo,2005-07-31,pre_advance,DELTA_SA,DELTA_SA,2005:Q2,3.1834937249368505,,,not_available,-0.12680000000000025,3.3102937249368507,True,True,0,,,,,,,13,,0.0
monthly_mixed_frequency_kalman_em,pseudo,2005:Q2:pre_advance:pseudo,2005-07-31,pre_advance,DELTA_SA,DELTA_SA,2005:Q2,0.17154622723577306,0.3207993306286152,0.566391499431811,model_implied_state_space,-0.12680000000000025,0.2983462272357733,True,False,100,-2994.0608460563953,-3814.449941000958,-2994.0608460563953,0.6350291883109094,0.00021198052631395248,101.0,13,,0.0
standard_dfm,pseudo,2005:Q2:pre_advance:pseudo,2005-07-31,pre_advance,DELTA_SA,DELTA_SA,2005:Q2,0.12854263391274845,,,not_available,-0.12680000000000025,0.2553426339127487,True,True,0,,,,,,,13,,0.0
release_dfm,pseudo,2005:Q2:pre_advance:pseudo,2005-07-31,pre_advance,DELTA_SA,DELTA_SA,2005:Q2,0.12854263391274845,,,not_available,-0.12680000000000025,0.2553426339127487,True,True,0,,,,,,,13,,0.0
revision_dfm_kalman_em,pseudo,2005:Q2:pre_advance:pseudo,2005-07-31,pre_advance,DELTA_SA,DELTA_SA,2005:Q2,0.0684336958192513,0.4104951448901879,0.6406989502802294,model_implied_state_space,-0.12680000000000025,0.19523369581925154,True,True,33,-1026.204192244291,-1788.0409419895075,-1026.204192244291,0.0976508807780192,9.50556853679573e-05,33.0,13,,0.0
indicator_revision_only_dfm_kalman_em,pseudo,2005:Q2:pre_advance:pseudo,2005-07-31,pre_advance,DELTA_SA,DELTA_SA,2005:Q2,0.0,0.4400240954545449,0.6633431204546746,model_implied_state_space,-0.12680000000000025,0.12680000000000025,True,True,45,-1809.215765221028,-2643.496328535173,-1809.215765221028,0.17082698663011797,9.435939669758859e-05,45.0,13,,0.0
joint_indicator_revision_dfm_full_kalman_em,pseudo,2005:Q2:pre_advance:pseudo,2005-07-31,pre_advance,DELTA_SA,DELTA_SA,2005:Q2,0.24630058286102763,0.3655342734930551,0.6045943048797724,model_implied_state_space,-0.12680000000000025,0.3731005828610279,True,True,57,-1580.3367142344066,-2655.505608423725,-1580.3367142344066,0.14709089753955595,9.300815921240742e-05,57.0,13,,0.0
ar,pseudo,2005:Q2:pre_second:pseudo,2005-08-31,pre_second,DELTA_TS,DELTA_TS,2005:Q2,0.15724034422064648,,,not_available,0.022400000000000198,0.13484034422064628,True,True,0,,,,,,,13,,0.0
no_revision,pseudo,2005:Q2:pre_second:pseudo,2005-08-31,pre_second,DELTA_TS,DELTA_TS,2005:Q2,0.0,,,not_available,0.022400000000000198,-0.022400000000000198,True,True,0,,,,,,,13,,0.0
bridge,pseudo,2005:Q2:pre_second:pseudo,2005-08-31,pre_second,DELTA_TS,DELTA_TS,2005:Q2,0.48923325473563883,,,not_available,0.022400000000000198,0.46683325473563864,True,True,0,,,,,,,13,,0.0
midas_umidas,pseudo,2005:Q2:pre_second:pseudo,2005-08-31,pre_second,DELTA_TS,DELTA_TS,2005:Q2,0.40318921264596463,,,not_available,0.022400000000000198,0.38078921264596444,True,True,0,,,,,,,13,,0.0
monthly_mixed_frequency_kalman_em,pseudo,2005:Q2:pre_second:pseudo,2005-08-31,pre_second,DELTA_TS,DELTA_TS,2005:Q2,0.08298955045302137,0.1326089543830261,0.3641551240653166,model_implied_state_space,0.022400000000000198,0.06058955045302117,True,False,100,-3013.500197391709,-3834.337510643101,-3013.500197391709,0.6455810745164854,0.00021411272354628438,101.0,13,,0.0
standard_dfm,pseudo,2005:Q2:pre_second:pseudo,2005-08-31,pre_second,DELTA_TS,DELTA_TS,2005:Q2,0.10196425444292556,,,not_available,0.022400000000000198,0.07956425444292536,True,True,0,,,,,,,13,,0.0
release_dfm,pseudo,2005:Q2:pre_second:pseudo,2005-08-31,pre_second,DELTA_TS,DELTA_TS,2005:Q2,0.07100598606757691,,,not_available,0.022400000000000198,0.04860598606757671,True,True,0,,,,,,,13,,0.0
revision_dfm_kalman_em,pseudo,2005:Q2:pre_second:pseudo,2005-08-31,pre_second,DELTA_TS,DELTA_TS,2005:Q2,0.0041552092812406904,0.14013112789166393,0.3743409246818519,model_implied_state_space,0.022400000000000198,-0.018244790718759507,True,True,38,-1029.421388400459,-1787.6375936777606,-1029.421388400459,0.10263959567737402,9.959942018718155e-05,38.0,13,,0.0
indicator_revision_only_dfm_kalman_em,pseudo,2005:Q2:pre_second:pseudo,2005-08-31,pre_second,DELTA_TS,DELTA_TS,2005:Q2,0.0,0.14459468068002024,0.38025607250906623,model_implied_state_space,0.022400000000000198,-0.022400000000000198,True,True,31,-1812.3830914216444,-2650.0684041248837,-1812.3830914216444,0.17524181975795727,9.662871965344766e-05,31.0,13,,0.0
joint_indicator_revision_dfm_full_kalman_em,pseudo,2005:Q2:pre_second:pseudo,2005-08-31,pre_second,DELTA_TS,DELTA_TS,2005:Q2,0.00844956047687262,0.1391417947932011,0.3730171508030175,model_implied_state_space,0.022400000000000198,-0.013950439523127578,True,True,33,-1781.3420537276286,-2662.043070788717,-1781.3420537276286,0.16925274531763534,9.495184950749941e-05,33.0,13,,0.0
ar,pseudo,2005:Q2:pre_third:pseudo,2005-09-30,pre_third,DELTA_MT,DELTA_MT,2005:Q2,-0.4660089511833525,,,not_available,-0.5357425539727498,0.06973360278939733,True,True,0,,,,,,,13,,0.0
no_revision,pseudo,2005:Q2:pre_third:pseudo,2005-09-30,pre_third,DELTA_MT,DELTA_MT,2005:Q2,0.0,,,not_available,-0.5357425539727498,0.5357425539727498,True,True,0,,,,,,,13,,0.0
bridge,pseudo,2005:Q2:pre_third:pseudo,2005-09-30,pre_third,DELTA_MT,DELTA_MT,2005:Q2,-1.881378146964829,,,not_available,-0.5357425539727498,-1.3456355929920791,True,True,0,,,,,,,13,,0.0
midas_umidas,pseudo,2005:Q2:pre_third:pseudo,2005-09-30,pre_third,DELTA_MT,DELTA_MT,2005:Q2,3.4863359819636477,,,not_available,-0.5357425539727498,4.022078535936398,True,True,0,,,,,,,13,,0.0
monthly_mixed_frequency_kalman_em,pseudo,2005:Q2:pre_third:pseudo,2005-09-30,pre_third,DELTA_MT,DELTA_MT,2005:Q2,0.024241363871563504,2.3430626510971613,1.5307065855666662,model_implied_state_space,-0.5357425539727498,0.5599839178443133,True,False,100,-3029.193678785222,-3854.259108337186,-3029.193678785222,0.7159222604145725,0.00023620706475956452,101.0,13,,0.0
standard_dfm,pseudo,2005:Q2:pre_third:pseudo,2005-09-30,pre_third,DELTA_MT,DELTA_MT,2005:Q2,0.2157796704453725,,,not_available,-0.5357425539727498,0.7515222244181223,True,True,0,,,,,,,13,,0.0
release_dfm,pseudo,2005:Q2:pre_third:pseudo,2005-09-30,pre_third,DELTA_MT,DELTA_MT,2005:Q2,0.045942168979695275,,,not_available,-0.5357425539727498,0.5816847229524451,True,True,0,,,,,,,13,,0.0
revision_dfm_kalman_em,pseudo,2005:Q2:pre_third:pseudo,2005-09-30,pre_third,DELTA_MT,DELTA_MT,2005:Q2,-0.00039015442669887435,2.3861490482744645,1.5447164944657206,model_implied_state_space,-0.5357425539727498,0.535352399546051,True,True,33,-1029.2347877343298,-1791.651780070252,-1029.2347877343298,0.09815257438958724,9.526296845384534e-05,33.0,13,,0.0
indicator_revision_only_dfm_kalman_em,pseudo,2005:Q2:pre_third:pseudo,2005-09-30,pre_third,DELTA_MT,DELTA_MT,2005:Q2,0.0,2.3929616015226376,1.5469200372102747,model_implied_state_space,-0.5357425539727498,0.5357425539727498,True,True,31,-1812.1848750566019,-2651.326659198518,-1812.1848750566019,0.1790219949753009,9.87237008889281e-05,31.0,13,,0.0
joint_indicator_revision_dfm_full_kalman_em,pseudo,2005:Q2:pre_third:pseudo,2005-09-30,pre_third,DELTA_MT,DELTA_MT,2005:Q2,0.00032161624346649376,2.3609592022728196,1.5365413116063036,model_implied_state_space,-0.5357425539727498,0.5360641702162163,True,True,33,-1781.2892847848132,-2663.278072118471,-1781.2892847848132,0.1750476839390558,9.820543432507898e-05,33.0,13,,0.0
ar,exact,2005:Q3:pre_advance:exact,2005-10-27,pre_advance,DELTA_SA,DELTA_SA,2005:Q3,-0.031815410366425656,,,not_available,0.47940000000000005,-0.5112154103664257,True,True,0,,,,,,,13,,0.0
no_revision,exact,2005:Q3:pre_advance:exact,2005-10-27,pre_advance,DELTA_SA,DELTA_SA,2005:Q3,0.0,,,not_available,0.47940000000000005,-0.47940000000000005,True,True,0,,,,,,,13,,0.0
bridge,exact,2005:Q3:pre_advance:exact,2005-10-27,pre_advance,DELTA_SA,DELTA_SA,2005:Q3,-0.13722876675774653,,,not_available,0.47940000000000005,-0.6166287667577466,True,True,0,,,,,,,13,,0.0
midas_umidas,exact,2005:Q3:pre_advance:exact,2005-10-27,pre_advance,DELTA_SA,DELTA_SA,2005:Q3,-1.097926008146679,,,not_available,0.47940000000000005,-1.5773260081466791,True,True,0,,,,,,,13,,0.0
monthly_mixed_frequency_kalman_em,exact,2005:Q3:pre_advance:exact,2005-10-27,pre_advance,DELTA_SA,DELTA_SA,2005:Q3,-0.2026215985149542,0.3469119355058279,0.5889923051329515,model_implied_state_space,0.47940000000000005,-0.6820215985149543,True,True,39,-3084.504199349503,-3870.0533747774975,-3084.504199349503,0.3043457896706059,9.862756720601392e-05,39.0,13,,0.0
standard_dfm,exact,2005:Q3:pre_advance:exact,2005-10-27,pre_advance,DELTA_SA,DELTA_SA,2005:Q3,0.10599607607652572,,,not_available,0.47940000000000005,-0.3734039239234743,True,True,0,,,,,,,13,,0.0
release_dfm,exact,2005:Q3:pre_advance:exact,2005-10-27,pre_advance,DELTA_SA,DELTA_SA,2005:Q3,0.10599607607652572,,,not_available,0.47940000000000005,-0.3734039239234743,True,True,0,,,,,,,13,,0.0
revision_dfm_kalman_em,exact,2005:Q3:pre_advance:exact,2005-10-27,pre_advance,DELTA_SA,DELTA_SA,2005:Q3,0.1296822220932392,0.40853755987418516,0.6391694297087316,model_implied_state_space,0.47940000000000005,-0.34971777790676084,True,True,32,-1047.9733555523985,-1812.2075223234622,-1047.9733555523985,0.10370290313494479,9.88515593769801e-05,32.0,13,,0.0
indicator_revision_only_dfm_kalman_em,exact,2005:Q3:pre_advance:exact,2005-10-27,pre_advance,DELTA_SA,DELTA_SA,2005:Q3,0.0,0.4374441570906207,0.6613956131473966,model_implied_state_space,0.47940000000000005,-0.47940000000000005,True,True,43,-1857.1061359515088,-2686.2164162301765,-1857.1061359515088,0.18114287043999866,9.747839987089252e-05,43.0,13,,0.0
joint_indicator_revision_dfm_full_kalman_em,exact,2005:Q3:pre_advance:exact,2005-10-27,pre_advance,DELTA_SA,DELTA_SA,2005:Q3,0.26787745036967037,0.38789404626641577,0.6228114050548655,model_implied_state_space,0.47940000000000005,-0.21152254963032968,True,True,41,-1825.5015486382968,-2698.297561196207,-1825.5015486382968,0.18036299359710029,9.873804106154983e-05,41.0,13,,0.0
ar,exact,2005:Q3:pre_second:exact,2005-11-29,pre_second,DELTA_TS,DELTA_TS,2005:Q3,0.04947351053060434,,,not_available,-0.14139999999999997,0.1908735105306043,True,True,0,,,,,,,13,,0.0
no_revision,exact,2005:Q3:pre_second:exact,2005-11-29,pre_second,DELTA_TS,DELTA_TS,2005:Q3,0.0,,,not_available,-0.14139999999999997,0.14139999999999997,True,True,0,,,,,,,13,,0.0
bridge,exact,2005:Q3:pre_second:exact,2005-11-29,pre_second,DELTA_TS,DELTA_TS,2005:Q3,0.5111828037580146,,,not_available,-0.14139999999999997,0.6525828037580146,True,True,0,,,,,,,13,,0.0
midas_umidas,exact,2005:Q3:pre_second:exact,2005-11-29,pre_second,DELTA_TS,DELTA_TS,2005:Q3,0.038085864696976834,,,not_available,-0.14139999999999997,0.1794858646969768,True,True,0,,,,,,,13,,0.0
monthly_mixed_frequency_kalman_em,exact,2005:Q3:pre_second:exact,2005-11-29,pre_second,DELTA_TS,DELTA_TS,2005:Q3,-0.05791504032471595,0.13701643271823183,0.37015730807081443,model_implied_state_space,-0.14139999999999997,0.08348495967528402,True,True,85,-3038.3056766666828,-3894.7362017985993,-3038.3056766666828,0.27435455684644694,9.026067878726337e-05,85.0,13,,0.0
standard_dfm,exact,2005:Q3:pre_second:exact,2005-11-29,pre_second,DELTA_TS,DELTA_TS,2005:Q3,0.08645353041557424,,,not_available,-0.14139999999999997,0.2278535304155742,True,True,0,,,,,,,13,,0.0
release_dfm,exact,2005:Q3:pre_second:exact,2005-11-29,pre_second,DELTA_TS,DELTA_TS,2005:Q3,0.061522575505668975,,,not_available,-0.14139999999999997,0.20292257550566895,True,True,0,,,,,,,13,,0.0
revision_dfm_kalman_em,exact,2005:Q3:pre_second:exact,2005-11-29,pre_second,DELTA_TS,DELTA_TS,2005:Q3,0.007054435362646494,0.13931170401075677,0.37324483119094465,model_implied_state_space,-0.14139999999999997,0.14845443536264646,True,True,38,-1051.7063877125613,-1810.8020026294569,-1051.7063877125613,0.10325927271946966,9.807971746379079e-05,38.0,13,,0.0
indicator_revision_only_dfm_kalman_em,exact,2005:Q3:pre_second:exact,2005-11-29,pre_second,DELTA_TS,DELTA_TS,2005:Q3,0.0,0.14304626756206684,0.37821457872756153,model_implied_state_space,-0.14139999999999997,0.14139999999999997,True,True,46,-1860.204610711583,-2688.5305953598154,-1860.204610711583,0.1832429165576741,9.844424212853035e-05,46.0,13,,0.0
joint_indicator_revision_dfm_full_kalman_em,exact,2005:Q3:pre_second:exact,2005-11-29,pre_second,DELTA_TS,DELTA_TS,2005:Q3,0.010676023483084052,0.13828170865416678,0.37186248621522283,model_implied_state_space,-0.14139999999999997,0.15207602348308402,True,True,47,-1828.469094039919,-2700.726588522971,-1828.469094039919,0.17344456164323674,9.479696606518802e-05,47.0,13,,0.0
ar,exact,2005:Q3:pre_third:exact,2005-12-20,pre_third,DELTA_MT,DELTA_MT,2005:Q3,-0.2774862039070696,,,not_available,-0.3636201894348279,0.0861339855277583,True,True,0,,,,,,,13,,0.0
no_revision,exact,2005:Q3:pre_third:exact,2005-12-20,pre_third,DELTA_MT,DELTA_MT,2005:Q3,0.0,,,not_available,-0.3636201894348279,0.3636201894348279,True,True,0,,,,,,,13,,0.0
bridge,exact,2005:Q3:pre_third:exact,2005-12-20,pre_third,DELTA_MT,DELTA_MT,2005:Q3,-1.6933801200369205,,,not_available,-0.3636201894348279,-1.3297599306020926,True,True,0,,,,,,,13,,0.0
midas_umidas,exact,2005:Q3:pre_third:exact,2005-12-20,pre_third,DELTA_MT,DELTA_MT,2005:Q3,2.563956483613667,,,not_available,-0.3636201894348279,2.927576673048495,True,True,0,,,,,,,13,,0.0
monthly_mixed_frequency_kalman_em,exact,2005:Q3:pre_third:exact,2005-12-20,pre_third,DELTA_MT,DELTA_MT,2005:Q3,-0.047852494811298385,2.3596547272703305,1.5361167687615191,model_implied_state_space,-0.3636201894348279,0.3157676946235295,True,False,100,-3063.7008705170306,-3916.4653592622626,-3063.7008705170306,0.7534929195489894,0.00024580138218214197,101.0,13,,0.0
standard_dfm,exact,2005:Q3:pre_third:exact,2005-12-20,pre_third,DELTA_MT,DELTA_MT,2005:Q3,0.20986054049939584,,,not_available,-0.3636201894348279,0.5734807299342237,True,True,0,,,,,,,13,,0.0
release_dfm,exact,2005:Q3:pre_third:exact,2005-12-20,pre_third,DELTA_MT,DELTA_MT,2005:Q3,0.23190800099210485,,,not_available,-0.3636201894348279,0.5955281904269327,True,True,0,,,,,,,13,,0.0
revision_dfm_kalman_em,exact,2005:Q3:pre_third:exact,2005-12-20,pre_third,DELTA_MT,DELTA_MT,2005:Q3,0.00833742961470385,2.3892479076891577,1.545719220197885,model_implied_state_space,-0.3636201894348279,0.37195761904953173,True,True,33,-1051.3346633834742,-1815.3784309795208,-1051.3346633834742,0.0994131553909483,9.446022093648646e-05,33.0,13,,0.0
indicator_revision_only_dfm_kalman_em,exact,2005:Q3:pre_third:exact,2005-12-20,pre_third,DELTA_MT,DELTA_MT,2005:Q3,0.0,2.4029045654829466,1.550130499500912,model_implied_state_space,-0.3636201894348279,0.3636201894348279,True,True,46,-1859.87964270377,-2689.5447973106234,-1859.87964270377,0.18543011219094296,9.963655484134701e-05,46.0,13,,0.0
joint_indicator_revision_dfm_full_kalman_em,exact,2005:Q3:pre_third:exact,2005-12-20,pre_third,DELTA_MT,DELTA_MT,2005:Q3,0.00893230037780679,2.375341537584654,1.541214306183489,model_implied_state_space,-0.3636201894348279,0.37255248981263467,True,True,47,-1827.9936247321846,-2701.717338440812,-1827.9936247321846,0.1814206972574084,9.918170363778147e-05,47.0,13,,0.0
ar,pseudo,2005:Q3:pre_advance:pseudo,2005-10-31,pre_advance,DELTA_SA,DELTA_SA,2005:Q3,-0.031815410366425656,,,not_available,0.47940000000000005,-0.5112154103664257,True,True,0,,,,,,,13,,0.0
no_revision,pseudo,2005:Q3:pre_advance:pseudo,2005-10-31,pre_advance,DELTA_SA,DELTA_SA,2005:Q3,0.0,,,not_available,0.47940000000000005,-0.47940000000000005,True,True,0,,,,,,,13,,0.0
bridge,pseudo,2005:Q3:pre_advance:pseudo,2005-10-31,pre_advance,DELTA_SA,DELTA_SA,2005:Q3,-0.13722876675774653,,,not_available,0.47940000000000005,-0.6166287667577466,True,True,0,,,,,,,13,,0.0
midas_umidas,pseudo,2005:Q3:pre_advance:pseudo,2005-10-31,pre_advance,DELTA_SA,DELTA_SA,2005:Q3,-1.097926008146679,,,not_available,0.47940000000000005,-1.5773260081466791,True,True,0,,,,,,,13,,0.0
monthly_mixed_frequency_kalman_em,pseudo,2005:Q3:pre_advance:pseudo,2005-10-31,pre_advance,DELTA_SA,DELTA_SA,2005:Q3,-0.2026215985149542,0.3469119355058279,0.5889923051329515,model_implied_state_space,0.47940000000000005,-0.6820215985149543,True,True,39,-3084.504199349503,-3870.0533747774975,-3084.504199349503,0.3043457896706059,9.862756720601392e-05,39.0,13,,0.0
standard_dfm,pseudo,2005:Q3:pre_advance:pseudo,2005-10-31,pre_advance,DELTA_SA,DELTA_SA,2005:Q3,0.10599607607652572,,,not_available,0.47940000000000005,-0.3734039239234743,True,True,0,,,,,,,13,,0.0
release_dfm,pseudo,2005:Q3:pre_advance:pseudo,2005-10-31,pre_advance,DELTA_SA,DELTA_SA,2005:Q3,0.10599607607652572,,,not_available,0.47940000000000005,-0.3734039239234743,True,True,0,,,,,,,13,,0.0
revision_dfm_kalman_em,pseudo,2005:Q3:pre_advance:pseudo,2005-10-31,pre_advance,DELTA_SA,DELTA_SA,2005:Q3,0.1296822220932392,0.40853755987418516,0.6391694297087316,model_implied_state_space,0.47940000000000005,-0.34971777790676084,True,True,32,-1047.9733555523985,-1812.2075223234622,-1047.9733555523985,0.10370290313494479,9.88515593769801e-05,32.0,13,,0.0
indicator_revision_only_dfm_kalman_em,pseudo,2005:Q3:pre_advance:pseudo,2005-10-31,pre_advance,DELTA_SA,DELTA_SA,2005:Q3,0.0,0.4374441570906207,0.6613956131473966,model_implied_state_space,0.47940000000000005,-0.47940000000000005,True,True,43,-1857.1061359515088,-2686.2164162301765,-1857.1061359515088,0.18114287043999866,9.747839987089252e-05,43.0,13,,0.0
joint_indicator_revision_dfm_full_kalman_em,pseudo,2005:Q3:pre_advance:pseudo,2005-10-31,pre_advance,DELTA_SA,DELTA_SA,2005:Q3,0.26787745036967037,0.38789404626641577,0.6228114050548655,model_implied_state_space,0.47940000000000005,-0.21152254963032968,True,True,41,-1825.5015486382968,-2698.297561196207,-1825.5015486382968,0.18036299359710029,9.873804106154983e-05,41.0,13,,0.0
ar,pseudo,2005:Q3:pre_second:pseudo,2005-11-30,pre_second,DELTA_TS,DELTA_TS,2005:Q3,0.04947351053060434,,,not_available,-0.14139999999999997,0.1908735105306043,True,True,0,,,,,,,13,,0.0
no_revision,pseudo,2005:Q3:pre_second:pseudo,2005-11-30,pre_second,DELTA_TS,DELTA_TS,2005:Q3,0.0,,,not_available,-0.14139999999999997,0.14139999999999997,True,True,0,,,,,,,13,,0.0
bridge,pseudo,2005:Q3:pre_second:pseudo,2005-11-30,pre_second,DELTA_TS,DELTA_TS,2005:Q3,0.5111828037580146,,,not_available,-0.14139999999999997,0.6525828037580146,True,True,0,,,,,,,13,,0.0
midas_umidas,pseudo,2005:Q3:pre_second:pseudo,2005-11-30,pre_second,DELTA_TS,DELTA_TS,2005:Q3,0.038085864696976834,,,not_available,-0.14139999999999997,0.1794858646969768,True,True,0,,,,,,,13,,0.0
monthly_mixed_frequency_kalman_em,pseudo,2005:Q3:pre_second:pseudo,2005-11-30,pre_second,DELTA_TS,DELTA_TS,2005:Q3,-0.05791504032471595,0.13701643271823183,0.37015730807081443,model_implied_state_space,-0.14139999999999997,0.08348495967528402,True,True,85,-3038.3056766666828,-3894.7362017985993,-3038.3056766666828,0.27435455684644694,9.026067878726337e-05,85.0,13,,0.0
standard_dfm,pseudo,2005:Q3:pre_second:pseudo,2005-11-30,pre_second,DELTA_TS,DELTA_TS,2005:Q3,0.08645353041557424,,,not_available,-0.14139999999999997,0.2278535304155742,True,True,0,,,,,,,13,,0.0
release_dfm,pseudo,2005:Q3:pre_second:pseudo,2005-11-30,pre_second,DELTA_TS,DELTA_TS,2005:Q3,0.061522575505668975,,,not_available,-0.14139999999999997,0.20292257550566895,True,True,0,,,,,,,13,,0.0
revision_dfm_kalman_em,pseudo,2005:Q3:pre_second:pseudo,2005-11-30,pre_second,DELTA_TS,DELTA_TS,2005:Q3,0.007054435362646494,0.13931170401075677,0.37324483119094465,model_implied_state_space,-0.14139999999999997,0.14845443536264646,True,True,38,-1051.7063877125613,-1810.8020026294569,-1051.7063877125613,0.10325927271946966,9.807971746379079e-05,38.0,13,,0.0
indicator_revision_only_dfm_kalman_em,pseudo,2005:Q3:pre_second:pseudo,2005-11-30,pre_second,DELTA_TS,DELTA_TS,2005:Q3,0.0,0.14304626756206684,0.37821457872756153,model_implied_state_space,-0.14139999999999997,0.14139999999999997,True,True,46,-1860.204610711583,-2688.5305953598154,-1860.204610711583,0.1832429165576741,9.844424212853035e-05,46.0,13,,0.0
joint_indicator_revision_dfm_full_kalman_em,pseudo,2005:Q3:pre_second:pseudo,2005-11-30,pre_second,DELTA_TS,DELTA_TS,2005:Q3,0.010676023483084052,0.13828170865416678,0.37186248621522283,model_implied_state_space,-0.14139999999999997,0.15207602348308402,True,True,47,-1828.469094039919,-2700.726588522971,-1828.469094039919,0.17344456164323674,9.479696606518802e-05,47.0,13,,0.0
ar,pseudo,2005:Q3:pre_third:pseudo,2005-12-31,pre_third,DELTA_MT,DELTA_MT,2005:Q3,-0.2774862039070696,,,not_available,-0.3636201894348279,0.0861339855277583,True,True,0,,,,,,,13,,0.0
no_revision,pseudo,2005:Q3:pre_third:pseudo,2005-12-31,pre_third,DELTA_MT,DELTA_MT,2005:Q3,0.0,,,not_available,-0.3636201894348279,0.3636201894348279,True,True,0,,,,,,,13,,0.0
bridge,pseudo,2005:Q3:pre_third:pseudo,2005-12-31,pre_third,DELTA_MT,DELTA_MT,2005:Q3,-1.6933801200369205,,,not_available,-0.3636201894348279,-1.3297599306020926,True,True,0,,,,,,,13,,0.0
midas_umidas,pseudo,2005:Q3:pre_third:pseudo,2005-12-31,pre_third,DELTA_MT,DELTA_MT,2005:Q3,2.563956483613667,,,not_available,-0.3636201894348279,2.927576673048495,True,True,0,,,,,,,13,,0.0
monthly_mixed_frequency_kalman_em,pseudo,2005:Q3:pre_third:pseudo,2005-12-31,pre_third,DELTA_MT,DELTA_MT,2005:Q3,-0.04854133593126608,2.3597315717072425,1.5361417811215352,model_implied_state_space,-0.3636201894348279,0.3150788535035618,True,False,100,-3064.975793505952,-3917.7792645457725,-3064.975793505952,0.7510073021271637,0.00024488888346013547,101.0,13,,0.0
standard_dfm,pseudo,2005:Q3:pre_third:pseudo,2005-12-31,pre_third,DELTA_MT,DELTA_MT,2005:Q3,0.20986054049939584,,,not_available,-0.3636201894348279,0.5734807299342237,True,True,0,,,,,,,13,,0.0
release_dfm,pseudo,2005:Q3:pre_third:pseudo,2005-12-31,pre_third,DELTA_MT,DELTA_MT,2005:Q3,0.23190800099210485,,,not_available,-0.3636201894348279,0.5955281904269327,True,True,0,,,,,,,13,,0.0
revision_dfm_kalman_em,pseudo,2005:Q3:pre_third:pseudo,2005-12-31,pre_third,DELTA_MT,DELTA_MT,2005:Q3,0.00833742961470385,2.3892479076891577,1.545719220197885,model_implied_state_space,-0.3636201894348279,0.37195761904953173,True,True,33,-1051.3346633834742,-1815.3784309795208,-1051.3346633834742,0.0994131553909483,9.446022093648646e-05,33.0,13,,0.0
indicator_revision_only_dfm_kalman_em,pseudo,2005:Q3:pre_third:pseudo,2005-12-31,pre_third,DELTA_MT,DELTA_MT,2005:Q3,0.0,2.4029045654829466,1.550130499500912,model_implied_state_space,-0.3636201894348279,0.3636201894348279,True,True,46,-1859.87964270377,-2689.5447973106234,-1859.87964270377,0.18543011219094296,9.963655484134701e-05,46.0,13,,0.0
joint_indicator_revision_dfm_full_kalman_em,pseudo,2005:Q3:pre_third:pseudo,2005-12-31,pre_third,DELTA_MT,DELTA_MT,2005:Q3,0.00893230037780679,2.375341537584654,1.541214306183489,model_implied_state_space,-0.3636201894348279,0.37255248981263467,True,True,47,-1827.9936247321846,-2701.717338440812,-1827.9936247321846,0.1814206972574084,9.918170363778147e-05,47.0,13,,0.0
ar,exact,2005:Q4:pre_advance:exact,2006-01-26,pre_advance,DELTA_SA,DELTA_SA,2005:Q4,0.22729953371432554,,,not_available,0.5086999999999999,-0.2814004662856744,True,True,0,,,,,,,13,,0.0
no_revision,exact,2005:Q4:pre_advance:exact,2006-01-26,pre_advance,DELTA_SA,DELTA_SA,2005:Q4,0.0,,,not_available,0.5086999999999999,-0.5086999999999999,True,True,0,,,,,,,13,,0.0
bridge,exact,2005:Q4:pre_advance:exact,2006-01-26,pre_advance,DELTA_SA,DELTA_SA,2005:Q4,0.22135021472261185,,,not_available,0.5086999999999999,-0.2873497852773881,True,True,0,,,,,,,13,,0.0
midas_umidas,exact,2005:Q4:pre_advance:exact,2006-01-26,pre_advance,DELTA_SA,DELTA_SA,2005:Q4,-8.24286760904817,,,not_available,0.5086999999999999,-8.75156760904817,True,True,0,,,,,,,13,,0.0
monthly_mixed_frequency_kalman_em,exact,2005:Q4:pre_advance:exact,2006-01-26,pre_advance,DELTA_SA,DELTA_SA,2005:Q4,0.41072503532768145,0.33027936537684255,0.5746993695636377,model_implied_state_space,0.5086999999999999,-0.09797496467231848,True,True,89,-3075.727786690872,-3933.722181110848,-3075.727786690872,0.27706402401508967,9.004341476768189e-05,89.0,13,,0.0
standard_dfm,exact,2005:Q4:pre_advance:exact,2006-01-26,pre_advance,DELTA_SA,DELTA_SA,2005:Q4,0.16562850625163694,,,not_available,0.5086999999999999,-0.343071493748363,True,True,0,,,,,,,13,,0.0
release_dfm,exact,2005:Q4:pre_advance:exact,2006-01-26,pre_advance,DELTA_SA,DELTA_SA,2005:Q4,0.16562850625163694,,,not_available,0.5086999999999999,-0.343071493748363,True,True,0,,,,,,,13,,0.0
revision_dfm_kalman_em,exact,2005:Q4:pre_advance:exact,2006-01-26,pre_advance,DELTA_SA,DELTA_SA,2005:Q4,0.190082231031786,0.40836399975844806,0.6390336452476099,model_implied_state_space,0.5086999999999999,-0.3186177689682139,True,True,38,-1067.877681032739,-1831.2637450651694,-1067.877681032739,0.09945974593392748,9.304197642755785e-05,38.0,13,,0.0
indicator_revision_only_dfm_kalman_em,exact,2005:Q4:pre_advance:exact,2006-01-26,pre_advance,DELTA_SA,DELTA_SA,2005:Q4,0.0,0.4373765311369109,0.6613444874926462,model_implied_state_space,0.5086999999999999,-0.5086999999999999,True,True,37,-1889.7597361051064,-2730.218308161178,-1889.7597361051064,0.1858514032817311,9.828490280707597e-05,37.0,13,,0.0
joint_indicator_revision_dfm_full_kalman_em,exact,2005:Q4:pre_advance:exact,2006-01-26,pre_advance,DELTA_SA,DELTA_SA,2005:Q4,0.3264097740301093,0.39262166946005905,0.6265952995834385,model_implied_state_space,0.5086999999999999,-0.18229022596989064,True,True,34,-1858.2621631706381,-2742.2584553334273,-1858.2621631706381,0.18556958330100315,9.979822504941557e-05,34.0,13,,0.0
ar,exact,2005:Q4:pre_second:exact,2006-02-27,pre_second,DELTA_TS,DELTA_TS,2005:Q4,-0.0387977753615627,,,not_available,0.0253000000000001,-0.0640977753615628,True,True,0,,,,,,,13,,0.0
no_revision,exact,2005:Q4:pre_second:exact,2006-02-27,pre_second,DELTA_TS,DELTA_TS,2005:Q4,0.0,,,not_available,0.0253000000000001,-0.0253000000000001,True,True,0,,,,,,,13,,0.0
bridge,exact,2005:Q4:pre_second:exact,2006-02-27,pre_second,DELTA_TS,DELTA_TS,2005:Q4,0.007802897965233591,,,not_available,0.0253000000000001,-0.01749710203476651,True,True,0,,,,,,,13,,0.0
midas_umidas,exact,2005:Q4:pre_second:exact,2006-02-27,pre_second,DELTA_TS,DELTA_TS,2005:Q4,1.8522444871359478,,,not_available,0.0253000000000001,1.8269444871359477,True,True,0,,,,,,,13,,0.0
monthly_mixed_frequency_kalman_em,exact,2005:Q4:pre_second:exact,2006-02-27,pre_second,DELTA_TS,DELTA_TS,2005:Q4,0.17316088760359105,0.13074110455280974,0.36158139409102585,model_implied_state_space,0.0253000000000001,0.14786088760359095,True,False,100,-3098.5021104072725,-3958.2539709897565,-3098.5021104072725,0.3236839178016453,0.00010442003495622923,101.0,13,,0.0
standard_dfm,exact,2005:Q4:pre_second:exact,2006-02-27,pre_second,DELTA_TS,DELTA_TS,2005:Q4,0.1376741988741248,,,not_available,0.0253000000000001,0.1123741988741247,True,True,0,,,,,,,13,,0.0
release_dfm,exact,2005:Q4:pre_second:exact,2006-02-27,pre_second,DELTA_TS,DELTA_TS,2005:Q4,0.09356303904053109,,,not_available,0.0253000000000001,0.06826303904053099,True,True,0,,,,,,,13,,0.0
revision_dfm_kalman_em,exact,2005:Q4:pre_second:exact,2006-02-27,pre_second,DELTA_TS,DELTA_TS,2005:Q4,-0.001292520624288862,0.13864062212181982,0.37234476244714365,model_implied_state_space,0.0253000000000001,-0.026592520624288962,True,True,38,-1069.9418957508867,-1832.7694067153163,-1069.9418957508867,0.09887489826928686,9.23166521563497e-05,38.0,13,,0.0
indicator_revision_only_dfm_kalman_em,exact,2005:Q4:pre_second:exact,2006-02-27,pre_second,DELTA_TS,DELTA_TS,2005:Q4,0.0,0.14278656995348304,0.3778711023000873,model_implied_state_space,0.0253000000000001,-0.0253000000000001,True,True,34,-1893.5331469038601,-2731.8225088135514,-1893.5331469038601,0.1869795449144931,9.868451931470431e-05,34.0,13,,0.0
joint_indicator_revision_dfm_full_kalman_em,exact,2005:Q4:pre_second:exact,2006-02-27,pre_second,DELTA_TS,DELTA_TS,2005:Q4,-0.002905543798264354,0.13751420124036084,0.37082907280897065,model_implied_state_space,0.0253000000000001,-0.028205543798264454,True,True,34,-1861.4374523037434,-2743.9585650442555,-1861.4374523037434,0.17112773049871066,9.187530452348966e-05,34.0,13,,0.0
ar,exact,2005:Q4:pre_third:exact,2006-03-29,pre_third,DELTA_MT,DELTA_MT,2005:Q4,-1.553399764189277,,,not_available,-0.34804264830406306,-1.2053571158852139,True,True,0,,,,,,,13,,0.0
no_revision,exact,2005:Q4:pre_third:exact,2006-03-29,pre_third,DELTA_MT,DELTA_MT,2005:Q4,0.0,,,not_available,-0.34804264830406306,0.34804264830406306,True,True,0,,,,,,,13,,0.0
bridge,exact,2005:Q4:pre_third:exact,2006-03-29,pre_third,DELTA_MT,DELTA_MT,2005:Q4,-1.745409916179185,,,not_available,-0.34804264830406306,-1.3973672678751219,True,True,0,,,,,,,13,,0.0
midas_umidas,exact,2005:Q4:pre_third:exact,2006-03-29,pre_third,DELTA_MT,DELTA_MT,2005:Q4,-3.637523820701514,,,not_available,-0.34804264830406306,-3.2894811723974513,True,True,0,,,,,,,13,,0.0
monthly_mixed_frequency_kalman_em,exact,2005:Q4:pre_third:exact,2006-03-29,pre_third,DELTA_MT,DELTA_MT,2005:Q4,0.1920175961561228,2.345618517964022,1.5315412230704148,model_implied_state_space,-0.34804264830406306,0.5400602444601859,True,False,100,-3116.8457639515022,-3977.4122302440474,-3116.8457639515022,0.4737295306872511,0.00015191821481968902,101.0,13,,0.0
standard_dfm,exact,2005:Q4:pre_third:exact,2006-03-29,pre_third,DELTA_MT,DELTA_MT,2005:Q4,0.27589917108491324,,,not_available,-0.34804264830406306,0.6239418193889763,True,True,0,,,,,,,13,,0.0
release_dfm,exact,2005:Q4:pre_third:exact,2006-03-29,pre_third,DELTA_MT,DELTA_MT,2005:Q4,0.7698053139867616,,,not_available,-0.34804264830406306,1.1178479622908246,True,True,0,,,,,,,13,,0.0
revision_dfm_kalman_em,exact,2005:Q4:pre_third:exact,2006-03-29,pre_third,DELTA_MT,DELTA_MT,2005:Q4,0.005826108751390002,2.3884104901854006,1.5454483136570438,model_implied_state_space,-0.34804264830406306,0.35386875705545306,True,True,38,-1069.8527044532868,-1833.94269592791,-1069.8527044532868,0.09826619316800134,9.175601485162782e-05,38.0,13,,0.0
indicator_revision_only_dfm_kalman_em,exact,2005:Q4:pre_third:exact,2006-03-29,pre_third,DELTA_MT,DELTA_MT,2005:Q4,0.0,2.393969323566879,1.547245721780118,model_implied_state_space,-0.34804264830406306,0.34804264830406306,True,True,35,-1892.9447969909909,-2732.895841162658,-1892.9447969909909,0.17737564745448253,9.364530441423666e-05,35.0,13,,0.0
joint_indicator_revision_dfm_full_kalman_em,exact,2005:Q4:pre_third:exact,2006-03-29,pre_third,DELTA_MT,DELTA_MT,2005:Q4,0.00543093604774203,2.35999465308142,1.5362274092989683,model_implied_state_space,-0.34804264830406306,0.3534735843518051,True,True,34,-1861.3336628442653,-2745.0037017558593,-1861.3336628442653,0.17092809015252897,9.177324500809655e-05,34.0,13,,0.0
ar,pseudo,2005:Q4:pre_advance:pseudo,2006-01-31,pre_advance,DELTA_SA,DELTA_SA,2005:Q4,0.22729953371432554,,,not_available,0.5086999999999999,-0.2814004662856744,True,True,0,,,,,,,13,,0.0
no_revision,pseudo,2005:Q4:pre_advance:pseudo,2006-01-31,pre_advance,DELTA_SA,DELTA_SA,2005:Q4,0.0,,,not_available,0.5086999999999999,-0.5086999999999999,True,True,0,,,,,,,13,,0.0
bridge,pseudo,2005:Q4:pre_advance:pseudo,2006-01-31,pre_advance,DELTA_SA,DELTA_SA,2005:Q4,0.22311809207112132,,,not_available,0.5086999999999999,-0.2855819079288786,True,True,0,,,,,,,13,,0.0
midas_umidas,pseudo,2005:Q4:pre_advance:pseudo,2006-01-31,pre_advance,DELTA_SA,DELTA_SA,2005:Q4,-8.114655237340891,,,not_available,0.5086999999999999,-8.62335523734089,True,True,0,,,,,,,13,,0.0
monthly_mixed_frequency_kalman_em,pseudo,2005:Q4:pre_advance:pseudo,2006-01-31,pre_advance,DELTA_SA,DELTA_SA,2005:Q4,0.410472287943894,0.3302900517256422,0.5747086668266298,model_implied_state_space,0.5086999999999999,-0.09822771205610592,True,True,89,-3075.69955809425,-3933.7266907405456,-3075.69955809425,0.2745298743193416,8.922072999990305e-05,89.0,13,,0.0
standard_dfm,pseudo,2005:Q4:pre_advance:pseudo,2006-01-31,pre_advance,DELTA_SA,DELTA_SA,2005:Q4,0.16559873767091293,,,not_available,0.5086999999999999,-0.343101262329087,True,True,0,,,,,,,13,,0.0
release_dfm,pseudo,2005:Q4:pre_advance:pseudo,2006-01-31,pre_advance,DELTA_SA,DELTA_SA,2005:Q4,0.16559873767091293,,,not_available,0.5086999999999999,-0.343101262329087,True,True,0,,,,,,,13,,0.0
revision_dfm_kalman_em,pseudo,2005:Q4:pre_advance:pseudo,2006-01-31,pre_advance,DELTA_SA,DELTA_SA,2005:Q4,0.19004854986134045,0.4083617450057062,0.6390318810557938,model_implied_state_space,0.5086999999999999,-0.3186514501386595,True,True,38,-1067.878457736426,-1831.2634655840895,-1067.878457736426,0.09946203893787242,9.304405366836153e-05,38.0,13,,0.0
indicator_revision_only_dfm_kalman_em,pseudo,2005:Q4:pre_advance:pseudo,2006-01-31,pre_advance,DELTA_SA,DELTA_SA,2005:Q4,0.0,0.43737652985054787,0.6613444865201099,model_implied_state_space,0.5086999999999999,-0.5086999999999999,True,True,37,-1889.7578673650034,-2730.21645311373,-1889.7578673650034,0.18589133914861122,9.830611740457104e-05,37.0,13,,0.0
joint_indicator_revision_dfm_full_kalman_em,pseudo,2005:Q4:pre_advance:pseudo,2006-01-31,pre_advance,DELTA_SA,DELTA_SA,2005:Q4,0.3263791135576728,0.3926232697076948,0.6265965765208862,model_implied_state_space,0.5086999999999999,-0.18232088644232713,True,True,34,-1858.2604767571631,-2742.2566053309415,-1858.2604767571631,0.1855656411153177,9.979619568631237e-05,34.0,13,,0.0
ar,pseudo,2005:Q4:pre_second:pseudo,2006-02-28,pre_second,DELTA_TS,DELTA_TS,2005:Q4,-0.0387977753615627,,,not_available,0.0253000000000001,-0.0640977753615628,True,True,0,,,,,,,13,,0.0
no_revision,pseudo,2005:Q4:pre_second:pseudo,2006-02-28,pre_second,DELTA_TS,DELTA_TS,2005:Q4,0.0,,,not_available,0.0253000000000001,-0.0253000000000001,True,True,0,,,,,,,13,,0.0
bridge,pseudo,2005:Q4:pre_second:pseudo,2006-02-28,pre_second,DELTA_TS,DELTA_TS,2005:Q4,0.007802897965233591,,,not_available,0.0253000000000001,-0.01749710203476651,True,True,0,,,,,,,13,,0.0
midas_umidas,pseudo,2005:Q4:pre_second:pseudo,2006-02-28,pre_second,DELTA_TS,DELTA_TS,2005:Q4,1.8522444871359478,,,not_available,0.0253000000000001,1.8269444871359477,True,True,0,,,,,,,13,,0.0
monthly_mixed_frequency_kalman_em,pseudo,2005:Q4:pre_second:pseudo,2006-02-28,pre_second,DELTA_TS,DELTA_TS,2005:Q4,0.17316088760359105,0.13074110455280974,0.36158139409102585,model_implied_state_space,0.0253000000000001,0.14786088760359095,True,False,100,-3098.5021104072725,-3958.2539709897565,-3098.5021104072725,0.3236839178016453,0.00010442003495622923,101.0,13,,0.0
standard_dfm,pseudo,2005:Q4:pre_second:pseudo,2006-02-28,pre_second,DELTA_TS,DELTA_TS,2005:Q4,0.1376741988741248,,,not_available,0.0253000000000001,0.1123741988741247,True,True,0,,,,,,,13,,0.0
release_dfm,pseudo,2005:Q4:pre_second:pseudo,2006-02-28,pre_second,DELTA_TS,DELTA_TS,2005:Q4,0.09356303904053109,,,not_available,0.0253000000000001,0.06826303904053099,True,True,0,,,,,,,13,,0.0
revision_dfm_kalman_em,pseudo,2005:Q4:pre_second:pseudo,2006-02-28,pre_second,DELTA_TS,DELTA_TS,2005:Q4,-0.001292520624288862,0.13864062212181982,0.37234476244714365,model_implied_state_space,0.0253000000000001,-0.026592520624288962,True,True,38,-1069.9418957508867,-1832.7694067153163,-1069.9418957508867,0.09887489826928686,9.23166521563497e-05,38.0,13,,0.0
indicator_revision_only_dfm_kalman_em,pseudo,2005:Q4:pre_second:pseudo,2006-02-28,pre_second,DELTA_TS,DELTA_TS,2005:Q4,0.0,0.14278656995348304,0.3778711023000873,model_implied_state_space,0.0253000000000001,-0.0253000000000001,True,True,34,-1893.5331469038601,-2731.8225088135514,-1893.5331469038601,0.1869795449144931,9.868451931470431e-05,34.0,13,,0.0
joint_indicator_revision_dfm_full_kalman_em,pseudo,2005:Q4:pre_second:pseudo,2006-02-28,pre_second,DELTA_TS,DELTA_TS,2005:Q4,-0.002905543798264354,0.13751420124036084,0.37082907280897065,model_implied_state_space,0.0253000000000001,-0.028205543798264454,True,True,34,-1861.4374523037434,-2743.9585650442555,-1861.4374523037434,0.17112773049871066,9.187530452348966e-05,34.0,13,,0.0
ar,pseudo,2005:Q4:pre_third:pseudo,2006-03-31,pre_third,DELTA_MT,DELTA_MT,2005:Q4,-1.553399764189277,,,not_available,-0.34804264830406306,-1.2053571158852139,True,True,0,,,,,,,13,,0.0
no_revision,pseudo,2005:Q4:pre_third:pseudo,2006-03-31,pre_third,DELTA_MT,DELTA_MT,2005:Q4,0.0,,,not_available,-0.34804264830406306,0.34804264830406306,True,True,0,,,,,,,13,,0.0
bridge,pseudo,2005:Q4:pre_third:pseudo,2006-03-31,pre_third,DELTA_MT,DELTA_MT,2005:Q4,-1.67322363829742,,,not_available,-0.34804264830406306,-1.3251809899933569,True,True,0,,,,,,,13,,0.0
midas_umidas,pseudo,2005:Q4:pre_third:pseudo,2006-03-31,pre_third,DELTA_MT,DELTA_MT,2005:Q4,-3.9784605696170177,,,not_available,-0.34804264830406306,-3.6304179213129544,True,True,0,,,,,,,13,,0.0
monthly_mixed_frequency_kalman_em,pseudo,2005:Q4:pre_third:pseudo,2006-03-31,pre_third,DELTA_MT,DELTA_MT,2005:Q4,0.18942001859757562,2.344833167470254,1.5312848093905502,model_implied_state_space,-0.34804264830406306,0.5374626669016387,True,False,100,-3115.113720451655,-3977.6557839990337,-3115.113720451655,0.33892322960491583,0.00010875288937635458,101.0,13,,0.0
standard_dfm,pseudo,2005:Q4:pre_third:pseudo,2006-03-31,pre_third,DELTA_MT,DELTA_MT,2005:Q4,0.2719035310316622,,,not_available,-0.34804264830406306,0.6199461793357253,True,True,0,,,,,,,13,,0.0
release_dfm,pseudo,2005:Q4:pre_third:pseudo,2006-03-31,pre_third,DELTA_MT,DELTA_MT,2005:Q4,0.7673342337585065,,,not_available,-0.34804264830406306,1.1153768820625696,True,True,0,,,,,,,13,,0.0
revision_dfm_kalman_em,pseudo,2005:Q4:pre_third:pseudo,2006-03-31,pre_third,DELTA_MT,DELTA_MT,2005:Q4,0.005824706922305856,2.3883762304532046,1.5454372295415963,model_implied_state_space,-0.34804264830406306,0.3538673552263689,True,True,38,-1069.8629095421068,-1834.0469584893299,-1069.8629095421068,0.09779795277336234,9.131796534545584e-05,38.0,13,,0.0
indicator_revision_only_dfm_kalman_em,pseudo,2005:Q4:pre_third:pseudo,2006-03-31,pre_third,DELTA_MT,DELTA_MT,2005:Q4,0.0,2.3939742432011584,1.547247311583109,model_implied_state_space,-0.34804264830406306,0.34804264830406306,True,True,35,-1892.9771550616372,-2733.051605938169,-1892.9771550616372,0.17724869392372966,9.357668708120981e-05,35.0,13,,0.0
joint_indicator_revision_dfm_full_kalman_em,pseudo,2005:Q4:pre_third:pseudo,2006-03-31,pre_third,DELTA_MT,DELTA_MT,2005:Q4,0.005437169826801869,2.3599819202578933,1.5362232651076124,model_implied_state_space,-0.34804264830406306,0.35347981813086493,True,True,34,-1861.3648450475275,-2745.158537704772,-1861.3648450475275,0.17081325578669748,9.171005936192418e-05,34.0,13,,0.0
ar,exact,2006:Q1:pre_advance:exact,2006-04-27,pre_advance,DELTA_SA,DELTA_SA,2006:Q1,0.35429482017348324,,,not_available,0.4908000000000001,-0.1365051798265169,True,True,0,,,,,,,13,,0.0
no_revision,exact,2006:Q1:pre_advance:exact,2006-04-27,pre_advance,DELTA_SA,DELTA_SA,2006:Q1,0.0,,,not_available,0.4908000000000001,-0.4908000000000001,True,True,0,,,,,,,13,,0.0
bridge,exact,2006:Q1:pre_advance:exact,2006-04-27,pre_advance,DELTA_SA,DELTA_SA,2006:Q1,0.23181052375819844,,,not_available,0.4908000000000001,-0.2589894762418017,True,True,0,,,,,,,13,,0.0
midas_umidas,exact,2006:Q1:pre_advance:exact,2006-04-27,pre_advance,DELTA_SA,DELTA_SA,2006:Q1,-24.506359124330828,,,not_available,0.4908000000000001,-24.997159124330828,True,True,0,,,,,,,13,,0.0
monthly_mixed_frequency_kalman_em,exact,2006:Q1:pre_advance:exact,2006-04-27,pre_advance,DELTA_SA,DELTA_SA,2006:Q1,0.02114461904966536,0.3323609590090495,0.5765075532974824,model_implied_state_space,0.4908000000000001,-0.46965538095033477,True,True,88,-3129.050309870977,-3994.394021652109,-3129.050309870977,0.26538895917792615,8.478025372236606e-05,88.0,13,,0.0
standard_dfm,exact,2006:Q1:pre_advance:exact,2006-04-27,pre_advance,DELTA_SA,DELTA_SA,2006:Q1,0.15176793142866707,,,not_available,0.4908000000000001,-0.33903206857133306,True,True,0,,,,,,,13,,0.0
release_dfm,exact,2006:Q1:pre_advance:exact,2006-04-27,pre_advance,DELTA_SA,DELTA_SA,2006:Q1,0.15176793142866707,,,not_available,0.4908000000000001,-0.33903206857133306,True,True,0,,,,,,,13,,0.0
revision_dfm_kalman_em,exact,2006:Q1:pre_advance:exact,2006-04-27,pre_advance,DELTA_SA,DELTA_SA,2006:Q1,0.12312820641502986,0.4066437548299682,0.6376862510905877,model_implied_state_space,0.4908000000000001,-0.36767179358497026,True,True,37,-1086.23369098475,-1853.7869649691054,-1086.23369098475,0.10227374024452729,9.405900619721894e-05,37.0,13,,0.0
indicator_revision_only_dfm_kalman_em,exact,2006:Q1:pre_advance:exact,2006-04-27,pre_advance,DELTA_SA,DELTA_SA,2006:Q1,0.0,0.43724785094937424,0.6612471935285429,model_implied_state_space,0.4908000000000001,-0.4908000000000001,True,True,34,-1922.674981086658,-2766.3391547807764,-1922.674981086658,0.19111458826114358,9.933882024886868e-05,34.0,13,,0.0
joint_indicator_revision_dfm_full_kalman_em,exact,2006:Q1:pre_advance:exact,2006-04-27,pre_advance,DELTA_SA,DELTA_SA,2006:Q1,0.40328237765963326,0.4012364988335104,0.6334323159055831,model_implied_state_space,0.4908000000000001,-0.08751762234036686,True,True,33,-1891.6072169778934,-2778.556192881141,-1891.6072169778934,0.1699275658240822,8.977684790516942e-05,33.0,13,,0.0
ar,exact,2006:Q1:pre_second:exact,2006-05-24,pre_second,DELTA_TS,DELTA_TS,2006:Q1,0.07626955245512601,,,not_available,0.3293999999999997,-0.2531304475448737,True,True,0,,,,,,,13,,0.0
no_revision,exact,2006:Q1:pre_second:exact,2006-05-24,pre_second,DELTA_TS,DELTA_TS,2006:Q1,0.0,,,not_available,0.3293999999999997,-0.3293999999999997,True,True,0,,,,,,,13,,0.0
bridge,exact,2006:Q1:pre_second:exact,2006-05-24,pre_second,DELTA_TS,DELTA_TS,2006:Q1,0.3714240401271933,,,not_available,0.3293999999999997,0.04202404012719363,True,True,0,,,,,,,13,,0.0
midas_umidas,exact,2006:Q1:pre_second:exact,2006-05-24,pre_second,DELTA_TS,DELTA_TS,2006:Q1,0.7670528895089124,,,not_available,0.3293999999999997,0.4376528895089127,True,True,0,,,,,,,13,,0.0
monthly_mixed_frequency_kalman_em,exact,2006:Q1:pre_second:exact,2006-05-24,pre_second,DELTA_TS,DELTA_TS,2006:Q1,0.139658944764105,0.1358255269491423,0.3685451491325619,model_implied_state_space,0.3293999999999997,-0.18974105523589468,True,True,84,-3146.327069073372,-4013.3111562951703,-3146.327069073372,0.291275818043232,9.253848024998732e-05,84.0,13,,0.0
standard_dfm,exact,2006:Q1:pre_second:exact,2006-05-24,pre_second,DELTA_TS,DELTA_TS,2006:Q1,0.11031236145158196,,,not_available,0.3293999999999997,-0.21908763854841773,True,True,0,,,,,,,13,,0.0
release_dfm,exact,2006:Q1:pre_second:exact,2006-05-24,pre_second,DELTA_TS,DELTA_TS,2006:Q1,0.0886419394730904,,,not_available,0.3293999999999997,-0.2407580605269093,True,True,0,,,,,,,13,,0.0
revision_dfm_kalman_em,exact,2006:Q1:pre_second:exact,2006-05-24,pre_second,DELTA_TS,DELTA_TS,2006:Q1,0.009300564699474378,0.13779726613480114,0.37121054151896216,model_implied_state_space,0.3293999999999997,-0.3200994353005253,True,True,32,-1086.1078844449007,-1858.1848245681826,-1086.1078844449007,0.10257014132139375,9.434248989118724e-05,32.0,13,,0.0
indicator_revision_only_dfm_kalman_em,exact,2006:Q1:pre_second:exact,2006-05-24,pre_second,DELTA_TS,DELTA_TS,2006:Q1,0.0,0.14196048552312523,0.3767764397134264,model_implied_state_space,0.3293999999999997,-0.3293999999999997,True,True,33,-1924.7646853123283,-2770.1848326556747,-1924.7646853123283,0.1890422119734012,9.8155116227223e-05,33.0,13,,0.0
joint_indicator_revision_dfm_full_kalman_em,exact,2006:Q1:pre_second:exact,2006-05-24,pre_second,DELTA_TS,DELTA_TS,2006:Q1,0.017340816662128944,0.13663965057834238,0.36964800902797024,model_implied_state_space,0.3293999999999997,-0.31205918333787075,True,True,33,-1892.7630952120571,-2782.390137164648,-1892.7630952120571,0.1828620308126574,9.655081767953959e-05,33.0,13,,0.0
ar,exact,2006:Q1:pre_third:exact,2006-06-28,pre_third,DELTA_MT,DELTA_MT,2006:Q1,0.15552805377847356,,,not_available,-0.9319367674176195,1.0874648211960931,True,True,0,,,,,,,13,,0.0
no_revision,exact,2006:Q1:pre_third:exact,2006-06-28,pre_third,DELTA_MT,DELTA_MT,2006:Q1,0.0,,,not_available,-0.9319367674176195,0.9319367674176195,True,True,0,,,,,,,13,,0.0
bridge,exact,2006:Q1:pre_third:exact,2006-06-28,pre_third,DELTA_MT,DELTA_MT,2006:Q1,-0.6909950811129923,,,not_available,-0.9319367674176195,0.2409416863046272,True,True,0,,,,,,,13,,0.0
midas_umidas,exact,2006:Q1:pre_third:exact,2006-06-28,pre_third,DELTA_MT,DELTA_MT,2006:Q1,2.312358134714736,,,not_available,-0.9319367674176195,3.2442949021323555,True,True,0,,,,,,,13,,0.0
monthly_mixed_frequency_kalman_em,exact,2006:Q1:pre_third:exact,2006-06-28,pre_third,DELTA_MT,DELTA_MT,2006:Q1,0.1345591685937988,2.323709210680969,1.5243717429423078,model_implied_state_space,-0.9319367674176195,1.0664959360114183,True,True,87,-3165.219847323746,-4037.566967112702,-3165.219847323746,0.30845195695974326,9.74101374776312e-05,87.0,13,,0.0
standard_dfm,exact,2006:Q1:pre_third:exact,2006-06-28,pre_third,DELTA_MT,DELTA_MT,2006:Q1,0.28648884425050625,,,not_available,-0.9319367674176195,1.2184256116681258,True,True,0,,,,,,,13,,0.0
release_dfm,exact,2006:Q1:pre_third:exact,2006-06-28,pre_third,DELTA_MT,DELTA_MT,2006:Q1,0.16462128673514886,,,not_available,-0.9319367674176195,1.0965580541527684,True,True,0,,,,,,,13,,0.0
revision_dfm_kalman_em,exact,2006:Q1:pre_third:exact,2006-06-28,pre_third,DELTA_MT,DELTA_MT,2006:Q1,0.009224704671127348,2.365550244556448,1.5380345394549655,model_implied_state_space,-0.9319367674176195,0.9411614720887469,True,True,32,-1086.564308537413,-1860.3027787623305,-1086.564308537413,0.10106157807240379,9.291605750183381e-05,32.0,13,,0.0
indicator_revision_only_dfm_kalman_em,exact,2006:Q1:pre_third:exact,2006-06-28,pre_third,DELTA_MT,DELTA_MT,2006:Q1,0.0,2.3782495291199446,1.5421574268277363,model_implied_state_space,-0.9319367674176195,0.9319367674176195,True,True,35,-1924.901250525644,-2772.2989861601236,-1924.901250525644,0.19015579274878291,9.87262557347962e-05,35.0,13,,0.0
joint_indicator_revision_dfm_full_kalman_em,exact,2006:Q1:pre_third:exact,2006-06-28,pre_third,DELTA_MT,DELTA_MT,2006:Q1,0.010862893728960543,2.34502278350657,1.5313467221718828,model_implied_state_space,-0.9319367674176195,0.9427996611465801,True,True,34,-1892.656209955986,-2784.470077759342,-1892.656209955986,0.17625705088562427,9.306897730198472e-05,34.0,13,,0.0
ar,pseudo,2006:Q1:pre_advance:pseudo,2006-04-30,pre_advance,DELTA_SA,DELTA_SA,2006:Q1,0.35429482017348324,,,not_available,0.4908000000000001,-0.1365051798265169,True,True,0,,,,,,,13,,0.0
no_revision,pseudo,2006:Q1:pre_advance:pseudo,2006-04-30,pre_advance,DELTA_SA,DELTA_SA,2006:Q1,0.0,,,not_available,0.4908000000000001,-0.4908000000000001,True,True,0,,,,,,,13,,0.0
bridge,pseudo,2006:Q1:pre_advance:pseudo,2006-04-30,pre_advance,DELTA_SA,DELTA_SA,2006:Q1,0.23181052375819844,,,not_available,0.4908000000000001,-0.2589894762418017,True,True,0,,,,,,,13,,0.0
midas_umidas,pseudo,2006:Q1:pre_advance:pseudo,2006-04-30,pre_advance,DELTA_SA,DELTA_SA,2006:Q1,-24.506359124330828,,,not_available,0.4908000000000001,-24.997159124330828,True,True,0,,,,,,,13,,0.0
monthly_mixed_frequency_kalman_em,pseudo,2006:Q1:pre_advance:pseudo,2006-04-30,pre_advance,DELTA_SA,DELTA_SA,2006:Q1,0.02114461904966536,0.3323609590090495,0.5765075532974824,model_implied_state_space,0.4908000000000001,-0.46965538095033477,True,True,88,-3129.050309870977,-3994.394021652109,-3129.050309870977,0.26538895917792615,8.478025372236606e-05,88.0,13,,0.0
standard_dfm,pseudo,2006:Q1:pre_advance:pseudo,2006-04-30,pre_advance,DELTA_SA,DELTA_SA,2006:Q1,0.15176793142866707,,,not_available,0.4908000000000001,-0.33903206857133306,True,True,0,,,,,,,13,,0.0
release_dfm,pseudo,2006:Q1:pre_advance:pseudo,2006-04-30,pre_advance,DELTA_SA,DELTA_SA,2006:Q1,0.15176793142866707,,,not_available,0.4908000000000001,-0.33903206857133306,True,True,0,,,,,,,13,,0.0
revision_dfm_kalman_em,pseudo,2006:Q1:pre_advance:pseudo,2006-04-30,pre_advance,DELTA_SA,DELTA_SA,2006:Q1,0.12312820641502986,0.4066437548299682,0.6376862510905877,model_implied_state_space,0.4908000000000001,-0.36767179358497026,True,True,37,-1086.23369098475,-1853.7869649691054,-1086.23369098475,0.10227374024452729,9.405900619721894e-05,37.0,13,,0.0
indicator_revision_only_dfm_kalman_em,pseudo,2006:Q1:pre_advance:pseudo,2006-04-30,pre_advance,DELTA_SA,DELTA_SA,2006:Q1,0.0,0.43724785094937424,0.6612471935285429,model_implied_state_space,0.4908000000000001,-0.4908000000000001,True,True,34,-1922.674981086658,-2766.3391547807764,-1922.674981086658,0.19111458826114358,9.933882024886868e-05,34.0,13,,0.0
joint_indicator_revision_dfm_full_kalman_em,pseudo,2006:Q1:pre_advance:pseudo,2006-04-30,pre_advance,DELTA_SA,DELTA_SA,2006:Q1,0.40328237765963326,0.4012364988335104,0.6334323159055831,model_implied_state_space,0.4908000000000001,-0.08751762234036686,True,True,33,-1891.6072169778934,-2778.556192881141,-1891.6072169778934,0.1699275658240822,8.977684790516942e-05,33.0,13,,0.0
ar,pseudo,2006:Q1:pre_second:pseudo,2006-05-31,pre_second,DELTA_TS,DELTA_TS,2006:Q1,0.07626955245512601,,,not_available,0.3293999999999997,-0.2531304475448737,True,True,0,,,,,,,13,,0.0
no_revision,pseudo,2006:Q1:pre_second:pseudo,2006-05-31,pre_second,DELTA_TS,DELTA_TS,2006:Q1,0.0,,,not_available,0.3293999999999997,-0.3293999999999997,True,True,0,,,,,,,13,,0.0
bridge,pseudo,2006:Q1:pre_second:pseudo,2006-05-31,pre_second,DELTA_TS,DELTA_TS,2006:Q1,0.3714240401271933,,,not_available,0.3293999999999997,0.04202404012719363,True,True,0,,,,,,,13,,0.0
midas_umidas,pseudo,2006:Q1:pre_second:pseudo,2006-05-31,pre_second,DELTA_TS,DELTA_TS,2006:Q1,0.7670528895089124,,,not_available,0.3293999999999997,0.4376528895089127,True,True,0,,,,,,,13,,0.0
monthly_mixed_frequency_kalman_em,pseudo,2006:Q1:pre_second:pseudo,2006-05-31,pre_second,DELTA_TS,DELTA_TS,2006:Q1,0.139658944764105,0.1358255269491423,0.3685451491325619,model_implied_state_space,0.3293999999999997,-0.18974105523589468,True,True,84,-3146.327069073372,-4013.3111562951703,-3146.327069073372,0.291275818043232,9.253848024998732e-05,84.0,13,,0.0
standard_dfm,pseudo,2006:Q1:pre_second:pseudo,2006-05-31,pre_second,DELTA_TS,DELTA_TS,2006:Q1,0.11031236145158196,,,not_available,0.3293999999999997,-0.21908763854841773,True,True,0,,,,,,,13,,0.0
release_dfm,pseudo,2006:Q1:pre_second:pseudo,2006-05-31,pre_second,DELTA_TS,DELTA_TS,2006:Q1,0.0886419394730904,,,not_available,0.3293999999999997,-0.2407580605269093,True,True,0,,,,,,,13,,0.0
revision_dfm_kalman_em,pseudo,2006:Q1:pre_second:pseudo,2006-05-31,pre_second,DELTA_TS,DELTA_TS,2006:Q1,0.009300564699474378,0.13779726613480114,0.37121054151896216,model_implied_state_space,0.3293999999999997,-0.3200994353005253,True,True,32,-1086.1078844449007,-1858.1848245681826,-1086.1078844449007,0.10257014132139375,9.434248989118724e-05,32.0,13,,0.0
indicator_revision_only_dfm_kalman_em,pseudo,2006:Q1:pre_second:pseudo,2006-05-31,pre_second,DELTA_TS,DELTA_TS,2006:Q1,0.0,0.14196048552312523,0.3767764397134264,model_implied_state_space,0.3293999999999997,-0.3293999999999997,True,True,33,-1924.7646853123283,-2770.1848326556747,-1924.7646853123283,0.1890422119734012,9.8155116227223e-05,33.0,13,,0.0
joint_indicator_revision_dfm_full_kalman_em,pseudo,2006:Q1:pre_second:pseudo,2006-05-31,pre_second,DELTA_TS,DELTA_TS,2006:Q1,0.017340816662128944,0.13663965057834238,0.36964800902797024,model_implied_state_space,0.3293999999999997,-0.31205918333787075,True,True,33,-1892.7630952120571,-2782.390137164648,-1892.7630952120571,0.1828620308126574,9.655081767953959e-05,33.0,13,,0.0
ar,pseudo,2006:Q1:pre_third:pseudo,2006-06-30,pre_third,DELTA_MT,DELTA_MT,2006:Q1,0.15552805377847356,,,not_available,-0.9319367674176195,1.0874648211960931,True,True,0,,,,,,,13,,0.0
no_revision,pseudo,2006:Q1:pre_third:pseudo,2006-06-30,pre_third,DELTA_MT,DELTA_MT,2006:Q1,0.0,,,not_available,-0.9319367674176195,0.9319367674176195,True,True,0,,,,,,,13,,0.0
bridge,pseudo,2006:Q1:pre_third:pseudo,2006-06-30,pre_third,DELTA_MT,DELTA_MT,2006:Q1,-0.6909950811129923,,,not_available,-0.9319367674176195,0.2409416863046272,True,True,0,,,,,,,13,,0.0
midas_umidas,pseudo,2006:Q1:pre_third:pseudo,2006-06-30,pre_third,DELTA_MT,DELTA_MT,2006:Q1,2.312358134714736,,,not_available,-0.9319367674176195,3.2442949021323555,True,True,0,,,,,,,13,,0.0
monthly_mixed_frequency_kalman_em,pseudo,2006:Q1:pre_third:pseudo,2006-06-30,pre_third,DELTA_MT,DELTA_MT,2006:Q1,0.1345591685937988,2.323709210680969,1.5243717429423078,model_implied_state_space,-0.9319367674176195,1.0664959360114183,True,True,87,-3165.219847323746,-4037.566967112702,-3165.219847323746,0.30845195695974326,9.74101374776312e-05,87.0,13,,0.0
standard_dfm,pseudo,2006:Q1:pre_third:pseudo,2006-06-30,pre_third,DELTA_MT,DELTA_MT,2006:Q1,0.28648884425050625,,,not_available,-0.9319367674176195,1.2184256116681258,True,True,0,,,,,,,13,,0.0
release_dfm,pseudo,2006:Q1:pre_third:pseudo,2006-06-30,pre_third,DELTA_MT,DELTA_MT,2006:Q1,0.16462128673514886,,,not_available,-0.9319367674176195,1.0965580541527684,True,True,0,,,,,,,13,,0.0
revision_dfm_kalman_em,pseudo,2006:Q1:pre_third:pseudo,2006-06-30,pre_third,DELTA_MT,DELTA_MT,2006:Q1,0.009224704671127348,2.365550244556448,1.5380345394549655,model_implied_state_space,-0.9319367674176195,0.9411614720887469,True,True,32,-1086.564308537413,-1860.3027787623305,-1086.564308537413,0.10106157807240379,9.291605750183381e-05,32.0,13,,0.0
indicator_revision_only_dfm_kalman_em,pseudo,2006:Q1:pre_third:pseudo,2006-06-30,pre_third,DELTA_MT,DELTA_MT,2006:Q1,0.0,2.3782495291199446,1.5421574268277363,model_implied_state_space,-0.9319367674176195,0.9319367674176195,True,True,35,-1924.901250525644,-2772.2989861601236,-1924.901250525644,0.19015579274878291,9.87262557347962e-05,35.0,13,,0.0
joint_indicator_revision_dfm_full_kalman_em,pseudo,2006:Q1:pre_third:pseudo,2006-06-30,pre_third,DELTA_MT,DELTA_MT,2006:Q1,0.010862893728960543,2.34502278350657,1.5313467221718828,model_implied_state_space,-0.9319367674176195,0.9427996611465801,True,True,34,-1892.656209955986,-2784.470077759342,-1892.656209955986,0.17625705088562427,9.306897730198472e-05,34.0,13,,0.0
ar,exact,2006:Q2:pre_advance:exact,2006-07-27,pre_advance,DELTA_SA,DELTA_SA,2006:Q2,0.19275954019070385,,,not_available,0.4434999999999998,-0.25074045980929593,True,True,0,,,,,,,13,,0.0
no_revision,exact,2006:Q2:pre_advance:exact,2006-07-27,pre_advance,DELTA_SA,DELTA_SA,2006:Q2,0.0,,,not_available,0.4434999999999998,-0.4434999999999998,True,True,0,,,,,,,13,,0.0
bridge,exact,2006:Q2:pre_advance:exact,2006-07-27,pre_advance,DELTA_SA,DELTA_SA,2006:Q2,-0.003709582394132216,,,not_available,0.4434999999999998,-0.447209582394132,True,True,0,,,,,,,13,,0.0
midas_umidas,exact,2006:Q2:pre_advance:exact,2006-07-27,pre_advance,DELTA_SA,DELTA_SA,2006:Q2,7.631526192585322,,,not_available,0.4434999999999998,7.188026192585323,True,True,0,,,,,,,13,,0.0
monthly_mixed_frequency_kalman_em,exact,2006:Q2:pre_advance:exact,2006-07-27,pre_advance,DELTA_SA,DELTA_SA,2006:Q2,0.38322854362656233,0.32687120148961313,0.5717265093465695,model_implied_state_space,0.4434999999999998,-0.06027145637343745,True,True,90,-3182.6641132162968,-4057.924847392032,-3182.6641132162968,0.29232906012020976,9.181314676252441e-05,90.0,13,,0.0
standard_dfm,exact,2006:Q2:pre_advance:exact,2006-07-27,pre_advance,DELTA_SA,DELTA_SA,2006:Q2,0.18041479596781063,,,not_available,0.4434999999999998,-0.26308520403218916,True,True,0,,,,,,,13,,0.0
release_dfm,exact,2006:Q2:pre_advance:exact,2006-07-27,pre_advance,DELTA_SA,DELTA_SA,2006:Q2,0.18041479596781063,,,not_available,0.4434999999999998,-0.26308520403218916,True,True,0,,,,,,,13,,0.0
revision_dfm_kalman_em,exact,2006:Q2:pre_advance:exact,2006-07-27,pre_advance,DELTA_SA,DELTA_SA,2006:Q2,0.06400042080544122,0.40603236506826157,0.6372066894409235,model_implied_state_space,0.4434999999999998,-0.37949957919455857,True,True,32,-1102.4861513695662,-1879.262631083548,-1102.4861513695662,0.10048317161727027,9.10514575586956e-05,32.0,13,,0.0
indicator_revision_only_dfm_kalman_em,exact,2006:Q2:pre_advance:exact,2006-07-27,pre_advance,DELTA_SA,DELTA_SA,2006:Q2,0.0,0.4350674988876566,0.6595964667034357,model_implied_state_space,0.4434999999999998,-0.4434999999999998,True,True,38,-1958.949015296885,-2808.6585228294966,-1958.949015296885,0.19275492282213236,9.833723547482332e-05,38.0,13,,0.0
joint_indicator_revision_dfm_full_kalman_em,exact,2006:Q2:pre_advance:exact,2006-07-27,pre_advance,DELTA_SA,DELTA_SA,2006:Q2,0.311361320997825,0.3871195738834139,0.6221893392556753,model_implied_state_space,0.4434999999999998,-0.1321386790021748,True,True,37,-1926.3536521664882,-2820.8320545102697,-1926.3536521664882,0.18715463426565293,9.709503093544558e-05,37.0,13,,0.0
ar,exact,2006:Q2:pre_second:exact,2006-08-29,pre_second,DELTA_TS,DELTA_TS,2006:Q2,0.15003765644417788,,,not_available,-0.34259999999999957,0.49263765644417745,True,True,0,,,,,,,13,,0.0
no_revision,exact,2006:Q2:pre_second:exact,2006-08-29,pre_second,DELTA_TS,DELTA_TS,2006:Q2,0.0,,,not_available,-0.34259999999999957,0.34259999999999957,True,True,0,,,,,,,13,,0.0
bridge,exact,2006:Q2:pre_second:exact,2006-08-29,pre_second,DELTA_TS,DELTA_TS,2006:Q2,-0.09619672090274789,,,not_available,-0.34259999999999957,0.24640327909725168,True,True,0,,,,,,,13,,0.0
midas_umidas,exact,2006:Q2:pre_second:exact,2006-08-29,pre_second,DELTA_TS,DELTA_TS,2006:Q2,-0.06269428375548536,,,not_available,-0.34259999999999957,0.2799057162445142,True,True,0,,,,,,,13,,0.0
monthly_mixed_frequency_kalman_em,exact,2006:Q2:pre_second:exact,2006-08-29,pre_second,DELTA_TS,DELTA_TS,2006:Q2,0.1976409066879321,0.13088827936221725,0.3617848523117258,model_implied_state_space,-0.34259999999999957,0.5402409066879317,True,True,90,-3201.1007938032344,-4077.6810896642887,-3201.1007938032344,0.3027703383045264,9.454471687914491e-05,90.0,13,,0.0
standard_dfm,exact,2006:Q2:pre_second:exact,2006-08-29,pre_second,DELTA_TS,DELTA_TS,2006:Q2,0.11872079344451558,,,not_available,-0.34259999999999957,0.46132079344451515,True,True,0,,,,,,,13,,0.0
release_dfm,exact,2006:Q2:pre_second:exact,2006-08-29,pre_second,DELTA_TS,DELTA_TS,2006:Q2,0.09286842184072608,,,not_available,-0.34259999999999957,0.43546842184072565,True,True,0,,,,,,,13,,0.0
revision_dfm_kalman_em,exact,2006:Q2:pre_second:exact,2006-08-29,pre_second,DELTA_TS,DELTA_TS,2006:Q2,-0.0005953851717275249,0.13759816058893537,0.3709422604515902,model_implied_state_space,-0.34259999999999957,0.34200461482827205,True,True,32,-1103.4160545447357,-1880.393211555206,-1103.4160545447357,0.10386872966250849,9.403970673030961e-05,32.0,13,,0.0
indicator_revision_only_dfm_kalman_em,exact,2006:Q2:pre_second:exact,2006-08-29,pre_second,DELTA_TS,DELTA_TS,2006:Q2,0.0,0.14166527257398032,0.3763844744061321,model_implied_state_space,-0.34259999999999957,0.34259999999999957,True,True,35,-1960.0561450867751,-2809.5254454357246,-1960.0561450867751,0.18433326734134425,9.398810058011739e-05,35.0,13,,0.0
joint_indicator_revision_dfm_full_kalman_em,exact,2006:Q2:pre_second:exact,2006-08-29,pre_second,DELTA_TS,DELTA_TS,2006:Q2,0.005220645303514182,0.13638255153239565,0.36930008330948916,model_implied_state_space,-0.34259999999999957,0.34782064530351375,True,True,35,-1927.3105247571002,-2821.818503515536,-1927.3105247571002,0.188590841694122,9.779151059427113e-05,35.0,13,,0.0
ar,exact,2006:Q2:pre_third:exact,2006-09-27,pre_third,DELTA_MT,DELTA_MT,2006:Q2,-0.7769755058178829,,,not_available,0.08568525298399088,-0.8626607588018738,True,True,0,,,,,,,13,,0.0
no_revision,exact,2006:Q2:pre_third:exact,2006-09-27,pre_third,DELTA_MT,DELTA_MT,2006:Q2,0.0,,,not_available,0.08568525298399088,-0.08568525298399088,True,True,0,,,,,,,13,,0.0
bridge,exact,2006:Q2:pre_third:exact,2006-09-27,pre_third,DELTA_MT,DELTA_MT,2006:Q2,-2.0092550759317644,,,not_available,0.08568525298399088,-2.0949403289157553,True,True,0,,,,,,,13,,0.0
midas_umidas,exact,2006:Q2:pre_third:exact,2006-09-27,pre_third,DELTA_MT,DELTA_MT,2006:Q2,2.448880810466634,,,not_available,0.08568525298399088,2.3631955574826433,True,True,0,,,,,,,13,,0.0
monthly_mixed_frequency_kalman_em,exact,2006:Q2:pre_third:exact,2006-09-27,pre_third,DELTA_MT,DELTA_MT,2006:Q2,0.16891508759404328,2.2975823208815043,1.5157777940323258,model_implied_state_space,0.08568525298399088,0.0832298346100524,True,True,79,-3215.3537701959312,-4093.01924278198,-3215.3537701959312,0.27300520325070465,8.487313646042283e-05,79.0,13,,0.0
standard_dfm,exact,2006:Q2:pre_third:exact,2006-09-27,pre_third,DELTA_MT,DELTA_MT,2006:Q2,0.24650299332617598,,,not_available,0.08568525298399088,0.1608177403421851,True,True,0,,,,,,,13,,0.0
release_dfm,exact,2006:Q2:pre_third:exact,2006-09-27,pre_third,DELTA_MT,DELTA_MT,2006:Q2,0.5175858880267166,,,not_available,0.08568525298399088,0.4319006350427257,True,True,0,,,,,,,13,,0.0
revision_dfm_kalman_em,exact,2006:Q2:pre_third:exact,2006-09-27,pre_third,DELTA_MT,DELTA_MT,2006:Q2,0.00549812734934596,2.358596983619776,1.535772438748585,model_implied_state_space,0.08568525298399088,-0.08018712563464492,True,True,38,-1103.250898198182,-1878.0536547694117,-1103.250898198182,0.10473855251848363,9.484132559566726e-05,38.0,13,,0.0
indicator_revision_only_dfm_kalman_em,exact,2006:Q2:pre_third:exact,2006-09-27,pre_third,DELTA_MT,DELTA_MT,2006:Q2,0.0,2.3637553971540046,1.5374509413812216,model_implied_state_space,0.08568525298399088,-0.08568525298399088,True,True,35,-1959.885168398158,-2810.647252029133,-1959.885168398158,0.18448608335393146,9.407421247498107e-05,35.0,13,,0.0
joint_indicator_revision_dfm_full_kalman_em,exact,2006:Q2:pre_third:exact,2006-09-27,pre_third,DELTA_MT,DELTA_MT,2006:Q2,0.006955548182741023,2.3313517500652936,1.5268764685020506,model_implied_state_space,0.08568525298399088,-0.07872970480124986,True,True,35,-1927.037648915445,-2822.9145353090903,-1927.037648915445,0.18852727810440228,9.77723881316496e-05,35.0,13,,0.0
ar,pseudo,2006:Q2:pre_advance:pseudo,2006-07-31,pre_advance,DELTA_SA,DELTA_SA,2006:Q2,0.19275954019070385,,,not_available,0.4434999999999998,-0.25074045980929593,True,True,0,,,,,,,13,,0.0
no_revision,pseudo,2006:Q2:pre_advance:pseudo,2006-07-31,pre_advance,DELTA_SA,DELTA_SA,2006:Q2,0.0,,,not_available,0.4434999999999998,-0.4434999999999998,True,True,0,,,,,,,13,,0.0
bridge,pseudo,2006:Q2:pre_advance:pseudo,2006-07-31,pre_advance,DELTA_SA,DELTA_SA,2006:Q2,-0.003709582394132216,,,not_available,0.4434999999999998,-0.447209582394132,True,True,0,,,,,,,13,,0.0
midas_umidas,pseudo,2006:Q2:pre_advance:pseudo,2006-07-31,pre_advance,DELTA_SA,DELTA_SA,2006:Q2,7.631526192585322,,,not_available,0.4434999999999998,7.188026192585323,True,True,0,,,,,,,13,,0.0
monthly_mixed_frequency_kalman_em,pseudo,2006:Q2:pre_advance:pseudo,2006-07-31,pre_advance,DELTA_SA,DELTA_SA,2006:Q2,0.38322854362656233,0.32687120148961313,0.5717265093465695,model_implied_state_space,0.4434999999999998,-0.06027145637343745,True,True,90,-3182.6641132162968,-4057.924847392032,-3182.6641132162968,0.29232906012020976,9.181314676252441e-05,90.0,13,,0.0
standard_dfm,pseudo,2006:Q2:pre_advance:pseudo,2006-07-31,pre_advance,DELTA_SA,DELTA_SA,2006:Q2,0.18041479596781063,,,not_available,0.4434999999999998,-0.26308520403218916,True,True,0,,,,,,,13,,0.0
release_dfm,pseudo,2006:Q2:pre_advance:pseudo,2006-07-31,pre_advance,DELTA_SA,DELTA_SA,2006:Q2,0.18041479596781063,,,not_available,0.4434999999999998,-0.26308520403218916,True,True,0,,,,,,,13,,0.0
revision_dfm_kalman_em,pseudo,2006:Q2:pre_advance:pseudo,2006-07-31,pre_advance,DELTA_SA,DELTA_SA,2006:Q2,0.06400042080544122,0.40603236506826157,0.6372066894409235,model_implied_state_space,0.4434999999999998,-0.37949957919455857,True,True,32,-1102.4861513695662,-1879.262631083548,-1102.4861513695662,0.10048317161727027,9.10514575586956e-05,32.0,13,,0.0
indicator_revision_only_dfm_kalman_em,pseudo,2006:Q2:pre_advance:pseudo,2006-07-31,pre_advance,DELTA_SA,DELTA_SA,2006:Q2,0.0,0.4350674988876566,0.6595964667034357,model_implied_state_space,0.4434999999999998,-0.4434999999999998,True,True,38,-1958.949015296885,-2808.6585228294966,-1958.949015296885,0.19275492282213236,9.833723547482332e-05,38.0,13,,0.0
joint_indicator_revision_dfm_full_kalman_em,pseudo,2006:Q2:pre_advance:pseudo,2006-07-31,pre_advance,DELTA_SA,DELTA_SA,2006:Q2,0.311361320997825,0.3871195738834139,0.6221893392556753,model_implied_state_space,0.4434999999999998,-0.1321386790021748,True,True,37,-1926.3536521664882,-2820.8320545102697,-1926.3536521664882,0.18715463426565293,9.709503093544558e-05,37.0,13,,0.0
ar,pseudo,2006:Q2:pre_second:pseudo,2006-08-31,pre_second,DELTA_TS,DELTA_TS,2006:Q2,0.15003765644417788,,,not_available,-0.34259999999999957,0.49263765644417745,True,True,0,,,,,,,13,,0.0
no_revision,pseudo,2006:Q2:pre_second:pseudo,2006-08-31,pre_second,DELTA_TS,DELTA_TS,2006:Q2,0.0,,,not_available,-0.34259999999999957,0.34259999999999957,True,True,0,,,,,,,13,,0.0
bridge,pseudo,2006:Q2:pre_second:pseudo,2006-08-31,pre_second,DELTA_TS,DELTA_TS,2006:Q2,-0.09696653829506974,,,not_available,-0.34259999999999957,0.24563346170492983,True,True,0,,,,,,,13,,0.0
midas_umidas,pseudo,2006:Q2:pre_second:pseudo,2006-08-31,pre_second,DELTA_TS,DELTA_TS,2006:Q2,-0.0638026357583037,,,not_available,-0.34259999999999957,0.2787973642416959,True,True,0,,,,,,,13,,0.0
monthly_mixed_frequency_kalman_em,pseudo,2006:Q2:pre_second:pseudo,2006-08-31,pre_second,DELTA_TS,DELTA_TS,2006:Q2,0.19758171422427395,0.130891170402322,0.3617888478136412,model_implied_state_space,-0.34259999999999957,0.5401817142242735,True,True,90,-3201.1261574898354,-4077.6850877063525,-3201.1261574898354,0.303349231269749,9.472471779100655e-05,90.0,13,,0.0
standard_dfm,pseudo,2006:Q2:pre_second:pseudo,2006-08-31,pre_second,DELTA_TS,DELTA_TS,2006:Q2,0.11851880070235099,,,not_available,-0.34259999999999957,0.46111880070235056,True,True,0,,,,,,,13,,0.0
release_dfm,pseudo,2006:Q2:pre_second:pseudo,2006-08-31,pre_second,DELTA_TS,DELTA_TS,2006:Q2,0.09264349943882877,,,not_available,-0.34259999999999957,0.43524349943882834,True,True,0,,,,,,,13,,0.0
revision_dfm_kalman_em,pseudo,2006:Q2:pre_second:pseudo,2006-08-31,pre_second,DELTA_TS,DELTA_TS,2006:Q2,-0.0005982173015484094,0.1375980063780915,0.3709420525878557,model_implied_state_space,-0.34259999999999957,0.34200178269845116,True,True,32,-1103.4368790153349,-1880.4070034610866,-1103.4368790153349,0.10387838756173551,9.404667674372149e-05,32.0,13,,0.0
indicator_revision_only_dfm_kalman_em,pseudo,2006:Q2:pre_second:pseudo,2006-08-31,pre_second,DELTA_TS,DELTA_TS,2006:Q2,0.0,0.14166528797061906,0.3763844948594709,model_implied_state_space,-0.34259999999999957,0.34259999999999957,True,True,35,-1960.0787364902346,-2809.5423225228833,-1960.0787364902346,0.1843339018628285,9.398734144623255e-05,35.0,13,,0.0
joint_indicator_revision_dfm_full_kalman_em,pseudo,2006:Q2:pre_second:pseudo,2006-08-31,pre_second,DELTA_TS,DELTA_TS,2006:Q2,0.0052310297264228645,0.13638203983063069,0.3692993905094222,model_implied_state_space,-0.34259999999999957,0.34783102972642244,True,True,35,-1927.3314070139872,-2821.835363637667,-1927.3314070139872,0.18863924341394522,9.781554709790524e-05,35.0,13,,0.0
ar,pseudo,2006:Q2:pre_third:pseudo,2006-09-30,pre_third,DELTA_MT,DELTA_MT,2006:Q2,-0.7769755058178829,,,not_available,0.08568525298399088,-0.8626607588018738,True,True,0,,,,,,,13,,0.0
no_revision,pseudo,2006:Q2:pre_third:pseudo,2006-09-30,pre_third,DELTA_MT,DELTA_MT,2006:Q2,0.0,,,not_available,0.08568525298399088,-0.08568525298399088,True,True,0,,,,,,,13,,0.0
bridge,pseudo,2006:Q2:pre_third:pseudo,2006-09-30,pre_third,DELTA_MT,DELTA_MT,2006:Q2,-2.0092550759317644,,,not_available,0.08568525298399088,-2.0949403289157553,True,True,0,,,,,,,13,,0.0
midas_umidas,pseudo,2006:Q2:pre_third:pseudo,2006-09-30,pre_third,DELTA_MT,DELTA_MT,2006:Q2,2.448880810466634,,,not_available,0.08568525298399088,2.3631955574826433,True,True,0,,,,,,,13,,0.0
monthly_mixed_frequency_kalman_em,pseudo,2006:Q2:pre_third:pseudo,2006-09-30,pre_third,DELTA_MT,DELTA_MT,2006:Q2,0.16891508759404328,2.2975823208815043,1.5157777940323258,model_implied_state_space,0.08568525298399088,0.0832298346100524,True,True,79,-3215.3537701959312,-4093.01924278198,-3215.3537701959312,0.27300520325070465,8.487313646042283e-05,79.0,13,,0.0
standard_dfm,pseudo,2006:Q2:pre_third:pseudo,2006-09-30,pre_third,DELTA_MT,DELTA_MT,2006:Q2,0.24650299332617598,,,not_available,0.08568525298399088,0.1608177403421851,True,True,0,,,,,,,13,,0.0
release_dfm,pseudo,2006:Q2:pre_third:pseudo,2006-09-30,pre_third,DELTA_MT,DELTA_MT,2006:Q2,0.5175858880267166,,,not_available,0.08568525298399088,0.4319006350427257,True,True,0,,,,,,,13,,0.0
revision_dfm_kalman_em,pseudo,2006:Q2:pre_third:pseudo,2006-09-30,pre_third,DELTA_MT,DELTA_MT,2006:Q2,0.00549812734934596,2.358596983619776,1.535772438748585,model_implied_state_space,0.08568525298399088,-0.08018712563464492,True,True,38,-1103.250898198182,-1878.0536547694117,-1103.250898198182,0.10473855251848363,9.484132559566726e-05,38.0,13,,0.0
indicator_revision_only_dfm_kalman_em,pseudo,2006:Q2:pre_third:pseudo,2006-09-30,pre_third,DELTA_MT,DELTA_MT,2006:Q2,0.0,2.3637553971540046,1.5374509413812216,model_implied_state_space,0.08568525298399088,-0.08568525298399088,True,True,35,-1959.885168398158,-2810.647252029133,-1959.885168398158,0.18448608335393146,9.407421247498107e-05,35.0,13,,0.0
joint_indicator_revision_dfm_full_kalman_em,pseudo,2006:Q2:pre_third:pseudo,2006-09-30,pre_third,DELTA_MT,DELTA_MT,2006:Q2,0.006955548182741023,2.3313517500652936,1.5268764685020506,model_implied_state_space,0.08568525298399088,-0.07872970480124986,True,True,35,-1927.037648915445,-2822.9145353090903,-1927.037648915445,0.18852727810440228,9.77723881316496e-05,35.0,13,,0.0
ar,exact,2006:Q3:pre_advance:exact,2006-10-26,pre_advance,DELTA_SA,DELTA_SA,2006:Q3,0.2698690026860002,,,not_available,0.6269,-0.3570309973139998,True,True,0,,,,,,,13,,0.0
no_revision,exact,2006:Q3:pre_advance:exact,2006-10-26,pre_advance,DELTA_SA,DELTA_SA,2006:Q3,0.0,,,not_available,0.6269,-0.6269,True,True,0,,,,,,,13,,0.0
bridge,exact,2006:Q3:pre_advance:exact,2006-10-26,pre_advance,DELTA_SA,DELTA_SA,2006:Q3,0.18899295657589454,,,not_available,0.6269,-0.43790704342410547,True,True,0,,,,,,,13,,0.0
midas_umidas,exact,2006:Q3:pre_advance:exact,2006-10-26,pre_advance,DELTA_SA,DELTA_SA,2006:Q3,-1.1119282496718563,,,not_available,0.6269,-1.7388282496718563,True,True,0,,,,,,,13,,0.0
monthly_mixed_frequency_kalman_em,exact,2006:Q3:pre_advance:exact,2006-10-26,pre_advance,DELTA_SA,DELTA_SA,2006:Q3,-0.022822728518147706,0.32740973836446585,0.5721972897213564,model_implied_state_space,0.6269,-0.6497227285181477,True,True,84,-3233.3626369261274,-4117.893451623774,-3233.3626369261274,0.2942725674083704,9.097489336340338e-05,84.0,13,,0.0
standard_dfm,exact,2006:Q3:pre_advance:exact,2006-10-26,pre_advance,DELTA_SA,DELTA_SA,2006:Q3,0.1471347337242923,,,not_available,0.6269,-0.4797652662757077,True,True,0,,,,,,,13,,0.0
release_dfm,exact,2006:Q3:pre_advance:exact,2006-10-26,pre_advance,DELTA_SA,DELTA_SA,2006:Q3,0.1471347337242923,,,not_available,0.6269,-0.4797652662757077,True,True,0,,,,,,,13,,0.0
revision_dfm_kalman_em,exact,2006:Q3:pre_advance:exact,2006-10-26,pre_advance,DELTA_SA,DELTA_SA,2006:Q3,0.024317481917213835,0.40478612804291103,0.6362280471992028,model_implied_state_space,0.6269,-0.6025825180827862,True,True,37,-1120.2465256763621,-1897.9899769926137,-1120.2465256763621,0.11083984825745574,9.88443574413943e-05,37.0,13,,0.0
indicator_revision_only_dfm_kalman_em,exact,2006:Q3:pre_advance:exact,2006-10-26,pre_advance,DELTA_SA,DELTA_SA,2006:Q3,0.0,0.4309353662494555,0.656456675074186,model_implied_state_space,0.6269,-0.6269,True,True,45,-1750.4950790215012,-2846.781155839394,-1750.4950790215012,0.035311723938093564,2.016049742823197e-05,45.0,13,,0.0
joint_indicator_revision_dfm_full_kalman_em,exact,2006:Q3:pre_advance:exact,2006-10-26,pre_advance,DELTA_SA,DELTA_SA,2006:Q3,-0.32168325893495897,0.36372483295583713,0.6030960395789688,model_implied_state_space,0.6269,-0.948583258934959,True,True,46,-1724.4817746903334,-2859.0660943547246,-1724.4817746903334,0.03182999976638712,1.8446681428573117e-05,46.0,13,,0.0
ar,exact,2006:Q3:pre_second:exact,2006-11-28,pre_second,DELTA_TS,DELTA_TS,2006:Q3,-0.10248539920862054,,,not_available,-0.24970000000000003,0.1472146007913795,True,True,0,,,,,,,13,,0.0
no_revision,exact,2006:Q3:pre_second:exact,2006-11-28,pre_second,DELTA_TS,DELTA_TS,2006:Q3,0.0,,,not_available,-0.24970000000000003,0.24970000000000003,True,True,0,,,,,,,13,,0.0
bridge,exact,2006:Q3:pre_second:exact,2006-11-28,pre_second,DELTA_TS,DELTA_TS,2006:Q3,-0.4618669505312958,,,not_available,-0.24970000000000003,-0.21216695053129575,True,True,0,,,,,,,13,,0.0
midas_umidas,exact,2006:Q3:pre_second:exact,2006-11-28,pre_second,DELTA_TS,DELTA_TS,2006:Q3,-0.10992479613917538,,,not_available,-0.24970000000000003,0.13977520386082465,True,True,0,,,,,,,13,,0.0
monthly_mixed_frequency_kalman_em,exact,2006:Q3:pre_second:exact,2006-11-28,pre_second,DELTA_TS,DELTA_TS,2006:Q3,0.03487699518526921,0.1369991985000717,0.3701340277522072,model_implied_state_space,-0.24970000000000003,0.28457699518526924,True,True,78,-3251.65893448755,-4133.400250972815,-3251.65893448755,0.3032836862316799,9.323307984866294e-05,78.0,13,,0.0
standard_dfm,exact,2006:Q3:pre_second:exact,2006-11-28,pre_second,DELTA_TS,DELTA_TS,2006:Q3,0.09276208638106231,,,not_available,-0.24970000000000003,0.34246208638106235,True,True,0,,,,,,,13,,0.0
release_dfm,exact,2006:Q3:pre_second:exact,2006-11-28,pre_second,DELTA_TS,DELTA_TS,2006:Q3,0.06272920805043714,,,not_available,-0.24970000000000003,0.31242920805043717,True,True,0,,,,,,,13,,0.0
revision_dfm_kalman_em,exact,2006:Q3:pre_second:exact,2006-11-28,pre_second,DELTA_TS,DELTA_TS,2006:Q3,0.0008363614330413327,0.13751471995811337,0.37082977221106905,model_implied_state_space,-0.24970000000000003,0.25053636143304137,True,True,37,-1121.1366454563808,-1899.2736420079505,-1121.1366454563808,0.111484318462999,9.934016863575977e-05,37.0,13,,0.0
indicator_revision_only_dfm_kalman_em,exact,2006:Q3:pre_second:exact,2006-11-28,pre_second,DELTA_TS,DELTA_TS,2006:Q3,0.0,0.14151199213681576,0.3761807971399069,model_implied_state_space,-0.24970000000000003,0.24970000000000003,True,True,45,-1751.7797547529285,-2847.887643772743,-1751.7797547529285,0.03733600241730528,2.130056958836246e-05,45.0,13,,0.0
joint_indicator_revision_dfm_full_kalman_em,exact,2006:Q3:pre_second:exact,2006-11-28,pre_second,DELTA_TS,DELTA_TS,2006:Q3,-0.0072055081804880405,0.13783057353161632,0.37125540202348073,model_implied_state_space,-0.24970000000000003,0.242494491819512,True,True,46,-1725.8731357545041,-2860.282286052776,-1725.8731357545041,0.031092732359866204,1.800489676668987e-05,46.0,13,,0.0
ar,exact,2006:Q3:pre_third:exact,2006-12-20,pre_third,DELTA_MT,DELTA_MT,2006:Q3,2.0820705270888604,,,not_available,-1.855195724549776,3.9372662516386363,True,True,0,,,,,,,13,,0.0
no_revision,exact,2006:Q3:pre_third:exact,2006-12-20,pre_third,DELTA_MT,DELTA_MT,2006:Q3,0.0,,,not_available,-1.855195724549776,1.855195724549776,True,True,0,,,,,,,13,,0.0
bridge,exact,2006:Q3:pre_third:exact,2006-12-20,pre_third,DELTA_MT,DELTA_MT,2006:Q3,-1.1251610656419242,,,not_available,-1.855195724549776,0.7300346589078519,True,True,0,,,,,,,13,,0.0
midas_umidas,exact,2006:Q3:pre_third:exact,2006-12-20,pre_third,DELTA_MT,DELTA_MT,2006:Q3,2.3047254715915146,,,not_available,-1.855195724549776,4.1599211961412905,True,True,0,,,,,,,13,,0.0
monthly_mixed_frequency_kalman_em,exact,2006:Q3:pre_third:exact,2006-12-20,pre_third,DELTA_MT,DELTA_MT,2006:Q3,0.12779415520564363,2.287735198782922,1.5125260985460456,model_implied_state_space,-1.855195724549776,1.9829898797554197,True,True,83,-3279.8844825143187,-4152.602368779163,-3279.8844825143187,0.2688412594043257,8.193498836412976e-05,83.0,13,,0.0
standard_dfm,exact,2006:Q3:pre_third:exact,2006-12-20,pre_third,DELTA_MT,DELTA_MT,2006:Q3,0.24202624265958095,,,not_available,-1.855195724549776,2.0972219672093573,True,True,0,,,,,,,13,,0.0
release_dfm,exact,2006:Q3:pre_third:exact,2006-12-20,pre_third,DELTA_MT,DELTA_MT,2006:Q3,0.4937130921161139,,,not_available,-1.855195724549776,2.3489088166658902,True,True,0,,,,,,,13,,0.0
