haminh109/Revision-Aware-DFM/outputs/full_state_space_release_revision_dfm/exact_pseudo_backtest_mature_3y_max_iter100_journal_evidence/cumulative_loss_point.csv
timing_mode,checkpoint_id,outcome_id,baseline_model,model_id,target_quarter,loss_diff_baseline_minus_model,cumulative_loss_diff
exact,pre_advance,A,ar,bridge,2005:Q1,0.026508366163050925,0.026508366163050925
exact,pre_advance,A,ar,bridge,2005:Q2,0.25605091488063453,0.28255928104368544
exact,pre_advance,A,ar,bridge,2005:Q3,-0.1145844705953406,0.16797481044834484
exact,pre_advance,A,ar,bridge,2005:Q4,-1.067053416924928,-0.8990786064765831
exact,pre_advance,A,ar,bridge,2006:Q1,1.6356501256199305,0.7365715191433474
exact,pre_advance,A,ar,bridge,2006:Q2,0.7676987547042062,1.5042702738475535
exact,pre_advance,A,ar,bridge,2006:Q3,-0.11413741897172125,1.3901328548758323
exact,pre_advance,A,ar,bridge,2006:Q4,-11.42373598428023,-10.033603129404398
exact,pre_advance,A,ar,bridge,2007:Q1,2.9288243316873825,-7.104778797717016
exact,pre_advance,A,ar,bridge,2007:Q2,-0.571880895833992,-7.676659693551008
exact,pre_advance,A,ar,bridge,2007:Q3,-4.421703232049937,-12.098362925600945
exact,pre_advance,A,ar,bridge,2007:Q4,6.981606042021606,-5.116756883579339
exact,pre_advance,A,ar,bridge,2008:Q1,-0.8428265241404642,-5.959583407719803
exact,pre_advance,A,ar,bridge,2008:Q2,-0.5775901807402076,-6.537173588460011
exact,pre_advance,A,ar,bridge,2008:Q3,6.239153415743342,-0.2980201727166687
exact,pre_advance,A,ar,bridge,2008:Q4,18.935021625538596,18.637001452821927
exact,pre_advance,A,ar,bridge,2009:Q1,28.976487905078283,47.61348935790021
exact,pre_advance,A,ar,bridge,2009:Q2,-1.0972978517896448,46.51619150611056
exact,pre_advance,A,ar,bridge,2009:Q3,4.302859584500106,50.819051090610664
exact,pre_advance,A,ar,bridge,2009:Q4,0.8405391500749486,51.65959024068561
exact,pre_advance,A,ar,bridge,2010:Q1,-7.902887294564825,43.75670294612078
exact,pre_advance,A,ar,bridge,2010:Q2,0.011858308232202852,43.76856125435299
exact,pre_advance,A,ar,bridge,2010:Q3,0.18832454713788116,43.95688580149087
exact,pre_advance,A,ar,bridge,2010:Q4,0.2765286183734815,44.23341441986435
exact,pre_advance,A,ar,bridge,2011:Q1,-2.6235720668932383,41.609842352971114
exact,pre_advance,A,ar,bridge,2011:Q2,-1.4729019751695853,40.13694037780153
exact,pre_advance,A,ar,bridge,2011:Q3,-0.0022523077665603797,40.13468807003497
exact,pre_advance,A,ar,bridge,2011:Q4,-1.082757162786356,39.05193090724861
exact,pre_advance,A,ar,bridge,2012:Q1,-1.0541537717065796,37.99777713554203
exact,pre_advance,A,ar,bridge,2012:Q2,-0.4841720924257811,37.51360504311625
exact,pre_advance,A,ar,bridge,2012:Q3,-0.5745739215873314,36.93903112152892
exact,pre_advance,A,ar,bridge,2012:Q4,-8.166100960885938,28.772930160642982
exact,pre_advance,A,ar,bridge,2013:Q1,0.7861555844576769,29.55908574510066
exact,pre_advance,A,ar,bridge,2013:Q2,-0.3824613142293476,29.176624430871314
exact,pre_advance,A,ar,bridge,2013:Q3,-0.46677534104159424,28.70984908982972
exact,pre_advance,A,ar,bridge,2013:Q4,-0.039765412715874415,28.670083677113848
exact,pre_advance,A,ar,bridge,2014:Q1,3.920388840588136,32.59047251770198
exact,pre_advance,A,ar,bridge,2014:Q2,4.106194340754633,36.69666685845662
exact,pre_advance,A,ar,bridge,2014:Q3,-0.056094443733069724,36.64057241472354
exact,pre_advance,A,ar,bridge,2014:Q4,0.1575985164891277,36.798170931212674
exact,pre_advance,A,ar,bridge,2015:Q1,3.3836744740684486,40.18184540528112
exact,pre_advance,A,ar,bridge,2015:Q2,0.8610543008872912,41.04289970616841
exact,pre_advance,A,ar,bridge,2015:Q3,0.6136721270869122,41.65657183325533
exact,pre_advance,A,ar,bridge,2015:Q4,0.6515995292412713,42.3081713624966
exact,pre_advance,A,ar,bridge,2016:Q1,0.7787481652209838,43.08691952771758
exact,pre_advance,A,ar,bridge,2016:Q2,0.059797019294426566,43.14671654701201
exact,pre_advance,A,ar,bridge,2016:Q3,0.36377552260716206,43.510492069619175
exact,pre_advance,A,ar,bridge,2016:Q4,-0.7375381686773962,42.77295390094178
exact,pre_advance,A,ar,bridge,2017:Q1,-0.6640699525926914,42.10888394834909
exact,pre_advance,A,ar,bridge,2017:Q2,-0.12694577975501653,41.98193816859407
exact,pre_advance,A,ar,bridge,2017:Q3,-0.3142545493377593,41.66768361925631
exact,pre_advance,A,ar,bridge,2017:Q4,-1.1500300216843717,40.517653597571936
exact,pre_advance,A,ar,bridge,2018:Q1,-0.8594179119067495,39.65823568566519
exact,pre_advance,A,ar,bridge,2018:Q2,0.39498998888680337,40.053225674551996
exact,pre_advance,A,ar,bridge,2018:Q3,-0.1438588875744695,39.90936678697753
exact,pre_advance,A,ar,bridge,2018:Q4,0.09068553162124533,40.000052318598776
exact,pre_advance,A,ar,bridge,2019:Q1,-0.10760998024848467,39.89244233835029
exact,pre_advance,A,ar,bridge,2019:Q2,0.6089661755654483,40.50140851391574
exact,pre_advance,A,ar,bridge,2019:Q3,-0.33271829282384024,40.1686902210919
exact,pre_advance,A,ar,bridge,2019:Q4,-0.16781559230481113,40.00087462878709
exact,pre_advance,A,ar,bridge,2020:Q1,9.102458446038156,49.103333074825244
exact,pre_advance,A,ar,bridge,2020:Q2,532.6153717534219,581.7187048282472
exact,pre_advance,A,ar,bridge,2020:Q3,1642.8717471955658,2224.5904520238128
exact,pre_advance,A,ar,bridge,2020:Q4,-25.236584640080753,2199.353867383732
exact,pre_advance,A,ar,bridge,2021:Q1,12.991205256378652,2212.3450726401106
exact,pre_advance,A,ar,bridge,2021:Q2,15.009953845689985,2227.3550264858004
exact,pre_advance,A,ar,bridge,2021:Q3,-0.3051338757414128,2227.049892610059
exact,pre_advance,A,ar,bridge,2021:Q4,-0.5416554582639961,2226.508237151795
exact,pre_advance,A,ar,bridge,2022:Q1,-27.24056001814712,2199.267677133648
exact,pre_advance,A,ar,bridge,2022:Q2,2.3168008337014,2201.5844779673494
exact,pre_advance,A,ar,bridge,2022:Q3,-3.0659772522159,2198.5185007151335
exact,pre_advance,A,ar,bridge,2022:Q4,-18.358927656569044,2180.1595730585645
exact,pre_advance,A,ar,bridge,2023:Q1,1.746828477152817,2181.9064015357176
exact,pre_advance,A,ar,bridge,2023:Q2,-1.4069302895362061,2180.499471246181
exact,pre_advance,A,ar,bridge,2023:Q3,0.3615726347753414,2180.8610438809565
exact,pre_advance,A,ar,bridge,2023:Q4,-6.352938995644131,2174.508104885312
exact,pre_advance,A,ar,bridge,2024:Q1,0.7855773239734215,2175.2936822092856
exact,pre_advance,A,ar,bridge,2024:Q2,-0.6561092188970661,2174.6375729903884
exact,pre_advance,A,ar,bridge,2024:Q3,-0.07053545014004475,2174.5670375402483
exact,pre_advance,A,ar,bridge,2024:Q4,-0.00044289376299851135,2174.566594646485
exact,pre_advance,A,ar,indicator_revision_only_dfm_kalman_em,2005:Q1,-1.973310628385442,-1.973310628385442
exact,pre_advance,A,ar,indicator_revision_only_dfm_kalman_em,2005:Q2,-0.35543964362508124,-2.3287502720105233
exact,pre_advance,A,ar,indicator_revision_only_dfm_kalman_em,2005:Q3,0.5427757308438118,-1.7859745411667114
exact,pre_advance,A,ar,indicator_revision_only_dfm_kalman_em,2005:Q4,-23.56679242571122,-25.352766966877933
exact,pre_advance,A,ar,indicator_revision_only_dfm_kalman_em,2006:Q1,8.165950260584411,-17.18681670629352
exact,pre_advance,A,ar,indicator_revision_only_dfm_kalman_em,2006:Q2,-3.126242394762783,-20.313059101056304
exact,pre_advance,A,ar,indicator_revision_only_dfm_kalman_em,2006:Q3,-3.0426702004727932,-23.355729301529095
exact,pre_advance,A,ar,indicator_revision_only_dfm_kalman_em,2006:Q4,-19.284626140677126,-42.64035544220622
exact,pre_advance,A,ar,indicator_revision_only_dfm_kalman_em,2007:Q1,2.4147512170663665,-40.225604225139854
exact,pre_advance,A,ar,indicator_revision_only_dfm_kalman_em,2007:Q2,1.922570474941636,-38.30303375019822
exact,pre_advance,A,ar,indicator_revision_only_dfm_kalman_em,2007:Q3,-36.8212508788616,-75.12428462905982
exact,pre_advance,A,ar,indicator_revision_only_dfm_kalman_em,2007:Q4,-2.5452488214481495,-77.66953345050797
exact,pre_advance,A,ar,indicator_revision_only_dfm_kalman_em,2008:Q1,-10.704548647859195,-88.37408209836717
exact,pre_advance,A,ar,indicator_revision_only_dfm_kalman_em,2008:Q2,-0.4708004430566528,-88.84488254142381
exact,pre_advance,A,ar,indicator_revision_only_dfm_kalman_em,2008:Q3,-2.9773225484652643,-91.82220508988908
exact,pre_advance,A,ar,indicator_revision_only_dfm_kalman_em,2008:Q4,-25.552809405454436,-117.37501449534352
exact,pre_advance,A,ar,indicator_revision_only_dfm_kalman_em,2009:Q1,1.6448927507108628,-115.73012174463265
exact,pre_advance,A,ar,indicator_revision_only_dfm_kalman_em,2009:Q2,-4.412366719187637,-120.14248846382029
exact,pre_advance,A,ar,indicator_revision_only_dfm_kalman_em,2009:Q3,-0.15509819185279383,-120.29758665567309
exact,pre_advance,A,ar,indicator_revision_only_dfm_kalman_em,2009:Q4,1.3064159153314678,-118.99117074034162
exact,pre_advance,A,ar,indicator_revision_only_dfm_kalman_em,2010:Q1,-11.115058503997199,-130.1062292443388
exact,pre_advance,A,ar,indicator_revision_only_dfm_kalman_em,2010:Q2,-4.294985670984804,-134.4012149153236
exact,pre_advance,A,ar,indicator_revision_only_dfm_kalman_em,2010:Q3,0.08900672855548708,-134.31220818676812
exact,pre_advance,A,ar,indicator_revision_only_dfm_kalman_em,2010:Q4,0.6370410724922703,-133.67516711427584
exact,pre_advance,A,ar,indicator_revision_only_dfm_kalman_em,2011:Q1,-19.70931120383876,-153.3844783181146
exact,pre_advance,A,ar,indicator_revision_only_dfm_kalman_em,2011:Q2,0.4721336821818945,-152.9123446359327
exact,pre_advance,A,ar,indicator_revision_only_dfm_kalman_em,2011:Q3,-1.1364155030401077,-154.0487601389728
exact,pre_advance,A,ar,indicator_revision_only_dfm_kalman_em,2011:Q4,-3.5668912431953044,-157.6156513821681
exact,pre_advance,A,ar,indicator_revision_only_dfm_kalman_em,2012:Q1,-6.486158004918389,-164.1018093870865
exact,pre_advance,A,ar,indicator_revision_only_dfm_kalman_em,2012:Q2,-0.9689159712099127,-165.07072535829641
exact,pre_advance,A,ar,indicator_revision_only_dfm_kalman_em,2012:Q3,-0.18395782162119112,-165.2546831799176
exact,pre_advance,A,ar,indicator_revision_only_dfm_kalman_em,2012:Q4,-13.171338923257656,-178.42602210317526
exact,pre_advance,A,ar,indicator_revision_only_dfm_kalman_em,2013:Q1,1.52028454068604,-176.9057375624892
exact,pre_advance,A,ar,indicator_revision_only_dfm_kalman_em,2013:Q2,-0.3739854884468512,-177.27972305093607
exact,pre_advance,A,ar,indicator_revision_only_dfm_kalman_em,2013:Q3,0.3654835966546758,-176.9142394542814
exact,pre_advance,A,ar,indicator_revision_only_dfm_kalman_em,2013:Q4,-2.200664410571932,-179.11490386485332
exact,pre_advance,A,ar,indicator_revision_only_dfm_kalman_em,2014:Q1,2.9594558467342242,-176.1554480181191
exact,pre_advance,A,ar,indicator_revision_only_dfm_kalman_em,2014:Q2,5.852354125993532,-170.30309389212556
exact,pre_advance,A,ar,indicator_revision_only_dfm_kalman_em,2014:Q3,-0.05707634339579172,-170.36017023552134
exact,pre_advance,A,ar,indicator_revision_only_dfm_kalman_em,2014:Q4,-0.0336055940634781,-170.39377582958483
exact,pre_advance,A,ar,indicator_revision_only_dfm_kalman_em,2015:Q1,5.105823534859221,-165.2879522947256
exact,pre_advance,A,ar,indicator_revision_only_dfm_kalman_em,2015:Q2,0.5086064611257777,-164.77934583359985
exact,pre_advance,A,ar,indicator_revision_only_dfm_kalman_em,2015:Q3,-1.983861590017015,-166.76320742361688
exact,pre_advance,A,ar,indicator_revision_only_dfm_kalman_em,2015:Q4,0.7868041967370145,-165.97640322687985
exact,pre_advance,A,ar,indicator_revision_only_dfm_kalman_em,2016:Q1,-0.9912084683288442,-166.9676116952087
exact,pre_advance,A,ar,indicator_revision_only_dfm_kalman_em,2016:Q2,-0.5712627322838624,-167.53887442749254
exact,pre_advance,A,ar,indicator_revision_only_dfm_kalman_em,2016:Q3,1.082819586403162,-166.45605484108938
exact,pre_advance,A,ar,indicator_revision_only_dfm_kalman_em,2016:Q4,-3.3976875427744533,-169.85374238386385
exact,pre_advance,A,ar,indicator_revision_only_dfm_kalman_em,2017:Q1,-3.256853418390428,-173.11059580225427
exact,pre_advance,A,ar,indicator_revision_only_dfm_kalman_em,2017:Q2,0.1766355367497281,-172.93396026550454
exact,pre_advance,A,ar,indicator_revision_only_dfm_kalman_em,2017:Q3,-1.4478888438289224,-174.38184910933347
exact,pre_advance,A,ar,indicator_revision_only_dfm_kalman_em,2017:Q4,-10.141411332721024,-184.5232604420545
exact,pre_advance,A,ar,indicator_revision_only_dfm_kalman_em,2018:Q1,-1.009764534557035,-185.53302497661153
exact,pre_advance,A,ar,indicator_revision_only_dfm_kalman_em,2018:Q2,1.1698937363819972,-184.36313124022954
exact,pre_advance,A,ar,indicator_revision_only_dfm_kalman_em,2018:Q3,0.0488330006061735,-184.31429823962335
exact,pre_advance,A,ar,indicator_revision_only_dfm_kalman_em,2018:Q4,0.16860944725566152,-184.1456887923677
exact,pre_advance,A,ar,indicator_revision_only_dfm_kalman_em,2019:Q1,-2.8228784606875683,-186.96856725305528
exact,pre_advance,A,ar,indicator_revision_only_dfm_kalman_em,2019:Q2,0.18770879729845003,-186.78085845575683
exact,pre_advance,A,ar,indicator_revision_only_dfm_kalman_em,2019:Q3,-0.31703958950703615,-187.09789804526386
exact,pre_advance,A,ar,indicator_revision_only_dfm_kalman_em,2019:Q4,-0.19859995012882686,-187.29649799539268
exact,pre_advance,A,ar,indicator_revision_only_dfm_kalman_em,2020:Q1,36.330575664977275,-150.96592233041542
exact,pre_advance,A,ar,indicator_revision_only_dfm_kalman_em,2020:Q2,976.4294477527856,825.4635254223701
exact,pre_advance,A,ar,indicator_revision_only_dfm_kalman_em,2020:Q3,2115.419204764322,2940.8827301866922
exact,pre_advance,A,ar,indicator_revision_only_dfm_kalman_em,2020:Q4,-18.177844669475363,2922.704885517217
exact,pre_advance,A,ar,indicator_revision_only_dfm_kalman_em,2021:Q1,9.526584208740825,2932.231469725958
exact,pre_advance,A,ar,indicator_revision_only_dfm_kalman_em,2021:Q2,6.852254085229504,2939.0837238111876
exact,pre_advance,A,ar,indicator_revision_only_dfm_kalman_em,2021:Q3,-5.670112893969444,2933.413610917218
exact,pre_advance,A,ar,indicator_revision_only_dfm_kalman_em,2021:Q4,13.811988864879375,2947.2255997820976
exact,pre_advance,A,ar,indicator_revision_only_dfm_kalman_em,2022:Q1,-36.21682681371186,2911.0087729683855
exact,pre_advance,A,ar,indicator_revision_only_dfm_kalman_em,2022:Q2,-8.95015851752911,2902.0586144508566
exact,pre_advance,A,ar,indicator_revision_only_dfm_kalman_em,2022:Q3,-0.2421856274653419,2901.816428823391
exact,pre_advance,A,ar,indicator_revision_only_dfm_kalman_em,2022:Q4,-2.0875098069349303,2899.728919016456
exact,pre_advance,A,ar,indicator_revision_only_dfm_kalman_em,2023:Q1,-1.1432821294569173,2898.585636886999
exact,pre_advance,A,ar,indicator_revision_only_dfm_kalman_em,2023:Q2,-0.32283268625423567,2898.262804200745
exact,pre_advance,A,ar,indicator_revision_only_dfm_kalman_em,2023:Q3,-2.324245126010106,2895.9385590747347
exact,pre_advance,A,ar,indicator_revision_only_dfm_kalman_em,2023:Q4,-1.0667004019800592,2894.8718586727546
exact,pre_advance,A,ar,indicator_revision_only_dfm_kalman_em,2024:Q1,0.8689197266747696,2895.7407783994295
exact,pre_advance,A,ar,indicator_revision_only_dfm_kalman_em,2024:Q2,-1.0886528442829384,2894.6521255551465
exact,pre_advance,A,ar,indicator_revision_only_dfm_kalman_em,2024:Q3,-0.7978876847852424,2893.8542378703614
exact,pre_advance,A,ar,indicator_revision_only_dfm_kalman_em,2024:Q4,-0.17914473930123243,2893.6750931310603
exact,pre_advance,A,ar,joint_indicator_revision_dfm_full_kalman_em,2005:Q1,-0.12946491457007228,-0.12946491457007228
exact,pre_advance,A,ar,joint_indicator_revision_dfm_full_kalman_em,2005:Q2,0.23178215731062518,0.1023172427405529
exact,pre_advance,A,ar,joint_indicator_revision_dfm_full_kalman_em,2005:Q3,0.4062572287921883,0.5085744715327412
exact,pre_advance,A,ar,joint_indicator_revision_dfm_full_kalman_em,2005:Q4,-17.994498876818994,-17.485924405286255
exact,pre_advance,A,ar,joint_indicator_revision_dfm_full_kalman_em,2006:Q1,6.443860113878374,-11.04206429140788
exact,pre_advance,A,ar,joint_indicator_revision_dfm_full_kalman_em,2006:Q2,-0.17773285103635228,-11.219797142444232
exact,pre_advance,A,ar,joint_indicator_revision_dfm_full_kalman_em,2006:Q3,-4.011166567044025,-15.230963709488258
exact,pre_advance,A,ar,joint_indicator_revision_dfm_full_kalman_em,2006:Q4,-20.437675426125423,-35.66863913561368
exact,pre_advance,A,ar,joint_indicator_revision_dfm_full_kalman_em,2007:Q1,-0.5673452841727658,-36.23598441978645
exact,pre_advance,A,ar,joint_indicator_revision_dfm_full_kalman_em,2007:Q2,1.8340113166011494,-34.4019731031853
exact,pre_advance,A,ar,joint_indicator_revision_dfm_full_kalman_em,2007:Q3,-33.6957236994673,-68.09769680265259
exact,pre_advance,A,ar,joint_indicator_revision_dfm_full_kalman_em,2007:Q4,-0.3819985220762607,-68.47969532472885
exact,pre_advance,A,ar,joint_indicator_revision_dfm_full_kalman_em,2008:Q1,-8.071576586824248,-76.5512719115531
exact,pre_advance,A,ar,joint_indicator_revision_dfm_full_kalman_em,2008:Q2,-0.030388603480535743,-76.58166051503363
exact,pre_advance,A,ar,joint_indicator_revision_dfm_full_kalman_em,2008:Q3,-2.7760406332694645,-79.3577011483031
exact,pre_advance,A,ar,joint_indicator_revision_dfm_full_kalman_em,2008:Q4,-11.320729716020306,-90.6784308643234
exact,pre_advance,A,ar,joint_indicator_revision_dfm_full_kalman_em,2009:Q1,-4.664660896826554,-95.34309176114996
exact,pre_advance,A,ar,joint_indicator_revision_dfm_full_kalman_em,2009:Q2,-0.4090496432081999,-95.75214140435817
exact,pre_advance,A,ar,joint_indicator_revision_dfm_full_kalman_em,2009:Q3,3.1579694396885243,-92.59417196466964
exact,pre_advance,A,ar,joint_indicator_revision_dfm_full_kalman_em,2009:Q4,0.3491682090194361,-92.2450037556502
exact,pre_advance,A,ar,joint_indicator_revision_dfm_full_kalman_em,2010:Q1,-9.35073214540399,-101.5957359010542
exact,pre_advance,A,ar,joint_indicator_revision_dfm_full_kalman_em,2010:Q2,-4.771758399092099,-106.36749430014629
exact,pre_advance,A,ar,joint_indicator_revision_dfm_full_kalman_em,2010:Q3,0.09466991264196684,-106.27282438750433
exact,pre_advance,A,ar,joint_indicator_revision_dfm_full_kalman_em,2010:Q4,0.3294486881254201,-105.9433756993789
exact,pre_advance,A,ar,joint_indicator_revision_dfm_full_kalman_em,2011:Q1,-17.10312289765586,-123.04649859703477
exact,pre_advance,A,ar,joint_indicator_revision_dfm_full_kalman_em,2011:Q2,0.6956931923596588,-122.35080540467511
exact,pre_advance,A,ar,joint_indicator_revision_dfm_full_kalman_em,2011:Q3,-0.46486450127096085,-122.81566990594608
exact,pre_advance,A,ar,joint_indicator_revision_dfm_full_kalman_em,2011:Q4,-2.8392414510973434,-125.65491135704342
exact,pre_advance,A,ar,joint_indicator_revision_dfm_full_kalman_em,2012:Q1,-5.30114908981159,-130.95606044685502
exact,pre_advance,A,ar,joint_indicator_revision_dfm_full_kalman_em,2012:Q2,-0.7638421554207451,-131.71990260227577
exact,pre_advance,A,ar,joint_indicator_revision_dfm_full_kalman_em,2012:Q3,-0.04484811296577433,-131.76475071524155
exact,pre_advance,A,ar,joint_indicator_revision_dfm_full_kalman_em,2012:Q4,-9.137750435251,-140.90250115049255
exact,pre_advance,A,ar,joint_indicator_revision_dfm_full_kalman_em,2013:Q1,1.7407427821883081,-139.16175836830425
exact,pre_advance,A,ar,joint_indicator_revision_dfm_full_kalman_em,2013:Q2,-0.24759470590691302,-139.40935307421117
exact,pre_advance,A,ar,joint_indicator_revision_dfm_full_kalman_em,2013:Q3,0.5569937098981219,-138.85235936431306
exact,pre_advance,A,ar,joint_indicator_revision_dfm_full_kalman_em,2013:Q4,-0.7415933458097927,-139.59395271012286
exact,pre_advance,A,ar,joint_indicator_revision_dfm_full_kalman_em,2014:Q1,1.6593474393080143,-137.93460527081484
exact,pre_advance,A,ar,joint_indicator_revision_dfm_full_kalman_em,2014:Q2,6.1912240735654285,-131.74338119724942
exact,pre_advance,A,ar,joint_indicator_revision_dfm_full_kalman_em,2014:Q3,-0.22927063701025224,-131.97265183425966
exact,pre_advance,A,ar,joint_indicator_revision_dfm_full_kalman_em,2014:Q4,0.10617859516298875,-131.86647323909668
exact,pre_advance,A,ar,joint_indicator_revision_dfm_full_kalman_em,2015:Q1,4.704722618444524,-127.16175062065216
exact,pre_advance,A,ar,joint_indicator_revision_dfm_full_kalman_em,2015:Q2,0.6467348582812803,-126.51501576237088
exact,pre_advance,A,ar,joint_indicator_revision_dfm_full_kalman_em,2015:Q3,-0.5575945216138252,-127.0726102839847
exact,pre_advance,A,ar,joint_indicator_revision_dfm_full_kalman_em,2015:Q4,1.1976476382807764,-125.87496264570393
exact,pre_advance,A,ar,joint_indicator_revision_dfm_full_kalman_em,2016:Q1,-0.17312178678806833,-126.048084432492
exact,pre_advance,A,ar,joint_indicator_revision_dfm_full_kalman_em,2016:Q2,-0.15052010902132684,-126.19860454151333
exact,pre_advance,A,ar,joint_indicator_revision_dfm_full_kalman_em,2016:Q3,0.9879535119252144,-125.21065102958812
exact,pre_advance,A,ar,joint_indicator_revision_dfm_full_kalman_em,2016:Q4,-2.284263147704913,-127.49491417729304
exact,pre_advance,A,ar,joint_indicator_revision_dfm_full_kalman_em,2017:Q1,-2.156509886357036,-129.65142406365007
exact,pre_advance,A,ar,joint_indicator_revision_dfm_full_kalman_em,2017:Q2,0.8150037026043357,-128.83642036104573
exact,pre_advance,A,ar,joint_indicator_revision_dfm_full_kalman_em,2017:Q3,-2.02417357831613,-130.86059393936185
exact,pre_advance,A,ar,joint_indicator_revision_dfm_full_kalman_em,2017:Q4,-7.13031957873418,-137.99091351809602
exact,pre_advance,A,ar,joint_indicator_revision_dfm_full_kalman_em,2018:Q1,-0.5560095068551378,-138.54692302495116
exact,pre_advance,A,ar,joint_indicator_revision_dfm_full_kalman_em,2018:Q2,0.8578152192267479,-137.6891078057244
exact,pre_advance,A,ar,joint_indicator_revision_dfm_full_kalman_em,2018:Q3,0.042951845372848046,-137.64615596035156
exact,pre_advance,A,ar,joint_indicator_revision_dfm_full_kalman_em,2018:Q4,0.16781722039527983,-137.47833873995629
exact,pre_advance,A,ar,joint_indicator_revision_dfm_full_kalman_em,2019:Q1,-2.2948959688614585,-139.77323470881774
exact,pre_advance,A,ar,joint_indicator_revision_dfm_full_kalman_em,2019:Q2,0.10251007612850516,-139.67072463268923
exact,pre_advance,A,ar,joint_indicator_revision_dfm_full_kalman_em,2019:Q3,-0.20596907982554888,-139.87669371251476
exact,pre_advance,A,ar,joint_indicator_revision_dfm_full_kalman_em,2019:Q4,-0.2826960138025538,-140.15938972631733
exact,pre_advance,A,ar,joint_indicator_revision_dfm_full_kalman_em,2020:Q1,35.02548576933947,-105.13390395697786
exact,pre_advance,A,ar,joint_indicator_revision_dfm_full_kalman_em,2020:Q2,973.8214086232873,868.6875046663095
exact,pre_advance,A,ar,joint_indicator_revision_dfm_full_kalman_em,2020:Q3,2098.5378204197877,2967.225325086097
exact,pre_advance,A,ar,joint_indicator_revision_dfm_full_kalman_em,2020:Q4,-7.5066703298253525,2959.718654756272
exact,pre_advance,A,ar,joint_indicator_revision_dfm_full_kalman_em,2021:Q1,7.192527149449908,2966.9111819057216
exact,pre_advance,A,ar,joint_indicator_revision_dfm_full_kalman_em,2021:Q2,6.116838844301105,2973.0280207500227
exact,pre_advance,A,ar,joint_indicator_revision_dfm_full_kalman_em,2021:Q3,-6.003062394786897,2967.024958355236
exact,pre_advance,A,ar,joint_indicator_revision_dfm_full_kalman_em,2021:Q4,13.87967696326248,2980.9046353184985
exact,pre_advance,A,ar,joint_indicator_revision_dfm_full_kalman_em,2022:Q1,-27.923004590522297,2952.981630727976
exact,pre_advance,A,ar,joint_indicator_revision_dfm_full_kalman_em,2022:Q2,-10.266957061086876,2942.714673666889
exact,pre_advance,A,ar,joint_indicator_revision_dfm_full_kalman_em,2022:Q3,0.017207814942348666,2942.7318814818314
exact,pre_advance,A,ar,joint_indicator_revision_dfm_full_kalman_em,2022:Q4,-1.5171301293902393,2941.214751352441
exact,pre_advance,A,ar,joint_indicator_revision_dfm_full_kalman_em,2023:Q1,-1.2461257009682218,2939.968625651473
exact,pre_advance,A,ar,joint_indicator_revision_dfm_full_kalman_em,2023:Q2,-0.10516105820958144,2939.8634645932634
exact,pre_advance,A,ar,joint_indicator_revision_dfm_full_kalman_em,2023:Q3,-2.7046953505053315,2937.158769242758
exact,pre_advance,A,ar,joint_indicator_revision_dfm_full_kalman_em,2023:Q4,-0.7725712873849269,2936.386197955373
exact,pre_advance,A,ar,joint_indicator_revision_dfm_full_kalman_em,2024:Q1,0.868248746721006,2937.254446702094
exact,pre_advance,A,ar,joint_indicator_revision_dfm_full_kalman_em,2024:Q2,-1.3224251112463519,2935.9320215908474
exact,pre_advance,A,ar,joint_indicator_revision_dfm_full_kalman_em,2024:Q3,-1.0910644202979747,2934.8409571705492
exact,pre_advance,A,ar,joint_indicator_revision_dfm_full_kalman_em,2024:Q4,-0.05863908065224775,2934.782318089897
exact,pre_advance,A,ar,midas_umidas,2005:Q1,-187.6199151665184,-187.6199151665184
exact,pre_advance,A,ar,midas_umidas,2005:Q2,-221.40714001951997,-409.0270551860384
exact,pre_advance,A,ar,midas_umidas,2005:Q3,-286.1498872043989,-695.1769423904373
exact,pre_advance,A,ar,midas_umidas,2005:Q4,-121.10249273451387,-816.2794351249511
exact,pre_advance,A,ar,midas_umidas,2006:Q1,-416.6870798629993,-1232.9665149879504
exact,pre_advance,A,ar,midas_umidas,2006:Q2,-219.90095661332757,-1452.8674716012779
exact,pre_advance,A,ar,midas_umidas,2006:Q3,-16.762423352507025,-1469.629894953785
exact,pre_advance,A,ar,midas_umidas,2006:Q4,-19.797858160134435,-1489.4277531139194
exact,pre_advance,A,ar,midas_umidas,2007:Q1,-18.208297323335493,-1507.6360504372549
exact,pre_advance,A,ar,midas_umidas,2007:Q2,-90.46093777998257,-1598.0969882172374
exact,pre_advance,A,ar,midas_umidas,2007:Q3,-331.1259104236887,-1929.2228986409261
exact,pre_advance,A,ar,midas_umidas,2007:Q4,-28.7438112194976,-1957.9667098604236
exact,pre_advance,A,ar,midas_umidas,2008:Q1,-109.21614314991803,-2067.1828530103417
exact,pre_advance,A,ar,midas_umidas,2008:Q2,-565.4112016092611,-2632.5940546196025
exact,pre_advance,A,ar,midas_umidas,2008:Q3,-58.186597073757085,-2690.7806516933597
exact,pre_advance,A,ar,midas_umidas,2008:Q4,-32.728163358606764,-2723.5088150519664
exact,pre_advance,A,ar,midas_umidas,2009:Q1,8.583597191716123,-2714.92521786025
exact,pre_advance,A,ar,midas_umidas,2009:Q2,-53.39885734537558,-2768.324075205626
exact,pre_advance,A,ar,midas_umidas,2009:Q3,-303.9722662121401,-3072.2963414177657
exact,pre_advance,A,ar,midas_umidas,2009:Q4,-64.51058242069575,-3136.8069238384614
exact,pre_advance,A,ar,midas_umidas,2010:Q1,0.5983576798340858,-3136.2085661586275
exact,pre_advance,A,ar,midas_umidas,2010:Q2,-15.990555884620134,-3152.199122043248
exact,pre_advance,A,ar,midas_umidas,2010:Q3,-307.6546954204589,-3459.853817463707
exact,pre_advance,A,ar,midas_umidas,2010:Q4,-38.15978341146515,-3498.013600875172
exact,pre_advance,A,ar,midas_umidas,2011:Q1,-92.03290211782502,-3590.046502992997
exact,pre_advance,A,ar,midas_umidas,2011:Q2,-306.02198228956087,-3896.068485282558
exact,pre_advance,A,ar,midas_umidas,2011:Q3,-32.87401376606293,-3928.942499048621
exact,pre_advance,A,ar,midas_umidas,2011:Q4,-371.54817852718503,-4300.490677575806
exact,pre_advance,A,ar,midas_umidas,2012:Q1,-122.74567380920654,-4423.236351385013
exact,pre_advance,A,ar,midas_umidas,2012:Q2,-29.88797422631989,-4453.124325611333
exact,pre_advance,A,ar,midas_umidas,2012:Q3,-25.05258481143651,-4478.17691042277
exact,pre_advance,A,ar,midas_umidas,2012:Q4,-236.931833593097,-4715.108744015866
exact,pre_advance,A,ar,midas_umidas,2013:Q1,-289.46108812641023,-5004.569832142277
exact,pre_advance,A,ar,midas_umidas,2013:Q2,-166.00409066325903,-5170.573922805536
exact,pre_advance,A,ar,midas_umidas,2013:Q3,-133.94421055689523,-5304.518133362431
exact,pre_advance,A,ar,midas_umidas,2013:Q4,0.1844370828420358,-5304.333696279589
exact,pre_advance,A,ar,midas_umidas,2014:Q1,-24.41104941800282,-5328.744745697592
exact,pre_advance,A,ar,midas_umidas,2014:Q2,-6.904915448098296,-5335.6496611456905
exact,pre_advance,A,ar,midas_umidas,2014:Q3,-128.28898106590654,-5463.938642211597
exact,pre_advance,A,ar,midas_umidas,2014:Q4,0.023543689470378798,-5463.915098522127
exact,pre_advance,A,ar,midas_umidas,2015:Q1,-16.38452558657465,-5480.299624108701
exact,pre_advance,A,ar,midas_umidas,2015:Q2,-85.02922229388085,-5565.328846402582
exact,pre_advance,A,ar,midas_umidas,2015:Q3,-1.344957788895401,-5566.673804191477
exact,pre_advance,A,ar,midas_umidas,2015:Q4,-43.10958890173534,-5609.783393093212
exact,pre_advance,A,ar,midas_umidas,2016:Q1,1.120103032854391,-5608.663290060357
exact,pre_advance,A,ar,midas_umidas,2016:Q2,-0.666491131098135,-5609.329781191455
exact,pre_advance,A,ar,midas_umidas,2016:Q3,-25.335260654313558,-5634.665041845769
exact,pre_advance,A,ar,midas_umidas,2016:Q4,-11.497059059703457,-5646.1621009054725
exact,pre_advance,A,ar,midas_umidas,2017:Q1,-6.0698612183336405,-5652.231962123806
exact,pre_advance,A,ar,midas_umidas,2017:Q2,0.9452815682099636,-5651.286680555596
exact,pre_advance,A,ar,midas_umidas,2017:Q3,-0.41404128561245446,-5651.700721841208
exact,pre_advance,A,ar,midas_umidas,2017:Q4,-0.13420448164651677,-5651.834926322855
exact,pre_advance,A,ar,midas_umidas,2018:Q1,-3.997257024537364,-5655.832183347392
exact,pre_advance,A,ar,midas_umidas,2018:Q2,-18.26889602605065,-5674.101079373442
exact,pre_advance,A,ar,midas_umidas,2018:Q3,-2.021495069425829,-5676.122574442868
exact,pre_advance,A,ar,midas_umidas,2018:Q4,-0.8432647553047836,-5676.965839198173
exact,pre_advance,A,ar,midas_umidas,2019:Q1,-2.440618721248274,-5679.406457919421
exact,pre_advance,A,ar,midas_umidas,2019:Q2,-0.31022506279469664,-5679.716682982215
exact,pre_advance,A,ar,midas_umidas,2019:Q3,-0.5704491640055204,-5680.287132146221
exact,pre_advance,A,ar,midas_umidas,2019:Q4,-3.737028164518225,-5684.024160310739
exact,pre_advance,A,ar,midas_umidas,2020:Q1,-88.42740718615849,-5772.451567496897
exact,pre_advance,A,ar,midas_umidas,2020:Q2,-3056.4598925313708,-8828.911460028268
exact,pre_advance,A,ar,midas_umidas,2020:Q3,-1182.785561973823,-10011.697022002092
exact,pre_advance,A,ar,midas_umidas,2020:Q4,-9.845816644277923,-10021.54283864637
exact,pre_advance,A,ar,midas_umidas,2021:Q1,-8.101390902857082,-10029.644229549227
exact,pre_advance,A,ar,midas_umidas,2021:Q2,12.942854477099132,-10016.701375072127
exact,pre_advance,A,ar,midas_umidas,2021:Q3,-36.10650263151161,-10052.807877703639
exact,pre_advance,A,ar,midas_umidas,2021:Q4,-50.137724068774205,-10102.945601772413
exact,pre_advance,A,ar,midas_umidas,2022:Q1,11.516273142384971,-10091.429328630029
exact,pre_advance,A,ar,midas_umidas,2022:Q2,-81.47208354712295,-10172.901412177152
exact,pre_advance,A,ar,midas_umidas,2022:Q3,-10.828589581410352,-10183.730001758562
exact,pre_advance,A,ar,midas_umidas,2022:Q4,-26.164088543113238,-10209.894090301676
exact,pre_advance,A,ar,midas_umidas,2023:Q1,0.983950925470207,-10208.910139376205
exact,pre_advance,A,ar,midas_umidas,2023:Q2,-4.190128232118229,-10213.100267608323
exact,pre_advance,A,ar,midas_umidas,2023:Q3,5.646110506615621,-10207.454157101707
exact,pre_advance,A,ar,midas_umidas,2023:Q4,-0.5226186986627077,-10207.976775800369
exact,pre_advance,A,ar,midas_umidas,2024:Q1,-6.858121252587646,-10214.834897052957
exact,pre_advance,A,ar,midas_umidas,2024:Q2,-0.00908849640029552,-10214.843985549358
exact,pre_advance,A,ar,midas_umidas,2024:Q3,-3.39415843192423,-10218.238143981282
exact,pre_advance,A,ar,midas_umidas,2024:Q4,0.053104823491226846,-10218.18503915779
exact,pre_advance,A,ar,monthly_mixed_frequency_kalman_em,2005:Q1,-2.188770614946985,-2.188770614946985
exact,pre_advance,A,ar,monthly_mixed_frequency_kalman_em,2005:Q2,0.17769122295588494,-2.0110793919911
exact,pre_advance,A,ar,monthly_mixed_frequency_kalman_em,2005:Q3,-8.906803893860426,-10.917883285851525
exact,pre_advance,A,ar,monthly_mixed_frequency_kalman_em,2005:Q4,-19.16777042176688,-30.085653707618405
exact,pre_advance,A,ar,monthly_mixed_frequency_kalman_em,2006:Q1,4.902121919116585,-25.18353178850182
exact,pre_advance,A,ar,monthly_mixed_frequency_kalman_em,2006:Q2,-4.327415400291556,-29.510947188793377
exact,pre_advance,A,ar,monthly_mixed_frequency_kalman_em,2006:Q3,0.9983114748424775,-28.5126357139509
exact,pre_advance,A,ar,monthly_mixed_frequency_kalman_em,2006:Q4,-2.5260651383912496,-31.03870085234215
exact,pre_advance,A,ar,monthly_mixed_frequency_kalman_em,2007:Q1,-2.4676435599438387,-33.50634441228599
exact,pre_advance,A,ar,monthly_mixed_frequency_kalman_em,2007:Q2,0.7979219438103493,-32.70842246847564
exact,pre_advance,A,ar,monthly_mixed_frequency_kalman_em,2007:Q3,0.23237747842233758,-32.4760449900533
exact,pre_advance,A,ar,monthly_mixed_frequency_kalman_em,2007:Q4,6.960900803082648,-25.515144186970655
exact,pre_advance,A,ar,monthly_mixed_frequency_kalman_em,2008:Q1,1.2074907826555228,-24.307653404315133
exact,pre_advance,A,ar,monthly_mixed_frequency_kalman_em,2008:Q2,-1.7764026599957186,-26.08405606431085
exact,pre_advance,A,ar,monthly_mixed_frequency_kalman_em,2008:Q3,-11.12134675923242,-37.20540282354327
exact,pre_advance,A,ar,monthly_mixed_frequency_kalman_em,2008:Q4,17.803664862037802,-19.401737961505464
exact,pre_advance,A,ar,monthly_mixed_frequency_kalman_em,2009:Q1,-5.203181853581263,-24.604919815086728
exact,pre_advance,A,ar,monthly_mixed_frequency_kalman_em,2009:Q2,-0.7457627369779644,-25.350682552064693
exact,pre_advance,A,ar,monthly_mixed_frequency_kalman_em,2009:Q3,-1.5301298346972825,-26.880812386761974
exact,pre_advance,A,ar,monthly_mixed_frequency_kalman_em,2009:Q4,1.7415528409300522,-25.139259545831923
exact,pre_advance,A,ar,monthly_mixed_frequency_kalman_em,2010:Q1,0.1365463843246415,-25.00271316150728
exact,pre_advance,A,ar,monthly_mixed_frequency_kalman_em,2010:Q2,-1.5354485139446596,-26.53816167545194
exact,pre_advance,A,ar,monthly_mixed_frequency_kalman_em,2010:Q3,0.15673388265209479,-26.381427792799844
exact,pre_advance,A,ar,monthly_mixed_frequency_kalman_em,2010:Q4,0.73530646286691,-25.646121329932935
exact,pre_advance,A,ar,monthly_mixed_frequency_kalman_em,2011:Q1,-6.567182063826211,-32.21330339375915
exact,pre_advance,A,ar,monthly_mixed_frequency_kalman_em,2011:Q2,-1.316568495177525,-33.529871888936675
exact,pre_advance,A,ar,monthly_mixed_frequency_kalman_em,2011:Q3,0.260363451898794,-33.26950843703788
exact,pre_advance,A,ar,monthly_mixed_frequency_kalman_em,2011:Q4,-0.9448113270349506,-34.214319764072826
exact,pre_advance,A,ar,monthly_mixed_frequency_kalman_em,2012:Q1,-2.102792845252826,-36.317112609325655
exact,pre_advance,A,ar,monthly_mixed_frequency_kalman_em,2012:Q2,-0.25052062431204825,-36.5676332336377
exact,pre_advance,A,ar,monthly_mixed_frequency_kalman_em,2012:Q3,-0.6930618533472567,-37.26069508698496
exact,pre_advance,A,ar,monthly_mixed_frequency_kalman_em,2012:Q4,-7.037393152180957,-44.29808823916592
exact,pre_advance,A,ar,monthly_mixed_frequency_kalman_em,2013:Q1,1.5681659671553732,-42.72992227201055
exact,pre_advance,A,ar,monthly_mixed_frequency_kalman_em,2013:Q2,-0.2212600339873062,-42.951182305997854
exact,pre_advance,A,ar,monthly_mixed_frequency_kalman_em,2013:Q3,0.5427048760581562,-42.4084774299397
exact,pre_advance,A,ar,monthly_mixed_frequency_kalman_em,2013:Q4,-0.2693535956657465,-42.67783102560545
exact,pre_advance,A,ar,monthly_mixed_frequency_kalman_em,2014:Q1,-3.0930633946909225,-45.77089442029637
exact,pre_advance,A,ar,monthly_mixed_frequency_kalman_em,2014:Q2,6.951105465379107,-38.819788954917264
exact,pre_advance,A,ar,monthly_mixed_frequency_kalman_em,2014:Q3,-0.5434338859775449,-39.36322284089481
exact,pre_advance,A,ar,monthly_mixed_frequency_kalman_em,2014:Q4,-0.6584343001479265,-40.02165714104273
exact,pre_advance,A,ar,monthly_mixed_frequency_kalman_em,2015:Q1,3.409232659199104,-36.612424481843625
exact,pre_advance,A,ar,monthly_mixed_frequency_kalman_em,2015:Q2,0.8452980417019582,-35.767126440141666
exact,pre_advance,A,ar,monthly_mixed_frequency_kalman_em,2015:Q3,-0.020172686776765203,-35.787299126918434
exact,pre_advance,A,ar,monthly_mixed_frequency_kalman_em,2015:Q4,1.025320860465542,-34.76197826645289
exact,pre_advance,A,ar,monthly_mixed_frequency_kalman_em,2016:Q1,0.2703994533981843,-34.49157881305471
exact,pre_advance,A,ar,monthly_mixed_frequency_kalman_em,2016:Q2,-1.0232812791832693,-35.51486009223798
exact,pre_advance,A,ar,monthly_mixed_frequency_kalman_em,2016:Q3,0.7788773495111782,-34.735982742726804
exact,pre_advance,A,ar,monthly_mixed_frequency_kalman_em,2016:Q4,0.40030889483071064,-34.335673847896096
exact,pre_advance,A,ar,monthly_mixed_frequency_kalman_em,2017:Q1,-2.5620381650396866,-36.897712012935784
exact,pre_advance,A,ar,monthly_mixed_frequency_kalman_em,2017:Q2,0.8230890646158548,-36.07462294831993
exact,pre_advance,A,ar,monthly_mixed_frequency_kalman_em,2017:Q3,-0.448560658306594,-36.523183606626525
exact,pre_advance,A,ar,monthly_mixed_frequency_kalman_em,2017:Q4,-1.7796424799532826,-38.302826086579806
exact,pre_advance,A,ar,monthly_mixed_frequency_kalman_em,2018:Q1,-2.428363555755041,-40.73118964233485
exact,pre_advance,A,ar,monthly_mixed_frequency_kalman_em,2018:Q2,2.0687745852635353,-38.662415057071314
exact,pre_advance,A,ar,monthly_mixed_frequency_kalman_em,2018:Q3,0.026525252215587367,-38.63588980485573
exact,pre_advance,A,ar,monthly_mixed_frequency_kalman_em,2018:Q4,-0.09365765240167698,-38.729547457257404
exact,pre_advance,A,ar,monthly_mixed_frequency_kalman_em,2019:Q1,-1.3979166423192089,-40.12746409957661
exact,pre_advance,A,ar,monthly_mixed_frequency_kalman_em,2019:Q2,0.5867545038969425,-39.54070959567967
exact,pre_advance,A,ar,monthly_mixed_frequency_kalman_em,2019:Q3,-0.10448124821302018,-39.64519084389269
exact,pre_advance,A,ar,monthly_mixed_frequency_kalman_em,2019:Q4,-0.012678919412399129,-39.657869763305094
exact,pre_advance,A,ar,monthly_mixed_frequency_kalman_em,2020:Q1,34.16239146218322,-5.495478301121871
exact,pre_advance,A,ar,monthly_mixed_frequency_kalman_em,2020:Q2,131.54177825640102,126.04629995527915
exact,pre_advance,A,ar,monthly_mixed_frequency_kalman_em,2020:Q3,2326.890927692195,2452.937227647474
exact,pre_advance,A,ar,monthly_mixed_frequency_kalman_em,2020:Q4,-2.8540249734146816,2450.0832026740595
exact,pre_advance,A,ar,monthly_mixed_frequency_kalman_em,2021:Q1,-65.6515543046093,2384.43164836945
exact,pre_advance,A,ar,monthly_mixed_frequency_kalman_em,2021:Q2,13.970201570019334,2398.4018499394697
exact,pre_advance,A,ar,monthly_mixed_frequency_kalman_em,2021:Q3,-1.5933449450918635,2396.808504994378
exact,pre_advance,A,ar,monthly_mixed_frequency_kalman_em,2021:Q4,7.6234697539438745,2404.431974748322
exact,pre_advance,A,ar,monthly_mixed_frequency_kalman_em,2022:Q1,-38.20712459819668,2366.2248501501253
exact,pre_advance,A,ar,monthly_mixed_frequency_kalman_em,2022:Q2,-15.785716240677571,2350.4391339094477
exact,pre_advance,A,ar,monthly_mixed_frequency_kalman_em,2022:Q3,-0.5640159520001797,2349.8751179574474
exact,pre_advance,A,ar,monthly_mixed_frequency_kalman_em,2022:Q4,-1.8570485456414925,2348.0180694118058
exact,pre_advance,A,ar,monthly_mixed_frequency_kalman_em,2023:Q1,2.064451154491259,2350.082520566297
exact,pre_advance,A,ar,monthly_mixed_frequency_kalman_em,2023:Q2,-0.19118021067787294,2349.891340355619
exact,pre_advance,A,ar,monthly_mixed_frequency_kalman_em,2023:Q3,0.7326715409065843,2350.6240118965256
exact,pre_advance,A,ar,monthly_mixed_frequency_kalman_em,2023:Q4,-7.372519364196593,2343.251492532329
exact,pre_advance,A,ar,monthly_mixed_frequency_kalman_em,2024:Q1,-0.0175221358851968,2343.233970396444
exact,pre_advance,A,ar,monthly_mixed_frequency_kalman_em,2024:Q2,-1.5236913635295026,2341.7102790329145
exact,pre_advance,A,ar,monthly_mixed_frequency_kalman_em,2024:Q3,-1.3913837390268649,2340.3188952938876
exact,pre_advance,A,ar,monthly_mixed_frequency_kalman_em,2024:Q4,-0.9649501478891838,2339.3539451459983
exact,pre_advance,A,ar,no_revision,2005:Q1,0.01829276874886654,0.01829276874886654
exact,pre_advance,A,ar,no_revision,2005:Q2,-0.010434082728868699,0.00785868601999784
exact,pre_advance,A,ar,no_revision,2005:Q3,0.04475723724217473,0.05261592326217257
exact,pre_advance,A,ar,no_revision,2005:Q4,-0.005897102113586961,0.04671882114858561
exact,pre_advance,A,ar,no_revision,2006:Q1,0.14435758559098844,0.19107640673957405
exact,pre_advance,A,ar,no_revision,2006:Q2,0.10645890996238783,0.29753531670196187
exact,pre_advance,A,ar,no_revision,2006:Q3,-0.24152679339726402,0.056008523304697855
exact,pre_advance,A,ar,no_revision,2006:Q4,-0.30824079892148304,-0.2522322756167852
exact,pre_advance,A,ar,no_revision,2007:Q1,-0.23848279984936216,-0.49071507546614734
exact,pre_advance,A,ar,no_revision,2007:Q2,0.05512019812272051,-0.43559487734342683
exact,pre_advance,A,ar,no_revision,2007:Q3,-0.19969014430791188,-0.6352850216513387
exact,pre_advance,A,ar,no_revision,2007:Q4,-0.15567398880635874,-0.7909590104576975
exact,pre_advance,A,ar,no_revision,2008:Q1,0.05559234221203191,-0.7353666682456655
exact,pre_advance,A,ar,no_revision,2008:Q2,0.004622952477093177,-0.7307437157685723
exact,pre_advance,A,ar,no_revision,2008:Q3,-0.15221627551749783,-0.8829599912860702
exact,pre_advance,A,ar,no_revision,2008:Q4,0.5818162017862143,-0.3011437894998559
exact,pre_advance,A,ar,no_revision,2009:Q1,0.45423321116048854,0.15308942166063266
exact,pre_advance,A,ar,no_revision,2009:Q2,0.013307526119774815,0.16639694778040748
exact,pre_advance,A,ar,no_revision,2009:Q3,-1.023992772227114,-0.8575958244467066
exact,pre_advance,A,ar,no_revision,2009:Q4,-1.4621885824992091,-2.3197844069459155
exact,pre_advance,A,ar,no_revision,2010:Q1,0.5154181563893694,-1.804366250556546
exact,pre_advance,A,ar,no_revision,2010:Q2,0.1815894544157976,-1.6227767961407484
exact,pre_advance,A,ar,no_revision,2010:Q3,0.02901155984276077,-1.5937652362979877
exact,pre_advance,A,ar,no_revision,2010:Q4,0.21335030884274386,-1.3804149274552437
exact,pre_advance,A,ar,no_revision,2011:Q1,-0.06757887593352563,-1.4479938033887694
exact,pre_advance,A,ar,no_revision,2011:Q2,0.0202217337142232,-1.4277720696745462
exact,pre_advance,A,ar,no_revision,2011:Q3,-0.052984459561723096,-1.4807565292362692
exact,pre_advance,A,ar,no_revision,2011:Q4,0.01895665554257433,-1.4617998736936948
exact,pre_advance,A,ar,no_revision,2012:Q1,0.02232353618393504,-1.4394763375097597
exact,pre_advance,A,ar,no_revision,2012:Q2,0.11942453052189395,-1.3200518069878657
exact,pre_advance,A,ar,no_revision,2012:Q3,0.0006349170808925357,-1.3194168899069731
exact,pre_advance,A,ar,no_revision,2012:Q4,-0.06262090931865316,-1.3820377992256263
exact,pre_advance,A,ar,no_revision,2013:Q1,-0.008932871015000954,-1.3909706702406273
exact,pre_advance,A,ar,no_revision,2013:Q2,0.06324061631598044,-1.3277300539246468
exact,pre_advance,A,ar,no_revision,2013:Q3,0.0315667756852992,-1.2961632782393475
exact,pre_advance,A,ar,no_revision,2013:Q4,-0.17688786721241778,-1.4730511454517652
exact,pre_advance,A,ar,no_revision,2014:Q1,-0.02480433967617479,-1.49785548512794
exact,pre_advance,A,ar,no_revision,2014:Q2,-0.3039643587409291,-1.801819843868869
exact,pre_advance,A,ar,no_revision,2014:Q3,-0.01009808842494786,-1.811917932293817
exact,pre_advance,A,ar,no_revision,2014:Q4,-0.053005079780955394,-1.8649230120747724
exact,pre_advance,A,ar,no_revision,2015:Q1,0.67193818782102,-1.1929848242537524
exact,pre_advance,A,ar,no_revision,2015:Q2,0.08197493566980374,-1.1110098885839488
exact,pre_advance,A,ar,no_revision,2015:Q3,-0.08264742175217066,-1.1936573103361194
exact,pre_advance,A,ar,no_revision,2015:Q4,-0.12441534043486313,-1.3180726507709826
exact,pre_advance,A,ar,no_revision,2016:Q1,0.2275952927293533,-1.0904773580416292
exact,pre_advance,A,ar,no_revision,2016:Q2,-0.0046545719231812915,-1.0951319299648103
exact,pre_advance,A,ar,no_revision,2016:Q3,-0.04584231925914617,-1.1409742492239565
exact,pre_advance,A,ar,no_revision,2016:Q4,0.10114230910276367,-1.0398319401211928
exact,pre_advance,A,ar,no_revision,2017:Q1,0.246574617300388,-0.7932573228208049
exact,pre_advance,A,ar,no_revision,2017:Q2,-0.15926574147033767,-0.9525230642911425
exact,pre_advance,A,ar,no_revision,2017:Q3,0.022454236955837703,-0.9300688273353048
exact,pre_advance,A,ar,no_revision,2017:Q4,0.004727701091471227,-0.9253411262438336
exact,pre_advance,A,ar,no_revision,2018:Q1,0.03223932073775865,-0.8931018055060749
exact,pre_advance,A,ar,no_revision,2018:Q2,-0.05012498584200742,-0.9432267913480823
exact,pre_advance,A,ar,no_revision,2018:Q3,0.0040716179457951085,-0.9391551734022872
exact,pre_advance,A,ar,no_revision,2018:Q4,0.0107967518642271,-0.92835842153806
exact,pre_advance,A,ar,no_revision,2019:Q1,-0.06475700376940074,-0.9931154253074608
exact,pre_advance,A,ar,no_revision,2019:Q2,-0.08251128198875868,-1.0756267072962196
exact,pre_advance,A,ar,no_revision,2019:Q3,-0.02873654465966108,-1.1043632519558806
exact,pre_advance,A,ar,no_revision,2019:Q4,0.0032282376299231016,-1.1011350143259575
exact,pre_advance,A,ar,no_revision,2020:Q1,-0.47755925650978526,-1.5786942708357428
exact,pre_advance,A,ar,no_revision,2020:Q2,-0.5667662532794111,-2.145460524115154
exact,pre_advance,A,ar,no_revision,2020:Q3,-57.60016029331837,-59.74562081743352
exact,pre_advance,A,ar,no_revision,2020:Q4,-40.65854856282156,-100.40416938025507
exact,pre_advance,A,ar,no_revision,2021:Q1,-27.79553131153419,-128.19970069178925
exact,pre_advance,A,ar,no_revision,2021:Q2,-24.119251842538425,-152.31895253432768
exact,pre_advance,A,ar,no_revision,2021:Q3,-0.30877510409469244,-152.62772763842236
exact,pre_advance,A,ar,no_revision,2021:Q4,3.7679008571371924,-148.85982678128516
exact,pre_advance,A,ar,no_revision,2022:Q1,-0.5234667865097897,-149.38329356779496
exact,pre_advance,A,ar,no_revision,2022:Q2,-1.9855199282110494,-151.36881349600603
exact,pre_advance,A,ar,no_revision,2022:Q3,-0.033925124700511525,-151.40273862070654
exact,pre_advance,A,ar,no_revision,2022:Q4,-0.7384306425890252,-152.14116926329558
exact,pre_advance,A,ar,no_revision,2023:Q1,0.371137610273619,-151.77003165302196
exact,pre_advance,A,ar,no_revision,2023:Q2,-0.00528125482766627,-151.77531290784964
exact,pre_advance,A,ar,no_revision,2023:Q3,-0.5551736828791194,-152.33048659072875
exact,pre_advance,A,ar,no_revision,2023:Q4,-0.20210030709286464,-152.53258689782163
exact,pre_advance,A,ar,no_revision,2024:Q1,-0.31218151521482485,-152.84476841303646
exact,pre_advance,A,ar,no_revision,2024:Q2,0.0978852185130688,-152.7468831945234
exact,pre_advance,A,ar,no_revision,2024:Q3,-0.06291573213851451,-152.80979892666193
exact,pre_advance,A,ar,no_revision,2024:Q4,0.026146771737672124,-152.78365215492425
exact,pre_advance,A,ar,release_dfm,2005:Q1,0.005557468690040701,0.005557468690040701
exact,pre_advance,A,ar,release_dfm,2005:Q2,0.17688600917079522,0.18244347786083592
exact,pre_advance,A,ar,release_dfm,2005:Q3,-0.5496284026543578,-0.3671849247935218
exact,pre_advance,A,ar,release_dfm,2005:Q4,-1.598510703674827,-1.9656956284683487
exact,pre_advance,A,ar,release_dfm,2006:Q1,5.895364834230374,3.9296692057620257
exact,pre_advance,A,ar,release_dfm,2006:Q2,0.6326591475203756,4.5623283532824015
exact,pre_advance,A,ar,release_dfm,2006:Q3,-1.1815536331980458,3.3807747200843554
exact,pre_advance,A,ar,release_dfm,2006:Q4,-0.08961491202374061,3.291159808060615
exact,pre_advance,A,ar,release_dfm,2007:Q1,2.277615211128804,5.5687750191894185
exact,pre_advance,A,ar,release_dfm,2007:Q2,1.5721987404672848,7.140973759656704
exact,pre_advance,A,ar,release_dfm,2007:Q3,-0.9325969815824826,6.208376778074221
exact,pre_advance,A,ar,release_dfm,2007:Q4,5.619451697130961,11.827828475205182
exact,pre_advance,A,ar,release_dfm,2008:Q1,0.4071777558322208,12.235006231037403
exact,pre_advance,A,ar,release_dfm,2008:Q2,-0.1485463181038612,12.086459912933542
exact,pre_advance,A,ar,release_dfm,2008:Q3,5.4603986995371985,17.54685861247074
exact,pre_advance,A,ar,release_dfm,2008:Q4,25.320902423246768,42.86776103571751
exact,pre_advance,A,ar,release_dfm,2009:Q1,26.898920136255693,69.7666811719732
exact,pre_advance,A,ar,release_dfm,2009:Q2,0.6708675600601806,70.43754873203338
exact,pre_advance,A,ar,release_dfm,2009:Q3,7.624685900987867,78.06223463302125
exact,pre_advance,A,ar,release_dfm,2009:Q4,-0.05460311648701044,78.00763151653423
exact,pre_advance,A,ar,release_dfm,2010:Q1,-1.383510722457672,76.62412079407656
exact,pre_advance,A,ar,release_dfm,2010:Q2,-0.9692400609140532,75.65488073316251
exact,pre_advance,A,ar,release_dfm,2010:Q3,-0.16499710555444946,75.48988362760807
exact,pre_advance,A,ar,release_dfm,2010:Q4,0.42205119712596945,75.91193482473403
exact,pre_advance,A,ar,release_dfm,2011:Q1,-7.478070769233071,68.43386405550096
exact,pre_advance,A,ar,release_dfm,2011:Q2,-1.2601790103089012,67.17368504519206
exact,pre_advance,A,ar,release_dfm,2011:Q3,0.169691482379295,67.34337652757135
exact,pre_advance,A,ar,release_dfm,2011:Q4,-0.5786066882143093,66.76476983935704
exact,pre_advance,A,ar,release_dfm,2012:Q1,-2.2457574597114895,64.51901237964556
exact,pre_advance,A,ar,release_dfm,2012:Q2,-0.29124857939303794,64.22776380025252
exact,pre_advance,A,ar,release_dfm,2012:Q3,-0.2875970641695967,63.94016673608292
exact,pre_advance,A,ar,release_dfm,2012:Q4,-7.029358035026668,56.910808701056254
exact,pre_advance,A,ar,release_dfm,2013:Q1,1.5366394988358547,58.44744819989211
exact,pre_advance,A,ar,release_dfm,2013:Q2,-0.6193290521110049,57.8281191477811
exact,pre_advance,A,ar,release_dfm,2013:Q3,0.5116495142349746,58.33976866201608
exact,pre_advance,A,ar,release_dfm,2013:Q4,0.1881211670679197,58.527889829083996
exact,pre_advance,A,ar,release_dfm,2014:Q1,2.2611836602781894,60.78907348936219
exact,pre_advance,A,ar,release_dfm,2014:Q2,6.950285300050513,67.7393587894127
exact,pre_advance,A,ar,release_dfm,2014:Q3,-0.23970610456213043,67.49965268485057
exact,pre_advance,A,ar,release_dfm,2014:Q4,0.15993158149245626,67.65958426634303
exact,pre_advance,A,ar,release_dfm,2015:Q1,3.458441162000213,71.11802542834324
exact,pre_advance,A,ar,release_dfm,2015:Q2,0.608188766440848,71.72621419478409
exact,pre_advance,A,ar,release_dfm,2015:Q3,-0.49388308416577154,71.23233111061832
exact,pre_advance,A,ar,release_dfm,2015:Q4,-0.199694963921353,71.03263614669696
exact,pre_advance,A,ar,release_dfm,2016:Q1,-1.3432215168252546,69.6894146298717
exact,pre_advance,A,ar,release_dfm,2016:Q2,-0.9852587561590919,68.70415587371261
exact,pre_advance,A,ar,release_dfm,2016:Q3,0.8086089264622582,69.51276480017486
exact,pre_advance,A,ar,release_dfm,2016:Q4,-0.9426756961184087,68.57008910405645
exact,pre_advance,A,ar,release_dfm,2017:Q1,-2.1563377782168547,66.4137513258396
exact,pre_advance,A,ar,release_dfm,2017:Q2,0.8839097043219548,67.29766103016155
exact,pre_advance,A,ar,release_dfm,2017:Q3,-0.4498136888489407,66.84784734131262
exact,pre_advance,A,ar,release_dfm,2017:Q4,-1.472453224608988,65.37539411670363
exact,pre_advance,A,ar,release_dfm,2018:Q1,-1.1961916583162755,64.17920245838735
exact,pre_advance,A,ar,release_dfm,2018:Q2,0.7936938430062765,64.97289630139363
exact,pre_advance,A,ar,release_dfm,2018:Q3,-0.1781213138623781,64.79477498753126
exact,pre_advance,A,ar,release_dfm,2018:Q4,0.16398670734271426,64.95876169487397
exact,pre_advance,A,ar,release_dfm,2019:Q1,-1.3737634057761716,63.5849982890978
exact,pre_advance,A,ar,release_dfm,2019:Q2,0.5864738210399745,64.17147211013777
exact,pre_advance,A,ar,release_dfm,2019:Q3,-0.04636784297867397,64.1251042671591
exact,pre_advance,A,ar,release_dfm,2019:Q4,-0.009652078071393923,64.1154521890877
exact,pre_advance,A,ar,release_dfm,2020:Q1,20.78770088725128,84.90315307633898
exact,pre_advance,A,ar,release_dfm,2020:Q2,712.4929959502997,797.3961490266387
exact,pre_advance,A,ar,release_dfm,2020:Q3,2567.0847497712384,3364.480898797877
exact,pre_advance,A,ar,release_dfm,2020:Q4,-9.760194583218505,3354.720704214659
exact,pre_advance,A,ar,release_dfm,2021:Q1,14.717586220885224,3369.438290435544
exact,pre_advance,A,ar,release_dfm,2021:Q2,11.250739364102031,3380.689029799646
exact,pre_advance,A,ar,release_dfm,2021:Q3,-1.552906580913287,3379.136123218733
exact,pre_advance,A,ar,release_dfm,2021:Q4,14.115040173354647,3393.2511633920876
exact,pre_advance,A,ar,release_dfm,2022:Q1,-52.79943459352654,3340.451728798561
exact,pre_advance,A,ar,release_dfm,2022:Q2,-12.669399125677783,3327.782329672883
exact,pre_advance,A,ar,release_dfm,2022:Q3,0.01330019348445774,3327.7956298663676
exact,pre_advance,A,ar,release_dfm,2022:Q4,-1.3244838241014658,3326.471146042266
exact,pre_advance,A,ar,release_dfm,2023:Q1,0.6909286887191397,3327.162074730985
exact,pre_advance,A,ar,release_dfm,2023:Q2,-0.12096587289956348,3327.0411088580854
exact,pre_advance,A,ar,release_dfm,2023:Q3,-2.313832963877977,3324.7272758942077
exact,pre_advance,A,ar,release_dfm,2023:Q4,-1.707528374686477,3323.0197475195214
exact,pre_advance,A,ar,release_dfm,2024:Q1,0.4624004308907374,3323.482147950412
exact,pre_advance,A,ar,release_dfm,2024:Q2,0.12983346758590594,3323.611981417998
exact,pre_advance,A,ar,release_dfm,2024:Q3,-0.8060037928736986,3322.8059776251243
exact,pre_advance,A,ar,release_dfm,2024:Q4,0.033129491051418346,3322.839107116176
exact,pre_advance,A,ar,revision_dfm_kalman_em,2005:Q1,0.0072210900252674855,0.0072210900252674855
exact,pre_advance,A,ar,revision_dfm_kalman_em,2005:Q2,-0.3978659320724622,-0.3906448420471947
exact,pre_advance,A,ar,revision_dfm_kalman_em,2005:Q3,-0.9937760963451664,-1.3844209383923611
exact,pre_advance,A,ar,revision_dfm_kalman_em,2005:Q4,-4.928791773326497,-6.313212711718858
exact,pre_advance,A,ar,revision_dfm_kalman_em,2006:Q1,2.844218824736326,-3.468993886982532
exact,pre_advance,A,ar,revision_dfm_kalman_em,2006:Q2,0.3531108678867221,-3.11588301909581
exact,pre_advance,A,ar,revision_dfm_kalman_em,2006:Q3,1.000909606480442,-2.114973412615368
exact,pre_advance,A,ar,revision_dfm_kalman_em,2006:Q4,-6.77764149350097,-8.892614906116338
exact,pre_advance,A,ar,revision_dfm_kalman_em,2007:Q1,-1.3990150745627918,-10.29162998067913
exact,pre_advance,A,ar,revision_dfm_kalman_em,2007:Q2,1.922219260850285,-8.369410719828844
exact,pre_advance,A,ar,revision_dfm_kalman_em,2007:Q3,-1.7653361185521959,-10.134746838381039
exact,pre_advance,A,ar,revision_dfm_kalman_em,2007:Q4,7.00405550650819,-3.130691331872849
exact,pre_advance,A,ar,revision_dfm_kalman_em,2008:Q1,1.2048533742061978,-1.9258379576666511
exact,pre_advance,A,ar,revision_dfm_kalman_em,2008:Q2,-1.7717123284805596,-3.6975502861472105
exact,pre_advance,A,ar,revision_dfm_kalman_em,2008:Q3,6.2507410722716354,2.553190786124425
exact,pre_advance,A,ar,revision_dfm_kalman_em,2008:Q4,12.975311735034452,15.528502521158877
exact,pre_advance,A,ar,revision_dfm_kalman_em,2009:Q1,11.202743139953366,26.731245661112244
exact,pre_advance,A,ar,revision_dfm_kalman_em,2009:Q2,-23.1417519419677,3.589493719144542
exact,pre_advance,A,ar,revision_dfm_kalman_em,2009:Q3,6.916787897470997,10.506281616615539
exact,pre_advance,A,ar,revision_dfm_kalman_em,2009:Q4,4.375592963495912,14.88187458011145
exact,pre_advance,A,ar,revision_dfm_kalman_em,2010:Q1,-8.22935277438333,6.652521805728121
exact,pre_advance,A,ar,revision_dfm_kalman_em,2010:Q2,-4.2116341181581305,2.4408876875699903
exact,pre_advance,A,ar,revision_dfm_kalman_em,2010:Q3,-1.1243298589098036,1.3165578286601867
exact,pre_advance,A,ar,revision_dfm_kalman_em,2010:Q4,-1.2249184733793115,0.09163935528087519
exact,pre_advance,A,ar,revision_dfm_kalman_em,2011:Q1,-15.064900585579176,-14.9732612302983
exact,pre_advance,A,ar,revision_dfm_kalman_em,2011:Q2,0.7152935352542981,-14.257967695044002
exact,pre_advance,A,ar,revision_dfm_kalman_em,2011:Q3,-0.04552542644116303,-14.303493121485165
exact,pre_advance,A,ar,revision_dfm_kalman_em,2011:Q4,-0.45798708215870426,-14.761480203643869
exact,pre_advance,A,ar,revision_dfm_kalman_em,2012:Q1,-2.247893021465332,-17.0093732251092
exact,pre_advance,A,ar,revision_dfm_kalman_em,2012:Q2,0.6728186902155301,-16.336554534893672
exact,pre_advance,A,ar,revision_dfm_kalman_em,2012:Q3,-0.15326148064137676,-16.489816015535048
exact,pre_advance,A,ar,revision_dfm_kalman_em,2012:Q4,-3.5930127375104295,-20.082828753045476
exact,pre_advance,A,ar,revision_dfm_kalman_em,2013:Q1,1.7292925518715305,-18.353536201173945
exact,pre_advance,A,ar,revision_dfm_kalman_em,2013:Q2,0.23629840617515452,-18.11723779499879
exact,pre_advance,A,ar,revision_dfm_kalman_em,2013:Q3,0.27182091752644344,-17.845416877472346
exact,pre_advance,A,ar,revision_dfm_kalman_em,2013:Q4,-0.9361347238367814,-18.781551601309125
exact,pre_advance,A,ar,revision_dfm_kalman_em,2014:Q1,-1.0195348095544574,-19.801086410863583
exact,pre_advance,A,ar,revision_dfm_kalman_em,2014:Q2,6.944814943089,-12.856271467774583
exact,pre_advance,A,ar,revision_dfm_kalman_em,2014:Q3,-0.9765392986778456,-13.832810766452429
exact,pre_advance,A,ar,revision_dfm_kalman_em,2014:Q4,-0.35601693129583517,-14.188827697748264
exact,pre_advance,A,ar,revision_dfm_kalman_em,2015:Q1,5.30788089096657,-8.880946806781694
exact,pre_advance,A,ar,revision_dfm_kalman_em,2015:Q2,0.43721857602728675,-8.443728230754408
exact,pre_advance,A,ar,revision_dfm_kalman_em,2015:Q3,-0.7991695944859691,-9.242897825240377
exact,pre_advance,A,ar,revision_dfm_kalman_em,2015:Q4,1.5654265642037464,-7.67747126103663
exact,pre_advance,A,ar,revision_dfm_kalman_em,2016:Q1,0.8296860057971599,-6.8477852552394705
exact,pre_advance,A,ar,revision_dfm_kalman_em,2016:Q2,-0.32043339067253634,-7.168218645912007
exact,pre_advance,A,ar,revision_dfm_kalman_em,2016:Q3,0.5736815809234668,-6.59453706498854
exact,pre_advance,A,ar,revision_dfm_kalman_em,2016:Q4,-0.14128945266931014,-6.73582651765785
exact,pre_advance,A,ar,revision_dfm_kalman_em,2017:Q1,-0.5952859524967766,-7.331112470154627
exact,pre_advance,A,ar,revision_dfm_kalman_em,2017:Q2,0.8587453941464029,-6.472367076008224
exact,pre_advance,A,ar,revision_dfm_kalman_em,2017:Q3,-5.565762452791528,-12.038129528799752
exact,pre_advance,A,ar,revision_dfm_kalman_em,2017:Q4,-10.984336594006797,-23.02246612280655
exact,pre_advance,A,ar,revision_dfm_kalman_em,2018:Q1,-0.7083102543572816,-23.73077637716383
exact,pre_advance,A,ar,revision_dfm_kalman_em,2018:Q2,2.2321492000286796,-21.498627177135152
exact,pre_advance,A,ar,revision_dfm_kalman_em,2018:Q3,0.049620573112068404,-21.449006604023083
exact,pre_advance,A,ar,revision_dfm_kalman_em,2018:Q4,-0.013181145502679126,-21.46218774952576
exact,pre_advance,A,ar,revision_dfm_kalman_em,2019:Q1,-3.7313083545032417,-25.193496104029002
exact,pre_advance,A,ar,revision_dfm_kalman_em,2019:Q2,0.5890837005333742,-24.604412403495626
exact,pre_advance,A,ar,revision_dfm_kalman_em,2019:Q3,-0.2516038270060664,-24.85601623050169
exact,pre_advance,A,ar,revision_dfm_kalman_em,2019:Q4,-0.5882047925385738,-25.444221023040264
exact,pre_advance,A,ar,revision_dfm_kalman_em,2020:Q1,38.75399236309496,13.309771340054695
exact,pre_advance,A,ar,revision_dfm_kalman_em,2020:Q2,897.5618015298562,910.8715728699109
exact,pre_advance,A,ar,revision_dfm_kalman_em,2020:Q3,2206.3686056002384,3117.240178470149
exact,pre_advance,A,ar,revision_dfm_kalman_em,2020:Q4,0.2678462970916643,3117.508024767241
exact,pre_advance,A,ar,revision_dfm_kalman_em,2021:Q1,0.41028633892969424,3117.9183111061707
exact,pre_advance,A,ar,revision_dfm_kalman_em,2021:Q2,10.336932079758649,3128.2552431859294
exact,pre_advance,A,ar,revision_dfm_kalman_em,2021:Q3,-2.487612752997857,3125.7676304329316
exact,pre_advance,A,ar,revision_dfm_kalman_em,2021:Q4,9.457205469571857,3135.2248359025034
exact,pre_advance,A,ar,revision_dfm_kalman_em,2022:Q1,-35.782187538967456,3099.442648363536
exact,pre_advance,A,ar,revision_dfm_kalman_em,2022:Q2,-7.935544220156194,3091.50710414338
exact,pre_advance,A,ar,revision_dfm_kalman_em,2022:Q3,-0.24021462537594035,3091.266889518004
exact,pre_advance,A,ar,revision_dfm_kalman_em,2022:Q4,-3.940877345275854,3087.326012172728
exact,pre_advance,A,ar,revision_dfm_kalman_em,2023:Q1,0.1150753104504032,3087.4410874831783
exact,pre_advance,A,ar,revision_dfm_kalman_em,2023:Q2,-0.0020014315114196676,3087.439086051667
exact,pre_advance,A,ar,revision_dfm_kalman_em,2023:Q3,0.7754034448132598,3088.21448949648
exact,pre_advance,A,ar,revision_dfm_kalman_em,2023:Q4,-5.445754359459999,3082.76873513702
exact,pre_advance,A,ar,revision_dfm_kalman_em,2024:Q1,0.8363510551107811,3083.605086192131
exact,pre_advance,A,ar,revision_dfm_kalman_em,2024:Q2,-1.5911793711624433,3082.0139068209683
exact,pre_advance,A,ar,revision_dfm_kalman_em,2024:Q3,-1.3460621057320938,3080.6678447152362
exact,pre_advance,A,ar,revision_dfm_kalman_em,2024:Q4,-0.03728275681543583,3080.630561958421
exact,pre_advance,A,ar,spf,2005:Q1,-0.42517854575438496,-0.42517854575438496
exact,pre_advance,A,ar,spf,2005:Q2,0.08831751947213484,-0.3368610262822501
exact,pre_advance,A,ar,spf,2005:Q3,0.4507088181174133,0.11384779183516319
exact,pre_advance,A,ar,spf,2005:Q4,0.2025752765366695,0.3164230683718327
exact,pre_advance,A,ar,spf,2006:Q1,7.924225342930829,8.240648411302661
exact,pre_advance,A,ar,spf,2006:Q2,0.9735201416432564,9.214168552945917
exact,pre_advance,A,ar,spf,2006:Q3,-0.5016709430059996,8.712497609939918
exact,pre_advance,A,ar,spf,2006:Q4,0.8016502039321348,9.514147813872054
exact,pre_advance,A,ar,spf,2007:Q1,1.6502665112336372,11.16441432510569
exact,pre_advance,A,ar,spf,2007:Q2,0.9864284552164425,12.150842780322133
exact,pre_advance,A,ar,spf,2007:Q3,-0.9193476113978154,11.231495168924317
exact,pre_advance,A,ar,spf,2007:Q4,5.6967814013468345,16.92827657027115
exact,pre_advance,A,ar,spf,2008:Q1,1.204990077036036,18.133266647307188
exact,pre_advance,A,ar,spf,2008:Q2,-3.2238512984891305,14.909415348818058
exact,pre_advance,A,ar,spf,2008:Q3,3.9356302256616567,18.845045574479716
exact,pre_advance,A,ar,spf,2008:Q4,24.09859860416627,42.94364417864598
exact,pre_advance,A,ar,spf,2009:Q1,29.64231503174285,72.58595921038884
exact,pre_advance,A,ar,spf,2009:Q2,0.7444354842419123,73.33039469463075
exact,pre_advance,A,ar,spf,2009:Q3,6.413336075458125,79.74373077008887
exact,pre_advance,A,ar,spf,2009:Q4,-2.6823601235725896,77.06137064651628
exact,pre_advance,A,ar,spf,2010:Q1,0.5057329121489584,77.56710355866524
exact,pre_advance,A,ar,spf,2010:Q2,-0.6110653931217516,76.95603816554349
exact,pre_advance,A,ar,spf,2010:Q3,0.057757461558770956,77.01379562710225
exact,pre_advance,A,ar,spf,2010:Q4,-0.11279743336282044,76.90099819373944
exact,pre_advance,A,ar,spf,2011:Q1,-1.9313760280653232,74.96962216567411
exact,pre_advance,A,ar,spf,2011:Q2,-3.063146223748209,71.9064759419259
exact,pre_advance,A,ar,spf,2011:Q3,0.2947819256509671,72.20125786757687
exact,pre_advance,A,ar,spf,2011:Q4,-0.005129844824395442,72.19612802275248
exact,pre_advance,A,ar,spf,2012:Q1,0.20458547617010198,72.40071349892257
exact,pre_advance,A,ar,spf,2012:Q2,-0.018409770611496512,72.38230372831107
exact,pre_advance,A,ar,spf,2012:Q3,-0.07217463608159123,72.31012909222949
exact,pre_advance,A,ar,spf,2012:Q4,1.942029542373171,74.25215863460267
exact,pre_advance,A,ar,spf,2013:Q1,1.6946220230777251,75.94678065768039
exact,pre_advance,A,ar,spf,2013:Q2,0.6973315171270864,76.64411217480747
exact,pre_advance,A,ar,spf,2013:Q3,0.30591725775643197,76.95002943256391
exact,pre_advance,A,ar,spf,2013:Q4,-1.6325980275425858,75.31743140502132
exact,pre_advance,A,ar,spf,2014:Q1,3.9699001821393285,79.28733158716065
exact,pre_advance,A,ar,spf,2014:Q2,6.438074299007829,85.72540588616847
exact,pre_advance,A,ar,spf,2014:Q3,-0.251635163548447,85.47377072262003
exact,pre_advance,A,ar,spf,2014:Q4,0.15145887412351158,85.62522959674354
exact,pre_advance,A,ar,spf,2015:Q1,-0.5212496814951058,85.10397991524843
exact,pre_advance,A,ar,spf,2015:Q2,0.8318632025934702,85.9358431178419
exact,pre_advance,A,ar,spf,2015:Q3,-0.9288030556021227,85.00704006223978
exact,pre_advance,A,ar,spf,2015:Q4,-2.3284026900794466,82.67863737216034
exact,pre_advance,A,ar,spf,2016:Q1,-1.0743226983875476,81.60431467377279
exact,pre_advance,A,ar,spf,2016:Q2,-0.8018984522303787,80.80241622154242
exact,pre_advance,A,ar,spf,2016:Q3,1.081090054002291,81.8835062755447
exact,pre_advance,A,ar,spf,2016:Q4,0.5801221432004156,82.46362841874512
exact,pre_advance,A,ar,spf,2017:Q1,-0.40971985483717344,82.05390856390794
exact,pre_advance,A,ar,spf,2017:Q2,0.642430113382157,82.6963386772901
exact,pre_advance,A,ar,spf,2017:Q3,0.13811758081006068,82.83445625810016
exact,pre_advance,A,ar,spf,2017:Q4,0.02064702779276604,82.85510328589292
exact,pre_advance,A,ar,spf,2018:Q1,-0.5112817400069796,82.34382154588594
exact,pre_advance,A,ar,spf,2018:Q2,1.9556914179554414,84.29951296384138
exact,pre_advance,A,ar,spf,2018:Q3,-0.16830279942107848,84.1312101644203
exact,pre_advance,A,ar,spf,2018:Q4,0.16799650605565186,84.29920667047595
exact,pre_advance,A,ar,spf,2019:Q1,-2.1668629688608125,82.13234370161514
exact,pre_advance,A,ar,spf,2019:Q2,0.5770120504342601,82.7093557520494
exact,pre_advance,A,ar,spf,2019:Q3,0.12206090810372335,82.83141666015312
exact,pre_advance,A,ar,spf,2019:Q4,-0.11990346709440587,82.71151319305872
exact,pre_advance,A,ar,spf,2020:Q1,8.308627598562644,91.02014079162137
exact,pre_advance,A,ar,spf,2020:Q2,1006.5196753159297,1097.5398161075511
exact,pre_advance,A,ar,spf,2020:Q3,2578.5391004156163,3676.078916523167
exact,pre_advance,A,ar,spf,2020:Q4,0.02681258593660213,3676.105729109104
exact,pre_advance,A,ar,spf,2021:Q1,3.252762678213962,3679.3584917873177
exact,pre_advance,A,ar,spf,2021:Q2,12.68371881776786,3692.0422106050855
exact,pre_advance,A,ar,spf,2021:Q3,-22.331344034562516,3669.710866570523
exact,pre_advance,A,ar,spf,2021:Q4,15.240271989586443,3684.9511385601095
exact,pre_advance,A,ar,spf,2022:Q1,7.091401681972036,3692.0425402420815
exact,pre_advance,A,ar,spf,2022:Q2,1.1551812488577688,3693.1977214909393
exact,pre_advance,A,ar,spf,2022:Q3,-1.638800736536628,3691.5589207544026
exact,pre_advance,A,ar,spf,2022:Q4,-3.345468483020446,3688.2134522713823
exact,pre_advance,A,ar,spf,2023:Q1,1.8011756926901332,3690.0146279640726
exact,pre_advance,A,ar,spf,2023:Q2,-2.467037637592867,3687.5475903264796
exact,pre_advance,A,ar,spf,2023:Q3,-3.7624631138196234,3683.78512721266
exact,pre_advance,A,ar,spf,2023:Q4,-4.231139798306024,3679.5539874143537
exact,pre_advance,A,ar,spf,2024:Q1,0.6176035835239486,3680.1715909978775
exact,pre_advance,A,ar,spf,2024:Q2,-0.5427808169482209,3679.628810180929
exact,pre_advance,A,ar,spf,2024:Q3,-0.8072172383919204,3678.8215929425373
exact,pre_advance,A,ar,spf,2024:Q4,-0.05692555044772479,3678.7646673920895
exact,pre_advance,A,ar,standard_dfm,2005:Q1,0.005557468690040701,0.005557468690040701
exact,pre_advance,A,ar,standard_dfm,2005:Q2,0.17688600917079522,0.18244347786083592
exact,pre_advance,A,ar,standard_dfm,2005:Q3,-0.5496284026543578,-0.3671849247935218
exact,pre_advance,A,ar,standard_dfm,2005:Q4,-1.598510703674827,-1.9656956284683487
exact,pre_advance,A,ar,standard_dfm,2006:Q1,5.895364834230374,3.9296692057620257
exact,pre_advance,A,ar,standard_dfm,2006:Q2,0.6326591475203756,4.5623283532824015
exact,pre_advance,A,ar,standard_dfm,2006:Q3,-1.1815536331980458,3.3807747200843554
exact,pre_advance,A,ar,standard_dfm,2006:Q4,-0.08961491202374061,3.291159808060615
exact,pre_advance,A,ar,standard_dfm,2007:Q1,2.277615211128804,5.5687750191894185
exact,pre_advance,A,ar,standard_dfm,2007:Q2,1.5721987404672848,7.140973759656704
exact,pre_advance,A,ar,standard_dfm,2007:Q3,-0.9325969815824826,6.208376778074221
exact,pre_advance,A,ar,standard_dfm,2007:Q4,5.619451697130961,11.827828475205182
exact,pre_advance,A,ar,standard_dfm,2008:Q1,0.4071777558322208,12.235006231037403
exact,pre_advance,A,ar,standard_dfm,2008:Q2,-0.1485463181038612,12.086459912933542
exact,pre_advance,A,ar,standard_dfm,2008:Q3,5.4603986995371985,17.54685861247074
exact,pre_advance,A,ar,standard_dfm,2008:Q4,25.320902423246768,42.86776103571751
exact,pre_advance,A,ar,standard_dfm,2009:Q1,26.898920136255693,69.7666811719732
exact,pre_advance,A,ar,standard_dfm,2009:Q2,0.6708675600601806,70.43754873203338
exact,pre_advance,A,ar,standard_dfm,2009:Q3,7.624685900987867,78.06223463302125
exact,pre_advance,A,ar,standard_dfm,2009:Q4,-0.05460311648701044,78.00763151653423
exact,pre_advance,A,ar,standard_dfm,2010:Q1,-1.383510722457672,76.62412079407656
exact,pre_advance,A,ar,standard_dfm,2010:Q2,-0.9692400609140532,75.65488073316251
exact,pre_advance,A,ar,standard_dfm,2010:Q3,-0.16499710555444946,75.48988362760807
exact,pre_advance,A,ar,standard_dfm,2010:Q4,0.42205119712596945,75.91193482473403
exact,pre_advance,A,ar,standard_dfm,2011:Q1,-7.478070769233071,68.43386405550096
exact,pre_advance,A,ar,standard_dfm,2011:Q2,-1.2601790103089012,67.17368504519206
exact,pre_advance,A,ar,standard_dfm,2011:Q3,0.169691482379295,67.34337652757135
exact,pre_advance,A,ar,standard_dfm,2011:Q4,-0.5786066882143093,66.76476983935704
exact,pre_advance,A,ar,standard_dfm,2012:Q1,-2.2457574597114895,64.51901237964556
exact,pre_advance,A,ar,standard_dfm,2012:Q2,-0.29124857939303794,64.22776380025252
exact,pre_advance,A,ar,standard_dfm,2012:Q3,-0.2875970641695967,63.94016673608292
exact,pre_advance,A,ar,standard_dfm,2012:Q4,-7.029358035026668,56.910808701056254
exact,pre_advance,A,ar,standard_dfm,2013:Q1,1.5366394988358547,58.44744819989211
exact,pre_advance,A,ar,standard_dfm,2013:Q2,-0.6193290521110049,57.8281191477811
exact,pre_advance,A,ar,standard_dfm,2013:Q3,0.5116495142349746,58.33976866201608
exact,pre_advance,A,ar,standard_dfm,2013:Q4,0.1881211670679197,58.527889829083996
exact,pre_advance,A,ar,standard_dfm,2014:Q1,2.2611836602781894,60.78907348936219
exact,pre_advance,A,ar,standard_dfm,2014:Q2,6.950285300050513,67.7393587894127
exact,pre_advance,A,ar,standard_dfm,2014:Q3,-0.23970610456213043,67.49965268485057
exact,pre_advance,A,ar,standard_dfm,2014:Q4,0.15993158149245626,67.65958426634303
exact,pre_advance,A,ar,standard_dfm,2015:Q1,3.458441162000213,71.11802542834324
exact,pre_advance,A,ar,standard_dfm,2015:Q2,0.608188766440848,71.72621419478409
exact,pre_advance,A,ar,standard_dfm,2015:Q3,-0.49388308416577154,71.23233111061832
exact,pre_advance,A,ar,standard_dfm,2015:Q4,-0.199694963921353,71.03263614669696
exact,pre_advance,A,ar,standard_dfm,2016:Q1,-1.3432215168252546,69.6894146298717
exact,pre_advance,A,ar,standard_dfm,2016:Q2,-0.9852587561590919,68.70415587371261
exact,pre_advance,A,ar,standard_dfm,2016:Q3,0.8086089264622582,69.51276480017486
exact,pre_advance,A,ar,standard_dfm,2016:Q4,-0.9426756961184087,68.57008910405645
exact,pre_advance,A,ar,standard_dfm,2017:Q1,-2.1563377782168547,66.4137513258396
exact,pre_advance,A,ar,standard_dfm,2017:Q2,0.8839097043219548,67.29766103016155
exact,pre_advance,A,ar,standard_dfm,2017:Q3,-0.4498136888489407,66.84784734131262
exact,pre_advance,A,ar,standard_dfm,2017:Q4,-1.472453224608988,65.37539411670363
exact,pre_advance,A,ar,standard_dfm,2018:Q1,-1.1961916583162755,64.17920245838735
exact,pre_advance,A,ar,standard_dfm,2018:Q2,0.7936938430062765,64.97289630139363
exact,pre_advance,A,ar,standard_dfm,2018:Q3,-0.1781213138623781,64.79477498753126
exact,pre_advance,A,ar,standard_dfm,2018:Q4,0.16398670734271426,64.95876169487397
exact,pre_advance,A,ar,standard_dfm,2019:Q1,-1.3737634057761716,63.5849982890978
exact,pre_advance,A,ar,standard_dfm,2019:Q2,0.5864738210399745,64.17147211013777
exact,pre_advance,A,ar,standard_dfm,2019:Q3,-0.04636784297867397,64.1251042671591
exact,pre_advance,A,ar,standard_dfm,2019:Q4,-0.009652078071393923,64.1154521890877
exact,pre_advance,A,ar,standard_dfm,2020:Q1,20.78770088725128,84.90315307633898
exact,pre_advance,A,ar,standard_dfm,2020:Q2,712.4929959502997,797.3961490266387
exact,pre_advance,A,ar,standard_dfm,2020:Q3,2567.0847497712384,3364.480898797877
exact,pre_advance,A,ar,standard_dfm,2020:Q4,-9.760194583218505,3354.720704214659
exact,pre_advance,A,ar,standard_dfm,2021:Q1,14.717586220885224,3369.438290435544
exact,pre_advance,A,ar,standard_dfm,2021:Q2,11.250739364102031,3380.689029799646
exact,pre_advance,A,ar,standard_dfm,2021:Q3,-1.552906580913287,3379.136123218733
exact,pre_advance,A,ar,standard_dfm,2021:Q4,14.115040173354647,3393.2511633920876
exact,pre_advance,A,ar,standard_dfm,2022:Q1,-52.79943459352654,3340.451728798561
exact,pre_advance,A,ar,standard_dfm,2022:Q2,-12.669399125677783,3327.782329672883
exact,pre_advance,A,ar,standard_dfm,2022:Q3,0.01330019348445774,3327.7956298663676
exact,pre_advance,A,ar,standard_dfm,2022:Q4,-1.3244838241014658,3326.471146042266
exact,pre_advance,A,ar,standard_dfm,2023:Q1,0.6909286887191397,3327.162074730985
exact,pre_advance,A,ar,standard_dfm,2023:Q2,-0.12096587289956348,3327.0411088580854
exact,pre_advance,A,ar,standard_dfm,2023:Q3,-2.313832963877977,3324.7272758942077
exact,pre_advance,A,ar,standard_dfm,2023:Q4,-1.707528374686477,3323.0197475195214
exact,pre_advance,A,ar,standard_dfm,2024:Q1,0.4624004308907374,3323.482147950412
exact,pre_advance,A,ar,standard_dfm,2024:Q2,0.12983346758590594,3323.611981417998
exact,pre_advance,A,ar,standard_dfm,2024:Q3,-0.8060037928736986,3322.8059776251243
exact,pre_advance,A,ar,standard_dfm,2024:Q4,0.033129491051418346,3322.839107116176
exact,pre_advance,A,no_revision,ar,2005:Q1,-0.01829276874886654,-0.01829276874886654
exact,pre_advance,A,no_revision,ar,2005:Q2,0.010434082728868699,-0.00785868601999784
exact,pre_advance,A,no_revision,ar,2005:Q3,-0.04475723724217473,-0.05261592326217257
exact,pre_advance,A,no_revision,ar,2005:Q4,0.005897102113586961,-0.04671882114858561
exact,pre_advance,A,no_revision,ar,2006:Q1,-0.14435758559098844,-0.19107640673957405
exact,pre_advance,A,no_revision,ar,2006:Q2,-0.10645890996238783,-0.29753531670196187
exact,pre_advance,A,no_revision,ar,2006:Q3,0.24152679339726402,-0.056008523304697855
exact,pre_advance,A,no_revision,ar,2006:Q4,0.30824079892148304,0.2522322756167852
exact,pre_advance,A,no_revision,ar,2007:Q1,0.23848279984936216,0.49071507546614734
exact,pre_advance,A,no_revision,ar,2007:Q2,-0.05512019812272051,0.43559487734342683
exact,pre_advance,A,no_revision,ar,2007:Q3,0.19969014430791188,0.6352850216513387
exact,pre_advance,A,no_revision,ar,2007:Q4,0.15567398880635874,0.7909590104576975
exact,pre_advance,A,no_revision,ar,2008:Q1,-0.05559234221203191,0.7353666682456655
exact,pre_advance,A,no_revision,ar,2008:Q2,-0.004622952477093177,0.7307437157685723
exact,pre_advance,A,no_revision,ar,2008:Q3,0.15221627551749783,0.8829599912860702
exact,pre_advance,A,no_revision,ar,2008:Q4,-0.5818162017862143,0.3011437894998559
exact,pre_advance,A,no_revision,ar,2009:Q1,-0.45423321116048854,-0.15308942166063266
exact,pre_advance,A,no_revision,ar,2009:Q2,-0.013307526119774815,-0.16639694778040748
exact,pre_advance,A,no_revision,ar,2009:Q3,1.023992772227114,0.8575958244467066
exact,pre_advance,A,no_revision,ar,2009:Q4,1.4621885824992091,2.3197844069459155
exact,pre_advance,A,no_revision,ar,2010:Q1,-0.5154181563893694,1.804366250556546
exact,pre_advance,A,no_revision,ar,2010:Q2,-0.1815894544157976,1.6227767961407484
exact,pre_advance,A,no_revision,ar,2010:Q3,-0.02901155984276077,1.5937652362979877
exact,pre_advance,A,no_revision,ar,2010:Q4,-0.21335030884274386,1.3804149274552437
exact,pre_advance,A,no_revision,ar,2011:Q1,0.06757887593352563,1.4479938033887694
exact,pre_advance,A,no_revision,ar,2011:Q2,-0.0202217337142232,1.4277720696745462
exact,pre_advance,A,no_revision,ar,2011:Q3,0.052984459561723096,1.4807565292362692
exact,pre_advance,A,no_revision,ar,2011:Q4,-0.01895665554257433,1.4617998736936948
exact,pre_advance,A,no_revision,ar,2012:Q1,-0.02232353618393504,1.4394763375097597
exact,pre_advance,A,no_revision,ar,2012:Q2,-0.11942453052189395,1.3200518069878657
exact,pre_advance,A,no_revision,ar,2012:Q3,-0.0006349170808925357,1.3194168899069731
exact,pre_advance,A,no_revision,ar,2012:Q4,0.06262090931865316,1.3820377992256263
exact,pre_advance,A,no_revision,ar,2013:Q1,0.008932871015000954,1.3909706702406273
exact,pre_advance,A,no_revision,ar,2013:Q2,-0.06324061631598044,1.3277300539246468
exact,pre_advance,A,no_revision,ar,2013:Q3,-0.0315667756852992,1.2961632782393475
exact,pre_advance,A,no_revision,ar,2013:Q4,0.17688786721241778,1.4730511454517652
exact,pre_advance,A,no_revision,ar,2014:Q1,0.02480433967617479,1.49785548512794
exact,pre_advance,A,no_revision,ar,2014:Q2,0.3039643587409291,1.801819843868869
exact,pre_advance,A,no_revision,ar,2014:Q3,0.01009808842494786,1.811917932293817
exact,pre_advance,A,no_revision,ar,2014:Q4,0.053005079780955394,1.8649230120747724
exact,pre_advance,A,no_revision,ar,2015:Q1,-0.67193818782102,1.1929848242537524
exact,pre_advance,A,no_revision,ar,2015:Q2,-0.08197493566980374,1.1110098885839488
exact,pre_advance,A,no_revision,ar,2015:Q3,0.08264742175217066,1.1936573103361194
exact,pre_advance,A,no_revision,ar,2015:Q4,0.12441534043486313,1.3180726507709826
exact,pre_advance,A,no_revision,ar,2016:Q1,-0.2275952927293533,1.0904773580416292
exact,pre_advance,A,no_revision,ar,2016:Q2,0.0046545719231812915,1.0951319299648103
exact,pre_advance,A,no_revision,ar,2016:Q3,0.04584231925914617,1.1409742492239565
exact,pre_advance,A,no_revision,ar,2016:Q4,-0.10114230910276367,1.0398319401211928
exact,pre_advance,A,no_revision,ar,2017:Q1,-0.246574617300388,0.7932573228208049
exact,pre_advance,A,no_revision,ar,2017:Q2,0.15926574147033767,0.9525230642911425
exact,pre_advance,A,no_revision,ar,2017:Q3,-0.022454236955837703,0.9300688273353048
exact,pre_advance,A,no_revision,ar,2017:Q4,-0.004727701091471227,0.9253411262438336
exact,pre_advance,A,no_revision,ar,2018:Q1,-0.03223932073775865,0.8931018055060749
exact,pre_advance,A,no_revision,ar,2018:Q2,0.05012498584200742,0.9432267913480823
exact,pre_advance,A,no_revision,ar,2018:Q3,-0.0040716179457951085,0.9391551734022872
exact,pre_advance,A,no_revision,ar,2018:Q4,-0.0107967518642271,0.92835842153806
exact,pre_advance,A,no_revision,ar,2019:Q1,0.06475700376940074,0.9931154253074608
exact,pre_advance,A,no_revision,ar,2019:Q2,0.08251128198875868,1.0756267072962196
exact,pre_advance,A,no_revision,ar,2019:Q3,0.02873654465966108,1.1043632519558806
exact,pre_advance,A,no_revision,ar,2019:Q4,-0.0032282376299231016,1.1011350143259575
exact,pre_advance,A,no_revision,ar,2020:Q1,0.47755925650978526,1.5786942708357428
exact,pre_advance,A,no_revision,ar,2020:Q2,0.5667662532794111,2.145460524115154
exact,pre_advance,A,no_revision,ar,2020:Q3,57.60016029331837,59.74562081743352
exact,pre_advance,A,no_revision,ar,2020:Q4,40.65854856282156,100.40416938025507
exact,pre_advance,A,no_revision,ar,2021:Q1,27.79553131153419,128.19970069178925
exact,pre_advance,A,no_revision,ar,2021:Q2,24.119251842538425,152.31895253432768
exact,pre_advance,A,no_revision,ar,2021:Q3,0.30877510409469244,152.62772763842236
exact,pre_advance,A,no_revision,ar,2021:Q4,-3.7679008571371924,148.85982678128516
exact,pre_advance,A,no_revision,ar,2022:Q1,0.5234667865097897,149.38329356779496
exact,pre_advance,A,no_revision,ar,2022:Q2,1.9855199282110494,151.36881349600603
exact,pre_advance,A,no_revision,ar,2022:Q3,0.033925124700511525,151.40273862070654
exact,pre_advance,A,no_revision,ar,2022:Q4,0.7384306425890252,152.14116926329558
exact,pre_advance,A,no_revision,ar,2023:Q1,-0.371137610273619,151.77003165302196
exact,pre_advance,A,no_revision,ar,2023:Q2,0.00528125482766627,151.77531290784964
exact,pre_advance,A,no_revision,ar,2023:Q3,0.5551736828791194,152.33048659072875
exact,pre_advance,A,no_revision,ar,2023:Q4,0.20210030709286464,152.53258689782163
exact,pre_advance,A,no_revision,ar,2024:Q1,0.31218151521482485,152.84476841303646
exact,pre_advance,A,no_revision,ar,2024:Q2,-0.0978852185130688,152.7468831945234
exact,pre_advance,A,no_revision,ar,2024:Q3,0.06291573213851451,152.80979892666193
exact,pre_advance,A,no_revision,ar,2024:Q4,-0.026146771737672124,152.78365215492425
exact,pre_advance,A,no_revision,bridge,2005:Q1,0.008215597414184386,0.008215597414184386
exact,pre_advance,A,no_revision,bridge,2005:Q2,0.2664849976095032,0.2747005950236876
exact,pre_advance,A,no_revision,bridge,2005:Q3,-0.15934170783751533,0.11535888718617227
exact,pre_advance,A,no_revision,bridge,2005:Q4,-1.061156314811341,-0.9457974276251687
exact,pre_advance,A,no_revision,bridge,2006:Q1,1.491292540028942,0.5454951124037734
exact,pre_advance,A,no_revision,bridge,2006:Q2,0.6612398447418184,1.2067349571455916
exact,pre_advance,A,no_revision,bridge,2006:Q3,0.12738937442554277,1.3341243315711344
exact,pre_advance,A,no_revision,bridge,2006:Q4,-11.115495185358746,-9.781370853787612
exact,pre_advance,A,no_revision,bridge,2007:Q1,3.1673071315367447,-6.614063722250867
exact,pre_advance,A,no_revision,bridge,2007:Q2,-0.6270010939567126,-7.2410648162075795
exact,pre_advance,A,no_revision,bridge,2007:Q3,-4.222013087742026,-11.463077903949605
exact,pre_advance,A,no_revision,bridge,2007:Q4,7.137280030827965,-4.32579787312164
exact,pre_advance,A,no_revision,bridge,2008:Q1,-0.8984188663524961,-5.224216739474136
exact,pre_advance,A,no_revision,bridge,2008:Q2,-0.5822131332173008,-5.806429872691437
exact,pre_advance,A,no_revision,bridge,2008:Q3,6.39136969126084,0.5849398185694028
exact,pre_advance,A,no_revision,bridge,2008:Q4,18.35320542375238,18.938145242321784
exact,pre_advance,A,no_revision,bridge,2009:Q1,28.522254693917795,47.46039993623958
exact,pre_advance,A,no_revision,bridge,2009:Q2,-1.1106053779094194,46.34979455833016
exact,pre_advance,A,no_revision,bridge,2009:Q3,5.32685235672722,51.67664691505738
exact,pre_advance,A,no_revision,bridge,2009:Q4,2.3027277325741577,53.97937464763154
exact,pre_advance,A,no_revision,bridge,2010:Q1,-8.418305450954193,45.561069196677344
exact,pre_advance,A,no_revision,bridge,2010:Q2,-0.16973114618359475,45.39133805049375
exact,pre_advance,A,no_revision,bridge,2010:Q3,0.1593129872951204,45.550651037788874
exact,pre_advance,A,no_revision,bridge,2010:Q4,0.06317830953073766,45.61382934731961
exact,pre_advance,A,no_revision,bridge,2011:Q1,-2.555993190959713,43.0578361563599
exact,pre_advance,A,no_revision,bridge,2011:Q2,-1.4931237088838087,41.56471244747609
exact,pre_advance,A,no_revision,bridge,2011:Q3,0.05073215179516272,41.61544459927125
exact,pre_advance,A,no_revision,bridge,2011:Q4,-1.1017138183289303,40.51373078094232
exact,pre_advance,A,no_revision,bridge,2012:Q1,-1.0764773078905148,39.437253473051804
exact,pre_advance,A,no_revision,bridge,2012:Q2,-0.603596622947675,38.83365685010413
exact,pre_advance,A,no_revision,bridge,2012:Q3,-0.575208838668224,38.2584480114359
exact,pre_advance,A,no_revision,bridge,2012:Q4,-8.103480051567285,30.154967959868618
exact,pre_advance,A,no_revision,bridge,2013:Q1,0.7950884554726778,30.950056415341294
exact,pre_advance,A,no_revision,bridge,2013:Q2,-0.44570193054532803,30.504354484795964
exact,pre_advance,A,no_revision,bridge,2013:Q3,-0.49834211672689344,30.006012368069072
exact,pre_advance,A,no_revision,bridge,2013:Q4,0.13712245449654337,30.143134822565617
exact,pre_advance,A,no_revision,bridge,2014:Q1,3.9451931802643108,34.088328002829925
exact,pre_advance,A,no_revision,bridge,2014:Q2,4.410158699495562,38.498486702325486
exact,pre_advance,A,no_revision,bridge,2014:Q3,-0.045996355308121864,38.45249034701737
exact,pre_advance,A,no_revision,bridge,2014:Q4,0.2106035962700831,38.66309394328745
exact,pre_advance,A,no_revision,bridge,2015:Q1,2.7117362862474286,41.37483022953488
exact,pre_advance,A,no_revision,bridge,2015:Q2,0.7790793652174874,42.15390959475236
exact,pre_advance,A,no_revision,bridge,2015:Q3,0.6963195488390829,42.85022914359145
exact,pre_advance,A,no_revision,bridge,2015:Q4,0.7760148696761344,43.62624401326758
exact,pre_advance,A,no_revision,bridge,2016:Q1,0.5511528724916305,44.17739688575921
exact,pre_advance,A,no_revision,bridge,2016:Q2,0.06445159121760785,44.24184847697681
exact,pre_advance,A,no_revision,bridge,2016:Q3,0.40961784186630823,44.65146631884312
exact,pre_advance,A,no_revision,bridge,2016:Q4,-0.8386804777801599,43.81278584106296
exact,pre_advance,A,no_revision,bridge,2017:Q1,-0.9106445698930794,42.90214127116988
exact,pre_advance,A,no_revision,bridge,2017:Q2,0.032319961715321144,42.934461232885205
exact,pre_advance,A,no_revision,bridge,2017:Q3,-0.336708786293597,42.597752446591606
exact,pre_advance,A,no_revision,bridge,2017:Q4,-1.154757722775843,41.442994723815765
exact,pre_advance,A,no_revision,bridge,2018:Q1,-0.8916572326445082,40.55133749117126
exact,pre_advance,A,no_revision,bridge,2018:Q2,0.4451149747288108,40.99645246590007
exact,pre_advance,A,no_revision,bridge,2018:Q3,-0.1479305055202646,40.848521960379806
exact,pre_advance,A,no_revision,bridge,2018:Q4,0.07988877975701823,40.928410740136826
exact,pre_advance,A,no_revision,bridge,2019:Q1,-0.042852976479083926,40.885557763657744
exact,pre_advance,A,no_revision,bridge,2019:Q2,0.691477457554207,41.57703522121195
exact,pre_advance,A,no_revision,bridge,2019:Q3,-0.3039817481641791,41.273053473047774
exact,pre_advance,A,no_revision,bridge,2019:Q4,-0.17104382993473424,41.10200964311304
exact,pre_advance,A,no_revision,bridge,2020:Q1,9.580017702547941,50.682027345660984
exact,pre_advance,A,no_revision,bridge,2020:Q2,533.1821380067013,583.8641653523623
exact,pre_advance,A,no_revision,bridge,2020:Q3,1700.4719074888842,2284.3360728412463
exact,pre_advance,A,no_revision,bridge,2020:Q4,15.421963922740805,2299.758036763987
exact,pre_advance,A,no_revision,bridge,2021:Q1,40.78673656791285,2340.5447733319
exact,pre_advance,A,no_revision,bridge,2021:Q2,39.12920568822841,2379.6739790201286
exact,pre_advance,A,no_revision,bridge,2021:Q3,0.003641228353279624,2379.677620248482
exact,pre_advance,A,no_revision,bridge,2021:Q4,-4.309556315401188,2375.368063933081
exact,pre_advance,A,no_revision,bridge,2022:Q1,-26.71709323163733,2348.650970701444
exact,pre_advance,A,no_revision,bridge,2022:Q2,4.3023207619124495,2352.9532914633564
exact,pre_advance,A,no_revision,bridge,2022:Q3,-3.032052127515388,2349.921239335841
exact,pre_advance,A,no_revision,bridge,2022:Q4,-17.62049701398002,2332.300742321861
exact,pre_advance,A,no_revision,bridge,2023:Q1,1.375690866879198,2333.6764331887402
exact,pre_advance,A,no_revision,bridge,2023:Q2,-1.4016490347085397,2332.2747841540317
exact,pre_advance,A,no_revision,bridge,2023:Q3,0.9167463176544608,2333.1915304716863
exact,pre_advance,A,no_revision,bridge,2023:Q4,-6.150838688551266,2327.040691783135
exact,pre_advance,A,no_revision,bridge,2024:Q1,1.0977588391882465,2328.1384506223235
exact,pre_advance,A,no_revision,bridge,2024:Q2,-0.7539944374101349,2327.3844561849132
exact,pre_advance,A,no_revision,bridge,2024:Q3,-0.007619718001530246,2327.3768364669118
exact,pre_advance,A,no_revision,bridge,2024:Q4,-0.026589665500670635,2327.3502468014112
exact,pre_advance,A,no_revision,indicator_revision_only_dfm_kalman_em,2005:Q1,-1.9916033971343086,-1.9916033971343086
exact,pre_advance,A,no_revision,indicator_revision_only_dfm_kalman_em,2005:Q2,-0.34500556089621254,-2.336608958030521
exact,pre_advance,A,no_revision,indicator_revision_only_dfm_kalman_em,2005:Q3,0.49801849360163714,-1.838590464428884
exact,pre_advance,A,no_revision,indicator_revision_only_dfm_kalman_em,2005:Q4,-23.560895323597634,-25.399485788026517
exact,pre_advance,A,no_revision,indicator_revision_only_dfm_kalman_em,2006:Q1,8.021592674993423,-17.377893113033096
exact,pre_advance,A,no_revision,indicator_revision_only_dfm_kalman_em,2006:Q2,-3.232701304725171,-20.610594417758268
exact,pre_advance,A,no_revision,indicator_revision_only_dfm_kalman_em,2006:Q3,-2.801143407075529,-23.411737824833796
exact,pre_advance,A,no_revision,indicator_revision_only_dfm_kalman_em,2006:Q4,-18.97638534175564,-42.38812316658944
exact,pre_advance,A,no_revision,indicator_revision_only_dfm_kalman_em,2007:Q1,2.6532340169157287,-39.734889149673705
exact,pre_advance,A,no_revision,indicator_revision_only_dfm_kalman_em,2007:Q2,1.8674502768189154,-37.86743887285479
exact,pre_advance,A,no_revision,indicator_revision_only_dfm_kalman_em,2007:Q3,-36.62156073455369,-74.48899960740849
exact,pre_advance,A,no_revision,indicator_revision_only_dfm_kalman_em,2007:Q4,-2.3895748326417907,-76.87857444005027
exact,pre_advance,A,no_revision,indicator_revision_only_dfm_kalman_em,2008:Q1,-10.760140990071227,-87.6387154301215
exact,pre_advance,A,no_revision,indicator_revision_only_dfm_kalman_em,2008:Q2,-0.47542339553374596,-88.11413882565525
exact,pre_advance,A,no_revision,indicator_revision_only_dfm_kalman_em,2008:Q3,-2.8251062729477665,-90.93924509860301
exact,pre_advance,A,no_revision,indicator_revision_only_dfm_kalman_em,2008:Q4,-26.13462560724065,-117.07387070584366
exact,pre_advance,A,no_revision,indicator_revision_only_dfm_kalman_em,2009:Q1,1.1906595395503743,-115.88321116629328
exact,pre_advance,A,no_revision,indicator_revision_only_dfm_kalman_em,2009:Q2,-4.4256742453074125,-120.3088854116007
exact,pre_advance,A,no_revision,indicator_revision_only_dfm_kalman_em,2009:Q3,0.8688945803743202,-119.43999083122638
exact,pre_advance,A,no_revision,indicator_revision_only_dfm_kalman_em,2009:Q4,2.768604497830677,-116.6713863333957
exact,pre_advance,A,no_revision,indicator_revision_only_dfm_kalman_em,2010:Q1,-11.630476660386568,-128.30186299378227
exact,pre_advance,A,no_revision,indicator_revision_only_dfm_kalman_em,2010:Q2,-4.476575125400601,-132.77843811918288
exact,pre_advance,A,no_revision,indicator_revision_only_dfm_kalman_em,2010:Q3,0.05999516871272631,-132.71844295047015
exact,pre_advance,A,no_revision,indicator_revision_only_dfm_kalman_em,2010:Q4,0.4236907636495264,-132.29475218682063
exact,pre_advance,A,no_revision,indicator_revision_only_dfm_kalman_em,2011:Q1,-19.641732327905235,-151.93648451472586
exact,pre_advance,A,no_revision,indicator_revision_only_dfm_kalman_em,2011:Q2,0.4519119484676713,-151.48457256625818
exact,pre_advance,A,no_revision,indicator_revision_only_dfm_kalman_em,2011:Q3,-1.0834310434783845,-152.56800360973656
exact,pre_advance,A,no_revision,indicator_revision_only_dfm_kalman_em,2011:Q4,-3.5858478987378786,-156.15385150847445
exact,pre_advance,A,no_revision,indicator_revision_only_dfm_kalman_em,2012:Q1,-6.508481541102324,-162.66233304957677
exact,pre_advance,A,no_revision,indicator_revision_only_dfm_kalman_em,2012:Q2,-1.0883405017318066,-163.75067355130858
exact,pre_advance,A,no_revision,indicator_revision_only_dfm_kalman_em,2012:Q3,-0.18459273870208365,-163.93526629001067
exact,pre_advance,A,no_revision,indicator_revision_only_dfm_kalman_em,2012:Q4,-13.108718013939002,-177.04398430394968
exact,pre_advance,A,no_revision,indicator_revision_only_dfm_kalman_em,2013:Q1,1.5292174117010409,-175.51476689224864
exact,pre_advance,A,no_revision,indicator_revision_only_dfm_kalman_em,2013:Q2,-0.43722610476283164,-175.95199299701147
exact,pre_advance,A,no_revision,indicator_revision_only_dfm_kalman_em,2013:Q3,0.3339168209693766,-175.6180761760421
exact,pre_advance,A,no_revision,indicator_revision_only_dfm_kalman_em,2013:Q4,-2.023776543359514,-177.6418527194016
exact,pre_advance,A,no_revision,indicator_revision_only_dfm_kalman_em,2014:Q1,2.984260186410399,-174.6575925329912
exact,pre_advance,A,no_revision,indicator_revision_only_dfm_kalman_em,2014:Q2,6.156318484734461,-168.50127404825673
exact,pre_advance,A,no_revision,indicator_revision_only_dfm_kalman_em,2014:Q3,-0.04697825497084386,-168.54825230322757
exact,pre_advance,A,no_revision,indicator_revision_only_dfm_kalman_em,2014:Q4,0.019399485717477294,-168.52885281751009
exact,pre_advance,A,no_revision,indicator_revision_only_dfm_kalman_em,2015:Q1,4.433885347038201,-164.0949674704719
exact,pre_advance,A,no_revision,indicator_revision_only_dfm_kalman_em,2015:Q2,0.426631525455974,-163.6683359450159
exact,pre_advance,A,no_revision,indicator_revision_only_dfm_kalman_em,2015:Q3,-1.9012141682648442,-165.56955011328077
exact,pre_advance,A,no_revision,indicator_revision_only_dfm_kalman_em,2015:Q4,0.9112195371718776,-164.65833057610888
exact,pre_advance,A,no_revision,indicator_revision_only_dfm_kalman_em,2016:Q1,-1.2188037610581977,-165.8771343371671
exact,pre_advance,A,no_revision,indicator_revision_only_dfm_kalman_em,2016:Q2,-0.5666081603606811,-166.44374249752778
exact,pre_advance,A,no_revision,indicator_revision_only_dfm_kalman_em,2016:Q3,1.1286619056623082,-165.31508059186547
exact,pre_advance,A,no_revision,indicator_revision_only_dfm_kalman_em,2016:Q4,-3.498829851877217,-168.81391044374269
exact,pre_advance,A,no_revision,indicator_revision_only_dfm_kalman_em,2017:Q1,-3.503428035690816,-172.3173384794335
exact,pre_advance,A,no_revision,indicator_revision_only_dfm_kalman_em,2017:Q2,0.33590127822006577,-171.98143720121342
exact,pre_advance,A,no_revision,indicator_revision_only_dfm_kalman_em,2017:Q3,-1.4703430807847602,-173.4517802819982
exact,pre_advance,A,no_revision,indicator_revision_only_dfm_kalman_em,2017:Q4,-10.146139033812496,-183.59791931581069
exact,pre_advance,A,no_revision,indicator_revision_only_dfm_kalman_em,2018:Q1,-1.0420038552947937,-184.63992317110547
exact,pre_advance,A,no_revision,indicator_revision_only_dfm_kalman_em,2018:Q2,1.2200187222240046,-183.41990444888145
exact,pre_advance,A,no_revision,indicator_revision_only_dfm_kalman_em,2018:Q3,0.04476138266037839,-183.37514306622109
exact,pre_advance,A,no_revision,indicator_revision_only_dfm_kalman_em,2018:Q4,0.15781269539143442,-183.21733037082964
exact,pre_advance,A,no_revision,indicator_revision_only_dfm_kalman_em,2019:Q1,-2.758121456918168,-185.9754518277478
exact,pre_advance,A,no_revision,indicator_revision_only_dfm_kalman_em,2019:Q2,0.2702200792872087,-185.7052317484606
exact,pre_advance,A,no_revision,indicator_revision_only_dfm_kalman_em,2019:Q3,-0.2883030448473751,-185.99353479330796
exact,pre_advance,A,no_revision,indicator_revision_only_dfm_kalman_em,2019:Q4,-0.20182818775874997,-186.19536298106672
exact,pre_advance,A,no_revision,indicator_revision_only_dfm_kalman_em,2020:Q1,36.80813492148705,-149.38722805957968
exact,pre_advance,A,no_revision,indicator_revision_only_dfm_kalman_em,2020:Q2,976.996214006065,827.6089859464853
exact,pre_advance,A,no_revision,indicator_revision_only_dfm_kalman_em,2020:Q3,2173.0193650576402,3000.6283510041258
exact,pre_advance,A,no_revision,indicator_revision_only_dfm_kalman_em,2020:Q4,22.480703893346195,3023.109054897472
exact,pre_advance,A,no_revision,indicator_revision_only_dfm_kalman_em,2021:Q1,37.32211552027502,3060.431170417747
exact,pre_advance,A,no_revision,indicator_revision_only_dfm_kalman_em,2021:Q2,30.97150592776793,3091.402676345515
exact,pre_advance,A,no_revision,indicator_revision_only_dfm_kalman_em,2021:Q3,-5.361337789874751,3086.0413385556403
exact,pre_advance,A,no_revision,indicator_revision_only_dfm_kalman_em,2021:Q4,10.044088007742182,3096.0854265633825
exact,pre_advance,A,no_revision,indicator_revision_only_dfm_kalman_em,2022:Q1,-35.693360027202075,3060.39206653618
exact,pre_advance,A,no_revision,indicator_revision_only_dfm_kalman_em,2022:Q2,-6.96463858931806,3053.4274279468623
exact,pre_advance,A,no_revision,indicator_revision_only_dfm_kalman_em,2022:Q3,-0.20826050276483035,3053.2191674440974
exact,pre_advance,A,no_revision,indicator_revision_only_dfm_kalman_em,2022:Q4,-1.349079164345905,3051.8700882797516
exact,pre_advance,A,no_revision,indicator_revision_only_dfm_kalman_em,2023:Q1,-1.5144197397305363,3050.3556685400213
exact,pre_advance,A,no_revision,indicator_revision_only_dfm_kalman_em,2023:Q2,-0.3175514314265694,3050.0381171085946
exact,pre_advance,A,no_revision,indicator_revision_only_dfm_kalman_em,2023:Q3,-1.7690714431309864,3048.2690456654636
exact,pre_advance,A,no_revision,indicator_revision_only_dfm_kalman_em,2023:Q4,-0.8646000948871946,3047.4044455705766
exact,pre_advance,A,no_revision,indicator_revision_only_dfm_kalman_em,2024:Q1,1.1811012418895943,3048.5855468124664
exact,pre_advance,A,no_revision,indicator_revision_only_dfm_kalman_em,2024:Q2,-1.1865380627960072,3047.3990087496704
exact,pre_advance,A,no_revision,indicator_revision_only_dfm_kalman_em,2024:Q3,-0.734971952646728,3046.6640367970235
exact,pre_advance,A,no_revision,indicator_revision_only_dfm_kalman_em,2024:Q4,-0.20529151103890456,3046.4587452859846
exact,pre_advance,A,no_revision,joint_indicator_revision_dfm_full_kalman_em,2005:Q1,-0.14775768331893882,-0.14775768331893882
exact,pre_advance,A,no_revision,joint_indicator_revision_dfm_full_kalman_em,2005:Q2,0.24221624003949388,0.09445855672055506
exact,pre_advance,A,no_revision,joint_indicator_revision_dfm_full_kalman_em,2005:Q3,0.36149999155001356,0.4559585482705686
exact,pre_advance,A,no_revision,joint_indicator_revision_dfm_full_kalman_em,2005:Q4,-17.98860177470541,-17.53264322643484
exact,pre_advance,A,no_revision,joint_indicator_revision_dfm_full_kalman_em,2006:Q1,6.299502528287386,-11.233140698147453
exact,pre_advance,A,no_revision,joint_indicator_revision_dfm_full_kalman_em,2006:Q2,-0.2841917609987401,-11.517332459146193
exact,pre_advance,A,no_revision,joint_indicator_revision_dfm_full_kalman_em,2006:Q3,-3.769639773646761,-15.286972232792953
exact,pre_advance,A,no_revision,joint_indicator_revision_dfm_full_kalman_em,2006:Q4,-20.12943462720394,-35.41640685999689
exact,pre_advance,A,no_revision,joint_indicator_revision_dfm_full_kalman_em,2007:Q1,-0.3288624843234036,-35.74526934432029
exact,pre_advance,A,no_revision,joint_indicator_revision_dfm_full_kalman_em,2007:Q2,1.7788911184784288,-33.966378225841865
exact,pre_advance,A,no_revision,joint_indicator_revision_dfm_full_kalman_em,2007:Q3,-33.49603355515939,-67.46241178100126
exact,pre_advance,A,no_revision,joint_indicator_revision_dfm_full_kalman_em,2007:Q4,-0.22632453326990198,-67.68873631427117
exact,pre_advance,A,no_revision,joint_indicator_revision_dfm_full_kalman_em,2008:Q1,-8.12716892903628,-75.81590524330744
exact,pre_advance,A,no_revision,joint_indicator_revision_dfm_full_kalman_em,2008:Q2,-0.03501155595762892,-75.85091679926506
exact,pre_advance,A,no_revision,joint_indicator_revision_dfm_full_kalman_em,2008:Q3,-2.6238243577519667,-78.47474115701704
exact,pre_advance,A,no_revision,joint_indicator_revision_dfm_full_kalman_em,2008:Q4,-11.90254591780652,-90.37728707482356
exact,pre_advance,A,no_revision,joint_indicator_revision_dfm_full_kalman_em,2009:Q1,-5.1188941079870425,-95.4961811828106
exact,pre_advance,A,no_revision,joint_indicator_revision_dfm_full_kalman_em,2009:Q2,-0.42235716932797474,-95.91853835213858
exact,pre_advance,A,no_revision,joint_indicator_revision_dfm_full_kalman_em,2009:Q3,4.181962211915638,-91.73657614022295
exact,pre_advance,A,no_revision,joint_indicator_revision_dfm_full_kalman_em,2009:Q4,1.8113567915186453,-89.9252193487043
exact,pre_advance,A,no_revision,joint_indicator_revision_dfm_full_kalman_em,2010:Q1,-9.86615030179336,-99.79136965049766
exact,pre_advance,A,no_revision,joint_indicator_revision_dfm_full_kalman_em,2010:Q2,-4.953347853507896,-104.74471750400555
exact,pre_advance,A,no_revision,joint_indicator_revision_dfm_full_kalman_em,2010:Q3,0.06565835279920607,-104.67905915120635
exact,pre_advance,A,no_revision,joint_indicator_revision_dfm_full_kalman_em,2010:Q4,0.11609837928267625,-104.56296077192367
exact,pre_advance,A,no_revision,joint_indicator_revision_dfm_full_kalman_em,2011:Q1,-17.035544021722338,-121.59850479364601
exact,pre_advance,A,no_revision,joint_indicator_revision_dfm_full_kalman_em,2011:Q2,0.6754714586454356,-120.92303333500058
exact,pre_advance,A,no_revision,joint_indicator_revision_dfm_full_kalman_em,2011:Q3,-0.41188004170923775,-121.33491337670982
exact,pre_advance,A,no_revision,joint_indicator_revision_dfm_full_kalman_em,2011:Q4,-2.8581981066399176,-124.19311148334974
exact,pre_advance,A,no_revision,joint_indicator_revision_dfm_full_kalman_em,2012:Q1,-5.323472625995525,-129.51658410934527
exact,pre_advance,A,no_revision,joint_indicator_revision_dfm_full_kalman_em,2012:Q2,-0.883266685942639,-130.3998507952879
exact,pre_advance,A,no_revision,joint_indicator_revision_dfm_full_kalman_em,2012:Q3,-0.04548303004666687,-130.44533382533456
exact,pre_advance,A,no_revision,joint_indicator_revision_dfm_full_kalman_em,2012:Q4,-9.075129525932347,-139.5204633512669
exact,pre_advance,A,no_revision,joint_indicator_revision_dfm_full_kalman_em,2013:Q1,1.749675653203309,-137.7707876980636
exact,pre_advance,A,no_revision,joint_indicator_revision_dfm_full_kalman_em,2013:Q2,-0.31083532222289345,-138.0816230202865
exact,pre_advance,A,no_revision,joint_indicator_revision_dfm_full_kalman_em,2013:Q3,0.5254269342128227,-137.55619608607367
exact,pre_advance,A,no_revision,joint_indicator_revision_dfm_full_kalman_em,2013:Q4,-0.5647054785973751,-138.12090156467104
exact,pre_advance,A,no_revision,joint_indicator_revision_dfm_full_kalman_em,2014:Q1,1.684151778984189,-136.43674978568686
exact,pre_advance,A,no_revision,joint_indicator_revision_dfm_full_kalman_em,2014:Q2,6.495188432306358,-129.9415613533805
exact,pre_advance,A,no_revision,joint_indicator_revision_dfm_full_kalman_em,2014:Q3,-0.21917254858530438,-130.1607339019658
exact,pre_advance,A,no_revision,joint_indicator_revision_dfm_full_kalman_em,2014:Q4,0.15918367494394414,-130.00155022702188
exact,pre_advance,A,no_revision,joint_indicator_revision_dfm_full_kalman_em,2015:Q1,4.032784430623504,-125.96876579639837
exact,pre_advance,A,no_revision,joint_indicator_revision_dfm_full_kalman_em,2015:Q2,0.5647599226114766,-125.4040058737869
exact,pre_advance,A,no_revision,joint_indicator_revision_dfm_full_kalman_em,2015:Q3,-0.4749470998616545,-125.87895297364855
exact,pre_advance,A,no_revision,joint_indicator_revision_dfm_full_kalman_em,2015:Q4,1.3220629787156395,-124.55688999493292
