haminh109/Revision-Aware-DFM/outputs/full_state_space_release_revision_dfm/exact_pseudo_backtest_mature_3y_max_iter100_journal_evidence/density_revision_records.csv
model_id,timing_mode,checkpoint_id,outcome_id,forecast_origin,forecast_origin_date,target_quarter,forecast_value,realized_value,forecast_error,calibration_n,predictive_variance,predictive_sd,log_score,crps,pit,prob_below_zero,prob_large_positive_revision_gt_0p2,prob_large_negative_revision_lt_minus_0p2,realized_below_zero,realized_large_positive_revision_gt_0p2,realized_large_negative_revision_lt_minus_0p2,lower_68,upper_68,covered_68,lower_90,upper_90,covered_90,density_method
ar,exact,pre_advance,DELTA_SA,2008:Q1:pre_advance:exact,2008-04-29,2008:Q1,0.1411112771385929,0.3031999999999999,-0.1620887228614069,12,0.4246599209606872,0.6516593596049145,-0.5216391003274016,0.16829114156909322,0.5982160639322176,0.41428285085886285,0.4639976547222556,0.3003304696330272,False,True,False,-0.5105480824663216,0.7927706367435075,True,-0.9307729840444243,1.2129955383216102,True,expanding_residual_calibrated_gaussian
ar,exact,pre_advance,DELTA_SA,2008:Q2:pre_advance:exact,2008-07-30,2008:Q2,0.282369571934375,1.3898,-1.1074304280656249,13,0.39034904148426913,0.6247791941832483,-2.0194860795511382,0.7740465723702007,0.9618454375419841,0.32565214687657407,0.5524437426826976,0.22003823857643454,False,True,False,-0.34240962224887334,0.9071487661176234,False,-0.7453007516617591,1.3100398955305093,False,expanding_residual_calibrated_gaussian
ar,exact,pre_advance,DELTA_SA,2008:Q3:pre_advance:exact,2008-10-29,2008:Q3,0.714132038935611,-0.2618,0.975932038935611,14,0.4397619285178273,0.6631454806585259,-1.5910855613659503,0.6432416168089662,0.07055485770722462,0.1407656143763366,0.7809167230844953,0.08402774221794611,True,False,True,0.05098655827708509,1.377277519594137,False,-0.37664521012204255,1.8049092879932644,True,expanding_residual_calibrated_gaussian
ar,exact,pre_advance,DELTA_SA,2008:Q4:pre_advance:exact,2009-01-29,2008:Q4,0.0793056065031563,-2.4444,2.523705606503156,15,0.489619774192295,0.6997283574304353,-7.065993877277928,2.128979418739733,0.00015506190326214565,0.45488141257423165,0.4315271446928919,0.3448865856738742,True,False,True,-0.6204227509272789,0.7790339639335916,False,-1.0716451200970913,1.230256333103404,False,expanding_residual_calibrated_gaussian
ar,exact,pre_advance,DELTA_SA,2009:Q1:pre_advance:exact,2009-04-28,2009:Q1,-0.8004772054187677,0.4245000000000001,-1.2249772054187678,16,0.8724453144493385,0.9340478116506341,-1.7106897986157223,0.780994262062496,0.9051507636642305,0.8042770342978589,0.14205775909989526,0.7398478170437643,False,True,False,-1.7345250170694018,0.13357060623186645,False,-2.3368491361583987,0.7358947253208634,True,expanding_residual_calibrated_gaussian
ar,exact,pre_advance,DELTA_SA,2009:Q2:pre_advance:exact,2009-07-30,2009:Q2,0.6102794438475987,0.0030000000000001,0.6072794438475986,17,0.9222140123109045,0.9603197448302854,-1.0783968070362877,0.3727179747460258,0.2635718699982457,0.2625524577173233,0.6653948670464631,0.1994017496000308,False,False,False,-0.3500403009826867,1.570599188677884,True,-0.9693059714696084,2.189864859164806,True,expanding_residual_calibrated_gaussian
ar,exact,pre_advance,DELTA_SA,2009:Q3:pre_advance:exact,2009-10-28,2009:Q3,0.1888383411693894,-0.7522000000000002,0.9410383411693896,18,0.8865924051252095,0.9415903595116135,-1.3581674818799925,0.5668761957151592,0.15879715367694366,0.4205242345632513,0.49527102916957677,0.3398182767319277,True,False,True,-0.752752018342224,1.130428700681003,True,-1.3599399767758287,1.7376166591146076,True,expanding_residual_calibrated_gaussian
ar,exact,pre_advance,DELTA_SA,2009:Q4:pre_advance:exact,2010-01-28,2009:Q4,-0.3373558541688579,0.1962000000000001,-0.5335558541688581,19,0.8781524605607329,0.9370978927309211,-1.0160623635177632,0.3370191538924492,0.715447618861339,0.6405766777250558,0.28317830477890693,0.5582665638673037,False,False,False,-1.274453746899779,0.5997420385620633,True,-1.8787447218358952,1.2040330134981794,True,expanding_residual_calibrated_gaussian
ar,exact,pre_advance,DELTA_SA,2010:Q1:pre_advance:exact,2010-04-29,2010:Q1,0.0283511514001251,-0.2023000000000001,0.2306511514001252,20,0.8524346657244032,0.9232738844592124,-0.8703138879330322,0.23863310708399726,0.40136374958436594,0.48775152646202025,0.42625639563367823,0.40232733454373865,True,False,True,-0.8949227330590873,0.9516250358593376,True,-1.490299246122185,1.5470015489224351,True,expanding_residual_calibrated_gaussian
ar,exact,pre_advance,DELTA_SA,2010:Q2:pre_advance:exact,2010-07-29,2010:Q2,-0.0683836223313969,-0.7725,0.704116377668603,21,0.8109702893599383,0.9005388883107371,-1.119847402563579,0.4195430597384302,0.2171415606048919,0.5302651252599597,0.3828418210323462,0.44190033995824335,True,False,True,-0.9689225106421341,0.8321552659793402,True,-1.5496382789801597,1.4128710343173658,True,expanding_residual_calibrated_gaussian
ar,exact,pre_advance,DELTA_SA,2010:Q3:pre_advance:exact,2010-10-28,2010:Q3,-0.3068047363098523,0.5148000000000001,-0.8216047363098524,22,0.7899349260972257,0.8887828340473424,-1.2283082997812595,0.4908373271508362,0.8223650178799067,0.6350266804700622,0.28426310615818984,0.5478256266795237,False,True,False,-1.1955875703571945,0.5819780977374901,True,-1.7687224044648318,1.1551129318451272,True,expanding_residual_calibrated_gaussian
ar,exact,pre_advance,DELTA_SA,2010:Q4:pre_advance:exact,2011-01-27,2010:Q4,0.3116384840461248,-0.3850000000000002,0.696638484046125,23,0.791799161277662,0.8898309734312815,-1.1086720253691276,0.41506072418806556,0.21684627977817628,0.3630860061712751,0.5499204339758466,0.2826510925885202,True,False,True,-0.5781924893851567,1.2014694574774063,True,-1.1520032199760777,1.7752801880683273,True,expanding_residual_calibrated_gaussian
ar,exact,pre_advance,DELTA_SA,2011:Q1:pre_advance:exact,2011-04-27,2011:Q1,-0.1541999785436481,0.0939000000000001,-0.2480999785436481,24,0.773738675420703,0.8796241671422534,-0.8304547245180531,0.23329698515263542,0.6110482781972977,0.5695788757440579,0.3435947858549575,0.4792373684179985,False,False,False,-1.0338241456859016,0.7254241885986054,True,-1.6010529802217517,1.2926530231344555,True,expanding_residual_calibrated_gaussian
ar,exact,pre_advance,DELTA_SA,2011:Q2:pre_advance:exact,2011-07-28,2011:Q2,0.1222021712976695,-0.2928,0.4150021712976696,25,0.7462367244305209,0.8638499432369727,-0.8879792263438715,0.2799198536520927,0.3154679342689032,0.44375238341098877,0.4641199963697782,0.3545801916097403,True,False,True,-0.7416477719393032,0.9860521145346423,True,-1.2987045409774884,1.5431088835728275,True,expanding_residual_calibrated_gaussian
ar,exact,pre_advance,DELTA_SA,2011:Q3:pre_advance:exact,2011-10-26,2011:Q3,-0.0436641708390723,-0.4595999999999995,0.4159358291609272,26,0.7206453648374204,0.8489083371232847,-0.8751675826735014,0.27809947979240607,0.31207914299835543,0.5205108199067936,0.3870437679428824,0.4269435671678316,True,False,True,-0.892572507962357,0.8052441662842125,True,-1.4399941281056503,1.3526657864275056,True,expanding_residual_calibrated_gaussian
ar,exact,pre_advance,DELTA_SA,2011:Q4:pre_advance:exact,2012-01-26,2011:Q4,-0.1664617652864937,0.2299000000000002,-0.3963617652864939,27,0.6967414461618726,0.834710396581876,-0.8510090843233009,0.268773725368105,0.6825528548970748,0.5790346803860846,0.3303203942617622,0.48397501610143684,False,True,False,-1.0011721618683698,0.6682486312953823,True,-1.5394381885582942,1.2065146579853068,True,expanding_residual_calibrated_gaussian
ar,exact,pre_advance,DELTA_SA,2012:Q1:pre_advance:exact,2012-04-26,2012:Q1,0.146748410605829,-0.3447,0.491448410605829,28,0.679983491168534,0.8246111151133811,-0.9036888332276318,0.30621476713210716,0.27559563941211634,0.4293769012051644,0.4742550718629621,0.3370603641563587,True,False,True,-0.6778627045075521,0.9713595257192101,True,-1.209616172912914,1.503112994124572,True,expanding_residual_calibrated_gaussian
ar,exact,pre_advance,DELTA_SA,2012:Q2:pre_advance:exact,2012-07-26,2012:Q2,-0.1038122691178062,0.1949,-0.2987122691178063,29,0.6612840302735421,0.8131937224754887,-0.7796191025501159,0.2333282296174999,0.6433143946520312,0.5507909566151604,0.3543495512289927,0.45292135399934796,False,False,False,-0.9170059915932949,0.7093814533576825,True,-1.4413969129457829,1.2337723747101703,True,expanding_residual_calibrated_gaussian
ar,exact,pre_advance,DELTA_SA,2012:Q3:pre_advance:exact,2012-10-25,2012:Q3,0.1733371102203946,0.6579000000000002,-0.4845628897796055,30,0.6438563178730354,0.8024065789068753,-0.8811384352741132,0.3008349535144477,0.7270406088693881,0.41448547613455494,0.4867461244701212,0.32086843260349873,False,True,False,-0.6290694686864806,0.9757436891272699,True,-1.1465042613843017,1.493178481825091,True,expanding_residual_calibrated_gaussian
ar,exact,pre_advance,DELTA_SA,2012:Q4:pre_advance:exact,2013-01-29,2012:Q4,0.3745038169834829,0.2694999999999999,0.1050038169834829,31,0.6330238634687501,0.7956279680031051,-0.699023789583475,0.19145478602830163,0.44750162737267873,0.3189267146195405,0.5868028835837016,0.23512389328080177,False,True,False,-0.4211241510196222,1.170131784986588,True,-0.9341877318904543,1.6831953658574201,True,expanding_residual_calibrated_gaussian
ar,exact,pre_advance,DELTA_SA,2013:Q1:pre_advance:exact,2013-04-25,2013:Q1,0.2735383342584925,-0.1162,0.3897383342584926,32,0.6126399752717877,0.7827132139371277,-0.797917996315205,0.25877542445430474,0.3092658155471392,0.3633665436816145,0.5374267943869613,0.27259083968523407,True,False,False,-0.5091748796786352,1.05625154819562,True,-1.0139103345488356,1.5609870030658206,True,expanding_residual_calibrated_gaussian
ar,exact,pre_advance,DELTA_SA,2013:Q2:pre_advance:exact,2013-07-30,2013:Q2,-0.006310028729751,0.8419999999999999,-0.8483100287297509,33,0.5965539991783618,0.7723690822258241,-1.263801488289796,0.5188987238475902,0.8639680664911817,0.5032592050952738,0.3946909765859625,0.4009944787158185,False,True,False,-0.7786791109555751,0.7660590534960732,False,-1.2767441149740777,1.2641240575145756,True,expanding_residual_calibrated_gaussian
ar,exact,pre_advance,DELTA_SA,2013:Q3:pre_advance:exact,2013-11-06,2013:Q3,0.4736264614294589,0.7550000000000003,-0.2813735385705413,34,0.603912299441874,0.7771179443571445,-0.7323238689713444,0.22181365810630127,0.6413513145719705,0.27110801595200706,0.6376199258509733,0.19301852815437973,False,True,False,-0.30349148292768563,1.2507444057866035,True,-0.8046188079154626,1.7518717307743805,True,expanding_residual_calibrated_gaussian
ar,exact,pre_advance,DELTA_SA,2013:Q4:pre_advance:exact,2014-01-29,2013:Q4,0.3920541653838421,-0.8431000000000002,1.2351541653838425,35,0.5893693534627156,0.7677039490993358,-1.9488571467999536,0.8369678767730119,0.05381977681055331,0.3047861539721368,0.5987708835811637,0.22029385750105493,True,False,True,-0.37564978371549373,1.159758114483178,False,-0.8707064597171688,1.654814790484853,True,expanding_residual_calibrated_gaussian
ar,exact,pre_advance,DELTA_SA,2014:Q1:pre_advance:exact,2014-04-29,2014:Q1,-0.3707296002667286,-1.0928,0.7220703997332714,36,0.6118962719422345,0.7822379893243708,-1.0993831706801003,0.43132525150904244,0.1779820398903268,0.6822267055364226,0.23281393624365987,0.5863859024373897,True,False,True,-1.1529675895910994,0.41150838905764225,True,-1.657396594146147,0.9159373936126898,True,expanding_residual_calibrated_gaussian
ar,exact,pre_advance,DELTA_SA,2014:Q2:pre_advance:exact,2014-07-29,2014:Q2,-0.3807469573065625,0.2237999999999997,-0.6045469573065623,37,0.6061187067786769,0.7785362591290639,-0.9700884618422942,0.36034773600917935,0.7812782265435219,0.6875985782797698,0.22784964982621314,0.5917941151258977,False,True,False,-1.1592832164356264,0.3977893018225014,True,-1.6613251468482344,0.8998312322351094,True,expanding_residual_calibrated_gaussian
ar,exact,pre_advance,DELTA_SA,2014:Q3:pre_advance:exact,2014-10-29,2014:Q3,0.0960389505392824,0.3467000000000002,-0.2506610494607177,38,0.602621916044835,0.776287263868753,-0.7178372194563353,0.2134262828680568,0.6266134835281838,0.4507701757531954,0.4467325818293745,0.3514709171503958,False,True,False,-0.6802483133294707,0.8723262144080354,True,-1.1808399709914705,1.3729178720700355,True,expanding_residual_calibrated_gaussian
ar,exact,pre_advance,DELTA_SA,2014:Q4:pre_advance:exact,2015-01-29,2014:Q4,0.1688907339298215,-0.4497999999999997,0.6186907339298213,39,0.589512433759291,0.7677971306011054,-0.9793654161063403,0.3682178025575947,0.2101791618546902,0.4129480714314504,0.48384025396341823,0.315452519306341,True,False,True,-0.598906396671284,0.9366878645309269,True,-1.0940231611023399,1.431804628961983,True,expanding_residual_calibrated_gaussian
ar,exact,pre_advance,DELTA_SA,2015:Q1:pre_advance:exact,2015-04-28,2015:Q1,-0.1664187565321353,-0.9973,0.8308812434678646,40,0.5819679549174603,0.7628682421738765,-1.2413971558008312,0.5074387982689682,0.13804291899882515,0.5863433941091662,0.3155009215726744,0.48244434394875946,True,False,True,-0.9292869987060118,0.5964494856417412,False,-1.42122535155793,1.0883878384936594,True,expanding_residual_calibrated_gaussian
ar,exact,pre_advance,DELTA_SA,2015:Q2:pre_advance:exact,2015-07-29,2015:Q2,-0.3349089662402753,1.3627000000000002,-1.6976089662402756,41,0.5810925653894671,0.7622942774214346,-3.127220859549192,1.2744286892597698,0.9870254692630422,0.669793637376981,0.24143024320280715,0.5702369843510153,False,True,False,-1.0972032436617098,0.42738531118115936,False,-1.5887714732612739,0.9189535407807232,False,expanding_residual_calibrated_gaussian
ar,exact,pre_advance,DELTA_SA,2015:Q3:pre_advance:exact,2015-10-28,2015:Q3,0.677687720737902,0.5856999999999999,0.091987720737902,42,0.6438913268592905,0.8024283936023765,-0.7053966593985387,0.19172579676784313,0.4543665555412232,0.19918217423662754,0.7241793957358085,0.1370236635239864,False,True,False,-0.12474067286447454,1.4801161143402783,True,-0.6421895328478104,1.9975649743236144,True,expanding_residual_calibrated_gaussian
ar,exact,pre_advance,DELTA_SA,2015:Q4:pre_advance:exact,2016-01-28,2015:Q4,0.3567967296908301,0.314,0.04279672969083,43,0.6285881067771159,0.7928354853165415,-0.6882558798461244,0.18620305906183193,0.47847581554900886,0.32634577953522775,0.5783863337234652,0.24125062033941624,False,True,False,-0.43603875562571137,1.1496322150073714,True,-0.9473015939079139,1.660895053289574,True,expanding_residual_calibrated_gaussian
ar,exact,pre_advance,DELTA_SA,2016:Q1:pre_advance:exact,2016-04-27,2016:Q1,0.2661399341306913,0.3027000000000001,-0.0365600658693087,44,0.6139753007284686,0.7835657603089026,-0.6761267555224536,0.18379579110396738,0.5186073287096765,0.36705918336716054,0.5336343395051832,0.27595658195700956,False,True,False,-0.5174258261782112,1.049705694439594,True,-1.022711048668395,1.5549909169297778,True,expanding_residual_calibrated_gaussian
ar,exact,pre_advance,DELTA_SA,2016:Q2:pre_advance:exact,2016-07-28,2016:Q2,0.2681291742259852,-0.1195999999999999,0.3877291742259852,45,0.6002201447530114,0.7747387590362389,-0.7889414533631408,0.2568889937278131,0.3083740558361434,0.36463761822301954,0.5350371241973474,0.272841604939965,True,False,False,-0.5066095848102536,1.0428679332622242,True,-1.006202683514655,1.5424610319666254,True,expanding_residual_calibrated_gaussian
ar,exact,pre_advance,DELTA_SA,2016:Q3:pre_advance:exact,2016-10-27,2016:Q3,0.0452506389225619,0.2565999999999997,-0.2113493610774377,46,0.5892752251909242,0.767642641592378,-0.6924088332221303,0.20246284636944822,0.6084657951207002,0.4764969495261257,0.4201184887116549,0.3746792193177847,False,True,False,-0.7223920026698162,0.8128932805149399,True,-1.2174091443032702,1.3079104221483941,True,expanding_residual_calibrated_gaussian
ar,exact,pre_advance,DELTA_SA,2016:Q4:pre_advance:exact,2017-01-26,2016:Q4,0.1492374075003102,-0.0169999999999999,0.1662374075003101,47,0.5780679783539887,0.7603078181591905,-0.6688094199741477,0.19212296478211155,0.4134633468120972,0.42219335124457186,0.4733840579813309,0.32299614025339074,True,False,False,-0.6110704106588802,0.9095452256595007,True,-1.1013576647983947,1.3998324797990152,True,expanding_residual_calibrated_gaussian
ar,exact,pre_advance,DELTA_SA,2017:Q1:pre_advance:exact,2017-04-27,2017:Q1,0.0659129056715515,0.4599999999999998,-0.3940870943284483,48,0.5660158927960915,0.7523402772656077,-0.7715630298030036,0.2563386952535299,0.6997963773630892,0.4650931293965414,0.42927248686932096,0.36187643289587035,False,True,False,-0.6864273715940562,0.8182531829371592,True,-1.1715767280904597,1.3034025394335627,True,expanding_residual_calibrated_gaussian
ar,exact,pre_advance,DELTA_SA,2017:Q2:pre_advance:exact,2017-07-27,2017:Q2,0.3338386109932738,0.4662000000000001,-0.1323613890067263,49,0.5584239974626165,0.747277724452306,-0.6433067473119927,0.18396366867472547,0.5702948038701658,0.3275315143976687,0.5710710239615187,0.23749680024464262,False,True,False,-0.4134391134590322,1.0811163354455797,True,-0.8953238644121446,1.5630010863986923,True,expanding_residual_calibrated_gaussian
ar,exact,pre_advance,DELTA_SA,2017:Q3:pre_advance:exact,2017-10-26,2017:Q3,0.259901632394651,0.3077000000000001,-0.047798367605349,50,0.5476949804923225,0.7400641732257565,-0.62000588380572,0.1741804440563133,0.5257484976647616,0.36272366846617426,0.5322556159208367,0.26715679009257187,False,True,False,-0.48016254083110543,0.9999658056204075,True,-0.9573956071125771,1.4771988719018792,True,expanding_residual_calibrated_gaussian
ar,exact,pre_advance,DELTA_SA,2017:Q4:pre_advance:exact,2018-01-25,2017:Q4,0.1708964419460579,-0.0190000000000001,0.189896441946058,51,0.5369160240366202,0.7327455383942096,-0.641563028654198,0.1907629760218069,0.3977568921359906,0.407792359441727,0.4841587738367654,0.3063673955925226,True,False,False,-0.5618490964481517,0.9036419803402675,True,-1.034362714514167,1.3761555984062828,True,expanding_residual_calibrated_gaussian
ar,exact,pre_advance,DELTA_SA,2018:Q1:pre_advance:exact,2018-04-26,2018:Q1,0.0389715350373021,-0.1434999999999999,0.182471535037302,52,0.5267930880403595,0.7258051308997199,-0.6300672271324429,0.18782245572880818,0.40075023698916024,0.47858939689618335,0.41221071705530565,0.37098326472146176,True,False,False,-0.6868335958624178,0.764776665937022,True,-1.15487166698309,1.2328147370576943,True,expanding_residual_calibrated_gaussian
ar,exact,pre_advance,DELTA_SA,2018:Q2:pre_advance:exact,2018-07-26,2018:Q2,-0.0088385496543845,0.1665000000000001,-0.1753385496543846,53,0.5170056828139263,0.7190310722172766,-0.6188201954267755,0.18500749559632343,0.5963280229864637,0.5049037969207917,0.3857381395918008,0.3951735966590999,False,False,False,-0.727869621871661,0.7101925225628921,True,-1.1915394166817779,1.1738623173730087,True,expanding_residual_calibrated_gaussian
ar,exact,pre_advance,DELTA_SA,2018:Q3:pre_advance:exact,2018-10-25,2018:Q3,0.0614125513665548,0.0043999999999999,0.0570125513665549,54,0.5081923625633052,0.7128761200680699,-0.5836889470322514,0.1684136175513826,0.46812841145032674,0.46567455108395306,0.42292896665882285,0.35692094380805905,False,False,False,-0.6514635687015151,0.7742886714346247,True,-1.111164320294503,1.2339894230276127,True,expanding_residual_calibrated_gaussian
ar,exact,pre_advance,DELTA_SA,2019:Q1:pre_advance:exact,2019-04-25,2019:Q1,0.4648889202031996,-0.1047000000000002,0.5695889202031998,55,0.49878361160320517,0.7062461409474782,-0.8963698048573119,0.338986945399842,0.20997672967015596,0.2551876597507603,0.646194311491759,0.173239510998053,True,False,False,-0.24135722074427857,1.171135061150678,True,-0.6967826062547404,1.6265604466611396,True,expanding_residual_calibrated_gaussian
ar,exact,pre_advance,DELTA_SA,2019:Q2:pre_advance:exact,2019-07-25,2019:Q2,-0.026254198058714,-0.0171000000000001,-0.0091541980587139,56,0.49460715461731874,0.7032831255030357,-0.5670275169664123,0.1644012691111298,0.505192636358077,0.514889419407351,0.3738356707947246,0.4024349262110288,True,False,False,-0.7295373235617497,0.6770289274443217,True,-1.1830519978161498,1.1305436016987216,True,expanding_residual_calibrated_gaussian
ar,exact,pre_advance,DELTA_SA,2019:Q3:pre_advance:exact,2019-10-29,2019:Q3,0.0592963312990124,0.205,-0.1457036687009876,57,0.4858482509348452,0.6970281564864114,-0.5798569928225081,0.17499861097318486,0.5827897592463157,0.4661027869029366,0.42001220916046467,0.354945432834436,False,True,False,-0.637731825187399,0.7563244877854237,True,-1.0872129599849596,1.2058056225829845,True,expanding_residual_calibrated_gaussian
ar,exact,pre_advance,DELTA_SA,2019:Q4:pre_advance:exact,2020-01-29,2019:Q4,0.1665444581766966,0.0148000000000001,0.1517444581766964,58,0.47801482290201397,0.6913861604790871,-0.573967190113861,0.17480702992157698,0.4131386288307095,0.40482217849176655,0.4807030800863583,0.29800091637592757,False,False,False,-0.5248417023023905,0.8579306186557837,True,-0.9706845755113824,1.3037734918647756,True,expanding_residual_calibrated_gaussian
ar,exact,pre_advance,DELTA_SA,2020:Q1:pre_advance:exact,2020-04-28,2020:Q1,0.0727039693006021,-0.2644999999999999,0.3372039693006021,59,0.4699454540287458,0.6855256771476513,-0.6623476299446294,0.2250728918055988,0.31139817036391726,0.45776904267475726,0.4263434962570146,0.3453878112754757,True,False,True,-0.6128217078470493,0.7582296464482534,True,-1.054885427124076,1.2002933657252803,True,expanding_residual_calibrated_gaussian
ar,exact,pre_advance,DELTA_SA,2020:Q2:pre_advance:exact,2020-07-29,2020:Q2,0.2227703703745247,1.1996999999999964,-0.9769296296254716,60,0.4633299063050595,0.6806834112163007,-1.564207068240888,0.6390663462374115,0.9243876212217561,0.37173011244601023,0.5133430158022539,0.2672679277460793,False,True,False,-0.457913040841776,0.9034537815908255,False,-0.8968542073703079,1.3423949481193573,True,expanding_residual_calibrated_gaussian
ar,exact,pre_advance,DELTA_SA,2020:Q3:pre_advance:exact,2020-10-28,2020:Q3,2.555388340709694,-0.0142999999999986,2.5696883407096927,61,0.4731454145990595,0.6878556640742733,-7.522847625660335,2.1816380500082992,9.356121463487042e-05,0.0001015991902063265,0.999691748271003,3.09085051900985e-05,True,False,False,1.8675326766354208,3.2432440047839672,False,1.423966456838012,3.686810224581376,False,expanding_residual_calibrated_gaussian
ar,exact,pre_advance,DELTA_SA,2020:Q4:pre_advance:exact,2021-01-27,2020:Q4,0.6762934737196877,0.0797999999999996,0.5964934737196881,62,0.5685691512043828,0.7540352453329903,-0.9495169919172453,0.3552266664301345,0.21445203179130742,0.18488640114335683,0.7361952784454655,0.12258958265776666,False,False,False,-0.07774177161330253,1.430328719052678,True,-0.5639841344155245,1.9165710818549,True,expanding_residual_calibrated_gaussian
ar,exact,pre_advance,DELTA_SA,2021:Q1:pre_advance:exact,2021-04-28,2021:Q1,0.1141893782717202,0.0112000000000005,0.1029893782717197,63,0.5636130826110703,0.7507416883396515,-0.6416545472906743,0.1810721726427309,0.4454428732568482,0.43955320873099374,0.45449954421833627,0.33778885481779897,False,False,False,-0.6365523100679313,0.8649310666113716,True,-1.1206708106974272,1.3490495672408678,True,expanding_residual_calibrated_gaussian
ar,exact,pre_advance,DELTA_SA,2021:Q2:pre_advance:exact,2021-07-28,2021:Q2,0.1447917586216602,0.0527999999999995,0.0919917586216607,64,0.5546697293624968,0.7447615251625831,-0.6318757195786155,0.178574324882565,0.4508482988468616,0.4229260264958312,0.4704539692473926,0.32169798095919155,False,False,False,-0.5999697665409229,0.8895532837842433,True,-1.0802319372559246,1.3698154544992451,True,expanding_residual_calibrated_gaussian
ar,exact,pre_advance,DELTA_SA,2021:Q3:pre_advance:exact,2021-10-27,2021:Q3,0.1470672919152162,0.0880999999999998,0.0589672919152164,65,0.5460031020574964,0.7389202271270535,-0.6195573997266206,0.17455825520115806,0.46819737760534763,0.42111963918117234,0.47144610794346686,0.31928639496677,False,False,False,-0.5918529352118373,0.8859875190422697,True,-1.0683483237025233,1.3624829075329559,True,expanding_residual_calibrated_gaussian
ar,exact,pre_advance,DELTA_SA,2021:Q4:pre_advance:exact,2022-01-26,2021:Q4,0.0843496025345156,0.0993000000000003,-0.0149503974654847,66,0.5376173159953284,0.7332239194102497,-0.608842267951364,0.17147235565309304,0.5081338486733127,0.45420696644390685,0.4373353233686529,0.3490793143507632,False,False,False,-0.648874316875734,0.8175735219447653,True,-1.1216964206750075,1.2903956257440388,True,expanding_residual_calibrated_gaussian
ar,exact,pre_advance,DELTA_SA,2022:Q1:pre_advance:exact,2022-04-27,2022:Q1,0.1550189766333507,-0.0959000000000001,0.2509189766333508,67,0.5296334449502283,0.7277591943426261,-0.6605911189768326,0.20424931942728886,0.36512876836989094,0.415660122297059,0.47535803969186374,0.31283697507614683,True,False,False,-0.5727402177092754,0.8827781709759769,True,-1.0420383737283991,1.3520763269951006,True,expanding_residual_calibrated_gaussian
ar,exact,pre_advance,DELTA_SA,2022:Q2:pre_advance:exact,2022-07-27,2022:Q2,0.0252303062888912,0.3589,-0.3336696937111088,68,0.5221205833509792,0.7225791190942201,-0.7006287116837964,0.22926296027888418,0.6778790174938698,0.48607295624658386,0.40444072593853053,0.37763300444858006,False,True,False,-0.6973488128053289,0.7478094253831113,True,-1.1633065785126364,1.2137671910904189,True,expanding_residual_calibrated_gaussian
ar,exact,pre_advance,DELTA_SA,2022:Q3:pre_advance:exact,2022-10-26,2022:Q3,0.0582376027017708,0.3631999999999999,-0.3049623972982291,69,0.5170440952862215,0.7190577829953734,-0.6790612725907783,0.21887916290806014,0.6642586238929671,0.4677243372062921,0.4218549938661784,0.3597476813575712,False,True,False,-0.6608201802936026,0.7772953856971442,True,-1.1245071996458538,1.2409824050493954,True,expanding_residual_calibrated_gaussian
ar,exact,pre_advance,DELTA_SA,2022:Q4:pre_advance:exact,2023-01-25,2022:Q4,0.1085327350948528,-0.2158000000000002,0.324332735094853,70,0.5117107809798078,0.7153396263173234,-0.686725038944003,0.22485162629936795,0.32513150121792,0.43970311534100254,0.44912770367411214,0.3331216929101138,True,False,True,-0.6068068912224706,0.8238723614121762,True,-1.0680962437553074,1.285161713945013,True,expanding_residual_calibrated_gaussian
ar,exact,pre_advance,DELTA_SA,2023:Q1:pre_advance:exact,2023-04-26,2023:Q1,0.0808547693367951,0.2098999999999999,-0.1290452306632048,71,0.5052529556877762,0.7108114768964948,-0.5940700358033237,0.1754337822678137,0.5720306230750472,0.45471800788671946,0.4334416654304758,0.34637771568426445,False,True,False,-0.6299567075596997,0.79166624623329,True,-1.0883260665151369,1.2500356051887271,True,expanding_residual_calibrated_gaussian
ar,exact,pre_advance,DELTA_SA,2023:Q2:pre_advance:exact,2023-07-26,2023:Q2,0.0786861488683192,-0.3529,0.4315861488683192,72,0.49875415056219585,0.7062252831513439,-0.7578494222821266,0.2671058040228351,0.27056112282926886,0.45564247702903704,0.4318060952578118,0.3465640127398181,True,False,True,-0.6275391342830248,0.7849114320196631,True,-1.0829510695679991,1.2403233673046377,True,expanding_residual_calibrated_gaussian
ar,exact,pre_advance,DELTA_SA,2023:Q3:pre_advance:exact,2023-10-25,2023:Q3,0.0656009239904817,0.2763,-0.2106990760095182,73,0.4935312336732911,0.702517781748826,-0.6108299460340085,0.18919788661757594,0.6178808798020407,0.4628009448169175,0.42414114088482213,0.352689282983646,False,True,False,-0.6369168577583443,0.7681187057393076,True,-1.0899379973169774,1.221139845297941,True,expanding_residual_calibrated_gaussian
ar,exact,pre_advance,DELTA_SA,2023:Q4:pre_advance:exact,2024-01-24,2023:Q4,0.1337989225363234,-0.0709999999999997,0.2047989225363231,74,0.4879417764281283,0.6985282932194861,-0.6031380396936661,0.18702661406173296,0.3846898793666247,0.42404969507872153,0.4622478761620804,0.3163748284515161,True,False,False,-0.5647293706831626,0.8323272157558095,True,-1.0151778740939696,1.2827757191666165,True,expanding_residual_calibrated_gaussian
ar,exact,pre_advance,DELTA_SA,2024:Q1:pre_advance:exact,2024-04-24,2024:Q1,0.092510887819583,-0.3404999999999998,0.4330108878195828,75,0.4815565525077868,0.6939427588121276,-0.7482522844348619,0.26659644124024073,0.2663182375371325,0.44697332410781,0.43845156573823396,0.33668763337665986,True,False,True,-0.6014318709925446,0.7864536466317107,True,-1.0489233759092558,1.2339451515484219,True,expanding_residual_calibrated_gaussian
ar,exact,pre_advance,DELTA_SA,2024:Q2:pre_advance:exact,2024-07-24,2024:Q2,0.0533853342525936,0.1112999999999999,-0.0579146657474063,76,0.4767625909354181,0.6904799714223564,-0.5520878085058887,0.1632984869684089,0.5334224706171735,0.46918597497983255,0.4159219415244225,0.3568207523556608,False,False,False,-0.6370946371697628,0.74386530567495,True,-1.0823531510788182,1.1891238195840055,True,expanding_residual_calibrated_gaussian
ar,exact,pre_advance,DELTA_SA,2024:Q3:pre_advance:exact,2024-10-29,2024:Q3,0.0945532127990609,0.0087999999999999,0.085753212799061,77,0.47075844595313016,0.6861183906244827,-0.5500438374932397,0.16461260959286741,0.45026845942703964,0.44519572968709475,0.43892866417793464,0.3338510862541543,False,False,False,-0.5915651778254217,0.7806716034235436,True,-1.0340111105377263,1.2231175361358482,True,expanding_residual_calibrated_gaussian
ar,exact,pre_advance,DELTA_SA,2024:Q4:pre_advance:exact,2025-01-29,2024:Q4,0.0885662047910598,0.0939000000000001,-0.0053337952089402,78,0.46464473290488045,0.6816485406020323,-0.5357280569854314,0.1593144904134395,0.503121630258051,0.4483111308359709,0.43507147697158277,0.3360251526506964,False,False,False,-0.5930823358109725,0.7702147453930921,True,-1.0326458695243708,1.2097782791064904,True,expanding_residual_calibrated_gaussian
ar,exact,pre_second,DELTA_TS,2008:Q1:pre_second:exact,2008-05-28,2008:Q1,0.0600251098958206,0.0587,0.0013251098958205,12,0.05163235358648373,0.22722753703388093,0.5628478605106191,0.053105016943716485,0.4976735241943527,0.39582715674492175,0.26894329911285286,0.12624174069120236,False,False,False,-0.16720242713806033,0.28725264692970154,True,-0.3137309285376084,0.43378114832924963,True,expanding_residual_calibrated_gaussian
ar,exact,pre_second,DELTA_TS,2008:Q2:pre_second:exact,2008-08-27,2008:Q2,0.100772173228941,-0.4531,0.5538721732289411,13,0.04746467013458396,0.21786387983000755,-2.626661389178188,0.4317210799179194,0.005506509442518218,0.32184473524218626,0.3243899217635178,0.08370854605464599,True,False,True,-0.11709170660106655,0.31863605305894854,False,-0.2575820196911666,0.4591263661490486,False,expanding_residual_calibrated_gaussian
ar,exact,pre_second,DELTA_TS,2008:Q3:pre_second:exact,2008-11-24,2008:Q3,-0.1583427007994933,0.0033999999999999,-0.1617427007994932,14,0.0626755102994184,0.2503507745133184,0.25725416590968936,0.09880196316323268,0.7408811466455043,0.7364644631251928,0.0761631805420172,0.4339227681096104,False,False,False,-0.4086934753128117,0.09200807371382508,True,-0.5701330802678353,0.2534476786688486,True,expanding_residual_calibrated_gaussian
ar,exact,pre_second,DELTA_TS,2008:Q4:pre_second:exact,2009-02-26,2008:Q4,0.0931111879520567,-0.0942999999999996,0.1874111879520563,15,0.06198909538547986,0.24897609400398235,0.1881604110330149,0.11194906717547887,0.2258067981341495,0.35421093027849704,0.33384752677870155,0.11954459823414579,True,False,False,-0.15586490605192566,0.34208728195603905,True,-0.3164180432946044,0.5026404191987177,True,expanding_residual_calibrated_gaussian
ar,exact,pre_second,DELTA_TS,2009:Q1:pre_second:exact,2009-05-28,2009:Q1,0.1325678027393972,0.2259999999999999,-0.0934321972606027,16,0.05885829135750111,0.24260727803901744,0.4232151815776731,0.07087615222568355,0.6499246488105113,0.29238532708560366,0.390526154723689,0.08521753343635896,False,True,False,-0.11003947529962024,0.37517508077841466,True,-0.26648565846790484,0.5316212639466993,True,expanding_residual_calibrated_gaussian
ar,exact,pre_second,DELTA_TS,2009:Q2:pre_second:exact,2009-08-26,2009:Q2,0.2749823419517103,0.2766999999999999,-0.0017176580482896,17,0.05672629505267802,0.2381728260164833,0.5157941707708975,0.05566473500679489,0.5028770724614896,0.12413745714943411,0.6235520692102272,0.023060952301192175,False,True,False,0.036809515935226994,0.5131551679681936,True,-0.1167770947627842,0.6667417786662048,True,expanding_residual_calibrated_gaussian
ar,exact,pre_second,DELTA_TS,2009:Q3:pre_second:exact,2009-11-23,2009:Q3,0.2248763601779096,-0.5463999999999998,0.7712763601779095,18,0.05359548775522431,0.2315069928862286,-5.005395070078936,0.640714775976085,0.0004318240267668124,0.16568481293198595,0.5427856049816887,0.03323331986168307,True,False,True,-0.006630632708319012,0.45638335306413824,False,-0.15591875673563219,0.6056714770914514,False,expanding_residual_calibrated_gaussian
ar,exact,pre_second,DELTA_TS,2009:Q4:pre_second:exact,2010-02-25,2009:Q4,-0.2121082936084128,-0.3730000000000002,0.1608917063915873,19,0.07756059854534765,0.2784970350746084,0.1925324538513868,0.10116689856159168,0.28172852760375544,0.7768559200529646,0.06946888308410848,0.5173394623852479,True,False,True,-0.4906053286830212,0.06638874146619558,True,-0.6701951518461138,0.24597856462928816,True,expanding_residual_calibrated_gaussian
ar,exact,pre_second,DELTA_TS,2010:Q1:pre_second:exact,2010-05-26,2010:Q1,-0.1805736028353486,-0.2984,0.1178263971646513,20,0.07370585262747227,0.27148821821116337,0.29071918649301176,0.08353180887789231,0.332143537841117,0.747014729138133,0.08048670887325127,0.4714779419250762,True,False,True,-0.45206182104651194,0.09091461537581477,True,-0.6271319832345734,0.2659847775638762,True,expanding_residual_calibrated_gaussian
ar,exact,pre_second,DELTA_TS,2010:Q2:pre_second:exact,2010-08-26,2010:Q2,-0.1040265308932921,0.1048,-0.2088265308932921,21,0.0700415606353572,0.26465366167003473,0.09909011187963435,0.12437470579677638,0.7849603297327316,0.6528648761632992,0.12532514837710385,0.35843766766910873,False,False,False,-0.36868019256332685,0.16062713077674262,True,-0.5393430661772365,0.3312900043906523,True,expanding_residual_calibrated_gaussian
ar,exact,pre_second,DELTA_TS,2010:Q3:pre_second:exact,2010-11-22,2010:Q3,0.0998453241604311,0.0339999999999998,0.0658453241604313,22,0.07098060420561815,0.2664218538438958,0.3731949917430748,0.06872077705514933,0.40239728529551244,0.3539179886936769,0.35348627064948734,0.13019852213758082,False,False,False,-0.16657652968346467,0.36626717800432684,True,-0.33837962843383584,0.5380702767546981,True,expanding_residual_calibrated_gaussian
ar,exact,pre_second,DELTA_TS,2010:Q4:pre_second:exact,2011-02-24,2010:Q4,0.0543732040476938,0.3264,-0.2720267959523061,23,0.06776836589807013,0.26032357922030447,-0.11907560904074532,0.1649447553761277,0.8519784446421514,0.417275734649418,0.2879420404449108,0.16424933242644488,False,True,False,-0.20595037517261067,0.31469678326799827,False,-0.3738209794138129,0.48256738750920053,True,expanding_residual_calibrated_gaussian
ar,exact,pre_second,DELTA_TS,2011:Q1:pre_second:exact,2011-05-25,2011:Q1,0.1840968521247026,0.0726999999999999,0.1113968521247026,24,0.0700767944659788,0.264720219223955,0.3216028266462603,0.08029379847534159,0.336947001785482,0.24339000974642327,0.4760478291443523,0.07339633947728573,False,False,False,-0.08062336709925241,0.44881707134865756,True,-0.25132916059320864,0.6195228648426138,True,expanding_residual_calibrated_gaussian
ar,exact,pre_second,DELTA_TS,2011:Q2:pre_second:exact,2011-08-25,2011:Q2,0.0826892785471069,0.3447000000000001,-0.2620107214528931,25,0.06723120147378164,0.25928980210139707,-0.07967841508900364,0.15807132817787437,0.8438706010625454,0.3748985975254271,0.32547929126865394,0.13780272967867344,False,True,False,-0.17660052355429018,0.34197908064850396,False,-0.34380449287090553,0.5091830499651193,True,expanding_residual_calibrated_gaussian
ar,exact,pre_second,DELTA_TS,2011:Q3:pre_second:exact,2011-11-21,2011:Q3,0.2196184979915967,-0.1896000000000002,0.4092184979915969,26,0.0687823645686042,0.26226392159159867,-0.7978508272343043,0.27462997961339586,0.05934085370733408,0.20118528619185477,0.529814833620841,0.05480088895872976,True,False,False,-0.04264542360000198,0.48188241958319533,False,-0.21176726465686088,0.6510042606400542,True,expanding_residual_calibrated_gaussian
ar,exact,pre_second,DELTA_TS,2011:Q4:pre_second:exact,2012-02-28,2011:Q4,-0.0390680507254161,-0.0276,-0.0114680507254161,27,0.07072487799945637,0.26594149356476204,0.404610637026921,0.062346449860018395,0.5171980412315593,0.5583963721115561,0.18433970185714987,0.27254284697697373,True,False,False,-0.3050095442901781,0.22687344283934593,True,-0.47650288097230653,0.39836677952147437,True,expanding_residual_calibrated_gaussian
ar,exact,pre_second,DELTA_TS,2012:Q1:pre_second:exact,2012-05-30,2012:Q1,0.0201593821295551,0.0121,0.0080593821295551,28,0.06834419067188502,0.26142721868980096,0.42218562838517315,0.061193340410660345,0.4877031967548862,0.4692669093050167,0.2457520556546806,0.19985365773076,False,False,False,-0.24126783656024586,0.28158660081935605,True,-0.4098501267161997,0.4501688909753099,True,expanding_residual_calibrated_gaussian
ar,exact,pre_second,DELTA_TS,2012:Q2:pre_second:exact,2012-08-28,2012:Q2,0.0542284222174149,-0.4791000000000001,0.533328422217415,29,0.0660246454454121,0.2569526132293892,-1.7141130551230463,0.39191347773713875,0.018965916942470653,0.4164262942480924,0.28525206863840324,0.16123420674472477,True,False,True,-0.20272419101197434,0.31118103544680414,False,-0.36842101560760476,0.4768778600424346,False,expanding_residual_calibrated_gaussian
ar,exact,pre_second,DELTA_TS,2012:Q3:pre_second:exact,2012-11-28,2012:Q3,-0.1690199464195982,0.4342999999999999,-0.6033199464195982,30,0.07104872098788102,0.2665496595155976,-2.158330803572821,0.4551067689720561,0.9881958010258671,0.7369932068611247,0.08311306896121329,0.45373663711133916,False,True,False,-0.4355696059351958,0.09752971309599942,False,-0.607455120636509,0.26941522779731253,False,expanding_residual_calibrated_gaussian
ar,exact,pre_second,DELTA_TS,2012:Q4:pre_second:exact,2013-02-27,2012:Q4,0.2334352574488747,0.2525,-0.0190647425511252,31,0.08378353873722587,0.2894538628818518,0.31865176161176306,0.06814468083535447,0.5262571597856693,0.20998654633722774,0.5459801574542805,0.06714144039737346,False,True,False,-0.056018605432977125,0.5228891203307265,True,-0.24267397874745336,0.7095444936452028,True,expanding_residual_calibrated_gaussian
ar,exact,pre_second,DELTA_TS,2013:Q1:pre_second:exact,2013-05-29,2013:Q1,0.1899848579887264,-0.6094000000000002,0.7993848579887266,32,0.0812705840721508,0.2850799608393245,-3.595364050458443,0.6389737591489406,0.002523078400099465,0.25256924487584415,0.4859876440458337,0.08565852417387035,True,False,True,-0.0950951028505981,0.47506481882805096,False,-0.2789299495690202,0.6588996655464731,False,expanding_residual_calibrated_gaussian
ar,exact,pre_second,DELTA_TS,2013:Q2:pre_second:exact,2013-08-28,2013:Q2,-0.2371281731179624,-0.0339999999999998,-0.2031281731179626,33,0.09545799770109731,0.30896277720964593,0.03947442035874607,0.12364138035506043,0.7445548138215109,0.7786071239713733,0.07855994793814491,0.5478259079062668,True,False,False,-0.5460909503276083,0.07183460409168355,True,-0.7453267178042482,0.27107037156832336,True,expanding_residual_calibrated_gaussian
ar,exact,pre_second,DELTA_TS,2013:Q3:pre_second:exact,2013-12-04,2013:Q3,0.0214258366188206,0.5327999999999999,-0.5113741633811792,34,0.09490532510322071,0.3080670789020156,-1.119208189406339,0.3499810768410606,0.9515371615856058,0.4722762128366954,0.28107196091654185,0.23614486080226021,False,True,False,-0.28664124228319504,0.3294929155208362,False,-0.4852994154575052,0.5281510886951464,False,expanding_residual_calibrated_gaussian
ar,exact,pre_second,DELTA_TS,2013:Q4:pre_second:exact,2014-02-27,2013:Q4,0.2638284005265996,0.2418,0.0220284005265996,35,0.10179226846287516,0.31904900636559763,0.2210884969798185,0.0751666716739282,0.4724773218402137,0.20414085139415314,0.5792825054975095,0.07300307437371985,False,True,False,-0.055220605838998016,0.5828774068921972,True,-0.26096051476911697,0.7886173158223162,True,expanding_residual_calibrated_gaussian
ar,exact,pre_second,DELTA_TS,2014:Q1:pre_second:exact,2014-05-28,2014:Q1,0.1500423574002036,-1.9455,2.0955423574002037,36,0.09891233029446758,0.3145033072870102,-21.960106853684337,1.9181028674387677,1.341270282658598e-11,0.316653574594126,0.43689504011837244,0.13285409430669318,True,False,True,-0.1644609498868066,0.4645456646872138,False,-0.3672695482790685,0.6673542630794758,False,expanding_residual_calibrated_gaussian
ar,exact,pre_second,DELTA_TS,2014:Q2:pre_second:exact,2014-08-27,2014:Q2,-0.7957150664800472,0.4200999999999997,-1.215815066480047,37,0.20890749744655665,0.4570639971016714,-3.673951203083005,0.9590478704207419,0.9960935976632311,0.9591518148955602,0.01468432265697317,0.9037726143684184,False,True,False,-1.2527790635817186,-0.3386510693783758,False,-1.5475184398616686,-0.0439116930984258,False,expanding_residual_calibrated_gaussian
ar,exact,pre_second,DELTA_TS,2014:Q3:pre_second:exact,2014-11-24,2014:Q3,0.18616178702778,1.0710000000000002,-0.8848382129722201,38,0.24940188373217378,0.4994015255605191,-1.7942263043341802,0.6183835907356846,0.9617858842867542,0.3546599054901347,0.4889468863031383,0.219687482407362,False,True,False,-0.3132397385327391,0.6855633125882991,False,-0.6352806235955382,1.007604197651098,False,expanding_residual_calibrated_gaussian
ar,exact,pre_second,DELTA_TS,2014:Q4:pre_second:exact,2015-02-26,2014:Q4,0.4841223334290574,0.0249999999999999,0.4591223334290575,39,0.26638656437892777,0.5161265003649084,-0.6531882023533115,0.2735992402740629,0.18685273867317334,0.17412435772053028,0.709008237557719,0.09250375808583158,False,False,False,-0.03200416693585095,1.000248833793966,True,-0.3648302126619325,1.3330748795200473,True,expanding_residual_calibrated_gaussian
ar,exact,pre_second,DELTA_TS,2015:Q1:pre_second:exact,2015-05-28,2015:Q1,0.0561086229840617,0.5774,-0.5212913770159383,40,0.2637631042463154,0.513578722540484,-0.7677168126679716,0.31469429688913486,0.8449512506931195,0.4565019877419478,0.3896720274834713,0.3090043487816764,False,True,False,-0.45747009955642226,0.5696873455245457,False,-0.7886532015117571,0.9008704474798805,True,expanding_residual_calibrated_gaussian
ar,exact,pre_second,DELTA_TS,2015:Q2:pre_second:exact,2015-08-26,2015:Q2,0.3625495083294923,0.2363999999999997,0.1261495083294925,41,0.26538668172090285,0.515156948629156,-0.28563696004767425,0.1326520913798773,0.4032762711924958,0.24078951938843357,0.623821861974729,0.13741735243481168,False,True,False,-0.15260744029966367,0.8777064569586482,True,-0.4848082670724281,1.2099072837314127,True,expanding_residual_calibrated_gaussian
ar,exact,pre_second,DELTA_TS,2015:Q3:pre_second:exact,2015-11-23,2015:Q3,0.1202330462125123,-0.0944999999999998,0.2147330462125121,42,0.25907061689474675,0.508989800383806,-0.33260295500161696,0.1545625937710238,0.336555996684309,0.4066313801651713,0.43773425456550885,0.26462407061174276,True,False,False,-0.38875675417129374,0.6292228465963183,True,-0.7169806730300969,0.9574467654551215,True,expanding_residual_calibrated_gaussian
ar,exact,pre_second,DELTA_TS,2015:Q4:pre_second:exact,2016-02-25,2015:Q4,0.0072572058068582,0.3811,-0.3738427941931417,43,0.2535570656965029,0.5035445022006525,-0.5084509707760168,0.2235831457038956,0.7710843199291311,0.4942505458884808,0.3509443693140305,0.34031756149907777,False,True,False,-0.4962872963937943,0.5108017080075107,True,-0.8209997949693587,0.8355142065830751,True,expanding_residual_calibrated_gaussian
ar,exact,pre_second,DELTA_TS,2016:Q1:pre_second:exact,2016-05-26,2016:Q1,0.2376238772222749,0.2323999999999999,0.005223877222275,44,0.2517593208876505,0.501756236520933,-0.2293518677513138,0.11727960926123304,0.4958466129733301,0.3178981858409024,0.5298864276267643,0.19155394037537862,False,True,False,-0.26413235929865814,0.7393801137432079,True,-0.5876916882647025,1.0629394427092524,True,expanding_residual_calibrated_gaussian
ar,exact,pre_second,DELTA_TS,2016:Q2:pre_second:exact,2016-08-25,2016:Q2,0.1766591280750276,0.3151999999999999,-0.1385408719249723,45,0.2460662563463859,0.49605065905246604,-0.25686213427130694,0.13126116862113596,0.6099879963427686,0.36087114760604344,0.4812353323091414,0.22383181899284935,False,True,False,-0.31939153097743844,0.6727097871274936,True,-0.6392715976190892,0.9925898537691444,True,expanding_residual_calibrated_gaussian
ar,exact,pre_second,DELTA_TS,2016:Q3:pre_second:exact,2016-11-28,2016:Q3,0.2085726636292308,0.3584,-0.1498273363707691,46,0.24129409251548758,0.49121695055798675,-0.2545854677956068,0.13288624602575394,0.6198217043148541,0.3355627019827693,0.5069619429409071,0.2027733319796599,False,True,False,-0.282644286928756,0.6997896141872175,True,-0.5994073191161158,1.0165526463745773,True,expanding_residual_calibrated_gaussian
ar,exact,pre_second,DELTA_TS,2016:Q4:pre_second:exact,2017-02-27,2016:Q4,0.1857855496112392,0.2233,-0.0375144503887607,47,0.2367872182612091,0.48660786909092324,-0.2016135831236965,0.11487103734884474,0.530725537928748,0.35130587679389447,0.488348032900086,0.21394548319784243,False,True,False,-0.3008223194796841,0.6723934187021624,True,-0.6146131687660931,0.9861842679885714,True,expanding_residual_calibrated_gaussian
ar,exact,pre_second,DELTA_TS,2017:Q1:pre_second:exact,2017-05-25,2017:Q1,0.1537243117302007,0.2690000000000001,-0.1152756882697993,48,0.2318514113250413,0.48150951322382124,-0.21676657165166183,0.12348389992986362,0.5946041454675455,0.3747665828858534,0.4617184115826164,0.23128687309102655,False,True,False,-0.32778520149362056,0.6352338249540219,True,-0.6382883575076395,0.9457369809680409,True,expanding_residual_calibrated_gaussian
ar,exact,pre_second,DELTA_TS,2017:Q2:pre_second:exact,2017-08-29,2017:Q2,0.1888077505774061,0.0266999999999999,0.1621077505774062,49,0.22745827282961703,0.4769258567425518,-0.2363107660131393,0.13322793784225903,0.36696540364524977,0.346094966273672,0.4906386880831859,0.2074682437446462,False,False,False,-0.28811810616514566,0.6657336073199579,True,-0.5956654746725185,0.9732809758273306,True,expanding_residual_calibrated_gaussian
ar,exact,pre_second,DELTA_TS,2017:Q3:pre_second:exact,2017-11-28,2017:Q3,0.0439172242577536,-0.1394999999999999,0.1834172242577536,50,0.22317550364793337,0.4724145463974764,-0.2444110328971197,0.1384590624817563,0.348913734456343,0.4629663510241643,0.3705512619339195,0.3028153572713347,True,False,False,-0.4284973221397228,0.51633177065523,True,-0.73313555580877,0.8209700043242771,True,expanding_residual_calibrated_gaussian
ar,exact,pre_second,DELTA_TS,2017:Q4:pre_second:exact,2018-02-27,2017:Q4,-0.0345783611468029,0.3519000000000001,-0.386478361146803,51,0.21916890047584336,0.46815478260490234,-0.5007366030526792,0.22992405524329002,0.7954661625876999,0.5294394893698986,0.308160896408043,0.36191371603728917,False,True,False,-0.5027331437517052,0.43357642145809944,True,-0.8046244532891546,0.7354677309955487,True,expanding_residual_calibrated_gaussian
ar,exact,pre_second,DELTA_TS,2018:Q1:pre_second:exact,2018-05-29,2018:Q1,0.1964108625937384,-0.1833000000000002,0.3797108625937386,52,0.21826762422320553,0.46719120734791825,-0.48820524985274394,0.22594348558860722,0.2081799620159868,0.33709375818280596,0.49693520649642475,0.19808030862875098,True,False,False,-0.27078034475417984,0.6636020699416567,True,-0.5720502892923222,0.964872014479799,True,expanding_residual_calibrated_gaussian
ar,exact,pre_second,DELTA_TS,2018:Q2:pre_second:exact,2018-08-28,2018:Q2,-0.0306561516332095,-0.0674999999999999,0.0368438483667903,53,0.21643506008666558,0.4652258162297806,-0.15684214158590182,0.10988439083290294,0.468438512987047,0.5262693718708344,0.3100198919202387,0.3579276794640285,True,False,False,-0.4958819678629901,0.4345696645965711,True,-0.7958845228102231,0.7345722195438043,True,expanding_residual_calibrated_gaussian
ar,exact,pre_second,DELTA_TS,2018:Q3:pre_second:exact,2018-11-27,2018:Q3,-0.022605780705315,-0.1484999999999998,0.1258942192946848,54,0.21235175235477546,0.4608163976626434,-0.18150158170801217,0.12132701859610806,0.39235042433947254,0.5195626413202471,0.31452363080209733,0.35013486106789926,True,False,False,-0.48342217836795837,0.4382106169573284,True,-0.7805813037594259,0.7353697423487958,True,expanding_residual_calibrated_gaussian
ar,exact,pre_second,DELTA_TS,2019:Q1:pre_second:exact,2019-05-29,2019:Q1,-0.5635001866146694,0.0609999999999999,-0.6245001866146693,55,0.20857810327972326,0.4567035179191455,-1.0701204234341113,0.4028035885402158,0.9142513208101302,0.8913691907477836,0.04728550181228153,0.7869611920069371,False,False,False,-1.0202037045338148,-0.1067966686955239,False,-1.3147106245054725,0.18771025127613372,True,expanding_residual_calibrated_gaussian
ar,exact,pre_second,DELTA_TS,2019:Q2:pre_second:exact,2019-08-28,2019:Q2,0.0553867231403613,-0.0236,0.0789867231403613,56,0.21253233072143982,0.46101228912192765,-0.15928549171684772,0.11312199387282265,0.4319808777142586,0.45218551604069035,0.3768796224901223,0.28979987760523107,True,False,False,-0.40562556598156635,0.5163990122622889,True,-0.7029110126910422,0.8136844589717648,True,expanding_residual_calibrated_gaussian
ar,exact,pre_second,DELTA_TS,2019:Q3:pre_second:exact,2019-11-26,2019:Q3,0.0400819187290437,-0.0214000000000003,0.061481918729044,57,0.20879332912841236,0.4569390868905968,-0.14478542354478735,0.11007964753767821,0.44648317658023273,0.4650502882196565,0.3631780529197659,0.2996479205287914,True,False,False,-0.4168571681615531,0.4970210056196405,True,-0.7115159956388484,0.7916798330969357,True,expanding_residual_calibrated_gaussian
ar,exact,pre_second,DELTA_TS,2019:Q4:pre_second:exact,2020-02-26,2019:Q4,0.0389260285033676,0.0318999999999998,0.0070260285033678,58,0.20515532919709886,0.45294075682929974,-0.1270649029921758,0.10589345888753937,0.4938118454016518,0.4657567937189454,0.36106326021093604,0.2989233773759252,False,False,False,-0.4140147283259321,0.49186678533266737,True,-0.7060952181614509,0.7839472751681861,True,expanding_residual_calibrated_gaussian
ar,exact,pre_second,DELTA_TS,2020:Q1:pre_second:exact,2020-05-27,2020:Q1,0.0626050123543775,0.0540000000000002,0.0086050123543772,59,0.2016230683454751,0.44902457432246967,-0.1184444971086222,0.10500057310473883,0.49235522210441357,0.444557369294917,0.37980786098818875,0.27932953954852435,False,False,False,-0.3864195619680922,0.5116295866768472,True,-0.6759746873102775,0.8011847120190326,True,expanding_residual_calibrated_gaussian
ar,exact,pre_second,DELTA_TS,2020:Q2:pre_second:exact,2020-08-26,2020:Q2,0.2226642124584019,0.3214000000000006,-0.0987357875415986,60,0.19820954639415053,0.44520730721109075,-0.13431533073376267,0.1127427672537812,0.587755423924655,0.3084896510410943,0.52030022566393,0.1712175154600564,False,True,False,-0.22254309475268885,0.6678715196694927,True,-0.5096366415530591,0.9549650664698628,True,expanding_residual_calibrated_gaussian
ar,exact,pre_second,DELTA_TS,2020:Q3:pre_second:exact,2020-11-24,2020:Q3,1.0697573673306875,0.3727000000000018,0.6970573673306859,61,0.1951509519909051,0.4417589297240126,-1.346853044860015,0.4694498052851576,0.057292744597099446,0.007726465913984747,0.9755148794872268,0.0020244802708167743,False,True,False,0.627998437606675,1.5115162970547,False,0.34312858953594483,1.7963861451254302,True,expanding_residual_calibrated_gaussian
ar,exact,pre_second,DELTA_TS,2020:Q4:pre_second:exact,2021-02-24,2020:Q4,-0.0619677598879055,0.2328999999999998,-0.2948677598879055,62,0.19931301802343382,0.4464448656031714,-0.33061586638710216,0.1793217096729213,0.7455269714145007,0.5551969761452424,0.27867359765163524,0.3785919485169012,False,True,False,-0.5084126254910769,0.38447710571526594,True,-0.7963042163091446,0.6723686965333336,True,expanding_residual_calibrated_gaussian
ar,exact,pre_second,DELTA_TS,2021:Q1:pre_second:exact,2021-05-26,2021:Q1,0.0741194561374736,-0.0379000000000004,0.1120194561374741,63,0.1977981627476692,0.4447450536517176,-0.14040456804036788,0.11513159940420202,0.4005694539173775,0.43382034243053763,0.38857317012751524,0.2688311479393106,True,False,False,-0.370625597514244,0.5188645097891912,True,-0.6574210584302812,0.8056599707052284,True,expanding_residual_calibrated_gaussian
ar,exact,pre_second,DELTA_TS,2021:Q2:pre_second:exact,2021-08-25,2021:Q2,0.0542172340461517,0.1697000000000006,-0.1154827659538488,64,0.19477095607992942,0.4413286259466175,-0.13520881064513052,0.11512338292431931,0.6032123302227675,0.45111292883254944,0.37057644268517453,0.2822984432483866,False,False,False,-0.3871113919004658,0.4955458599927692,True,-0.6717037570196516,0.7801382251119551,True,expanding_residual_calibrated_gaussian
ar,exact,pre_second,DELTA_TS,2021:Q3:pre_second:exact,2021-11-23,2021:Q3,0.0647130031895999,0.1993999999999998,-0.1346869968103998,65,0.1920466532069789,0.4382312782161708,-0.14115969384649107,0.11879789154453695,0.6207085684682139,0.441302153264336,0.3787705309200946,0.27290565561512614,False,False,False,-0.3735182750265709,0.5029442814057707,True,-0.6561133042278483,0.7855393106070482,True,expanding_residual_calibrated_gaussian
ar,exact,pre_second,DELTA_TS,2021:Q4:pre_second:exact,2022-02-23,2021:Q4,0.0785903836922474,-0.0928000000000004,0.1713903836922479,66,0.18948475339593748,0.4352984647295893,-0.16472712099491824,0.12830588360755563,0.3468899242876061,0.42836288576559445,0.390156487313027,0.26108677293902655,True,False,False,-0.35670808103734186,0.5138888484218367,True,-0.637411874824625,0.7945926422091197,True,expanding_residual_calibrated_gaussian
ar,exact,pre_second,DELTA_TS,2022:Q1:pre_second:exact,2022-05-25,2022:Q1,0.0505502027361366,-0.0639,0.1144502027361367,67,0.18693863593858515,0.43236400860685104,-0.11548625715015426,0.11305752249098727,0.39561721532994754,0.4534633715080316,0.36480012036852794,0.28112962108955547,True,False,False,-0.38181380587071445,0.4829142113429876,True,-0.6606253049841199,0.7617257104563931,True,expanding_residual_calibrated_gaussian
ar,exact,pre_second,DELTA_TS,2022:Q2:pre_second:exact,2022-08-24,2022:Q2,0.0719132614688264,-0.0022999999999999,0.0742132614688264,68,0.18426340216141537,0.429259131715815,-0.08818895982650019,0.1054216193340154,0.43137018193818577,0.43347699958094177,0.38270266582336165,0.263220622601388,True,False,False,-0.3573458702469886,0.5011723931846414,True,-0.6341551782359717,0.7779817011736244,True,expanding_residual_calibrated_gaussian
ar,exact,pre_second,DELTA_TS,2022:Q3:pre_second:exact,2022-11-29,2022:Q3,0.0720417926744967,0.3147000000000002,-0.2426582073255034,69,0.18158546164621112,0.4261284567430473,-0.2280598895221308,0.1532677444311284,0.7154740919780425,0.43287424765857707,0.38198147660387427,0.2616056072005552,False,True,False,-0.3540866640685506,0.49817024941754395,True,-0.6288771449465381,0.7729607302955316,True,expanding_residual_calibrated_gaussian
ar,exact,pre_second,DELTA_TS,2022:Q4:pre_second:exact,2023-02-22,2022:Q4,0.0816900767583872,-0.1016999999999996,0.1833900767583869,70,0.18000059971529436,0.42426477548259217,-0.1549626744779048,0.130289771530442,0.33277846751960954,0.4236576468253189,0.39017663262893665,0.2533615495089084,True,False,False,-0.342574698724205,0.5059548522409794,True,-0.6161633779819066,0.779543531498681,True,expanding_residual_calibrated_gaussian
ar,exact,pre_second,DELTA_TS,2023:Q1:pre_second:exact,2023-05-24,2023:Q1,0.0603343116893237,0.7302,-0.6698656883106762,71,0.17778621232408265,0.4216470233786581,-1.317317021229071,0.4521053994033158,0.9439346079515206,0.44310876541507205,0.3702322057933657,0.26847807972181503,False,True,False,-0.36131271168933443,0.4819813350679818,False,-0.6332133240083543,0.7538819473870016,True,expanding_residual_calibrated_gaussian
ar,exact,pre_second,DELTA_TS,2023:Q2:pre_second:exact,2023-08-29,2023:Q2,0.1087417862766018,0.0009000000000001,0.1078417862766016,72,0.18201559123540537,0.4266328529724421,-0.09905447141681467,0.11051943428773629,0.4002213454983589,0.39940643935652054,0.41531119811894956,0.23463389722037573,False,False,False,-0.3178910666958403,0.5353746392490439,True,-0.5930068093117737,0.8104903818649773,True,expanding_residual_calibrated_gaussian
ar,exact,pre_second,DELTA_TS,2023:Q3:pre_second:exact,2023-11-28,2023:Q3,0.0694852593005626,-0.2930999999999999,0.3625852593005625,73,0.17960128035813674,0.42379391260155774,-0.4264303496931727,0.2157663533263277,0.1961178992066411,0.43488130776411127,0.37905354117386336,0.2624248693534569,True,False,True,-0.35430865330099515,0.49327917190212034,True,-0.6275936949220648,0.76656421352319,True,expanding_residual_calibrated_gaussian
ar,exact,pre_second,DELTA_TS,2023:Q4:pre_second:exact,2024-02-27,2023:Q4,0.0457694123409471,0.1876999999999999,-0.1419305876590528,74,0.17874564951655075,0.42278321811130437,-0.11439185573979256,0.11763413526882684,0.6314534639980091,0.45689575655365133,0.3576309973123907,0.28051473521035697,False,False,False,-0.37701380577035726,0.4685526304522515,True,-0.6496470973836472,0.7411859220655415,True,expanding_residual_calibrated_gaussian
ar,exact,pre_second,DELTA_TS,2024:Q1:pre_second:exact,2024-05-29,2024:Q1,0.0752473310114067,0.1602999999999999,-0.0850526689885931,75,0.17669131648409309,0.42034666227304945,-0.07273361701101388,0.10507517316651371,0.5801742790340901,0.4289639207894381,0.38331525199274397,0.25629494376970846,False,False,False,-0.34509933126164277,0.49559399328445614,True,-0.6161614010053643,0.7666560630281777,True,expanding_residual_calibrated_gaussian
ar,exact,pre_second,DELTA_TS,2024:Q2:pre_second:exact,2024-08-28,2024:Q2,0.0787934106925951,0.0381,0.0406934106925951,76,0.17448190073188005,0.4177103071889417,-0.050716746602249445,0.09919710156533919,0.4611963623064801,0.4251907378920229,0.3858434688477491,0.25224797435775,False,False,False,-0.3389168964963466,0.4965037178815368,True,-0.6082789031021492,0.7658657244873395,True,expanding_residual_calibrated_gaussian
ar,exact,pre_second,DELTA_TS,2024:Q3:pre_second:exact,2024-11-26,2024:Q3,0.0684695138011854,0.2393999999999998,-0.1709304861988143,77,0.1721921611365497,0.4149604332180957,-0.1242054561256252,0.12467302606905718,0.659800955831034,0.4344710024917958,0.37563274622479503,0.2588236816442986,False,True,False,-0.34649091941691035,0.4834299470192811,True,-0.6140796598189535,0.7510186874213243,True,expanding_residual_calibrated_gaussian
ar,exact,pre_second,DELTA_TS,2024:Q4:pre_second:exact,2025-02-26,2024:Q4,0.0796362276898672,0.1044,-0.0247637723101328,78,0.17042006966033174,0.41281965755076605,-0.03599330149312971,0.09706633238224974,0.5239169666732904,0.42351549729842974,0.3853096113646187,0.2490820980266065,False,False,False,-0.3331834298608989,0.4924558852406332,True,-0.599391683309375,0.7586641386891094,True,expanding_residual_calibrated_gaussian
ar,exact,pre_third,DELTA_MT,2008:Q1:pre_third:exact,2008-06-25,2008:Q1,1.1780837193501157,-1.687316468983128,2.865400188333244,12,3.519029041967119,1.8759075248975146,-2.714619676368808,1.9102809237743952,0.06332157941408803,0.2649995615336556,0.6989532391740212,0.23128474095681387,True,False,True,-0.6978238055473989,3.05399124424763,False,-1.9075095768031203,4.263677015503352,True,expanding_residual_calibrated_gaussian
ar,exact,pre_third,DELTA_MT,2008:Q2:pre_third:exact,2008-09-25,2008:Q2,0.9179598032210984,-2.2320014666150327,3.149961269836131,13,3.66904908792385,1.9154762039565645,-2.921061139410982,2.1493811785479977,0.05003860202353403,0.3158863666933793,0.6461030270600321,0.27972929135154956,True,False,True,-0.9975164007354661,2.8334360071776628,False,-2.2327181781960945,4.068637784638291,True,expanding_residual_calibrated_gaussian
ar,exact,pre_third,DELTA_MT,2008:Q3:pre_third:exact,2008-12-22,2008:Q3,0.5415176249565063,-3.221113948234727,3.7626315731912334,14,3.833398306388235,1.9579066132960057,-3.4373999984851027,2.698900674377179,0.02731782235396947,0.3910513482646548,0.5692362253073212,0.3524442523885385,True,False,True,-1.4163889883394993,2.4994242382525123,False,-2.678952169155702,3.761987419068715,False,expanding_residual_calibrated_gaussian
ar,exact,pre_third,DELTA_MT,2008:Q4:pre_third:exact,2009-03-25,2008:Q4,0.9404478779499787,-2.9681958714609475,3.9086437494109263,15,4.133671073720909,2.033143151310529,-3.476454670706862,2.8039590147657827,0.027273723295090056,0.3218403897285086,0.6421414691688607,0.28742315028389687,True,False,True,-1.0926952733605502,2.9735910292605077,False,-2.4037750085946907,4.284670764494648,False,expanding_residual_calibrated_gaussian
ar,exact,pre_third,DELTA_MT,2009:Q1:pre_third:exact,2009-06-24,2009:Q1,5.002785263248373,-1.4057094011442377,6.40849466439261,16,4.3782516607105855,2.092427217542007,-6.347355009386844,5.2292483079751655,0.0010967179904942507,0.008403553716295373,0.9891425384883435,0.006450631833849233,True,False,True,2.910358045706366,7.09521248079038,False,1.5610487653424254,8.44452176115432,False,expanding_residual_calibrated_gaussian
ar,exact,pre_third,DELTA_MT,2009:Q2:pre_third:exact,2009-09-29,2009:Q2,3.9602665803685424,0.0452328568328392,3.915033723535703,17,5.697908527301958,2.387029226319183,-3.133998226215799,2.669174413540869,0.050489266850131505,0.0485500840783602,0.9424053994087838,0.04067871340140429,False,False,False,1.5732373540493594,6.347295806687725,False,0.03395289981826766,7.886580260918818,True,expanding_residual_calibrated_gaussian
ar,exact,pre_third,DELTA_MT,2009:Q3:pre_third:exact,2009-12-21,2009:Q3,0.7182583251755694,-0.7986263790994366,1.516884704275006,18,5.684024910916811,2.3841193155789857,-1.9901723692145445,0.9296991709770577,0.26230827639730203,0.38160515535764294,0.5860436415682055,0.35006084771085816,True,False,True,-1.6658609904034163,3.102377640754555,True,-3.2032689781395867,4.639785628490726,True,expanding_residual_calibrated_gaussian
ar,exact,pre_third,DELTA_MT,2009:Q4:pre_third:exact,2010-03-25,2009:Q4,0.5215299631721706,-1.607120692043134,2.1286506552153046,19,5.369093670031855,2.317130481874479,-2.181234432247878,1.2710722823178011,0.1791372195823034,0.41096015906075894,0.5551809402000214,0.37775229039962416,True,False,True,-1.7956005187023085,2.8386604450466497,True,-3.2898105140588787,4.3328704404032194,True,expanding_residual_calibrated_gaussian
ar,exact,pre_third,DELTA_MT,2010:Q1:pre_third:exact,2010-06-24,2010:Q1,-1.7161992330225644,-0.4297680237988861,-1.2864312092236785,20,5.098589348767097,2.2580056130946833,-1.8957109874128675,0.8124124894011662,0.7155662263222865,0.7763879244511322,0.19804509185952435,0.7490417027466905,True,False,True,-3.9742048461172477,0.5418063800721189,True,-5.430287955398137,1.9978894893530081,True,expanding_residual_calibrated_gaussian
ar,exact,pre_third,DELTA_MT,2010:Q2:pre_third:exact,2010-09-29,2010:Q2,0.3831063314286105,0.4992886229837743,-0.1161822915551638,21,5.257541850829606,2.2929330236248955,-1.750054038237679,0.5381949717643071,0.520205650209621,0.43365302247532966,0.5318244321845907,0.39962963194601425,False,True,False,-1.909826692196285,2.676039355053506,True,-3.3884328688376044,4.154645531694825,True,expanding_residual_calibrated_gaussian
ar,exact,pre_third,DELTA_MT,2010:Q3:pre_third:exact,2010-12-21,2010:Q3,0.4674987022093924,0.1814497882299783,0.286048913979414,22,5.129065138140865,2.2647439453812135,-1.744376737843725,0.5436537238020636,0.4497451741284957,0.4182296560232389,0.5470114633668325,0.38409826399421143,False,False,False,-1.797245243171821,2.732242647590606,True,-3.2576735904672836,4.192670994886068,True,expanding_residual_calibrated_gaussian
ar,exact,pre_third,DELTA_MT,2010:Q4:pre_third:exact,2011-03-24,2010:Q4,0.3363413054549138,-0.3449029768264715,0.6812442822813853,23,4.954514825034961,2.2258739463489303,-1.7659235974375251,0.6027115988602448,0.37978062689874503,0.4399463338253946,0.5244211123987019,0.4047939786414359,True,False,True,-1.8895326408940165,2.562215251803844,True,-3.324895528333911,3.9975781392437386,True,expanding_residual_calibrated_gaussian
ar,exact,pre_third,DELTA_MT,2011:Q1:pre_third:exact,2011-06-23,2011:Q1,-1.4098134955448798,-3.2125448339455573,1.8027313384006776,24,4.7604124522198195,2.1818369444621246,-2.040445890410035,1.0724766926023,0.20433263161281298,0.7409117932687254,0.23031044812123413,0.7103792811589458,True,False,True,-3.5916504400070046,0.7720234489172448,True,-4.998615907060123,2.178988915970364,True,expanding_residual_calibrated_gaussian
ar,exact,pre_third,DELTA_MT,2011:Q2:pre_third:exact,2011-09-28,2011:Q2,-0.3238697714537673,1.8038214135853317,-2.127691185039099,25,4.569669732897407,2.1376785850303612,-2.173997836762843,1.2810190043085443,0.8402115991978986,0.5602114599625888,0.4032031293835394,0.5231041507352786,False,True,False,-2.4615483564841285,1.813808813576594,True,-3.840038145297448,3.1922986023899136,True,expanding_residual_calibrated_gaussian
ar,exact,pre_third,DELTA_MT,2011:Q3:pre_third:exact,2011-12-21,2011:Q3,-1.892085900914841,-0.9747991848111516,-0.9172867161036896,26,4.861206523051336,2.204814396508544,-1.7961257005751994,0.6653422995692605,0.6613089254206923,0.804598237789786,0.1713429444196981,0.778593142080888,True,False,True,-4.096900297423385,0.3127284955937031,True,-5.518682857766741,1.7345110559370591,True,expanding_residual_calibrated_gaussian
ar,exact,pre_third,DELTA_MT,2011:Q4:pre_third:exact,2012-03-28,2011:Q4,-4.677605193605155,1.5258747631744134,-6.203479956779568,27,4.8480435662758135,2.20182732435489,-5.677163625058943,4.964392636931398,0.9975794674085868,0.9831824650809237,0.013371342473070258,0.9790033220852845,False,True,False,-6.879432517960044,-2.475777869250265,False,-8.29928885399115,-1.0559215332191587,False,expanding_residual_calibrated_gaussian
ar,exact,pre_third,DELTA_MT,2012:Q1:pre_third:exact,2012-06-27,2012:Q1,-4.305309515895058,0.3524755238340489,-4.657785039729107,28,6.609556238235347,2.5709057233269657,-3.504378188182489,3.27856996055971,0.9649859773824155,0.9529963334021608,0.039850710262587796,0.9448486358920123,False,True,False,-6.876215239222024,-1.734403792568092,False,-8.534073119459716,-0.07654591233039998,False,expanding_residual_calibrated_gaussian
ar,exact,pre_third,DELTA_MT,2012:Q2:pre_third:exact,2012-09-26,2012:Q2,-1.023980058540999,0.3597575519206986,-1.3837376104616976,29,7.440734568542349,2.727770989020587,-2.051088694174043,0.9116456124726738,0.694020036326287,0.6463150667358982,0.32682017865622326,0.6187009673315715,False,True,False,-3.751751047561586,1.7037909304795877,True,-5.510764063324515,3.4628039462425177,True,expanding_residual_calibrated_gaussian
ar,exact,pre_third,DELTA_MT,2012:Q3:pre_third:exact,2012-12-19,2012:Q3,0.2113071114564522,-2.627194873740626,2.838501985197078,30,7.330789434990067,2.7075430624442647,-2.464518055378317,1.7220481949473285,0.14723450467393595,0.4688965821024025,0.5016660387714494,0.439628342208229,True,False,True,-2.4962359509878125,2.918850173900717,False,-4.242204914932293,4.664819137845198,True,expanding_residual_calibrated_gaussian
ar,exact,pre_third,DELTA_MT,2012:Q4:pre_third:exact,2013-03-27,2012:Q4,0.4927148086213249,-0.2874877812167515,0.7802025898380764,31,7.241819176022826,2.6910628339046316,-1.9509025974954848,0.7185014379066635,0.3859373481838233,0.42736251806072456,0.5433087052901929,0.3984299481450374,True,False,True,-2.1983480252833068,3.1837776425259565,True,-3.9336896540810153,4.919119271323665,True,expanding_residual_calibrated_gaussian
ar,exact,pre_third,DELTA_MT,2013:Q1:pre_third:exact,2013-06-25,2013:Q1,1.0025384872727052,0.1141621326130832,0.888376354659622,32,7.008346929844343,2.647328262578017,-1.9487946472989104,0.7364950092494255,0.36859580728230096,0.3524559895568131,0.6191123574107542,0.3248258599208523,False,False,False,-1.6447897753053118,3.6498667498507222,True,-3.3519290071598853,5.357005981705296,True,expanding_residual_calibrated_gaussian
ar,exact,pre_third,DELTA_MT,2013:Q2:pre_third:exact,2013-09-25,2013:Q2,0.3295920818021813,-1.370494856057416,1.7000869378595973,33,6.790230541530259,2.605807080643204,-2.0895084813641867,1.0364083756567544,0.2570643554351286,0.44967453142756936,0.5198320350098538,0.419475546860996,True,False,True,-2.2762149988410227,2.9353991624453855,True,-3.9565791459296205,4.615763309533983,True,expanding_residual_calibrated_gaussian
ar,exact,pre_third,DELTA_MT,2013:Q3:pre_third:exact,2013-12-19,2013:Q3,0.2433836315031063,-1.0612001429625302,1.3045837744656366,34,6.612615662609423,2.571500663544426,-1.9921169529490732,0.8594646976097929,0.30596378190924467,0.4622977924544173,0.5067302117111543,0.43155283624622603,True,False,True,-2.3281170320413196,2.8148842950475323,True,-3.9863585616360604,4.473125824642273,True,expanding_residual_calibrated_gaussian
ar,exact,pre_third,DELTA_MT,2013:Q4:pre_third:exact,2014-03-26,2013:Q4,-0.4960064902643597,1.256975067828105,-1.7529815580924648,35,6.426897020941511,2.5351325450440476,-2.0882535058686997,1.0576384011882276,0.7553665537538362,0.5775591443123558,0.39183313671458053,0.5464755688144827,False,True,False,-3.0311390353084073,2.039126054779688,True,-4.6659284517827775,3.6739154712540585,True,expanding_residual_calibrated_gaussian
ar,exact,pre_third,DELTA_MT,2014:Q1:pre_third:exact,2014-06-24,2014:Q1,-1.638771114085904,1.7408325604901138,-3.3796036745760176,36,6.419582143228577,2.5336894330656583,-2.7382150825255547,2.1647082461822857,0.9088762080281653,0.7411168498429217,0.23400255493689825,0.7149336737589402,False,True,False,-4.172460547151562,0.8949183189797543,False,-5.806319367632572,2.528777139460763,True,expanding_residual_calibrated_gaussian
ar,exact,pre_third,DELTA_MT,2014:Q2:pre_third:exact,2014-09-25,2014:Q2,2.8723087797693863,-0.7041794049631718,3.576488184732558,37,6.6902818871671705,2.5865579226391144,-2.8252253411059893,2.3142027586710263,0.08337520164392773,0.13339712511084226,0.849233730718483,0.11745646681550746,True,False,True,0.2857508571302718,5.458866702408501,False,-1.3822004006036268,7.126817960142399,True,expanding_residual_calibrated_gaussian
ar,exact,pre_third,DELTA_MT,2014:Q3:pre_third:exact,2014-12-22,2014:Q3,-1.5401079833029407,0.113913145975121,-1.6540211292780618,38,6.744768878376992,2.597069286402847,-2.076130124375092,1.0135238461291336,0.7378984495660925,0.7234153373626847,0.2514201124765387,0.6970755158195117,False,False,False,-4.137177269705788,1.0569613030999063,True,-5.811906818486936,2.7316908518810536,True,expanding_residual_calibrated_gaussian
ar,exact,pre_third,DELTA_MT,2014:Q4:pre_third:exact,2015-03-26,2014:Q4,-0.0957137902562705,-0.2223217440587483,0.1266079538024778,39,6.705160123006817,2.589432393982669,-1.8715725482654286,0.6076064573871512,0.48050184731997436,0.5147428388355095,0.4545395324536585,0.48393743187606447,True,False,True,-2.6851461842389397,2.4937186037263985,True,-4.354951055244297,4.163523474731757,True,expanding_residual_calibrated_gaussian
ar,exact,pre_third,DELTA_MT,2015:Q1:pre_third:exact,2015-06-23,2015:Q1,0.1192861251263304,3.3599073103147945,-3.240621185188464,40,6.538965589607953,2.5571401192754286,-2.660831614731303,2.047424699753993,0.8974730102767575,0.4813967858485627,0.48740982902998087,0.450316943728979,False,True,False,-2.437853994149098,2.676426244401759,False,-4.086835074686978,4.325407324939639,True,expanding_residual_calibrated_gaussian
ar,exact,pre_third,DELTA_MT,2015:Q2:pre_third:exact,2015-09-24,2015:Q2,0.9076674670332476,-1.2170102327341756,2.1246776997674233,41,6.73403903060467,2.5950027033906284,-2.207707942139599,1.2641192189862525,0.2064624165142641,0.363253723893881,0.6074595979245304,0.33474561727152896,True,False,True,-1.6873352363573808,3.502670170423876,True,-3.360732141587703,5.176067075654198,True,expanding_residual_calibrated_gaussian
ar,exact,pre_third,DELTA_MT,2015:Q3:pre_third:exact,2015-12-21,2015:Q3,-1.4050381365217302,-1.0235675153452426,-0.3814706211764875,42,6.632642773864632,2.5753917709476033,-1.875910173598377,0.6243568165621087,0.558876517446401,0.7073167748705133,0.26656966432641016,0.680073659765573,True,False,True,-3.9804299074693335,1.1703536344258731,True,-5.64118063178587,2.83110435874241,True,expanding_residual_calibrated_gaussian
ar,exact,pre_third,DELTA_MT,2015:Q4:pre_third:exact,2016-03-24,2015:Q4,-0.7362068808939675,-0.9875889481674156,0.2513820672734481,43,6.494412178292709,2.548413659179512,-1.8592747824501217,0.6054360192118263,0.46071103528265056,0.6136665699617087,0.3566720856774397,0.5833254151071037,True,False,True,-3.2846205400734796,1.8122067782855444,True,-4.927974331168061,3.4555605693801255,True,expanding_residual_calibrated_gaussian
ar,exact,pre_third,DELTA_MT,2016:Q1:pre_third:exact,2016-06-27,2016:Q1,0.3263248327811876,0.4639976814343682,-0.1376728486531806,44,6.34498601584958,2.5189255677470066,-1.8442645874020376,0.5916613724021283,0.5217934934044389,0.44846154209308126,0.5199986853874348,0.4172443584096508,False,True,False,-2.192600734965819,2.8452504005281942,True,-3.8169390233482723,4.4695886889106475,True,expanding_residual_calibrated_gaussian
ar,exact,pre_third,DELTA_MT,2016:Q2:pre_third:exact,2016-09-28,2016:Q2,0.118433841176049,0.8419456234700624,-0.7235117822940134,45,6.2101387909221835,2.492015006159109,-1.8741765004550988,0.6655889375227007,0.6142188824333599,0.4810472704578103,0.4869445488468829,0.44916087785656966,False,True,False,-2.3735811649830603,2.610448847335158,True,-3.9805660801222573,4.217433762474355,True,expanding_residual_calibrated_gaussian
ar,exact,pre_third,DELTA_MT,2016:Q3:pre_third:exact,2016-12-21,2016:Q3,0.8451304755401359,-1.3521238468944956,2.1972543224346315,46,6.104508904607216,2.470730439486917,-2.2188917548186775,1.3093653026702927,0.18691726691715788,0.36615402369404304,0.6029958556504875,0.33614593261986736,True,False,True,-1.6255999639467813,3.315860915027053,True,-3.2188594490693245,4.909120400149597,True,expanding_residual_calibrated_gaussian
ar,exact,pre_third,DELTA_MT,2016:Q4:pre_third:exact,2017-03-29,2016:Q4,0.2839465399849477,-0.0752569078877569,0.3592034478727046,47,6.035258807652004,2.45667637422026,-1.8284373458188405,0.5950285302860284,0.4418757500351978,0.4539920805406951,0.5136295151579537,0.4219167481620051,True,False,False,-2.1727298342353123,2.7406229142052076,True,-3.7569265043972395,4.324819584367135,True,expanding_residual_calibrated_gaussian
ar,exact,pre_third,DELTA_MT,2017:Q1:pre_third:exact,2017-06-28,2017:Q1,-1.3424682281462534,0.8393152958130139,-2.1817835239592673,48,5.907304237805881,2.430494648791863,-2.2099395577953076,1.300806126143294,0.8153193988566215,0.7096435269522365,0.26283442117309075,0.6808424420029228,False,True,False,-3.7729628769381165,1.0880264206456094,True,-5.340276166497693,2.6553397102051868,True,expanding_residual_calibrated_gaussian
ar,exact,pre_third,DELTA_MT,2017:Q2:pre_third:exact,2017-09-27,2017:Q2,1.196119034880995,-0.931351284468676,2.127470319349671,49,5.931441609473292,2.435455113417879,-2.1906092686313867,1.2667816386791424,0.1911840869891294,0.3116681284394346,0.6587328653012087,0.28323849676479096,True,False,True,-1.2393360785368839,3.6315741482988737,True,-2.8098481417019117,5.202086211463902,True,expanding_residual_calibrated_gaussian
ar,exact,pre_third,DELTA_MT,2017:Q3:pre_third:exact,2017-12-20,2017:Q3,1.0093672417235071,-0.2527934714792121,1.2621607132027193,50,5.866728431497265,2.4221330334020186,-1.9393569528632182,0.8226467992020231,0.3011503975765797,0.3384392011545566,0.6308686036487035,0.3087845774655758,True,False,True,-1.4127657916785115,3.4315002751255257,True,-2.9746870632267743,4.993421546673789,True,expanding_residual_calibrated_gaussian
ar,exact,pre_third,DELTA_MT,2017:Q4:pre_third:exact,2018-03-27,2017:Q4,-0.3935572423152265,0.9167531196492588,-1.3103103619644854,51,5.76130693845165,2.4002722634008937,-1.943524506433984,0.8394137331229045,0.7074329090323903,0.565120094139665,0.4023428797043608,0.5321357546909904,False,True,False,-2.79382950571612,2.0067150210856672,True,-4.341653780441206,3.554539295810753,True,expanding_residual_calibrated_gaussian
ar,exact,pre_third,DELTA_MT,2018:Q1:pre_third:exact,2018-06-27,2018:Q1,0.247879516244148,1.719727313524637,-1.4718477972804889,52,5.7112230009438605,2.3898165203512716,-1.9798111719477407,0.9091120949024608,0.7310141881435002,0.458694491015458,0.5079921975021693,0.4256689348543799,False,True,False,-2.1419370041071235,2.6376960365954196,True,-3.6830188550041876,4.178777887492483,True,expanding_residual_calibrated_gaussian
ar,exact,pre_third,DELTA_MT,2018:Q2:pre_third:exact,2018-09-26,2018:Q2,0.4283923333470452,-1.4928920026835009,1.921284336030546,53,5.672041313037294,2.381604776833741,-2.112110338121437,1.1434314682131723,0.2099143775253256,0.4286251575668128,0.5381994083177881,0.3959467958293072,True,False,True,-1.953212443486696,2.8099971101807864,True,-3.4889989217928856,4.3457835884869755,True,expanding_residual_calibrated_gaussian
ar,exact,pre_third,DELTA_MT,2018:Q3:pre_third:exact,2018-12-20,2018:Q3,-1.2918391447822457,-1.4328129752621257,0.14097383047988,54,5.6063883699908335,2.3677813180255547,-1.7826643056621654,0.5566860752590211,0.4762616540470533,0.7073262939922133,0.2643283763451836,0.6776449284664725,True,False,True,-3.6596204628078004,1.075942173243309,True,-5.186492833564516,2.602814544000025,True,expanding_residual_calibrated_gaussian
ar,exact,pre_third,DELTA_MT,2018:Q4:pre_third:exact,2019-04-25,2018:Q4,-1.197093976907532,-1.2749424849840825,0.0778485080765505,55,5.504352141289768,2.34613557606754,-1.7722585810239442,0.5493105282116706,0.4867648896626587,0.6950585968396331,0.27575888761245393,0.6645795430848044,True,False,True,-3.543229552975072,1.1490415991600083,True,-5.056143588522107,2.661955634707043,True,expanding_residual_calibrated_gaussian
ar,exact,pre_third,DELTA_MT,2019:Q1:pre_third:exact,2019-06-26,2019:Q1,-0.179139072451977,-0.7430573078120486,0.5639182353600716,56,5.406728560047464,2.325237312630146,-1.7921687876462873,0.5976905146511938,0.4041883505196008,0.5307046151897299,0.43523798801470515,0.49642092687826417,True,False,True,-2.5043763850821232,2.146098240178169,True,-4.0038140996545675,3.6455359547506134,True,expanding_residual_calibrated_gaussian
ar,exact,pre_third,DELTA_MT,2019:Q2:pre_third:exact,2019-09-25,2019:Q2,-0.2834135990272282,1.144192916817579,-1.4276065158448072,57,5.310440390443767,2.304439278966527,-1.9456677579501787,0.8804974604263093,0.7322074010542086,0.548940878677705,0.4169216685380014,0.5144373281677661,False,True,False,-2.5878528779937553,2.021025679939299,True,-4.073878905124756,3.5070517070702993,True,expanding_residual_calibrated_gaussian
ar,exact,pre_third,DELTA_MT,2019:Q3:pre_third:exact,2019-12-19,2019:Q3,0.1612670608934667,0.631813380386308,-0.4705463194928412,58,5.277681987262012,2.2973206104638533,-1.7716584536863473,0.575188149948481,0.5811451692497362,0.4720180766202313,0.4932741320748535,0.43752161454863814,False,True,False,-2.1360535495703865,2.45858767135732,True,-3.6174890774983726,3.940023199285306,True,expanding_residual_calibrated_gaussian
ar,exact,pre_third,DELTA_MT,2019:Q4:pre_third:exact,2020-03-25,2019:Q4,0.0523173427907943,-0.3583702574165692,0.4106876002073636,59,5.1998864701867635,2.2803259570041217,-1.7594750052658361,0.562328985750223,0.42853687718270445,0.4908479009062524,0.47418101767507514,0.45594707426387976,True,False,True,-2.2280086142133273,2.332643299794916,True,-3.698485078219022,3.803119763800611,True,expanding_residual_calibrated_gaussian
ar,exact,pre_third,DELTA_MT,2020:Q1:pre_third:exact,2020-06-24,2020:Q1,0.1552107978279404,0.2655422620563383,-0.1103314642283979,60,5.111755942117337,2.2609192692613633,-1.735900709962605,0.5305129991046422,0.5194604128593153,0.47263433984280284,0.4920974012436383,0.4375794667093598,False,True,False,-2.105708471433423,2.416130067089304,True,-3.563670462461085,3.874092058116966,True,expanding_residual_calibrated_gaussian
ar,exact,pre_third,DELTA_MT,2020:Q2:pre_third:exact,2020-09-29,2020:Q2,3.2323552070852974,-4.082076184122116,7.314431391207413,61,5.03078257566687,2.242940609036911,-7.044080595571074,6.049649064538046,0.000554923861835185,0.07477484827857046,0.9118051754582855,0.0629721711131722,True,False,True,0.9894145980483864,5.475295816122209,False,-0.4569537887258095,6.921664202896404,False,expanding_residual_calibrated_gaussian
ar,exact,pre_third,DELTA_MT,2020:Q3:pre_third:exact,2020-12-21,2020:Q3,18.772201095883975,-3.196048985926044,21.96825008181002,62,5.721914298859377,2.3920523194235064,-43.962642142906176,20.618679079890025,2.079736115260479e-20,2.1180314738771878e-15,0.9999999999999959,1.0838928023198599e-15,True,False,True,16.38014877646047,21.16425341530748,False,14.83762516242254,22.70677702934541,False,expanding_residual_calibrated_gaussian
ar,exact,pre_third,DELTA_MT,2020:Q4:pre_third:exact,2021-03-24,2020:Q4,-0.8116029227671326,-0.2063224146043945,-0.6052805081627382,63,12.944883126602166,3.5978998216462568,-2.2134397641931702,0.8813388009308796,0.5667994660523799,0.5892347276497837,0.3892919859781576,0.5674905548932374,True,False,True,-4.409502744413389,2.786296898879124,True,-6.729621493810033,5.106415648275767,True,expanding_residual_calibrated_gaussian
ar,exact,pre_third,DELTA_MT,2021:Q1:pre_third:exact,2021-06-23,2021:Q1,0.5144386328206179,-1.2519279393156166,1.7663665721362345,64,12.772106853936979,3.5738084523288287,-2.3147135092504296,1.1765499534287363,0.31056365570652433,0.44277120190079533,0.5350553780120665,0.42077563953814445,True,False,True,-3.059369819508211,4.088247085149447,True,-5.363953162022284,6.392830427663519,True,expanding_residual_calibrated_gaussian
ar,exact,pre_third,DELTA_MT,2021:Q2:pre_third:exact,2021-09-29,2021:Q2,-0.0674203470049876,-0.6918886973921898,0.6244683503872022,65,12.586358455793398,3.5477258146301835,-2.2007367195421015,0.8728239734641987,0.4301393749351567,0.5075809714530353,0.46995699594530627,0.4850948682184423,True,False,True,-3.615146161635171,3.480305467625196,True,-5.902910020628811,5.768069326618836,True,expanding_residual_calibrated_gaussian
ar,exact,pre_third,DELTA_MT,2021:Q3:pre_third:exact,2021-12-21,2021:Q3,-0.4454645476448675,0.9416387412059306,-1.387103288850798,66,12.393382963398784,3.520423690892729,-2.2551441895482465,1.0379659559816405,0.6532153896597503,0.5503466468133635,0.42726227480681134,0.5277940682564699,False,True,False,-3.9658882385375964,3.0749591432478613,True,-6.236046224015661,5.345117128725926,True,expanding_residual_calibrated_gaussian
ar,exact,pre_third,DELTA_MT,2021:Q4:pre_third:exact,2022-03-29,2021:Q4,-0.6649100206412628,0.254387262505813,-0.9192972831470758,67,12.278980047246405,3.5041375611191987,-2.2072957363594576,0.9145658638287016,0.603472738819758,0.5752474717944247,0.4025216909531385,0.5527746310130135,False,True,False,-4.169047581760461,2.839227540477936,True,-6.428703397385063,5.0988833561025375,True,expanding_residual_calibrated_gaussian
ar,exact,pre_third,DELTA_MT,2022:Q1:pre_third:exact,2022-06-28,2022:Q1,-0.2690720855124193,0.5435486991188034,-0.8126207846312228,68,12.139032802732615,3.484111479664882,-2.1943511425971223,0.8894909858029777,0.592210986035699,0.5307790446471863,0.44645151184827714,0.5079084640522823,False,True,False,-3.7531835651773013,3.2150393941524626,True,-5.99992548954246,5.461781318517622,True,expanding_residual_calibrated_gaussian
ar,exact,pre_third,DELTA_MT,2022:Q2:pre_third:exact,2022-09-28,2022:Q2,0.5206998698060832,0.8562047615824662,-0.335504891776383,69,11.996900346740887,3.4636541898320172,-2.1659540481787993,0.8223934812201125,0.5385829719989629,0.44025113783454994,0.5368853704904867,0.41758520079364847,False,True,False,-2.942954320025934,3.9843540596381004,True,-5.176504286844773,6.2179040264569405,True,expanding_residual_calibrated_gaussian
ar,exact,pre_third,DELTA_MT,2022:Q3:pre_third:exact,2022-12-21,2022:Q3,0.3081370668471259,-0.5589994043078148,0.8671364711549407,70,11.839829528381223,3.4409053355739423,-2.1864272234857287,0.8908428989245013,0.4005173503307429,0.46432194823270756,0.5125354648272242,0.44129947391761115,True,False,True,-3.1327682687268164,3.7490424024210682,True,-5.351648554368346,5.967922688062597,True,expanding_residual_calibrated_gaussian
ar,exact,pre_third,DELTA_MT,2022:Q4:pre_third:exact,2023-03-29,2022:Q4,-0.318174208781723,0.1776205447240171,-0.4957947535057401,71,11.670941192448838,3.416275924519101,-2.158020540363337,0.8270214746872513,0.5576948008674258,0.5371017683442447,0.4397204192375552,0.513797271955624,False,False,False,-3.734450133300824,3.098101715737378,True,-5.937448053893959,5.301099636330514,True,expanding_residual_calibrated_gaussian
ar,exact,pre_third,DELTA_MT,2023:Q1:pre_third:exact,2023-06-28,2023:Q1,-3.1738231838374196,0.8829578606053063,-4.056781044442726,72,11.527609504460244,3.3952333505166097,-2.855139527182374,2.52623233029717,0.8839264011821591,0.8250512015944792,0.16018591980997066,0.8094528595231432,False,True,False,-6.569056534354029,0.2214101666791901,False,-8.758485074781264,2.410838707106425,True,expanding_residual_calibrated_gaussian
ar,pseudo,pre_advance,DELTA_SA,2008:Q1:pre_advance:pseudo,2008-04-30,2008:Q1,0.1411112771385929,0.3031999999999999,-0.1620887228614069,12,0.4246599209606872,0.6516593596049145,-0.5216391003274016,0.16829114156909322,0.5982160639322176,0.41428285085886285,0.4639976547222556,0.3003304696330272,False,True,False,-0.5105480824663216,0.7927706367435075,True,-0.9307729840444243,1.2129955383216102,True,expanding_residual_calibrated_gaussian
ar,pseudo,pre_advance,DELTA_SA,2008:Q2:pre_advance:pseudo,2008-07-31,2008:Q2,0.282369571934375,1.3898,-1.1074304280656249,13,0.39034904148426913,0.6247791941832483,-2.0194860795511382,0.7740465723702007,0.9618454375419841,0.32565214687657407,0.5524437426826976,0.22003823857643454,False,True,False,-0.34240962224887334,0.9071487661176234,False,-0.7453007516617591,1.3100398955305093,False,expanding_residual_calibrated_gaussian
ar,pseudo,pre_advance,DELTA_SA,2008:Q3:pre_advance:pseudo,2008-10-31,2008:Q3,0.714132038935611,-0.2618,0.975932038935611,14,0.4397619285178273,0.6631454806585259,-1.5910855613659503,0.6432416168089662,0.07055485770722462,0.1407656143763366,0.7809167230844953,0.08402774221794611,True,False,True,0.05098655827708509,1.377277519594137,False,-0.37664521012204255,1.8049092879932644,True,expanding_residual_calibrated_gaussian
ar,pseudo,pre_advance,DELTA_SA,2008:Q4:pre_advance:pseudo,2009-01-31,2008:Q4,0.0793056065031563,-2.4444,2.523705606503156,15,0.489619774192295,0.6997283574304353,-7.065993877277928,2.128979418739733,0.00015506190326214565,0.45488141257423165,0.4315271446928919,0.3448865856738742,True,False,True,-0.6204227509272789,0.7790339639335916,False,-1.0716451200970913,1.230256333103404,False,expanding_residual_calibrated_gaussian
ar,pseudo,pre_advance,DELTA_SA,2009:Q1:pre_advance:pseudo,2009-04-30,2009:Q1,-0.8004772054187677,0.4245000000000001,-1.2249772054187678,16,0.8724453144493385,0.9340478116506341,-1.7106897986157223,0.780994262062496,0.9051507636642305,0.8042770342978589,0.14205775909989526,0.7398478170437643,False,True,False,-1.7345250170694018,0.13357060623186645,False,-2.3368491361583987,0.7358947253208634,True,expanding_residual_calibrated_gaussian
ar,pseudo,pre_advance,DELTA_SA,2009:Q2:pre_advance:pseudo,2009-07-31,2009:Q2,0.6102794438475987,0.0030000000000001,0.6072794438475986,17,0.9222140123109045,0.9603197448302854,-1.0783968070362877,0.3727179747460258,0.2635718699982457,0.2625524577173233,0.6653948670464631,0.1994017496000308,False,False,False,-0.3500403009826867,1.570599188677884,True,-0.9693059714696084,2.189864859164806,True,expanding_residual_calibrated_gaussian
ar,pseudo,pre_advance,DELTA_SA,2009:Q3:pre_advance:pseudo,2009-10-31,2009:Q3,0.1888383411693894,-0.7522000000000002,0.9410383411693896,18,0.8865924051252095,0.9415903595116135,-1.3581674818799925,0.5668761957151592,0.15879715367694366,0.4205242345632513,0.49527102916957677,0.3398182767319277,True,False,True,-0.752752018342224,1.130428700681003,True,-1.3599399767758287,1.7376166591146076,True,expanding_residual_calibrated_gaussian
ar,pseudo,pre_advance,DELTA_SA,2009:Q4:pre_advance:pseudo,2010-01-31,2009:Q4,-0.3373558541688579,0.1962000000000001,-0.5335558541688581,19,0.8781524605607329,0.9370978927309211,-1.0160623635177632,0.3370191538924492,0.715447618861339,0.6405766777250558,0.28317830477890693,0.5582665638673037,False,False,False,-1.274453746899779,0.5997420385620633,True,-1.8787447218358952,1.2040330134981794,True,expanding_residual_calibrated_gaussian
ar,pseudo,pre_advance,DELTA_SA,2010:Q1:pre_advance:pseudo,2010-04-30,2010:Q1,0.0283511514001251,-0.2023000000000001,0.2306511514001252,20,0.8524346657244032,0.9232738844592124,-0.8703138879330322,0.23863310708399726,0.40136374958436594,0.48775152646202025,0.42625639563367823,0.40232733454373865,True,False,True,-0.8949227330590873,0.9516250358593376,True,-1.490299246122185,1.5470015489224351,True,expanding_residual_calibrated_gaussian
ar,pseudo,pre_advance,DELTA_SA,2010:Q2:pre_advance:pseudo,2010-07-31,2010:Q2,-0.0683836223313969,-0.7725,0.704116377668603,21,0.8109702893599383,0.9005388883107371,-1.119847402563579,0.4195430597384302,0.2171415606048919,0.5302651252599597,0.3828418210323462,0.44190033995824335,True,False,True,-0.9689225106421341,0.8321552659793402,True,-1.5496382789801597,1.4128710343173658,True,expanding_residual_calibrated_gaussian
ar,pseudo,pre_advance,DELTA_SA,2010:Q3:pre_advance:pseudo,2010-10-31,2010:Q3,-0.3068047363098523,0.5148000000000001,-0.8216047363098524,22,0.7899349260972257,0.8887828340473424,-1.2283082997812595,0.4908373271508362,0.8223650178799067,0.6350266804700622,0.28426310615818984,0.5478256266795237,False,True,False,-1.1955875703571945,0.5819780977374901,True,-1.7687224044648318,1.1551129318451272,True,expanding_residual_calibrated_gaussian
ar,pseudo,pre_advance,DELTA_SA,2010:Q4:pre_advance:pseudo,2011-01-31,2010:Q4,0.3116384840461248,-0.3850000000000002,0.696638484046125,23,0.791799161277662,0.8898309734312815,-1.1086720253691276,0.41506072418806556,0.21684627977817628,0.3630860061712751,0.5499204339758466,0.2826510925885202,True,False,True,-0.5781924893851567,1.2014694574774063,True,-1.1520032199760777,1.7752801880683273,True,expanding_residual_calibrated_gaussian
ar,pseudo,pre_advance,DELTA_SA,2011:Q1:pre_advance:pseudo,2011-04-30,2011:Q1,-0.1541999785436481,0.0939000000000001,-0.2480999785436481,24,0.773738675420703,0.8796241671422534,-0.8304547245180531,0.23329698515263542,0.6110482781972977,0.5695788757440579,0.3435947858549575,0.4792373684179985,False,False,False,-1.0338241456859016,0.7254241885986054,True,-1.6010529802217517,1.2926530231344555,True,expanding_residual_calibrated_gaussian
ar,pseudo,pre_advance,DELTA_SA,2011:Q2:pre_advance:pseudo,2011-07-31,2011:Q2,0.1222021712976695,-0.2928,0.4150021712976696,25,0.7462367244305209,0.8638499432369727,-0.8879792263438715,0.2799198536520927,0.3154679342689032,0.44375238341098877,0.4641199963697782,0.3545801916097403,True,False,True,-0.7416477719393032,0.9860521145346423,True,-1.2987045409774884,1.5431088835728275,True,expanding_residual_calibrated_gaussian
ar,pseudo,pre_advance,DELTA_SA,2011:Q3:pre_advance:pseudo,2011-10-31,2011:Q3,-0.0436641708390723,-0.4595999999999995,0.4159358291609272,26,0.7206453648374204,0.8489083371232847,-0.8751675826735014,0.27809947979240607,0.31207914299835543,0.5205108199067936,0.3870437679428824,0.4269435671678316,True,False,True,-0.892572507962357,0.8052441662842125,True,-1.4399941281056503,1.3526657864275056,True,expanding_residual_calibrated_gaussian
ar,pseudo,pre_advance,DELTA_SA,2011:Q4:pre_advance:pseudo,2012-01-31,2011:Q4,-0.1664617652864937,0.2299000000000002,-0.3963617652864939,27,0.6967414461618726,0.834710396581876,-0.8510090843233009,0.268773725368105,0.6825528548970748,0.5790346803860846,0.3303203942617622,0.48397501610143684,False,True,False,-1.0011721618683698,0.6682486312953823,True,-1.5394381885582942,1.2065146579853068,True,expanding_residual_calibrated_gaussian
ar,pseudo,pre_advance,DELTA_SA,2012:Q1:pre_advance:pseudo,2012-04-30,2012:Q1,0.146748410605829,-0.3447,0.491448410605829,28,0.679983491168534,0.8246111151133811,-0.9036888332276318,0.30621476713210716,0.27559563941211634,0.4293769012051644,0.4742550718629621,0.3370603641563587,True,False,True,-0.6778627045075521,0.9713595257192101,True,-1.209616172912914,1.503112994124572,True,expanding_residual_calibrated_gaussian
ar,pseudo,pre_advance,DELTA_SA,2012:Q2:pre_advance:pseudo,2012-07-31,2012:Q2,-0.1038122691178062,0.1949,-0.2987122691178063,29,0.6612840302735421,0.8131937224754887,-0.7796191025501159,0.2333282296174999,0.6433143946520312,0.5507909566151604,0.3543495512289927,0.45292135399934796,False,False,False,-0.9170059915932949,0.7093814533576825,True,-1.4413969129457829,1.2337723747101703,True,expanding_residual_calibrated_gaussian
ar,pseudo,pre_advance,DELTA_SA,2012:Q3:pre_advance:pseudo,2012-10-31,2012:Q3,0.1733371102203946,0.6579000000000002,-0.4845628897796055,30,0.6438563178730354,0.8024065789068753,-0.8811384352741132,0.3008349535144477,0.7270406088693881,0.41448547613455494,0.4867461244701212,0.32086843260349873,False,True,False,-0.6290694686864806,0.9757436891272699,True,-1.1465042613843017,1.493178481825091,True,expanding_residual_calibrated_gaussian
ar,pseudo,pre_advance,DELTA_SA,2012:Q4:pre_advance:pseudo,2013-01-31,2012:Q4,0.3745038169834829,0.2694999999999999,0.1050038169834829,31,0.6330238634687501,0.7956279680031051,-0.699023789583475,0.19145478602830163,0.44750162737267873,0.3189267146195405,0.5868028835837016,0.23512389328080177,False,True,False,-0.4211241510196222,1.170131784986588,True,-0.9341877318904543,1.6831953658574201,True,expanding_residual_calibrated_gaussian
ar,pseudo,pre_advance,DELTA_SA,2013:Q1:pre_advance:pseudo,2013-04-30,2013:Q1,0.2735383342584925,-0.1162,0.3897383342584926,32,0.6126399752717877,0.7827132139371277,-0.797917996315205,0.25877542445430474,0.3092658155471392,0.3633665436816145,0.5374267943869613,0.27259083968523407,True,False,False,-0.5091748796786352,1.05625154819562,True,-1.0139103345488356,1.5609870030658206,True,expanding_residual_calibrated_gaussian
ar,pseudo,pre_advance,DELTA_SA,2013:Q2:pre_advance:pseudo,2013-07-31,2013:Q2,-0.006310028729751,0.8419999999999999,-0.8483100287297509,33,0.5965539991783618,0.7723690822258241,-1.263801488289796,0.5188987238475902,0.8639680664911817,0.5032592050952738,0.3946909765859625,0.4009944787158185,False,True,False,-0.7786791109555751,0.7660590534960732,False,-1.2767441149740777,1.2641240575145756,True,expanding_residual_calibrated_gaussian
ar,pseudo,pre_advance,DELTA_SA,2013:Q3:pre_advance:pseudo,2013-10-31,2013:Q3,0.4736264614294589,0.7550000000000003,-0.2813735385705413,34,0.603912299441874,0.7771179443571445,-0.7323238689713444,0.22181365810630127,0.6413513145719705,0.27110801595200706,0.6376199258509733,0.19301852815437973,False,True,False,-0.30349148292768563,1.2507444057866035,True,-0.8046188079154626,1.7518717307743805,True,expanding_residual_calibrated_gaussian
ar,pseudo,pre_advance,DELTA_SA,2013:Q4:pre_advance:pseudo,2014-01-31,2013:Q4,0.3920541653838421,-0.8431000000000002,1.2351541653838425,35,0.5893693534627156,0.7677039490993358,-1.9488571467999536,0.8369678767730119,0.05381977681055331,0.3047861539721368,0.5987708835811637,0.22029385750105493,True,False,True,-0.37564978371549373,1.159758114483178,False,-0.8707064597171688,1.654814790484853,True,expanding_residual_calibrated_gaussian
ar,pseudo,pre_advance,DELTA_SA,2014:Q1:pre_advance:pseudo,2014-04-30,2014:Q1,-0.3707296002667286,-1.0928,0.7220703997332714,36,0.6118962719422345,0.7822379893243708,-1.0993831706801003,0.43132525150904244,0.1779820398903268,0.6822267055364226,0.23281393624365987,0.5863859024373897,True,False,True,-1.1529675895910994,0.41150838905764225,True,-1.657396594146147,0.9159373936126898,True,expanding_residual_calibrated_gaussian
ar,pseudo,pre_advance,DELTA_SA,2014:Q2:pre_advance:pseudo,2014-07-31,2014:Q2,-0.3807469573065625,0.2237999999999997,-0.6045469573065623,37,0.6061187067786769,0.7785362591290639,-0.9700884618422942,0.36034773600917935,0.7812782265435219,0.6875985782797698,0.22784964982621314,0.5917941151258977,False,True,False,-1.1592832164356264,0.3977893018225014,True,-1.6613251468482344,0.8998312322351094,True,expanding_residual_calibrated_gaussian
ar,pseudo,pre_advance,DELTA_SA,2014:Q3:pre_advance:pseudo,2014-10-31,2014:Q3,0.0960389505392824,0.3467000000000002,-0.2506610494607177,38,0.602621916044835,0.776287263868753,-0.7178372194563353,0.2134262828680568,0.6266134835281838,0.4507701757531954,0.4467325818293745,0.3514709171503958,False,True,False,-0.6802483133294707,0.8723262144080354,True,-1.1808399709914705,1.3729178720700355,True,expanding_residual_calibrated_gaussian
ar,pseudo,pre_advance,DELTA_SA,2014:Q4:pre_advance:pseudo,2015-01-31,2014:Q4,0.1688907339298215,-0.4497999999999997,0.6186907339298213,39,0.589512433759291,0.7677971306011054,-0.9793654161063403,0.3682178025575947,0.2101791618546902,0.4129480714314504,0.48384025396341823,0.315452519306341,True,False,True,-0.598906396671284,0.9366878645309269,True,-1.0940231611023399,1.431804628961983,True,expanding_residual_calibrated_gaussian
ar,pseudo,pre_advance,DELTA_SA,2015:Q1:pre_advance:pseudo,2015-04-30,2015:Q1,-0.1664187565321353,-0.9973,0.8308812434678646,40,0.5819679549174603,0.7628682421738765,-1.2413971558008312,0.5074387982689682,0.13804291899882515,0.5863433941091662,0.3155009215726744,0.48244434394875946,True,False,True,-0.9292869987060118,0.5964494856417412,False,-1.42122535155793,1.0883878384936594,True,expanding_residual_calibrated_gaussian
ar,pseudo,pre_advance,DELTA_SA,2015:Q2:pre_advance:pseudo,2015-07-31,2015:Q2,-0.3349089662402753,1.3627000000000002,-1.6976089662402756,41,0.5810925653894671,0.7622942774214346,-3.127220859549192,1.2744286892597698,0.9870254692630422,0.669793637376981,0.24143024320280715,0.5702369843510153,False,True,False,-1.0972032436617098,0.42738531118115936,False,-1.5887714732612739,0.9189535407807232,False,expanding_residual_calibrated_gaussian
ar,pseudo,pre_advance,DELTA_SA,2015:Q3:pre_advance:pseudo,2015-10-31,2015:Q3,0.677687720737902,0.5856999999999999,0.091987720737902,42,0.6438913268592905,0.8024283936023765,-0.7053966593985387,0.19172579676784313,0.4543665555412232,0.19918217423662754,0.7241793957358085,0.1370236635239864,False,True,False,-0.12474067286447454,1.4801161143402783,True,-0.6421895328478104,1.9975649743236144,True,expanding_residual_calibrated_gaussian
ar,pseudo,pre_advance,DELTA_SA,2015:Q4:pre_advance:pseudo,2016-01-31,2015:Q4,0.3567967296908301,0.314,0.04279672969083,43,0.6285881067771159,0.7928354853165415,-0.6882558798461244,0.18620305906183193,0.47847581554900886,0.32634577953522775,0.5783863337234652,0.24125062033941624,False,True,False,-0.43603875562571137,1.1496322150073714,True,-0.9473015939079139,1.660895053289574,True,expanding_residual_calibrated_gaussian
ar,pseudo,pre_advance,DELTA_SA,2016:Q1:pre_advance:pseudo,2016-04-30,2016:Q1,0.2661399341306913,0.3027000000000001,-0.0365600658693087,44,0.6139753007284686,0.7835657603089026,-0.6761267555224536,0.18379579110396738,0.5186073287096765,0.36705918336716054,0.5336343395051832,0.27595658195700956,False,True,False,-0.5174258261782112,1.049705694439594,True,-1.022711048668395,1.5549909169297778,True,expanding_residual_calibrated_gaussian
ar,pseudo,pre_advance,DELTA_SA,2016:Q2:pre_advance:pseudo,2016-07-31,2016:Q2,0.2681291742259852,-0.1195999999999999,0.3877291742259852,45,0.6002201447530114,0.7747387590362389,-0.7889414533631408,0.2568889937278131,0.3083740558361434,0.36463761822301954,0.5350371241973474,0.272841604939965,True,False,False,-0.5066095848102536,1.0428679332622242,True,-1.006202683514655,1.5424610319666254,True,expanding_residual_calibrated_gaussian
ar,pseudo,pre_advance,DELTA_SA,2016:Q3:pre_advance:pseudo,2016-10-31,2016:Q3,0.0452506389225619,0.2565999999999997,-0.2113493610774377,46,0.5892752251909242,0.767642641592378,-0.6924088332221303,0.20246284636944822,0.6084657951207002,0.4764969495261257,0.4201184887116549,0.3746792193177847,False,True,False,-0.7223920026698162,0.8128932805149399,True,-1.2174091443032702,1.3079104221483941,True,expanding_residual_calibrated_gaussian
ar,pseudo,pre_advance,DELTA_SA,2016:Q4:pre_advance:pseudo,2017-01-31,2016:Q4,0.1492374075003102,-0.0169999999999999,0.1662374075003101,47,0.5780679783539887,0.7603078181591905,-0.6688094199741477,0.19212296478211155,0.4134633468120972,0.42219335124457186,0.4733840579813309,0.32299614025339074,True,False,False,-0.6110704106588802,0.9095452256595007,True,-1.1013576647983947,1.3998324797990152,True,expanding_residual_calibrated_gaussian
