haminh109/Revision-Aware-DFM/outputs/full_state_space_release_revision_dfm/sensitivity_k2_max_iter100_journal_evidence/cumulative_loss_point.csv
timing_mode,checkpoint_id,outcome_id,baseline_model,model_id,target_quarter,loss_diff_baseline_minus_model,cumulative_loss_diff
exact,pre_advance,A,ar,bridge,2005:Q1,0.026508366163050863,0.026508366163050863
exact,pre_advance,A,ar,bridge,2005:Q2,0.2560509148806347,0.28255928104368555
exact,pre_advance,A,ar,bridge,2005:Q3,-0.1145844705953406,0.16797481044834495
exact,pre_advance,A,ar,bridge,2005:Q4,-1.0670534169249262,-0.8990786064765812
exact,pre_advance,A,ar,bridge,2006:Q1,1.635650125619935,0.7365715191433537
exact,pre_advance,A,ar,bridge,2006:Q2,0.7676987547042062,1.50427027384756
exact,pre_advance,A,ar,bridge,2006:Q3,-0.11413741897171992,1.39013285487584
exact,pre_advance,A,ar,bridge,2006:Q4,-11.423735984280235,-10.033603129404394
exact,pre_advance,A,ar,bridge,2007:Q1,2.9288243316873825,-7.104778797717012
exact,pre_advance,A,ar,bridge,2007:Q2,-0.571880895833992,-7.676659693551004
exact,pre_advance,A,ar,bridge,2007:Q3,-4.421703232049935,-12.098362925600938
exact,pre_advance,A,ar,bridge,2007:Q4,6.981606042021606,-5.116756883579332
exact,pre_advance,A,ar,bridge,2008:Q1,-0.8428265241404629,-5.959583407719795
exact,pre_advance,A,ar,bridge,2008:Q2,-0.577590180740207,-6.537173588460002
exact,pre_advance,A,ar,bridge,2008:Q3,6.239153415743342,-0.2980201727166598
exact,pre_advance,A,ar,bridge,2008:Q4,18.935021625538596,18.637001452821934
exact,pre_advance,A,ar,bridge,2009:Q1,28.976487905078283,47.61348935790022
exact,pre_advance,A,ar,bridge,2009:Q2,-1.09729785178964,46.51619150611058
exact,pre_advance,A,ar,bridge,2009:Q3,4.302859584500106,50.819051090610685
exact,pre_advance,A,ar,bridge,2009:Q4,0.8405391500749353,51.65959024068562
exact,pre_advance,A,ar,bridge,2010:Q1,-7.902887294564819,43.7567029461208
exact,pre_advance,A,ar,bridge,2010:Q2,0.011858308232203796,43.768561254353
exact,pre_advance,A,ar,bridge,2010:Q3,0.18832454713788038,43.956885801490884
exact,pre_advance,A,ar,bridge,2010:Q4,0.2765286183734815,44.23341441986437
exact,pre_advance,A,ar,bridge,2011:Q1,-2.6235720668932383,41.60984235297113
exact,pre_advance,A,ar,bridge,2011:Q2,-1.4729019751695827,40.136940377801544
exact,pre_advance,A,ar,bridge,2011:Q3,-0.0022523077665632663,40.13468807003498
exact,pre_advance,A,ar,bridge,2011:Q4,-1.0827571627863521,39.05193090724863
exact,pre_advance,A,ar,bridge,2012:Q1,-1.0541537717065788,37.99777713554205
exact,pre_advance,A,ar,bridge,2012:Q2,-0.48417209242578196,37.51360504311627
exact,pre_advance,A,ar,bridge,2012:Q3,-0.5745739215873321,36.93903112152894
exact,pre_advance,A,ar,bridge,2012:Q4,-8.166100960885938,28.772930160643003
exact,pre_advance,A,ar,bridge,2013:Q1,0.7861555844576769,29.55908574510068
exact,pre_advance,A,ar,bridge,2013:Q2,-0.38246131422934515,29.176624430871335
exact,pre_advance,A,ar,bridge,2013:Q3,-0.46677534104159646,28.70984908982974
exact,pre_advance,A,ar,bridge,2013:Q4,-0.03976541271587547,28.670083677113862
exact,pre_advance,A,ar,bridge,2014:Q1,3.920388840588135,32.590472517702
exact,pre_advance,A,ar,bridge,2014:Q2,4.10619434075463,36.696666858456624
exact,pre_advance,A,ar,bridge,2014:Q3,-0.056094443733069724,36.64057241472355
exact,pre_advance,A,ar,bridge,2014:Q4,0.15759851648912765,36.79817093121268
exact,pre_advance,A,ar,bridge,2015:Q1,3.3836744740684477,40.18184540528113
exact,pre_advance,A,ar,bridge,2015:Q2,0.8610543008872913,41.04289970616842
exact,pre_advance,A,ar,bridge,2015:Q3,0.6136721270869124,41.656571833255335
exact,pre_advance,A,ar,bridge,2015:Q4,0.6515995292412726,42.30817136249661
exact,pre_advance,A,ar,bridge,2016:Q1,0.7787481652209838,43.08691952771759
exact,pre_advance,A,ar,bridge,2016:Q2,0.05979701929442681,43.14671654701202
exact,pre_advance,A,ar,bridge,2016:Q3,0.36377552260716206,43.51049206961918
exact,pre_advance,A,ar,bridge,2016:Q4,-0.7375381686773931,42.772953900941786
exact,pre_advance,A,ar,bridge,2017:Q1,-0.6640699525926914,42.108883948349096
exact,pre_advance,A,ar,bridge,2017:Q2,-0.12694577975501653,41.98193816859408
exact,pre_advance,A,ar,bridge,2017:Q3,-0.3142545493377593,41.667683619256316
exact,pre_advance,A,ar,bridge,2017:Q4,-1.1500300216843709,40.51765359757194
exact,pre_advance,A,ar,bridge,2018:Q1,-0.8594179119067495,39.6582356856652
exact,pre_advance,A,ar,bridge,2018:Q2,0.39498998888680337,40.053225674552
exact,pre_advance,A,ar,bridge,2018:Q3,-0.14385888757446905,39.909366786977536
exact,pre_advance,A,ar,bridge,2018:Q4,0.09068553162124561,40.00005231859878
exact,pre_advance,A,ar,bridge,2019:Q1,-0.10760998024848467,39.8924423383503
exact,pre_advance,A,ar,bridge,2019:Q2,0.6089661755654483,40.50140851391575
exact,pre_advance,A,ar,bridge,2019:Q3,-0.33271829282384147,40.16869022109191
exact,pre_advance,A,ar,bridge,2019:Q4,-0.1678155923048119,40.000874628787095
exact,pre_advance,A,ar,bridge,2020:Q1,9.102458446038142,49.10333307482524
exact,pre_advance,A,ar,bridge,2020:Q2,532.6153717534214,581.7187048282467
exact,pre_advance,A,ar,bridge,2020:Q3,1642.8717471955658,2224.5904520238128
exact,pre_advance,A,ar,bridge,2020:Q4,-25.236584640080753,2199.353867383732
exact,pre_advance,A,ar,bridge,2021:Q1,12.991205256378658,2212.3450726401106
exact,pre_advance,A,ar,bridge,2021:Q2,15.009953845689985,2227.3550264858004
exact,pre_advance,A,ar,bridge,2021:Q3,-0.30513387574141126,2227.049892610059
exact,pre_advance,A,ar,bridge,2021:Q4,-0.541655458264021,2226.508237151795
exact,pre_advance,A,ar,bridge,2022:Q1,-27.2405600181471,2199.2676771336482
exact,pre_advance,A,ar,bridge,2022:Q2,2.316800833701395,2201.58447796735
exact,pre_advance,A,ar,bridge,2022:Q3,-3.065977252215903,2198.518500715134
exact,pre_advance,A,ar,bridge,2022:Q4,-18.358927656569055,2180.159573058565
exact,pre_advance,A,ar,bridge,2023:Q1,1.7468284771528175,2181.906401535718
exact,pre_advance,A,ar,bridge,2023:Q2,-1.406930289536204,2180.4994712461817
exact,pre_advance,A,ar,bridge,2023:Q3,0.36157263477534407,2180.861043880957
exact,pre_advance,A,ar,bridge,2023:Q4,-6.352938995644128,2174.5081048853126
exact,pre_advance,A,ar,bridge,2024:Q1,0.7855773239734216,2175.293682209286
exact,pre_advance,A,ar,bridge,2024:Q2,-0.6561092188970701,2174.637572990389
exact,pre_advance,A,ar,bridge,2024:Q3,-0.07053545014004434,2174.5670375402487
exact,pre_advance,A,ar,bridge,2024:Q4,-0.00044289376299851135,2174.5665946464856
exact,pre_advance,A,ar,indicator_revision_only_dfm_kalman_em,2005:Q1,-4.99662215669112,-4.99662215669112
exact,pre_advance,A,ar,indicator_revision_only_dfm_kalman_em,2005:Q2,-0.07773728466750501,-5.074359441358625
exact,pre_advance,A,ar,indicator_revision_only_dfm_kalman_em,2005:Q3,0.4516533360449029,-4.622706105313721
exact,pre_advance,A,ar,indicator_revision_only_dfm_kalman_em,2005:Q4,-9.07764081685227,-13.700346922165991
exact,pre_advance,A,ar,indicator_revision_only_dfm_kalman_em,2006:Q1,7.800332111642149,-5.900014810523842
exact,pre_advance,A,ar,indicator_revision_only_dfm_kalman_em,2006:Q2,-5.435536663694963,-11.335551474218805
exact,pre_advance,A,ar,indicator_revision_only_dfm_kalman_em,2006:Q3,0.7179621841488288,-10.617589290069976
exact,pre_advance,A,ar,indicator_revision_only_dfm_kalman_em,2006:Q4,-12.948028298717462,-23.56561758878744
exact,pre_advance,A,ar,indicator_revision_only_dfm_kalman_em,2007:Q1,-6.8646852427847085,-30.43030283157215
exact,pre_advance,A,ar,indicator_revision_only_dfm_kalman_em,2007:Q2,-4.118835210745082,-34.54913804231723
exact,pre_advance,A,ar,indicator_revision_only_dfm_kalman_em,2007:Q3,-9.091802198334147,-43.640940240651375
exact,pre_advance,A,ar,indicator_revision_only_dfm_kalman_em,2007:Q4,-1.8957645918647756,-45.53670483251615
exact,pre_advance,A,ar,indicator_revision_only_dfm_kalman_em,2008:Q1,-2.865720646553723,-48.402425479069876
exact,pre_advance,A,ar,indicator_revision_only_dfm_kalman_em,2008:Q2,-0.32118230474858767,-48.723607783818466
exact,pre_advance,A,ar,indicator_revision_only_dfm_kalman_em,2008:Q3,-8.311876818896405,-57.035484602714874
exact,pre_advance,A,ar,indicator_revision_only_dfm_kalman_em,2008:Q4,-12.300317155690177,-69.33580175840505
exact,pre_advance,A,ar,indicator_revision_only_dfm_kalman_em,2009:Q1,31.032747076489727,-38.30305468191533
exact,pre_advance,A,ar,indicator_revision_only_dfm_kalman_em,2009:Q2,-4.892223539748047,-43.19527822166337
exact,pre_advance,A,ar,indicator_revision_only_dfm_kalman_em,2009:Q3,5.178449135930131,-38.01682908573324
exact,pre_advance,A,ar,indicator_revision_only_dfm_kalman_em,2009:Q4,-13.535385874966725,-51.55221496069997
exact,pre_advance,A,ar,indicator_revision_only_dfm_kalman_em,2010:Q1,-0.902285164196929,-52.454500124896896
exact,pre_advance,A,ar,indicator_revision_only_dfm_kalman_em,2010:Q2,-0.9757856674805865,-53.43028579237748
exact,pre_advance,A,ar,indicator_revision_only_dfm_kalman_em,2010:Q3,0.22008583004909082,-53.21019996232839
exact,pre_advance,A,ar,indicator_revision_only_dfm_kalman_em,2010:Q4,0.7841389971084959,-52.42606096521989
exact,pre_advance,A,ar,indicator_revision_only_dfm_kalman_em,2011:Q1,-16.64804903302174,-69.07410999824162
exact,pre_advance,A,ar,indicator_revision_only_dfm_kalman_em,2011:Q2,-3.0527208937716726,-72.1268308920133
exact,pre_advance,A,ar,indicator_revision_only_dfm_kalman_em,2011:Q3,-3.3539506815162508,-75.48078157352955
exact,pre_advance,A,ar,indicator_revision_only_dfm_kalman_em,2011:Q4,-4.057879848945369,-79.53866142247492
exact,pre_advance,A,ar,indicator_revision_only_dfm_kalman_em,2012:Q1,-6.917461130763691,-86.4561225532386
exact,pre_advance,A,ar,indicator_revision_only_dfm_kalman_em,2012:Q2,-1.995887277460807,-88.45200983069941
exact,pre_advance,A,ar,indicator_revision_only_dfm_kalman_em,2012:Q3,-1.3434143100742293,-89.79542414077363
exact,pre_advance,A,ar,indicator_revision_only_dfm_kalman_em,2012:Q4,-16.675555063834537,-106.47097920460817
exact,pre_advance,A,ar,indicator_revision_only_dfm_kalman_em,2013:Q1,0.17948188695770861,-106.29149731765047
exact,pre_advance,A,ar,indicator_revision_only_dfm_kalman_em,2013:Q2,0.5034969971955398,-105.78800032045493
exact,pre_advance,A,ar,indicator_revision_only_dfm_kalman_em,2013:Q3,0.4836017617278894,-105.30439855872704
exact,pre_advance,A,ar,indicator_revision_only_dfm_kalman_em,2013:Q4,-4.243844759683292,-109.54824331841033
exact,pre_advance,A,ar,indicator_revision_only_dfm_kalman_em,2014:Q1,4.9808898876222685,-104.56735343078806
exact,pre_advance,A,ar,indicator_revision_only_dfm_kalman_em,2014:Q2,6.6811204945141185,-97.88623293627394
exact,pre_advance,A,ar,indicator_revision_only_dfm_kalman_em,2014:Q3,0.08572375192192545,-97.80050918435201
exact,pre_advance,A,ar,indicator_revision_only_dfm_kalman_em,2014:Q4,-0.2800184081066608,-98.08052759245867
exact,pre_advance,A,ar,indicator_revision_only_dfm_kalman_em,2015:Q1,5.094928233745129,-92.98559935871353
exact,pre_advance,A,ar,indicator_revision_only_dfm_kalman_em,2015:Q2,-2.008578500830765,-94.9941778595443
exact,pre_advance,A,ar,indicator_revision_only_dfm_kalman_em,2015:Q3,0.18281876845256617,-94.81135909109173
exact,pre_advance,A,ar,indicator_revision_only_dfm_kalman_em,2015:Q4,0.9234397935005428,-93.88791929759118
exact,pre_advance,A,ar,indicator_revision_only_dfm_kalman_em,2016:Q1,0.19860026344910797,-93.68931903414207
exact,pre_advance,A,ar,indicator_revision_only_dfm_kalman_em,2016:Q2,-1.1726932475202572,-94.86201228166233
exact,pre_advance,A,ar,indicator_revision_only_dfm_kalman_em,2016:Q3,0.8802077406755294,-93.9818045409868
exact,pre_advance,A,ar,indicator_revision_only_dfm_kalman_em,2016:Q4,-2.8049974639760653,-96.78680200496287
exact,pre_advance,A,ar,indicator_revision_only_dfm_kalman_em,2017:Q1,-3.232114150785995,-100.01891615574885
exact,pre_advance,A,ar,indicator_revision_only_dfm_kalman_em,2017:Q2,0.9553542078505486,-99.06356194789831
exact,pre_advance,A,ar,indicator_revision_only_dfm_kalman_em,2017:Q3,-0.4727444939475389,-99.53630644184585
exact,pre_advance,A,ar,indicator_revision_only_dfm_kalman_em,2017:Q4,-12.286961517762924,-111.82326795960877
exact,pre_advance,A,ar,indicator_revision_only_dfm_kalman_em,2018:Q1,-1.1416835157469505,-112.96495147535572
exact,pre_advance,A,ar,indicator_revision_only_dfm_kalman_em,2018:Q2,0.7381940762034431,-112.22675739915228
exact,pre_advance,A,ar,indicator_revision_only_dfm_kalman_em,2018:Q3,-0.09726259002551765,-112.3240199891778
exact,pre_advance,A,ar,indicator_revision_only_dfm_kalman_em,2018:Q4,-0.09336562369119109,-112.41738561286898
exact,pre_advance,A,ar,indicator_revision_only_dfm_kalman_em,2019:Q1,-2.08486036101932,-114.50224597388831
exact,pre_advance,A,ar,indicator_revision_only_dfm_kalman_em,2019:Q2,0.29122100621459956,-114.21102496767371
exact,pre_advance,A,ar,indicator_revision_only_dfm_kalman_em,2019:Q3,-1.2829435240991254,-115.49396849177283
exact,pre_advance,A,ar,indicator_revision_only_dfm_kalman_em,2019:Q4,-0.012550849819586169,-115.50651934159242
exact,pre_advance,A,ar,indicator_revision_only_dfm_kalman_em,2020:Q1,31.56894181227135,-83.93757752932108
exact,pre_advance,A,ar,indicator_revision_only_dfm_kalman_em,2020:Q2,773.0380212451681,689.1004437158471
exact,pre_advance,A,ar,indicator_revision_only_dfm_kalman_em,2020:Q3,2042.687178340741,2731.787622056588
exact,pre_advance,A,ar,indicator_revision_only_dfm_kalman_em,2020:Q4,0.2156475065259499,2732.003269563114
exact,pre_advance,A,ar,indicator_revision_only_dfm_kalman_em,2021:Q1,-0.517131175040662,2731.4861383880734
exact,pre_advance,A,ar,indicator_revision_only_dfm_kalman_em,2021:Q2,7.097081354592246,2738.5832197426657
exact,pre_advance,A,ar,indicator_revision_only_dfm_kalman_em,2021:Q3,-8.153040584530316,2730.4301791581356
exact,pre_advance,A,ar,indicator_revision_only_dfm_kalman_em,2021:Q4,13.705299459997729,2744.135478618133
exact,pre_advance,A,ar,indicator_revision_only_dfm_kalman_em,2022:Q1,-27.370755122445395,2716.764723495688
exact,pre_advance,A,ar,indicator_revision_only_dfm_kalman_em,2022:Q2,-8.678020689647395,2708.0867028060406
exact,pre_advance,A,ar,indicator_revision_only_dfm_kalman_em,2022:Q3,0.0466993182166997,2708.1334021242574
exact,pre_advance,A,ar,indicator_revision_only_dfm_kalman_em,2022:Q4,-0.5035337535968923,2707.6298683706605
exact,pre_advance,A,ar,indicator_revision_only_dfm_kalman_em,2023:Q1,-1.8623506063908866,2705.7675177642695
exact,pre_advance,A,ar,indicator_revision_only_dfm_kalman_em,2023:Q2,-0.009310038086456513,2705.758207726183
exact,pre_advance,A,ar,indicator_revision_only_dfm_kalman_em,2023:Q3,0.6291970147416528,2706.387404740925
exact,pre_advance,A,ar,indicator_revision_only_dfm_kalman_em,2023:Q4,-0.7604578638339199,2705.626946877091
exact,pre_advance,A,ar,indicator_revision_only_dfm_kalman_em,2024:Q1,0.7764626080115038,2706.4034094851027
exact,pre_advance,A,ar,indicator_revision_only_dfm_kalman_em,2024:Q2,0.07337411790492797,2706.476783603008
exact,pre_advance,A,ar,indicator_revision_only_dfm_kalman_em,2024:Q3,-0.7019730843341735,2705.774810518674
exact,pre_advance,A,ar,indicator_revision_only_dfm_kalman_em,2024:Q4,0.027095353635905615,2705.80190587231
exact,pre_advance,A,ar,joint_indicator_revision_dfm_full_kalman_em,2005:Q1,-2.3068210665901687,-2.3068210665901687
exact,pre_advance,A,ar,joint_indicator_revision_dfm_full_kalman_em,2005:Q2,0.25741830751330047,-2.049402759076868
exact,pre_advance,A,ar,joint_indicator_revision_dfm_full_kalman_em,2005:Q3,0.5491350279824011,-1.5002677310944672
exact,pre_advance,A,ar,joint_indicator_revision_dfm_full_kalman_em,2005:Q4,-5.723318601324071,-7.223586332418538
exact,pre_advance,A,ar,joint_indicator_revision_dfm_full_kalman_em,2006:Q1,6.238859848810055,-0.9847264836084832
exact,pre_advance,A,ar,joint_indicator_revision_dfm_full_kalman_em,2006:Q2,-4.243433616741467,-5.2281601003499505
exact,pre_advance,A,ar,joint_indicator_revision_dfm_full_kalman_em,2006:Q3,0.6515186443966712,-4.576641455953279
exact,pre_advance,A,ar,joint_indicator_revision_dfm_full_kalman_em,2006:Q4,-5.239015595771438,-9.815657051724717
exact,pre_advance,A,ar,joint_indicator_revision_dfm_full_kalman_em,2007:Q1,-18.62296919722844,-28.438626248953156
exact,pre_advance,A,ar,joint_indicator_revision_dfm_full_kalman_em,2007:Q2,-0.9622003441941889,-29.400826593147343
exact,pre_advance,A,ar,joint_indicator_revision_dfm_full_kalman_em,2007:Q3,-8.506838032223216,-37.90766462537056
exact,pre_advance,A,ar,joint_indicator_revision_dfm_full_kalman_em,2007:Q4,-0.4137310431591983,-38.32139566852975
exact,pre_advance,A,ar,joint_indicator_revision_dfm_full_kalman_em,2008:Q1,-2.379350265724118,-40.700745934253874
exact,pre_advance,A,ar,joint_indicator_revision_dfm_full_kalman_em,2008:Q2,-0.007114505675321348,-40.70786043992919
exact,pre_advance,A,ar,joint_indicator_revision_dfm_full_kalman_em,2008:Q3,-3.7756549405830464,-44.48351538051224
exact,pre_advance,A,ar,joint_indicator_revision_dfm_full_kalman_em,2008:Q4,-3.0580154147262064,-47.541530795238444
exact,pre_advance,A,ar,joint_indicator_revision_dfm_full_kalman_em,2009:Q1,14.08184424651241,-33.45968654872603
exact,pre_advance,A,ar,joint_indicator_revision_dfm_full_kalman_em,2009:Q2,0.06277497849051039,-33.396911570235524
exact,pre_advance,A,ar,joint_indicator_revision_dfm_full_kalman_em,2009:Q3,7.321405985933475,-26.07550558430205
exact,pre_advance,A,ar,joint_indicator_revision_dfm_full_kalman_em,2009:Q4,-9.579558444473587,-35.65506402877564
exact,pre_advance,A,ar,joint_indicator_revision_dfm_full_kalman_em,2010:Q1,0.30744943747079834,-35.34761459130484
exact,pre_advance,A,ar,joint_indicator_revision_dfm_full_kalman_em,2010:Q2,-1.0717031839805977,-36.419317775285435
exact,pre_advance,A,ar,joint_indicator_revision_dfm_full_kalman_em,2010:Q3,0.21823616744058424,-36.20108160784485
exact,pre_advance,A,ar,joint_indicator_revision_dfm_full_kalman_em,2010:Q4,0.6150942209110393,-35.58598738693381
exact,pre_advance,A,ar,joint_indicator_revision_dfm_full_kalman_em,2011:Q1,-13.69063309909538,-49.27662048602919
exact,pre_advance,A,ar,joint_indicator_revision_dfm_full_kalman_em,2011:Q2,-2.11288756838586,-51.389508054415046
exact,pre_advance,A,ar,joint_indicator_revision_dfm_full_kalman_em,2011:Q3,-2.048962812013136,-53.43847086642818
exact,pre_advance,A,ar,joint_indicator_revision_dfm_full_kalman_em,2011:Q4,-2.666530103748097,-56.10500097017628
exact,pre_advance,A,ar,joint_indicator_revision_dfm_full_kalman_em,2012:Q1,-6.153155038361575,-62.25815600853785
exact,pre_advance,A,ar,joint_indicator_revision_dfm_full_kalman_em,2012:Q2,-1.5848881222185547,-63.84304413075641
exact,pre_advance,A,ar,joint_indicator_revision_dfm_full_kalman_em,2012:Q3,-0.9262761704241684,-64.76932030118058
exact,pre_advance,A,ar,joint_indicator_revision_dfm_full_kalman_em,2012:Q4,-11.88716155007477,-76.65648185125535
exact,pre_advance,A,ar,joint_indicator_revision_dfm_full_kalman_em,2013:Q1,0.3071280645563794,-76.34935378669897
exact,pre_advance,A,ar,joint_indicator_revision_dfm_full_kalman_em,2013:Q2,0.08594147110883998,-76.26341231559013
exact,pre_advance,A,ar,joint_indicator_revision_dfm_full_kalman_em,2013:Q3,0.5207283819213642,-75.74268393366877
exact,pre_advance,A,ar,joint_indicator_revision_dfm_full_kalman_em,2013:Q4,-1.4587437847153484,-77.20142771838412
exact,pre_advance,A,ar,joint_indicator_revision_dfm_full_kalman_em,2014:Q1,2.7178654213144435,-74.48356229706968
exact,pre_advance,A,ar,joint_indicator_revision_dfm_full_kalman_em,2014:Q2,6.880721408000642,-67.60284088906904
exact,pre_advance,A,ar,joint_indicator_revision_dfm_full_kalman_em,2014:Q3,0.05014184322861447,-67.55269904584043
exact,pre_advance,A,ar,joint_indicator_revision_dfm_full_kalman_em,2014:Q4,-0.2132382238293582,-67.76593726966979
exact,pre_advance,A,ar,joint_indicator_revision_dfm_full_kalman_em,2015:Q1,3.8709724971707713,-63.89496477249902
exact,pre_advance,A,ar,joint_indicator_revision_dfm_full_kalman_em,2015:Q2,-0.3927312855667683,-64.28769605806579
exact,pre_advance,A,ar,joint_indicator_revision_dfm_full_kalman_em,2015:Q3,-1.2163690683161947,-65.50406512638199
exact,pre_advance,A,ar,joint_indicator_revision_dfm_full_kalman_em,2015:Q4,0.681553801782661,-64.82251132459933
exact,pre_advance,A,ar,joint_indicator_revision_dfm_full_kalman_em,2016:Q1,-0.4639658313012869,-65.28647715590061
exact,pre_advance,A,ar,joint_indicator_revision_dfm_full_kalman_em,2016:Q2,-0.7472520244946472,-66.03372918039526
exact,pre_advance,A,ar,joint_indicator_revision_dfm_full_kalman_em,2016:Q3,1.0249785332237045,-65.00875064717155
exact,pre_advance,A,ar,joint_indicator_revision_dfm_full_kalman_em,2016:Q4,-1.4061276282278259,-66.41487827539937
exact,pre_advance,A,ar,joint_indicator_revision_dfm_full_kalman_em,2017:Q1,-2.588709184324532,-69.0035874597239
exact,pre_advance,A,ar,joint_indicator_revision_dfm_full_kalman_em,2017:Q2,0.952865657195155,-68.05072180252874
exact,pre_advance,A,ar,joint_indicator_revision_dfm_full_kalman_em,2017:Q3,-1.3157657057710122,-69.36648750829976
exact,pre_advance,A,ar,joint_indicator_revision_dfm_full_kalman_em,2017:Q4,-7.939276980899648,-77.3057644891994
exact,pre_advance,A,ar,joint_indicator_revision_dfm_full_kalman_em,2018:Q1,-0.47944562427895404,-77.78521011347836
exact,pre_advance,A,ar,joint_indicator_revision_dfm_full_kalman_em,2018:Q2,0.522935680432481,-77.26227443304587
exact,pre_advance,A,ar,joint_indicator_revision_dfm_full_kalman_em,2018:Q3,-0.1302189136549566,-77.39249334670083
exact,pre_advance,A,ar,joint_indicator_revision_dfm_full_kalman_em,2018:Q4,0.08383146340988092,-77.30866188329095
exact,pre_advance,A,ar,joint_indicator_revision_dfm_full_kalman_em,2019:Q1,-1.7510327525925824,-79.05969463588353
exact,pre_advance,A,ar,joint_indicator_revision_dfm_full_kalman_em,2019:Q2,0.26422035405749744,-78.79547428182603
exact,pre_advance,A,ar,joint_indicator_revision_dfm_full_kalman_em,2019:Q3,-0.7632669595173636,-79.5587412413434
exact,pre_advance,A,ar,joint_indicator_revision_dfm_full_kalman_em,2019:Q4,0.016681793105556987,-79.54205944823784
exact,pre_advance,A,ar,joint_indicator_revision_dfm_full_kalman_em,2020:Q1,30.58512657087811,-48.956932877359726
exact,pre_advance,A,ar,joint_indicator_revision_dfm_full_kalman_em,2020:Q2,734.4197375891331,685.4628047117734
exact,pre_advance,A,ar,joint_indicator_revision_dfm_full_kalman_em,2020:Q3,1960.9479322222069,2646.4107369339804
exact,pre_advance,A,ar,joint_indicator_revision_dfm_full_kalman_em,2020:Q4,-1.5166754894574859,2644.894061444523
exact,pre_advance,A,ar,joint_indicator_revision_dfm_full_kalman_em,2021:Q1,-4.102495335505013,2640.791566109018
exact,pre_advance,A,ar,joint_indicator_revision_dfm_full_kalman_em,2021:Q2,5.459074575068403,2646.250640684086
exact,pre_advance,A,ar,joint_indicator_revision_dfm_full_kalman_em,2021:Q3,-8.165618742619447,2638.085021941467
exact,pre_advance,A,ar,joint_indicator_revision_dfm_full_kalman_em,2021:Q4,13.93553811640016,2652.020560057867
exact,pre_advance,A,ar,joint_indicator_revision_dfm_full_kalman_em,2022:Q1,-21.73295442074462,2630.2876056371224
exact,pre_advance,A,ar,joint_indicator_revision_dfm_full_kalman_em,2022:Q2,-9.193374700113397,2621.094230937009
exact,pre_advance,A,ar,joint_indicator_revision_dfm_full_kalman_em,2022:Q3,0.041289453132662496,2621.1355203901417
exact,pre_advance,A,ar,joint_indicator_revision_dfm_full_kalman_em,2022:Q4,-0.6637333038938088,2620.471787086248
exact,pre_advance,A,ar,joint_indicator_revision_dfm_full_kalman_em,2023:Q1,-2.2580335896715935,2618.2137534965764
exact,pre_advance,A,ar,joint_indicator_revision_dfm_full_kalman_em,2023:Q2,-0.07769202304587733,2618.1360614735304
exact,pre_advance,A,ar,joint_indicator_revision_dfm_full_kalman_em,2023:Q3,0.3760204327697281,2618.5120819063
exact,pre_advance,A,ar,joint_indicator_revision_dfm_full_kalman_em,2023:Q4,-0.9088766089959757,2617.603205297304
exact,pre_advance,A,ar,joint_indicator_revision_dfm_full_kalman_em,2024:Q1,0.7231258112260806,2618.32633110853
exact,pre_advance,A,ar,joint_indicator_revision_dfm_full_kalman_em,2024:Q2,0.11997287515696281,2618.4463039836874
exact,pre_advance,A,ar,joint_indicator_revision_dfm_full_kalman_em,2024:Q3,-0.8531266773586164,2617.593177306329
exact,pre_advance,A,ar,joint_indicator_revision_dfm_full_kalman_em,2024:Q4,0.04574871855720514,2617.638926024886
exact,pre_advance,A,ar,midas_umidas,2005:Q1,-187.61991516685706,-187.61991516685706
exact,pre_advance,A,ar,midas_umidas,2005:Q2,-221.4071400207663,-409.0270551876233
exact,pre_advance,A,ar,midas_umidas,2005:Q3,-286.14988720392984,-695.1769423915532
exact,pre_advance,A,ar,midas_umidas,2005:Q4,-121.10249273577598,-816.2794351273292
exact,pre_advance,A,ar,midas_umidas,2006:Q1,-416.6870798619977,-1232.966514989327
exact,pre_advance,A,ar,midas_umidas,2006:Q2,-219.9009566134752,-1452.8674716028022
exact,pre_advance,A,ar,midas_umidas,2006:Q3,-16.762423352694537,-1469.6298949554966
exact,pre_advance,A,ar,midas_umidas,2006:Q4,-19.79785816021212,-1489.4277531157088
exact,pre_advance,A,ar,midas_umidas,2007:Q1,-18.208297323579018,-1507.6360504392878
exact,pre_advance,A,ar,midas_umidas,2007:Q2,-90.46093777982132,-1598.096988219109
exact,pre_advance,A,ar,midas_umidas,2007:Q3,-331.12591042394655,-1929.2228986430557
exact,pre_advance,A,ar,midas_umidas,2007:Q4,-28.74381121920389,-1957.9667098622597
exact,pre_advance,A,ar,midas_umidas,2008:Q1,-109.21614314993121,-2067.182853012191
exact,pre_advance,A,ar,midas_umidas,2008:Q2,-565.4112016101046,-2632.5940546222955
exact,pre_advance,A,ar,midas_umidas,2008:Q3,-58.18659707392685,-2690.7806516962223
exact,pre_advance,A,ar,midas_umidas,2008:Q4,-32.72816335872051,-2723.5088150549427
exact,pre_advance,A,ar,midas_umidas,2009:Q1,8.583597191782765,-2714.92521786316
exact,pre_advance,A,ar,midas_umidas,2009:Q2,-53.398857345170725,-2768.3240752083307
exact,pre_advance,A,ar,midas_umidas,2009:Q3,-303.9722662119711,-3072.296341420302
exact,pre_advance,A,ar,midas_umidas,2009:Q4,-64.51058242084478,-3136.8069238411467
exact,pre_advance,A,ar,midas_umidas,2010:Q1,0.5983576798366713,-3136.20856616131
exact,pre_advance,A,ar,midas_umidas,2010:Q2,-15.990555884641354,-3152.1991220459513
exact,pre_advance,A,ar,midas_umidas,2010:Q3,-307.65469542037425,-3459.8538174663254
exact,pre_advance,A,ar,midas_umidas,2010:Q4,-38.15978341148763,-3498.013600877813
exact,pre_advance,A,ar,midas_umidas,2011:Q1,-92.03290211789393,-3590.046502995707
exact,pre_advance,A,ar,midas_umidas,2011:Q2,-306.0219822893376,-3896.068485285045
exact,pre_advance,A,ar,midas_umidas,2011:Q3,-32.87401376613379,-3928.942499051179
exact,pre_advance,A,ar,midas_umidas,2011:Q4,-371.5481785272261,-4300.490677578405
exact,pre_advance,A,ar,midas_umidas,2012:Q1,-122.74567380909892,-4423.236351387503
exact,pre_advance,A,ar,midas_umidas,2012:Q2,-29.887974226324037,-4453.124325613828
exact,pre_advance,A,ar,midas_umidas,2012:Q3,-25.052584811400553,-4478.176910425228
exact,pre_advance,A,ar,midas_umidas,2012:Q4,-236.93183359302026,-4715.108744018248
exact,pre_advance,A,ar,midas_umidas,2013:Q1,-289.46108812634054,-5004.569832144589
exact,pre_advance,A,ar,midas_umidas,2013:Q2,-166.0040906633504,-5170.573922807939
exact,pre_advance,A,ar,midas_umidas,2013:Q3,-133.94421055689682,-5304.518133364836
exact,pre_advance,A,ar,midas_umidas,2013:Q4,0.18443708284159316,-5304.333696281995
exact,pre_advance,A,ar,midas_umidas,2014:Q1,-24.411049418002115,-5328.744745699997
exact,pre_advance,A,ar,midas_umidas,2014:Q2,-6.90491544809671,-5335.649661148093
exact,pre_advance,A,ar,midas_umidas,2014:Q3,-128.28898106589693,-5463.9386422139905
exact,pre_advance,A,ar,midas_umidas,2014:Q4,0.023543689470504364,-5463.91509852452
exact,pre_advance,A,ar,midas_umidas,2015:Q1,-16.38452558657344,-5480.299624111093
exact,pre_advance,A,ar,midas_umidas,2015:Q2,-85.02922229388095,-5565.328846404974
exact,pre_advance,A,ar,midas_umidas,2015:Q3,-1.3449577888954591,-5566.673804193869
exact,pre_advance,A,ar,midas_umidas,2015:Q4,-43.1095889017357,-5609.783393095605
exact,pre_advance,A,ar,midas_umidas,2016:Q1,1.1201030328544062,-5608.66329006275
exact,pre_advance,A,ar,midas_umidas,2016:Q2,-0.6664911310980901,-5609.329781193848
exact,pre_advance,A,ar,midas_umidas,2016:Q3,-25.33526065431418,-5634.665041848162
exact,pre_advance,A,ar,midas_umidas,2016:Q4,-11.497059059703178,-5646.162100907865
exact,pre_advance,A,ar,midas_umidas,2017:Q1,-6.069861218333774,-5652.2319621261995
exact,pre_advance,A,ar,midas_umidas,2017:Q2,0.9452815682099753,-5651.28668055799
exact,pre_advance,A,ar,midas_umidas,2017:Q3,-0.4140412856125233,-5651.700721843602
exact,pre_advance,A,ar,midas_umidas,2017:Q4,-0.13420448164649426,-5651.8349263252485
exact,pre_advance,A,ar,midas_umidas,2018:Q1,-3.99725702453765,-5655.832183349786
exact,pre_advance,A,ar,midas_umidas,2018:Q2,-18.26889602605072,-5674.101079375837
exact,pre_advance,A,ar,midas_umidas,2018:Q3,-2.0214950694258955,-5676.122574445263
exact,pre_advance,A,ar,midas_umidas,2018:Q4,-0.8432647553048285,-5676.965839200568
exact,pre_advance,A,ar,midas_umidas,2019:Q1,-2.4406187212482653,-5679.406457921816
exact,pre_advance,A,ar,midas_umidas,2019:Q2,-0.31022506279465656,-5679.71668298461
exact,pre_advance,A,ar,midas_umidas,2019:Q3,-0.5704491640054846,-5680.2871321486155
exact,pre_advance,A,ar,midas_umidas,2019:Q4,-3.7370281645182963,-5684.0241603131335
exact,pre_advance,A,ar,midas_umidas,2020:Q1,-88.42740718616122,-5772.4515674992945
exact,pre_advance,A,ar,midas_umidas,2020:Q2,-3056.459892531503,-8828.911460030798
exact,pre_advance,A,ar,midas_umidas,2020:Q3,-1182.7855619737256,-10011.697022004524
exact,pre_advance,A,ar,midas_umidas,2020:Q4,-9.845816644277402,-10021.542838648802
exact,pre_advance,A,ar,midas_umidas,2021:Q1,-8.101390902855796,-10029.644229551657
exact,pre_advance,A,ar,midas_umidas,2021:Q2,12.942854477099061,-10016.701375074557
exact,pre_advance,A,ar,midas_umidas,2021:Q3,-36.1065026315115,-10052.80787770607
exact,pre_advance,A,ar,midas_umidas,2021:Q4,-50.13772406877304,-10102.945601774842
exact,pre_advance,A,ar,midas_umidas,2022:Q1,11.516273142385177,-10091.429328632457
exact,pre_advance,A,ar,midas_umidas,2022:Q2,-81.47208354712383,-10172.90141217958
exact,pre_advance,A,ar,midas_umidas,2022:Q3,-10.828589581410334,-10183.73000176099
exact,pre_advance,A,ar,midas_umidas,2022:Q4,-26.164088543113774,-10209.894090304104
exact,pre_advance,A,ar,midas_umidas,2023:Q1,0.9839509254703405,-10208.910139378633
exact,pre_advance,A,ar,midas_umidas,2023:Q2,-4.190128232118403,-10213.100267610751
exact,pre_advance,A,ar,midas_umidas,2023:Q3,5.646110506615628,-10207.454157104135
exact,pre_advance,A,ar,midas_umidas,2023:Q4,-0.5226186986627845,-10207.976775802797
exact,pre_advance,A,ar,midas_umidas,2024:Q1,-6.858121252587562,-10214.834897055385
exact,pre_advance,A,ar,midas_umidas,2024:Q2,-0.009088496400308982,-10214.843985551786
exact,pre_advance,A,ar,midas_umidas,2024:Q3,-3.3941584319243674,-10218.23814398371
exact,pre_advance,A,ar,midas_umidas,2024:Q4,0.053104823491227374,-10218.185039160218
exact,pre_advance,A,ar,monthly_mixed_frequency_kalman_em,2005:Q1,-0.07939694617614601,-0.07939694617614601
exact,pre_advance,A,ar,monthly_mixed_frequency_kalman_em,2005:Q2,0.2727579138256043,0.19336096764945832
exact,pre_advance,A,ar,monthly_mixed_frequency_kalman_em,2005:Q3,-5.388500350088186,-5.195139382438727
exact,pre_advance,A,ar,monthly_mixed_frequency_kalman_em,2005:Q4,-4.182088462677489,-9.377227845116217
exact,pre_advance,A,ar,monthly_mixed_frequency_kalman_em,2006:Q1,8.240866871257927,-1.1363609738582898
exact,pre_advance,A,ar,monthly_mixed_frequency_kalman_em,2006:Q2,0.05659642878102766,-1.0797645450772622
exact,pre_advance,A,ar,monthly_mixed_frequency_kalman_em,2006:Q3,0.8671551967071538,-0.21260934837010836
exact,pre_advance,A,ar,monthly_mixed_frequency_kalman_em,2006:Q4,-10.308505334072818,-10.521114682442926
exact,pre_advance,A,ar,monthly_mixed_frequency_kalman_em,2007:Q1,-1.2121389668223497,-11.733253649265276
exact,pre_advance,A,ar,monthly_mixed_frequency_kalman_em,2007:Q2,1.071788793364329,-10.661464855900947
exact,pre_advance,A,ar,monthly_mixed_frequency_kalman_em,2007:Q3,0.371149907913682,-10.290314947987264
exact,pre_advance,A,ar,monthly_mixed_frequency_kalman_em,2007:Q4,6.995229188543698,-3.295085759443566
exact,pre_advance,A,ar,monthly_mixed_frequency_kalman_em,2008:Q1,0.7511562544138455,-2.5439295050297206
exact,pre_advance,A,ar,monthly_mixed_frequency_kalman_em,2008:Q2,-2.7464662181853,-5.2903957232150205
exact,pre_advance,A,ar,monthly_mixed_frequency_kalman_em,2008:Q3,-3.2678850562156034,-8.558280779430625
exact,pre_advance,A,ar,monthly_mixed_frequency_kalman_em,2008:Q4,10.222391706978295,1.6641109275476698
exact,pre_advance,A,ar,monthly_mixed_frequency_kalman_em,2009:Q1,25.84352246049383,27.507633388041498
exact,pre_advance,A,ar,monthly_mixed_frequency_kalman_em,2009:Q2,-2.573952085773712,24.933681302267786
exact,pre_advance,A,ar,monthly_mixed_frequency_kalman_em,2009:Q3,5.538926261490616,30.4726075637584
exact,pre_advance,A,ar,monthly_mixed_frequency_kalman_em,2009:Q4,5.187549498567735,35.660157062326135
exact,pre_advance,A,ar,monthly_mixed_frequency_kalman_em,2010:Q1,-1.2155523702116555,34.44460469211448
exact,pre_advance,A,ar,monthly_mixed_frequency_kalman_em,2010:Q2,-1.4501067942008377,32.99449789791365
exact,pre_advance,A,ar,monthly_mixed_frequency_kalman_em,2010:Q3,0.08291543079183131,33.077413328705475
exact,pre_advance,A,ar,monthly_mixed_frequency_kalman_em,2010:Q4,0.6946692772104628,33.77208260591594
exact,pre_advance,A,ar,monthly_mixed_frequency_kalman_em,2011:Q1,-5.829674569449706,27.942408036466233
exact,pre_advance,A,ar,monthly_mixed_frequency_kalman_em,2011:Q2,-0.8239983370734515,27.11840969939278
exact,pre_advance,A,ar,monthly_mixed_frequency_kalman_em,2011:Q3,0.16985445278930209,27.288264152182084
exact,pre_advance,A,ar,monthly_mixed_frequency_kalman_em,2011:Q4,-1.1312413853609602,26.15702276682112
exact,pre_advance,A,ar,monthly_mixed_frequency_kalman_em,2012:Q1,-3.229965512953019,22.927057253868103
exact,pre_advance,A,ar,monthly_mixed_frequency_kalman_em,2012:Q2,0.2766623957539844,23.203719649622087
exact,pre_advance,A,ar,monthly_mixed_frequency_kalman_em,2012:Q3,-0.11804061868477392,23.085679030937314
exact,pre_advance,A,ar,monthly_mixed_frequency_kalman_em,2012:Q4,-10.301071618167159,12.784607412770155
exact,pre_advance,A,ar,monthly_mixed_frequency_kalman_em,2013:Q1,0.44603232474177146,13.230639737511927
exact,pre_advance,A,ar,monthly_mixed_frequency_kalman_em,2013:Q2,-0.24674168870174462,12.983898048810183
exact,pre_advance,A,ar,monthly_mixed_frequency_kalman_em,2013:Q3,0.4984408354827545,13.482338884292936
exact,pre_advance,A,ar,monthly_mixed_frequency_kalman_em,2013:Q4,-1.9510196158878876,11.53131926840505
exact,pre_advance,A,ar,monthly_mixed_frequency_kalman_em,2014:Q1,0.4569376209963725,11.988256889401422
exact,pre_advance,A,ar,monthly_mixed_frequency_kalman_em,2014:Q2,6.9145007190272025,18.902757608428622
exact,pre_advance,A,ar,monthly_mixed_frequency_kalman_em,2014:Q3,-0.6336205050967422,18.26913710333188
exact,pre_advance,A,ar,monthly_mixed_frequency_kalman_em,2014:Q4,-1.3575472153331776,16.9115898879987
exact,pre_advance,A,ar,monthly_mixed_frequency_kalman_em,2015:Q1,5.102660050076001,22.014249938074702
exact,pre_advance,A,ar,monthly_mixed_frequency_kalman_em,2015:Q2,0.7127062694956102,22.72695620757031
exact,pre_advance,A,ar,monthly_mixed_frequency_kalman_em,2015:Q3,-0.3467480036236421,22.38020820394667
exact,pre_advance,A,ar,monthly_mixed_frequency_kalman_em,2015:Q4,1.1330025306603915,23.51321073460706
exact,pre_advance,A,ar,monthly_mixed_frequency_kalman_em,2016:Q1,0.40213449673618573,23.915345231343245
exact,pre_advance,A,ar,monthly_mixed_frequency_kalman_em,2016:Q2,-0.631460181213824,23.28388505012942
exact,pre_advance,A,ar,monthly_mixed_frequency_kalman_em,2016:Q3,0.9778583643832913,24.26174341451271
exact,pre_advance,A,ar,monthly_mixed_frequency_kalman_em,2016:Q4,0.5298315456088487,24.79157496012156
exact,pre_advance,A,ar,monthly_mixed_frequency_kalman_em,2017:Q1,-2.6409049138738774,22.150670046247683
exact,pre_advance,A,ar,monthly_mixed_frequency_kalman_em,2017:Q2,0.9150436685221166,23.0657137147698
exact,pre_advance,A,ar,monthly_mixed_frequency_kalman_em,2017:Q3,-1.9344823802799151,21.131231334489883
exact,pre_advance,A,ar,monthly_mixed_frequency_kalman_em,2017:Q4,-4.222168620808248,16.909062713681635
exact,pre_advance,A,ar,monthly_mixed_frequency_kalman_em,2018:Q1,-2.291070322905272,14.617992390776363
exact,pre_advance,A,ar,monthly_mixed_frequency_kalman_em,2018:Q2,1.3944592210801183,16.01245161185648
exact,pre_advance,A,ar,monthly_mixed_frequency_kalman_em,2018:Q3,-0.18279747135864394,15.829654140497837
exact,pre_advance,A,ar,monthly_mixed_frequency_kalman_em,2018:Q4,0.1680616221612694,15.997715762659107
exact,pre_advance,A,ar,monthly_mixed_frequency_kalman_em,2019:Q1,-3.835725629993663,12.161990132665444
exact,pre_advance,A,ar,monthly_mixed_frequency_kalman_em,2019:Q2,0.5454736282664497,12.707463760931894
exact,pre_advance,A,ar,monthly_mixed_frequency_kalman_em,2019:Q3,-0.7419645546849074,11.965499206246987
exact,pre_advance,A,ar,monthly_mixed_frequency_kalman_em,2019:Q4,-0.005067604982743834,11.960431601264244
exact,pre_advance,A,ar,monthly_mixed_frequency_kalman_em,2020:Q1,37.87932000113986,49.83975160240411
exact,pre_advance,A,ar,monthly_mixed_frequency_kalman_em,2020:Q2,689.9422495845084,739.7820011869126
exact,pre_advance,A,ar,monthly_mixed_frequency_kalman_em,2020:Q3,2261.49966530894,3001.2816664958527
exact,pre_advance,A,ar,monthly_mixed_frequency_kalman_em,2020:Q4,-1.5839256605799388,2999.6977408352727
exact,pre_advance,A,ar,monthly_mixed_frequency_kalman_em,2021:Q1,-69.7803620504253,2929.9173787848476
exact,pre_advance,A,ar,monthly_mixed_frequency_kalman_em,2021:Q2,12.950138222543625,2942.867517007391
exact,pre_advance,A,ar,monthly_mixed_frequency_kalman_em,2021:Q3,-2.253149403874229,2940.6143676035167
exact,pre_advance,A,ar,monthly_mixed_frequency_kalman_em,2021:Q4,7.923863811111941,2948.5382314146286
exact,pre_advance,A,ar,monthly_mixed_frequency_kalman_em,2022:Q1,-27.47026803761407,2921.0679633770146
exact,pre_advance,A,ar,monthly_mixed_frequency_kalman_em,2022:Q2,-9.005044707974262,2912.0629186690403
exact,pre_advance,A,ar,monthly_mixed_frequency_kalman_em,2022:Q3,-1.0275447557392312,2911.035373913301
exact,pre_advance,A,ar,monthly_mixed_frequency_kalman_em,2022:Q4,-7.2151152042882245,2903.8202587090127
exact,pre_advance,A,ar,monthly_mixed_frequency_kalman_em,2023:Q1,2.023337900073735,2905.8435966090865
exact,pre_advance,A,ar,monthly_mixed_frequency_kalman_em,2023:Q2,-0.39009602922749614,2905.453500579859
exact,pre_advance,A,ar,monthly_mixed_frequency_kalman_em,2023:Q3,-0.8806051720872032,2904.5728954077717
exact,pre_advance,A,ar,monthly_mixed_frequency_kalman_em,2023:Q4,-9.40797189048824,2895.1649235172836
exact,pre_advance,A,ar,monthly_mixed_frequency_kalman_em,2024:Q1,0.25060456567013023,2895.4155280829536
exact,pre_advance,A,ar,monthly_mixed_frequency_kalman_em,2024:Q2,-1.035488493506656,2894.380039589447
exact,pre_advance,A,ar,monthly_mixed_frequency_kalman_em,2024:Q3,-1.8094437784414885,2892.570595811005
exact,pre_advance,A,ar,monthly_mixed_frequency_kalman_em,2024:Q4,-0.7282882468124173,2891.8423075641927
exact,pre_advance,A,ar,no_revision,2005:Q1,0.01829276874886654,0.01829276874886654
exact,pre_advance,A,ar,no_revision,2005:Q2,-0.010434082728868699,0.00785868601999784
exact,pre_advance,A,ar,no_revision,2005:Q3,0.04475723724217473,0.05261592326217257
exact,pre_advance,A,ar,no_revision,2005:Q4,-0.005897102113586961,0.04671882114858561
exact,pre_advance,A,ar,no_revision,2006:Q1,0.14435758559098844,0.19107640673957405
exact,pre_advance,A,ar,no_revision,2006:Q2,0.10645890996238783,0.29753531670196187
exact,pre_advance,A,ar,no_revision,2006:Q3,-0.24152679339726402,0.056008523304697855
exact,pre_advance,A,ar,no_revision,2006:Q4,-0.30824079892148304,-0.2522322756167852
exact,pre_advance,A,ar,no_revision,2007:Q1,-0.23848279984936216,-0.49071507546614734
exact,pre_advance,A,ar,no_revision,2007:Q2,0.05512019812272051,-0.43559487734342683
exact,pre_advance,A,ar,no_revision,2007:Q3,-0.19969014430791188,-0.6352850216513387
exact,pre_advance,A,ar,no_revision,2007:Q4,-0.15567398880635874,-0.7909590104576975
exact,pre_advance,A,ar,no_revision,2008:Q1,0.05559234221203191,-0.7353666682456655
exact,pre_advance,A,ar,no_revision,2008:Q2,0.004622952477093177,-0.7307437157685723
exact,pre_advance,A,ar,no_revision,2008:Q3,-0.15221627551749783,-0.8829599912860702
exact,pre_advance,A,ar,no_revision,2008:Q4,0.5818162017862143,-0.3011437894998559
exact,pre_advance,A,ar,no_revision,2009:Q1,0.45423321116048854,0.15308942166063266
exact,pre_advance,A,ar,no_revision,2009:Q2,0.013307526119774815,0.16639694778040748
exact,pre_advance,A,ar,no_revision,2009:Q3,-1.023992772227114,-0.8575958244467066
exact,pre_advance,A,ar,no_revision,2009:Q4,-1.4621885824992091,-2.3197844069459155
exact,pre_advance,A,ar,no_revision,2010:Q1,0.5154181563893694,-1.804366250556546
exact,pre_advance,A,ar,no_revision,2010:Q2,0.1815894544157976,-1.6227767961407484
exact,pre_advance,A,ar,no_revision,2010:Q3,0.02901155984276077,-1.5937652362979877
exact,pre_advance,A,ar,no_revision,2010:Q4,0.21335030884274386,-1.3804149274552437
exact,pre_advance,A,ar,no_revision,2011:Q1,-0.06757887593352563,-1.4479938033887694
exact,pre_advance,A,ar,no_revision,2011:Q2,0.0202217337142232,-1.4277720696745462
exact,pre_advance,A,ar,no_revision,2011:Q3,-0.052984459561723096,-1.4807565292362692
exact,pre_advance,A,ar,no_revision,2011:Q4,0.01895665554257433,-1.4617998736936948
exact,pre_advance,A,ar,no_revision,2012:Q1,0.02232353618393504,-1.4394763375097597
exact,pre_advance,A,ar,no_revision,2012:Q2,0.11942453052189395,-1.3200518069878657
exact,pre_advance,A,ar,no_revision,2012:Q3,0.0006349170808925357,-1.3194168899069731
exact,pre_advance,A,ar,no_revision,2012:Q4,-0.06262090931865316,-1.3820377992256263
exact,pre_advance,A,ar,no_revision,2013:Q1,-0.008932871015000954,-1.3909706702406273
exact,pre_advance,A,ar,no_revision,2013:Q2,0.06324061631598044,-1.3277300539246468
exact,pre_advance,A,ar,no_revision,2013:Q3,0.0315667756852992,-1.2961632782393475
exact,pre_advance,A,ar,no_revision,2013:Q4,-0.17688786721241778,-1.4730511454517652
exact,pre_advance,A,ar,no_revision,2014:Q1,-0.02480433967617479,-1.49785548512794
exact,pre_advance,A,ar,no_revision,2014:Q2,-0.3039643587409291,-1.801819843868869
exact,pre_advance,A,ar,no_revision,2014:Q3,-0.01009808842494786,-1.811917932293817
exact,pre_advance,A,ar,no_revision,2014:Q4,-0.053005079780955394,-1.8649230120747724
exact,pre_advance,A,ar,no_revision,2015:Q1,0.67193818782102,-1.1929848242537524
exact,pre_advance,A,ar,no_revision,2015:Q2,0.08197493566980374,-1.1110098885839488
exact,pre_advance,A,ar,no_revision,2015:Q3,-0.08264742175217066,-1.1936573103361194
exact,pre_advance,A,ar,no_revision,2015:Q4,-0.12441534043486313,-1.3180726507709826
exact,pre_advance,A,ar,no_revision,2016:Q1,0.2275952927293533,-1.0904773580416292
exact,pre_advance,A,ar,no_revision,2016:Q2,-0.0046545719231812915,-1.0951319299648103
exact,pre_advance,A,ar,no_revision,2016:Q3,-0.04584231925914617,-1.1409742492239565
exact,pre_advance,A,ar,no_revision,2016:Q4,0.10114230910276367,-1.0398319401211928
exact,pre_advance,A,ar,no_revision,2017:Q1,0.246574617300388,-0.7932573228208049
exact,pre_advance,A,ar,no_revision,2017:Q2,-0.15926574147033767,-0.9525230642911425
exact,pre_advance,A,ar,no_revision,2017:Q3,0.022454236955837703,-0.9300688273353048
exact,pre_advance,A,ar,no_revision,2017:Q4,0.004727701091471227,-0.9253411262438336
exact,pre_advance,A,ar,no_revision,2018:Q1,0.03223932073775865,-0.8931018055060749
exact,pre_advance,A,ar,no_revision,2018:Q2,-0.05012498584200742,-0.9432267913480823
exact,pre_advance,A,ar,no_revision,2018:Q3,0.0040716179457951085,-0.9391551734022872
exact,pre_advance,A,ar,no_revision,2018:Q4,0.0107967518642271,-0.92835842153806
exact,pre_advance,A,ar,no_revision,2019:Q1,-0.06475700376940074,-0.9931154253074608
exact,pre_advance,A,ar,no_revision,2019:Q2,-0.08251128198875868,-1.0756267072962196
exact,pre_advance,A,ar,no_revision,2019:Q3,-0.02873654465966108,-1.1043632519558806
exact,pre_advance,A,ar,no_revision,2019:Q4,0.0032282376299231016,-1.1011350143259575
exact,pre_advance,A,ar,no_revision,2020:Q1,-0.47755925650978526,-1.5786942708357428
exact,pre_advance,A,ar,no_revision,2020:Q2,-0.5667662532794111,-2.145460524115154
exact,pre_advance,A,ar,no_revision,2020:Q3,-57.60016029331837,-59.74562081743352
exact,pre_advance,A,ar,no_revision,2020:Q4,-40.65854856282156,-100.40416938025507
exact,pre_advance,A,ar,no_revision,2021:Q1,-27.79553131153419,-128.19970069178925
exact,pre_advance,A,ar,no_revision,2021:Q2,-24.119251842538425,-152.31895253432768
exact,pre_advance,A,ar,no_revision,2021:Q3,-0.30877510409469244,-152.62772763842236
exact,pre_advance,A,ar,no_revision,2021:Q4,3.7679008571371924,-148.85982678128516
exact,pre_advance,A,ar,no_revision,2022:Q1,-0.5234667865097897,-149.38329356779496
exact,pre_advance,A,ar,no_revision,2022:Q2,-1.9855199282110494,-151.36881349600603
exact,pre_advance,A,ar,no_revision,2022:Q3,-0.033925124700511525,-151.40273862070654
exact,pre_advance,A,ar,no_revision,2022:Q4,-0.7384306425890252,-152.14116926329558
exact,pre_advance,A,ar,no_revision,2023:Q1,0.371137610273619,-151.77003165302196
exact,pre_advance,A,ar,no_revision,2023:Q2,-0.00528125482766627,-151.77531290784964
exact,pre_advance,A,ar,no_revision,2023:Q3,-0.5551736828791194,-152.33048659072875
exact,pre_advance,A,ar,no_revision,2023:Q4,-0.20210030709286464,-152.53258689782163
exact,pre_advance,A,ar,no_revision,2024:Q1,-0.31218151521482485,-152.84476841303646
exact,pre_advance,A,ar,no_revision,2024:Q2,0.0978852185130688,-152.7468831945234
exact,pre_advance,A,ar,no_revision,2024:Q3,-0.06291573213851451,-152.80979892666193
exact,pre_advance,A,ar,no_revision,2024:Q4,0.026146771737672124,-152.78365215492425
exact,pre_advance,A,ar,release_dfm,2005:Q1,0.020497577940058326,0.020497577940058326
exact,pre_advance,A,ar,release_dfm,2005:Q2,0.1535451862199918,0.17404276416005013
exact,pre_advance,A,ar,release_dfm,2005:Q3,-0.12616977280252795,0.04787299135752218
exact,pre_advance,A,ar,release_dfm,2005:Q4,-0.016646050820133595,0.031226940537388587
exact,pre_advance,A,ar,release_dfm,2006:Q1,6.659650944332287,6.690877884869676
exact,pre_advance,A,ar,release_dfm,2006:Q2,1.5829820920119848,8.27385997688166
exact,pre_advance,A,ar,release_dfm,2006:Q3,0.8341235700754537,9.107983546957113
exact,pre_advance,A,ar,release_dfm,2006:Q4,-4.45282181168465,4.655161735272463
exact,pre_advance,A,ar,release_dfm,2007:Q1,2.9992687046906417,7.654430439963105
exact,pre_advance,A,ar,release_dfm,2007:Q2,1.3129434704900573,8.967373910453162
exact,pre_advance,A,ar,release_dfm,2007:Q3,-5.395660246715784,3.571713663737378
exact,pre_advance,A,ar,release_dfm,2007:Q4,6.919299537996466,10.491013201733843
exact,pre_advance,A,ar,release_dfm,2008:Q1,0.9903620806724269,11.481375282406269
exact,pre_advance,A,ar,release_dfm,2008:Q2,-0.037803228826598693,11.44357205357967
exact,pre_advance,A,ar,release_dfm,2008:Q3,6.088620816088264,17.532192869667934
exact,pre_advance,A,ar,release_dfm,2008:Q4,22.645696902115617,40.177889771783555
exact,pre_advance,A,ar,release_dfm,2009:Q1,26.403494527376694,66.58138429916025
exact,pre_advance,A,ar,release_dfm,2009:Q2,-0.11720385389087118,66.46418044526938
exact,pre_advance,A,ar,release_dfm,2009:Q3,7.882576445804871,74.34675689107425
exact,pre_advance,A,ar,release_dfm,2009:Q4,0.6816946074875894,75.02845149856184
exact,pre_advance,A,ar,release_dfm,2010:Q1,-2.1026656126866143,72.92578588587523
exact,pre_advance,A,ar,release_dfm,2010:Q2,-0.898945646264405,72.02684023961082
exact,pre_advance,A,ar,release_dfm,2010:Q3,-0.07958470620667868,71.94725553340415
exact,pre_advance,A,ar,release_dfm,2010:Q4,0.38813011899348143,72.33538565239763
exact,pre_advance,A,ar,release_dfm,2011:Q1,-7.43705702528535,64.89832862711228
exact,pre_advance,A,ar,release_dfm,2011:Q2,-1.3041953122983378,63.59413331481394
exact,pre_advance,A,ar,release_dfm,2011:Q3,0.16963387022229637,63.76376718503624
exact,pre_advance,A,ar,release_dfm,2011:Q4,-0.7308789074789301,63.032888277557305
exact,pre_advance,A,ar,release_dfm,2012:Q1,-2.4109018420163264,60.621986435540975
exact,pre_advance,A,ar,release_dfm,2012:Q2,-0.30188469011441255,60.32010174542656
exact,pre_advance,A,ar,release_dfm,2012:Q3,-0.36956790383321686,59.95053384159335
exact,pre_advance,A,ar,release_dfm,2012:Q4,-8.139435641030474,51.811098200562874
exact,pre_advance,A,ar,release_dfm,2013:Q1,1.4397811283578972,53.250879328920774
exact,pre_advance,A,ar,release_dfm,2013:Q2,-0.5891095644115996,52.661769764509174
exact,pre_advance,A,ar,release_dfm,2013:Q3,0.5235461187792773,53.18531588328845
exact,pre_advance,A,ar,release_dfm,2013:Q4,0.13619799366227875,53.32151387695073
exact,pre_advance,A,ar,release_dfm,2014:Q1,2.7372727243238275,56.05878660127456
exact,pre_advance,A,ar,release_dfm,2014:Q2,6.955426782333389,63.01421338360795
exact,pre_advance,A,ar,release_dfm,2014:Q3,-0.21828717430557404,62.79592620930238
exact,pre_advance,A,ar,release_dfm,2014:Q4,0.15941477623248665,62.95534098553487
exact,pre_advance,A,ar,release_dfm,2015:Q1,4.021665185718987,66.97700617125386
exact,pre_advance,A,ar,release_dfm,2015:Q2,0.3055654029307846,67.28257157418464
exact,pre_advance,A,ar,release_dfm,2015:Q3,-0.2713006540387366,67.0112709201459
exact,pre_advance,A,ar,release_dfm,2015:Q4,-0.21264702241501188,66.79862389773089
exact,pre_advance,A,ar,release_dfm,2016:Q1,-1.1532764500533157,65.64534744767758
exact,pre_advance,A,ar,release_dfm,2016:Q2,-1.008399326287235,64.63694812139035
exact,pre_advance,A,ar,release_dfm,2016:Q3,0.8180455482802678,65.45499366967061
exact,pre_advance,A,ar,release_dfm,2016:Q4,-1.443854267039776,64.01113940263083
exact,pre_advance,A,ar,release_dfm,2017:Q1,-2.3920281819816966,61.61911122064914
exact,pre_advance,A,ar,release_dfm,2017:Q2,0.924442816710576,62.54355403735971
exact,pre_advance,A,ar,release_dfm,2017:Q3,-0.45894625094896013,62.08460778641075
exact,pre_advance,A,ar,release_dfm,2017:Q4,-1.8058368825540057,60.278770903856746
exact,pre_advance,A,ar,release_dfm,2018:Q1,-1.4008951781492356,58.87787572570751
exact,pre_advance,A,ar,release_dfm,2018:Q2,0.6916473557342546,59.569523081441766
exact,pre_advance,A,ar,release_dfm,2018:Q3,-0.234376943307174,59.33514613813459
exact,pre_advance,A,ar,release_dfm,2018:Q4,0.14893902941456605,59.48408516754915
exact,pre_advance,A,ar,release_dfm,2019:Q1,-1.6503801174698052,57.833705050079345
exact,pre_advance,A,ar,release_dfm,2019:Q2,0.5954794042016668,58.429184454281014
exact,pre_advance,A,ar,release_dfm,2019:Q3,-0.09612423812601656,58.333060216155
exact,pre_advance,A,ar,release_dfm,2019:Q4,0.01576478586417283,58.34882500201917
exact,pre_advance,A,ar,release_dfm,2020:Q1,20.478534009314743,78.82735901133391
exact,pre_advance,A,ar,release_dfm,2020:Q2,682.2098557870619,761.0372147983958
exact,pre_advance,A,ar,release_dfm,2020:Q3,2532.0058642533463,3293.043079051742
exact,pre_advance,A,ar,release_dfm,2020:Q4,-11.069311927086067,3281.973767124656
exact,pre_advance,A,ar,release_dfm,2021:Q1,14.950208396060185,3296.9239755207163
exact,pre_advance,A,ar,release_dfm,2021:Q2,11.060687875087455,3307.9846633958036
exact,pre_advance,A,ar,release_dfm,2021:Q3,-1.3960560548729157,3306.5886073409306
exact,pre_advance,A,ar,release_dfm,2021:Q4,14.040388634731265,3320.628995975662
exact,pre_advance,A,ar,release_dfm,2022:Q1,-51.807760345398535,3268.8212356302633
exact,pre_advance,A,ar,release_dfm,2022:Q2,4.299251639576342,3273.1204872698395
exact,pre_advance,A,ar,release_dfm,2022:Q3,-6.6989222368828765,3266.4215650329566
exact,pre_advance,A,ar,release_dfm,2022:Q4,-3.601880950053491,3262.819684082903
exact,pre_advance,A,ar,release_dfm,2023:Q1,0.7800853893880746,3263.5997694722914
exact,pre_advance,A,ar,release_dfm,2023:Q2,-0.16380090312607126,3263.435968569165
exact,pre_advance,A,ar,release_dfm,2023:Q3,-3.7388047147542762,3259.697163854411
exact,pre_advance,A,ar,release_dfm,2023:Q4,-1.5290696674023923,3258.1680941870086
exact,pre_advance,A,ar,release_dfm,2024:Q1,0.5325183152236406,3258.700612502232
exact,pre_advance,A,ar,release_dfm,2024:Q2,0.13837150824328592,3258.8389840104755
exact,pre_advance,A,ar,release_dfm,2024:Q3,-0.6175845462242279,3258.221399464251
exact,pre_advance,A,ar,release_dfm,2024:Q4,0.059667286909634513,3258.281066751161
exact,pre_advance,A,ar,revision_dfm_kalman_em,2005:Q1,-0.6245373193521171,-0.6245373193521171
exact,pre_advance,A,ar,revision_dfm_kalman_em,2005:Q2,0.2647717858390668,-0.3597655335130503
exact,pre_advance,A,ar,revision_dfm_kalman_em,2005:Q3,0.4429658206930752,0.08320028718002492
exact,pre_advance,A,ar,revision_dfm_kalman_em,2005:Q4,-11.497471312278623,-11.414271025098598
exact,pre_advance,A,ar,revision_dfm_kalman_em,2006:Q1,6.102043067631016,-5.312227957467583
exact,pre_advance,A,ar,revision_dfm_kalman_em,2006:Q2,-5.215526153203228,-10.527754110670811
exact,pre_advance,A,ar,revision_dfm_kalman_em,2006:Q3,-0.9738763017845959,-11.501630412455407
exact,pre_advance,A,ar,revision_dfm_kalman_em,2006:Q4,-8.280682110994398,-19.782312523449804
exact,pre_advance,A,ar,revision_dfm_kalman_em,2007:Q1,-1.5049206970560958,-21.2872332205059
exact,pre_advance,A,ar,revision_dfm_kalman_em,2007:Q2,1.4865777834538738,-19.800655437052026
exact,pre_advance,A,ar,revision_dfm_kalman_em,2007:Q3,0.32868998586808496,-19.47196545118394
exact,pre_advance,A,ar,revision_dfm_kalman_em,2007:Q4,6.785274853428063,-12.686690597755877
exact,pre_advance,A,ar,revision_dfm_kalman_em,2008:Q1,-0.1412859003335165,-12.827976498089393
exact,pre_advance,A,ar,revision_dfm_kalman_em,2008:Q2,-2.721438646444347,-15.54941514453374
exact,pre_advance,A,ar,revision_dfm_kalman_em,2008:Q3,-4.049861788405695,-19.599276932939436
exact,pre_advance,A,ar,revision_dfm_kalman_em,2008:Q4,4.118328987747347,-15.480947945192089
exact,pre_advance,A,ar,revision_dfm_kalman_em,2009:Q1,31.135993867648004,15.655045922455916
exact,pre_advance,A,ar,revision_dfm_kalman_em,2009:Q2,-0.17573159353174972,15.479314328924167
exact,pre_advance,A,ar,revision_dfm_kalman_em,2009:Q3,6.657028443350789,22.136342772274958
exact,pre_advance,A,ar,revision_dfm_kalman_em,2009:Q4,-3.045623720244812,19.090719052030146
exact,pre_advance,A,ar,revision_dfm_kalman_em,2010:Q1,-4.276249696743187,14.81446935528696
exact,pre_advance,A,ar,revision_dfm_kalman_em,2010:Q2,-3.66608399919935,11.14838535608761
exact,pre_advance,A,ar,revision_dfm_kalman_em,2010:Q3,-0.5266336555154909,10.62175170057212
exact,pre_advance,A,ar,revision_dfm_kalman_em,2010:Q4,0.1698567327759356,10.791608433348054
exact,pre_advance,A,ar,revision_dfm_kalman_em,2011:Q1,-8.489441165797308,2.3021672675507467
exact,pre_advance,A,ar,revision_dfm_kalman_em,2011:Q2,0.3893088829839325,2.691476150534679
exact,pre_advance,A,ar,revision_dfm_kalman_em,2011:Q3,-1.0455813078045442,1.645894842730135
exact,pre_advance,A,ar,revision_dfm_kalman_em,2011:Q4,-0.33697490009757636,1.3089199426325586
exact,pre_advance,A,ar,revision_dfm_kalman_em,2012:Q1,-2.6695095053068276,-1.360589562674269
exact,pre_advance,A,ar,revision_dfm_kalman_em,2012:Q2,0.5285199263026392,-0.8320696363716298
exact,pre_advance,A,ar,revision_dfm_kalman_em,2012:Q3,-0.008592633327256266,-0.840662269698886
exact,pre_advance,A,ar,revision_dfm_kalman_em,2012:Q4,-4.991978961171148,-5.832641230870034
exact,pre_advance,A,ar,revision_dfm_kalman_em,2013:Q1,1.2374738390557294,-4.595167391814305
exact,pre_advance,A,ar,revision_dfm_kalman_em,2013:Q2,0.16752964526144998,-4.427637746552855
exact,pre_advance,A,ar,revision_dfm_kalman_em,2013:Q3,0.45725860287592074,-3.9703791436769342
exact,pre_advance,A,ar,revision_dfm_kalman_em,2013:Q4,-1.281533551948466,-5.2519126956254
exact,pre_advance,A,ar,revision_dfm_kalman_em,2014:Q1,0.1193202925652388,-5.132592403060161
exact,pre_advance,A,ar,revision_dfm_kalman_em,2014:Q2,6.948041725873671,1.8154493228135102
exact,pre_advance,A,ar,revision_dfm_kalman_em,2014:Q3,-0.43906826427629825,1.376381058537212
exact,pre_advance,A,ar,revision_dfm_kalman_em,2014:Q4,-0.2700043825328798,1.1063766760043323
exact,pre_advance,A,ar,revision_dfm_kalman_em,2015:Q1,4.7190390053861355,5.825415681390468
exact,pre_advance,A,ar,revision_dfm_kalman_em,2015:Q2,0.40310636231486396,6.228522043705332
exact,pre_advance,A,ar,revision_dfm_kalman_em,2015:Q3,-1.8276316186182844,4.400890425087047
exact,pre_advance,A,ar,revision_dfm_kalman_em,2015:Q4,1.7342464731103209,6.135136898197368
exact,pre_advance,A,ar,revision_dfm_kalman_em,2016:Q1,-0.4256435838976662,5.709493314299702
exact,pre_advance,A,ar,revision_dfm_kalman_em,2016:Q2,-0.583653096210456,5.125840218089246
exact,pre_advance,A,ar,revision_dfm_kalman_em,2016:Q3,1.0450639256382934,6.17090414372754
exact,pre_advance,A,ar,revision_dfm_kalman_em,2016:Q4,0.29881307850316285,6.469717222230703
exact,pre_advance,A,ar,revision_dfm_kalman_em,2017:Q1,-1.595989677083927,4.873727545146776
exact,pre_advance,A,ar,revision_dfm_kalman_em,2017:Q2,0.09953245315112869,4.973259998297905
exact,pre_advance,A,ar,revision_dfm_kalman_em,2017:Q3,-3.067340557298058,1.9059194409998472
exact,pre_advance,A,ar,revision_dfm_kalman_em,2017:Q4,-7.660799182766162,-5.754879741766315
exact,pre_advance,A,ar,revision_dfm_kalman_em,2018:Q1,-0.8435775325025459,-6.598457274268861
exact,pre_advance,A,ar,revision_dfm_kalman_em,2018:Q2,2.3924210169655113,-4.206036257303349
exact,pre_advance,A,ar,revision_dfm_kalman_em,2018:Q3,-0.0969337691133767,-4.302970026416726
exact,pre_advance,A,ar,revision_dfm_kalman_em,2018:Q4,0.03359290712892066,-4.269377119287805
exact,pre_advance,A,ar,revision_dfm_kalman_em,2019:Q1,-2.580125362822979,-6.849502482110784
exact,pre_advance,A,ar,revision_dfm_kalman_em,2019:Q2,0.5704497023844363,-6.2790527797263485
exact,pre_advance,A,ar,revision_dfm_kalman_em,2019:Q3,-0.2556551090360232,-6.534707888762371
exact,pre_advance,A,ar,revision_dfm_kalman_em,2019:Q4,-0.21463144846712112,-6.749339337229492
exact,pre_advance,A,ar,revision_dfm_kalman_em,2020:Q1,33.03025626725867,26.28091693002918
exact,pre_advance,A,ar,revision_dfm_kalman_em,2020:Q2,844.5099942827042,870.7909112127334
exact,pre_advance,A,ar,revision_dfm_kalman_em,2020:Q3,2175.865280989705,3046.6561922024384
exact,pre_advance,A,ar,revision_dfm_kalman_em,2020:Q4,-6.986551607835654,3039.6696405946027
exact,pre_advance,A,ar,revision_dfm_kalman_em,2021:Q1,1.0318332089187088,3040.7014738035214
exact,pre_advance,A,ar,revision_dfm_kalman_em,2021:Q2,10.446103949224174,3051.1475777527457
exact,pre_advance,A,ar,revision_dfm_kalman_em,2021:Q3,-3.1261652747849733,3048.021412477961
exact,pre_advance,A,ar,revision_dfm_kalman_em,2021:Q4,10.380395623955147,3058.4018081019162
exact,pre_advance,A,ar,revision_dfm_kalman_em,2022:Q1,-22.961439375460145,3035.440368726456
exact,pre_advance,A,ar,revision_dfm_kalman_em,2022:Q2,-7.041298516785622,3028.3990702096708
exact,pre_advance,A,ar,revision_dfm_kalman_em,2022:Q3,0.02751778771526152,3028.426587997386
exact,pre_advance,A,ar,revision_dfm_kalman_em,2022:Q4,-1.4242894458543933,3027.0022985515316
exact,pre_advance,A,ar,revision_dfm_kalman_em,2023:Q1,-3.311885336732302,3023.6904132147993
exact,pre_advance,A,ar,revision_dfm_kalman_em,2023:Q2,-0.033844247300428794,3023.656568967499
exact,pre_advance,A,ar,revision_dfm_kalman_em,2023:Q3,0.43608133757478207,3024.0926503050737
exact,pre_advance,A,ar,revision_dfm_kalman_em,2023:Q4,-6.014303152462053,3018.0783471526115
exact,pre_advance,A,ar,revision_dfm_kalman_em,2024:Q1,0.8310732565906203,3018.909420409202
exact,pre_advance,A,ar,revision_dfm_kalman_em,2024:Q2,-2.020852289941996,3016.88856811926
exact,pre_advance,A,ar,revision_dfm_kalman_em,2024:Q3,-1.7273296494393495,3015.1612384698205
exact,pre_advance,A,ar,revision_dfm_kalman_em,2024:Q4,0.05951022440495293,3015.2207486942257
exact,pre_advance,A,ar,spf,2005:Q1,-0.42517854575438496,-0.42517854575438496
exact,pre_advance,A,ar,spf,2005:Q2,0.08831751947213484,-0.3368610262822501
exact,pre_advance,A,ar,spf,2005:Q3,0.4507088181174133,0.11384779183516319
exact,pre_advance,A,ar,spf,2005:Q4,0.2025752765366695,0.3164230683718327
exact,pre_advance,A,ar,spf,2006:Q1,7.924225342930829,8.240648411302661
exact,pre_advance,A,ar,spf,2006:Q2,0.9735201416432564,9.214168552945917
exact,pre_advance,A,ar,spf,2006:Q3,-0.5016709430059996,8.712497609939918
exact,pre_advance,A,ar,spf,2006:Q4,0.8016502039321348,9.514147813872054
exact,pre_advance,A,ar,spf,2007:Q1,1.6502665112336372,11.16441432510569
exact,pre_advance,A,ar,spf,2007:Q2,0.9864284552164425,12.150842780322133
exact,pre_advance,A,ar,spf,2007:Q3,-0.9193476113978154,11.231495168924317
exact,pre_advance,A,ar,spf,2007:Q4,5.6967814013468345,16.92827657027115
exact,pre_advance,A,ar,spf,2008:Q1,1.204990077036036,18.133266647307188
exact,pre_advance,A,ar,spf,2008:Q2,-3.2238512984891305,14.909415348818058
exact,pre_advance,A,ar,spf,2008:Q3,3.9356302256616567,18.845045574479716
exact,pre_advance,A,ar,spf,2008:Q4,24.09859860416627,42.94364417864598
exact,pre_advance,A,ar,spf,2009:Q1,29.64231503174285,72.58595921038884
exact,pre_advance,A,ar,spf,2009:Q2,0.7444354842419123,73.33039469463075
exact,pre_advance,A,ar,spf,2009:Q3,6.413336075458125,79.74373077008887
exact,pre_advance,A,ar,spf,2009:Q4,-2.6823601235725896,77.06137064651628
exact,pre_advance,A,ar,spf,2010:Q1,0.5057329121489584,77.56710355866524
exact,pre_advance,A,ar,spf,2010:Q2,-0.6110653931217516,76.95603816554349
exact,pre_advance,A,ar,spf,2010:Q3,0.057757461558770956,77.01379562710225
exact,pre_advance,A,ar,spf,2010:Q4,-0.11279743336282044,76.90099819373944
exact,pre_advance,A,ar,spf,2011:Q1,-1.9313760280653232,74.96962216567411
exact,pre_advance,A,ar,spf,2011:Q2,-3.063146223748209,71.9064759419259
exact,pre_advance,A,ar,spf,2011:Q3,0.2947819256509671,72.20125786757687
exact,pre_advance,A,ar,spf,2011:Q4,-0.005129844824395442,72.19612802275248
exact,pre_advance,A,ar,spf,2012:Q1,0.20458547617010198,72.40071349892257
exact,pre_advance,A,ar,spf,2012:Q2,-0.018409770611496512,72.38230372831107
exact,pre_advance,A,ar,spf,2012:Q3,-0.07217463608159123,72.31012909222949
exact,pre_advance,A,ar,spf,2012:Q4,1.942029542373171,74.25215863460267
exact,pre_advance,A,ar,spf,2013:Q1,1.6946220230777251,75.94678065768039
exact,pre_advance,A,ar,spf,2013:Q2,0.6973315171270864,76.64411217480747
exact,pre_advance,A,ar,spf,2013:Q3,0.30591725775643197,76.95002943256391
exact,pre_advance,A,ar,spf,2013:Q4,-1.6325980275425858,75.31743140502132
exact,pre_advance,A,ar,spf,2014:Q1,3.9699001821393285,79.28733158716065
exact,pre_advance,A,ar,spf,2014:Q2,6.438074299007829,85.72540588616847
exact,pre_advance,A,ar,spf,2014:Q3,-0.251635163548447,85.47377072262003
exact,pre_advance,A,ar,spf,2014:Q4,0.15145887412351158,85.62522959674354
exact,pre_advance,A,ar,spf,2015:Q1,-0.5212496814951058,85.10397991524843
exact,pre_advance,A,ar,spf,2015:Q2,0.8318632025934702,85.9358431178419
exact,pre_advance,A,ar,spf,2015:Q3,-0.9288030556021227,85.00704006223978
exact,pre_advance,A,ar,spf,2015:Q4,-2.3284026900794466,82.67863737216034
exact,pre_advance,A,ar,spf,2016:Q1,-1.0743226983875476,81.60431467377279
exact,pre_advance,A,ar,spf,2016:Q2,-0.8018984522303787,80.80241622154242
exact,pre_advance,A,ar,spf,2016:Q3,1.081090054002291,81.8835062755447
exact,pre_advance,A,ar,spf,2016:Q4,0.5801221432004156,82.46362841874512
exact,pre_advance,A,ar,spf,2017:Q1,-0.40971985483717344,82.05390856390794
exact,pre_advance,A,ar,spf,2017:Q2,0.642430113382157,82.6963386772901
exact,pre_advance,A,ar,spf,2017:Q3,0.13811758081006068,82.83445625810016
exact,pre_advance,A,ar,spf,2017:Q4,0.02064702779276604,82.85510328589292
exact,pre_advance,A,ar,spf,2018:Q1,-0.5112817400069796,82.34382154588594
exact,pre_advance,A,ar,spf,2018:Q2,1.9556914179554414,84.29951296384138
exact,pre_advance,A,ar,spf,2018:Q3,-0.16830279942107848,84.1312101644203
exact,pre_advance,A,ar,spf,2018:Q4,0.16799650605565186,84.29920667047595
exact,pre_advance,A,ar,spf,2019:Q1,-2.1668629688608125,82.13234370161514
exact,pre_advance,A,ar,spf,2019:Q2,0.5770120504342601,82.7093557520494
exact,pre_advance,A,ar,spf,2019:Q3,0.12206090810372335,82.83141666015312
exact,pre_advance,A,ar,spf,2019:Q4,-0.11990346709440587,82.71151319305872
exact,pre_advance,A,ar,spf,2020:Q1,8.308627598562644,91.02014079162137
exact,pre_advance,A,ar,spf,2020:Q2,1006.5196753159297,1097.5398161075511
exact,pre_advance,A,ar,spf,2020:Q3,2578.5391004156163,3676.078916523167
exact,pre_advance,A,ar,spf,2020:Q4,0.02681258593660213,3676.105729109104
exact,pre_advance,A,ar,spf,2021:Q1,3.252762678213962,3679.3584917873177
exact,pre_advance,A,ar,spf,2021:Q2,12.68371881776786,3692.0422106050855
exact,pre_advance,A,ar,spf,2021:Q3,-22.331344034562516,3669.710866570523
exact,pre_advance,A,ar,spf,2021:Q4,15.240271989586443,3684.9511385601095
exact,pre_advance,A,ar,spf,2022:Q1,7.091401681972036,3692.0425402420815
exact,pre_advance,A,ar,spf,2022:Q2,1.1551812488577688,3693.1977214909393
exact,pre_advance,A,ar,spf,2022:Q3,-1.638800736536628,3691.5589207544026
exact,pre_advance,A,ar,spf,2022:Q4,-3.345468483020446,3688.2134522713823
exact,pre_advance,A,ar,spf,2023:Q1,1.8011756926901332,3690.0146279640726
exact,pre_advance,A,ar,spf,2023:Q2,-2.467037637592867,3687.5475903264796
exact,pre_advance,A,ar,spf,2023:Q3,-3.7624631138196234,3683.78512721266
exact,pre_advance,A,ar,spf,2023:Q4,-4.231139798306024,3679.5539874143537
exact,pre_advance,A,ar,spf,2024:Q1,0.6176035835239486,3680.1715909978775
exact,pre_advance,A,ar,spf,2024:Q2,-0.5427808169482209,3679.628810180929
exact,pre_advance,A,ar,spf,2024:Q3,-0.8072172383919204,3678.8215929425373
exact,pre_advance,A,ar,spf,2024:Q4,-0.05692555044772479,3678.7646673920895
exact,pre_advance,A,ar,standard_dfm,2005:Q1,0.020497577940058326,0.020497577940058326
exact,pre_advance,A,ar,standard_dfm,2005:Q2,0.1535451862199918,0.17404276416005013
exact,pre_advance,A,ar,standard_dfm,2005:Q3,-0.12616977280252795,0.04787299135752218
exact,pre_advance,A,ar,standard_dfm,2005:Q4,-0.016646050820133595,0.031226940537388587
exact,pre_advance,A,ar,standard_dfm,2006:Q1,6.659650944332287,6.690877884869676
exact,pre_advance,A,ar,standard_dfm,2006:Q2,1.5829820920119848,8.27385997688166
exact,pre_advance,A,ar,standard_dfm,2006:Q3,0.8341235700754537,9.107983546957113
exact,pre_advance,A,ar,standard_dfm,2006:Q4,-4.45282181168465,4.655161735272463
exact,pre_advance,A,ar,standard_dfm,2007:Q1,2.9992687046906417,7.654430439963105
exact,pre_advance,A,ar,standard_dfm,2007:Q2,1.3129434704900573,8.967373910453162
exact,pre_advance,A,ar,standard_dfm,2007:Q3,-5.395660246715784,3.571713663737378
exact,pre_advance,A,ar,standard_dfm,2007:Q4,6.919299537996466,10.491013201733843
exact,pre_advance,A,ar,standard_dfm,2008:Q1,0.9903620806724269,11.481375282406269
exact,pre_advance,A,ar,standard_dfm,2008:Q2,-0.037803228826598693,11.44357205357967
exact,pre_advance,A,ar,standard_dfm,2008:Q3,6.088620816088264,17.532192869667934
exact,pre_advance,A,ar,standard_dfm,2008:Q4,22.645696902115617,40.177889771783555
exact,pre_advance,A,ar,standard_dfm,2009:Q1,26.403494527376694,66.58138429916025
exact,pre_advance,A,ar,standard_dfm,2009:Q2,-0.11720385389087118,66.46418044526938
exact,pre_advance,A,ar,standard_dfm,2009:Q3,7.882576445804871,74.34675689107425
exact,pre_advance,A,ar,standard_dfm,2009:Q4,0.6816946074875894,75.02845149856184
exact,pre_advance,A,ar,standard_dfm,2010:Q1,-2.1026656126866143,72.92578588587523
exact,pre_advance,A,ar,standard_dfm,2010:Q2,-0.898945646264405,72.02684023961082
exact,pre_advance,A,ar,standard_dfm,2010:Q3,-0.07958470620667868,71.94725553340415
exact,pre_advance,A,ar,standard_dfm,2010:Q4,0.38813011899348143,72.33538565239763
exact,pre_advance,A,ar,standard_dfm,2011:Q1,-7.43705702528535,64.89832862711228
exact,pre_advance,A,ar,standard_dfm,2011:Q2,-1.3041953122983378,63.59413331481394
exact,pre_advance,A,ar,standard_dfm,2011:Q3,0.16963387022229637,63.76376718503624
exact,pre_advance,A,ar,standard_dfm,2011:Q4,-0.7308789074789301,63.032888277557305
exact,pre_advance,A,ar,standard_dfm,2012:Q1,-2.4109018420163264,60.621986435540975
exact,pre_advance,A,ar,standard_dfm,2012:Q2,-0.30188469011441255,60.32010174542656
exact,pre_advance,A,ar,standard_dfm,2012:Q3,-0.36956790383321686,59.95053384159335
exact,pre_advance,A,ar,standard_dfm,2012:Q4,-8.139435641030474,51.811098200562874
exact,pre_advance,A,ar,standard_dfm,2013:Q1,1.4397811283578972,53.250879328920774
exact,pre_advance,A,ar,standard_dfm,2013:Q2,-0.5891095644115996,52.661769764509174
exact,pre_advance,A,ar,standard_dfm,2013:Q3,0.5235461187792773,53.18531588328845
exact,pre_advance,A,ar,standard_dfm,2013:Q4,0.13619799366227875,53.32151387695073
exact,pre_advance,A,ar,standard_dfm,2014:Q1,2.7372727243238275,56.05878660127456
exact,pre_advance,A,ar,standard_dfm,2014:Q2,6.955426782333389,63.01421338360795
exact,pre_advance,A,ar,standard_dfm,2014:Q3,-0.21828717430557404,62.79592620930238
exact,pre_advance,A,ar,standard_dfm,2014:Q4,0.15941477623248665,62.95534098553487
exact,pre_advance,A,ar,standard_dfm,2015:Q1,4.021665185718987,66.97700617125386
exact,pre_advance,A,ar,standard_dfm,2015:Q2,0.3055654029307846,67.28257157418464
exact,pre_advance,A,ar,standard_dfm,2015:Q3,-0.2713006540387366,67.0112709201459
exact,pre_advance,A,ar,standard_dfm,2015:Q4,-0.21264702241501188,66.79862389773089
exact,pre_advance,A,ar,standard_dfm,2016:Q1,-1.1532764500533157,65.64534744767758
exact,pre_advance,A,ar,standard_dfm,2016:Q2,-1.008399326287235,64.63694812139035
exact,pre_advance,A,ar,standard_dfm,2016:Q3,0.8180455482802678,65.45499366967061
exact,pre_advance,A,ar,standard_dfm,2016:Q4,-1.443854267039776,64.01113940263083
exact,pre_advance,A,ar,standard_dfm,2017:Q1,-2.3920281819816966,61.61911122064914
exact,pre_advance,A,ar,standard_dfm,2017:Q2,0.924442816710576,62.54355403735971
exact,pre_advance,A,ar,standard_dfm,2017:Q3,-0.45894625094896013,62.08460778641075
exact,pre_advance,A,ar,standard_dfm,2017:Q4,-1.8058368825540057,60.278770903856746
exact,pre_advance,A,ar,standard_dfm,2018:Q1,-1.4008951781492356,58.87787572570751
exact,pre_advance,A,ar,standard_dfm,2018:Q2,0.6916473557342546,59.569523081441766
exact,pre_advance,A,ar,standard_dfm,2018:Q3,-0.234376943307174,59.33514613813459
exact,pre_advance,A,ar,standard_dfm,2018:Q4,0.14893902941456605,59.48408516754915
exact,pre_advance,A,ar,standard_dfm,2019:Q1,-1.6503801174698052,57.833705050079345
exact,pre_advance,A,ar,standard_dfm,2019:Q2,0.5954794042016668,58.429184454281014
exact,pre_advance,A,ar,standard_dfm,2019:Q3,-0.09612423812601656,58.333060216155
exact,pre_advance,A,ar,standard_dfm,2019:Q4,0.01576478586417283,58.34882500201917
exact,pre_advance,A,ar,standard_dfm,2020:Q1,20.478534009314743,78.82735901133391
exact,pre_advance,A,ar,standard_dfm,2020:Q2,682.2098557870619,761.0372147983958
exact,pre_advance,A,ar,standard_dfm,2020:Q3,2532.0058642533463,3293.043079051742
exact,pre_advance,A,ar,standard_dfm,2020:Q4,-11.069311927086067,3281.973767124656
exact,pre_advance,A,ar,standard_dfm,2021:Q1,14.950208396060185,3296.9239755207163
exact,pre_advance,A,ar,standard_dfm,2021:Q2,11.060687875087455,3307.9846633958036
exact,pre_advance,A,ar,standard_dfm,2021:Q3,-1.3960560548729157,3306.5886073409306
exact,pre_advance,A,ar,standard_dfm,2021:Q4,14.040388634731265,3320.628995975662
exact,pre_advance,A,ar,standard_dfm,2022:Q1,-51.807760345398535,3268.8212356302633
exact,pre_advance,A,ar,standard_dfm,2022:Q2,4.299251639576342,3273.1204872698395
exact,pre_advance,A,ar,standard_dfm,2022:Q3,-6.6989222368828765,3266.4215650329566
exact,pre_advance,A,ar,standard_dfm,2022:Q4,-3.601880950053491,3262.819684082903
exact,pre_advance,A,ar,standard_dfm,2023:Q1,0.7800853893880746,3263.5997694722914
exact,pre_advance,A,ar,standard_dfm,2023:Q2,-0.16380090312607126,3263.435968569165
exact,pre_advance,A,ar,standard_dfm,2023:Q3,-3.7388047147542762,3259.697163854411
exact,pre_advance,A,ar,standard_dfm,2023:Q4,-1.5290696674023923,3258.1680941870086
exact,pre_advance,A,ar,standard_dfm,2024:Q1,0.5325183152236406,3258.700612502232
exact,pre_advance,A,ar,standard_dfm,2024:Q2,0.13837150824328592,3258.8389840104755
exact,pre_advance,A,ar,standard_dfm,2024:Q3,-0.6175845462242279,3258.221399464251
exact,pre_advance,A,ar,standard_dfm,2024:Q4,0.059667286909634513,3258.281066751161
exact,pre_advance,A,no_revision,ar,2005:Q1,-0.01829276874886654,-0.01829276874886654
exact,pre_advance,A,no_revision,ar,2005:Q2,0.010434082728868699,-0.00785868601999784
exact,pre_advance,A,no_revision,ar,2005:Q3,-0.04475723724217473,-0.05261592326217257
exact,pre_advance,A,no_revision,ar,2005:Q4,0.005897102113586961,-0.04671882114858561
exact,pre_advance,A,no_revision,ar,2006:Q1,-0.14435758559098844,-0.19107640673957405
exact,pre_advance,A,no_revision,ar,2006:Q2,-0.10645890996238783,-0.29753531670196187
exact,pre_advance,A,no_revision,ar,2006:Q3,0.24152679339726402,-0.056008523304697855
exact,pre_advance,A,no_revision,ar,2006:Q4,0.30824079892148304,0.2522322756167852
exact,pre_advance,A,no_revision,ar,2007:Q1,0.23848279984936216,0.49071507546614734
exact,pre_advance,A,no_revision,ar,2007:Q2,-0.05512019812272051,0.43559487734342683
exact,pre_advance,A,no_revision,ar,2007:Q3,0.19969014430791188,0.6352850216513387
exact,pre_advance,A,no_revision,ar,2007:Q4,0.15567398880635874,0.7909590104576975
exact,pre_advance,A,no_revision,ar,2008:Q1,-0.05559234221203191,0.7353666682456655
exact,pre_advance,A,no_revision,ar,2008:Q2,-0.004622952477093177,0.7307437157685723
exact,pre_advance,A,no_revision,ar,2008:Q3,0.15221627551749783,0.8829599912860702
exact,pre_advance,A,no_revision,ar,2008:Q4,-0.5818162017862143,0.3011437894998559
exact,pre_advance,A,no_revision,ar,2009:Q1,-0.45423321116048854,-0.15308942166063266
exact,pre_advance,A,no_revision,ar,2009:Q2,-0.013307526119774815,-0.16639694778040748
exact,pre_advance,A,no_revision,ar,2009:Q3,1.023992772227114,0.8575958244467066
exact,pre_advance,A,no_revision,ar,2009:Q4,1.4621885824992091,2.3197844069459155
exact,pre_advance,A,no_revision,ar,2010:Q1,-0.5154181563893694,1.804366250556546
exact,pre_advance,A,no_revision,ar,2010:Q2,-0.1815894544157976,1.6227767961407484
exact,pre_advance,A,no_revision,ar,2010:Q3,-0.02901155984276077,1.5937652362979877
exact,pre_advance,A,no_revision,ar,2010:Q4,-0.21335030884274386,1.3804149274552437
exact,pre_advance,A,no_revision,ar,2011:Q1,0.06757887593352563,1.4479938033887694
exact,pre_advance,A,no_revision,ar,2011:Q2,-0.0202217337142232,1.4277720696745462
exact,pre_advance,A,no_revision,ar,2011:Q3,0.052984459561723096,1.4807565292362692
exact,pre_advance,A,no_revision,ar,2011:Q4,-0.01895665554257433,1.4617998736936948
exact,pre_advance,A,no_revision,ar,2012:Q1,-0.02232353618393504,1.4394763375097597
exact,pre_advance,A,no_revision,ar,2012:Q2,-0.11942453052189395,1.3200518069878657
exact,pre_advance,A,no_revision,ar,2012:Q3,-0.0006349170808925357,1.3194168899069731
exact,pre_advance,A,no_revision,ar,2012:Q4,0.06262090931865316,1.3820377992256263
exact,pre_advance,A,no_revision,ar,2013:Q1,0.008932871015000954,1.3909706702406273
exact,pre_advance,A,no_revision,ar,2013:Q2,-0.06324061631598044,1.3277300539246468
exact,pre_advance,A,no_revision,ar,2013:Q3,-0.0315667756852992,1.2961632782393475
exact,pre_advance,A,no_revision,ar,2013:Q4,0.17688786721241778,1.4730511454517652
exact,pre_advance,A,no_revision,ar,2014:Q1,0.02480433967617479,1.49785548512794
exact,pre_advance,A,no_revision,ar,2014:Q2,0.3039643587409291,1.801819843868869
exact,pre_advance,A,no_revision,ar,2014:Q3,0.01009808842494786,1.811917932293817
exact,pre_advance,A,no_revision,ar,2014:Q4,0.053005079780955394,1.8649230120747724
exact,pre_advance,A,no_revision,ar,2015:Q1,-0.67193818782102,1.1929848242537524
exact,pre_advance,A,no_revision,ar,2015:Q2,-0.08197493566980374,1.1110098885839488
exact,pre_advance,A,no_revision,ar,2015:Q3,0.08264742175217066,1.1936573103361194
exact,pre_advance,A,no_revision,ar,2015:Q4,0.12441534043486313,1.3180726507709826
exact,pre_advance,A,no_revision,ar,2016:Q1,-0.2275952927293533,1.0904773580416292
exact,pre_advance,A,no_revision,ar,2016:Q2,0.0046545719231812915,1.0951319299648103
exact,pre_advance,A,no_revision,ar,2016:Q3,0.04584231925914617,1.1409742492239565
exact,pre_advance,A,no_revision,ar,2016:Q4,-0.10114230910276367,1.0398319401211928
exact,pre_advance,A,no_revision,ar,2017:Q1,-0.246574617300388,0.7932573228208049
exact,pre_advance,A,no_revision,ar,2017:Q2,0.15926574147033767,0.9525230642911425
exact,pre_advance,A,no_revision,ar,2017:Q3,-0.022454236955837703,0.9300688273353048
exact,pre_advance,A,no_revision,ar,2017:Q4,-0.004727701091471227,0.9253411262438336
exact,pre_advance,A,no_revision,ar,2018:Q1,-0.03223932073775865,0.8931018055060749
exact,pre_advance,A,no_revision,ar,2018:Q2,0.05012498584200742,0.9432267913480823
exact,pre_advance,A,no_revision,ar,2018:Q3,-0.0040716179457951085,0.9391551734022872
exact,pre_advance,A,no_revision,ar,2018:Q4,-0.0107967518642271,0.92835842153806
exact,pre_advance,A,no_revision,ar,2019:Q1,0.06475700376940074,0.9931154253074608
exact,pre_advance,A,no_revision,ar,2019:Q2,0.08251128198875868,1.0756267072962196
exact,pre_advance,A,no_revision,ar,2019:Q3,0.02873654465966108,1.1043632519558806
exact,pre_advance,A,no_revision,ar,2019:Q4,-0.0032282376299231016,1.1011350143259575
exact,pre_advance,A,no_revision,ar,2020:Q1,0.47755925650978526,1.5786942708357428
exact,pre_advance,A,no_revision,ar,2020:Q2,0.5667662532794111,2.145460524115154
exact,pre_advance,A,no_revision,ar,2020:Q3,57.60016029331837,59.74562081743352
exact,pre_advance,A,no_revision,ar,2020:Q4,40.65854856282156,100.40416938025507
exact,pre_advance,A,no_revision,ar,2021:Q1,27.79553131153419,128.19970069178925
exact,pre_advance,A,no_revision,ar,2021:Q2,24.119251842538425,152.31895253432768
exact,pre_advance,A,no_revision,ar,2021:Q3,0.30877510409469244,152.62772763842236
exact,pre_advance,A,no_revision,ar,2021:Q4,-3.7679008571371924,148.85982678128516
exact,pre_advance,A,no_revision,ar,2022:Q1,0.5234667865097897,149.38329356779496
exact,pre_advance,A,no_revision,ar,2022:Q2,1.9855199282110494,151.36881349600603
exact,pre_advance,A,no_revision,ar,2022:Q3,0.033925124700511525,151.40273862070654
exact,pre_advance,A,no_revision,ar,2022:Q4,0.7384306425890252,152.14116926329558
exact,pre_advance,A,no_revision,ar,2023:Q1,-0.371137610273619,151.77003165302196
exact,pre_advance,A,no_revision,ar,2023:Q2,0.00528125482766627,151.77531290784964
exact,pre_advance,A,no_revision,ar,2023:Q3,0.5551736828791194,152.33048659072875
exact,pre_advance,A,no_revision,ar,2023:Q4,0.20210030709286464,152.53258689782163
exact,pre_advance,A,no_revision,ar,2024:Q1,0.31218151521482485,152.84476841303646
exact,pre_advance,A,no_revision,ar,2024:Q2,-0.0978852185130688,152.7468831945234
exact,pre_advance,A,no_revision,ar,2024:Q3,0.06291573213851451,152.80979892666193
exact,pre_advance,A,no_revision,ar,2024:Q4,-0.026146771737672124,152.78365215492425
exact,pre_advance,A,no_revision,bridge,2005:Q1,0.008215597414184327,0.008215597414184327
exact,pre_advance,A,no_revision,bridge,2005:Q2,0.2664849976095034,0.2747005950236877
exact,pre_advance,A,no_revision,bridge,2005:Q3,-0.15934170783751533,0.11535888718617238
exact,pre_advance,A,no_revision,bridge,2005:Q4,-1.0611563148113392,-0.9457974276251668
exact,pre_advance,A,no_revision,bridge,2006:Q1,1.4912925400289465,0.5454951124037797
exact,pre_advance,A,no_revision,bridge,2006:Q2,0.6612398447418184,1.206734957145598
exact,pre_advance,A,no_revision,bridge,2006:Q3,0.1273893744255441,1.3341243315711422
exact,pre_advance,A,no_revision,bridge,2006:Q4,-11.115495185358752,-9.78137085378761
exact,pre_advance,A,no_revision,bridge,2007:Q1,3.1673071315367447,-6.614063722250865
exact,pre_advance,A,no_revision,bridge,2007:Q2,-0.6270010939567126,-7.241064816207578
exact,pre_advance,A,no_revision,bridge,2007:Q3,-4.222013087742023,-11.4630779039496
exact,pre_advance,A,no_revision,bridge,2007:Q4,7.137280030827965,-4.325797873121635
exact,pre_advance,A,no_revision,bridge,2008:Q1,-0.8984188663524948,-5.22421673947413
exact,pre_advance,A,no_revision,bridge,2008:Q2,-0.5822131332173002,-5.80642987269143
exact,pre_advance,A,no_revision,bridge,2008:Q3,6.39136969126084,0.5849398185694099
exact,pre_advance,A,no_revision,bridge,2008:Q4,18.35320542375238,18.93814524232179
exact,pre_advance,A,no_revision,bridge,2009:Q1,28.522254693917795,47.46039993623958
exact,pre_advance,A,no_revision,bridge,2009:Q2,-1.1106053779094145,46.34979455833017
exact,pre_advance,A,no_revision,bridge,2009:Q3,5.32685235672722,51.67664691505739
exact,pre_advance,A,no_revision,bridge,2009:Q4,2.3027277325741444,53.97937464763153
exact,pre_advance,A,no_revision,bridge,2010:Q1,-8.418305450954188,45.561069196677344
exact,pre_advance,A,no_revision,bridge,2010:Q2,-0.1697311461835938,45.39133805049375
exact,pre_advance,A,no_revision,bridge,2010:Q3,0.1593129872951196,45.55065103778887
exact,pre_advance,A,no_revision,bridge,2010:Q4,0.06317830953073766,45.61382934731961
exact,pre_advance,A,no_revision,bridge,2011:Q1,-2.555993190959713,43.0578361563599
exact,pre_advance,A,no_revision,bridge,2011:Q2,-1.493123708883806,41.56471244747609
exact,pre_advance,A,no_revision,bridge,2011:Q3,0.05073215179515983,41.61544459927125
exact,pre_advance,A,no_revision,bridge,2011:Q4,-1.1017138183289266,40.513730780942325
exact,pre_advance,A,no_revision,bridge,2012:Q1,-1.0764773078905139,39.43725347305181
exact,pre_advance,A,no_revision,bridge,2012:Q2,-0.6035966229476759,38.833656850104134
exact,pre_advance,A,no_revision,bridge,2012:Q3,-0.5752088386682247,38.25844801143591
exact,pre_advance,A,no_revision,bridge,2012:Q4,-8.103480051567285,30.154967959868625
exact,pre_advance,A,no_revision,bridge,2013:Q1,0.7950884554726778,30.9500564153413
exact,pre_advance,A,no_revision,bridge,2013:Q2,-0.4457019305453256,30.504354484795975
exact,pre_advance,A,no_revision,bridge,2013:Q3,-0.49834211672689566,30.00601236806908
exact,pre_advance,A,no_revision,bridge,2013:Q4,0.1371224544965423,30.14313482256562
exact,pre_advance,A,no_revision,bridge,2014:Q1,3.94519318026431,34.08832800282993
exact,pre_advance,A,no_revision,bridge,2014:Q2,4.410158699495559,38.49848670232549
exact,pre_advance,A,no_revision,bridge,2014:Q3,-0.045996355308121864,38.452490347017374
exact,pre_advance,A,no_revision,bridge,2014:Q4,0.21060359627008304,38.66309394328746
exact,pre_advance,A,no_revision,bridge,2015:Q1,2.7117362862474277,41.374830229534886
exact,pre_advance,A,no_revision,bridge,2015:Q2,0.7790793652174877,42.15390959475238
exact,pre_advance,A,no_revision,bridge,2015:Q3,0.6963195488390831,42.85022914359146
exact,pre_advance,A,no_revision,bridge,2015:Q4,0.7760148696761358,43.6262440132676
exact,pre_advance,A,no_revision,bridge,2016:Q1,0.5511528724916305,44.17739688575923
exact,pre_advance,A,no_revision,bridge,2016:Q2,0.0644515912176081,44.241848476976834
exact,pre_advance,A,no_revision,bridge,2016:Q3,0.40961784186630823,44.65146631884314
exact,pre_advance,A,no_revision,bridge,2016:Q4,-0.8386804777801568,43.81278584106298
exact,pre_advance,A,no_revision,bridge,2017:Q1,-0.9106445698930794,42.9021412711699
exact,pre_advance,A,no_revision,bridge,2017:Q2,0.032319961715321144,42.934461232885226
exact,pre_advance,A,no_revision,bridge,2017:Q3,-0.336708786293597,42.59775244659163
exact,pre_advance,A,no_revision,bridge,2017:Q4,-1.154757722775842,41.44299472381579
exact,pre_advance,A,no_revision,bridge,2018:Q1,-0.8916572326445082,40.55133749117128
exact,pre_advance,A,no_revision,bridge,2018:Q2,0.4451149747288108,40.99645246590009
exact,pre_advance,A,no_revision,bridge,2018:Q3,-0.14793050552026416,40.84852196037983
exact,pre_advance,A,no_revision,bridge,2018:Q4,0.07988877975701851,40.92841074013685
exact,pre_advance,A,no_revision,bridge,2019:Q1,-0.042852976479083926,40.885557763657765
exact,pre_advance,A,no_revision,bridge,2019:Q2,0.691477457554207,41.57703522121197
exact,pre_advance,A,no_revision,bridge,2019:Q3,-0.30398174816418033,41.27305347304779
exact,pre_advance,A,no_revision,bridge,2019:Q4,-0.17104382993473502,41.10200964311306
exact,pre_advance,A,no_revision,bridge,2020:Q1,9.580017702547927,50.682027345660984
exact,pre_advance,A,no_revision,bridge,2020:Q2,533.1821380067008,583.8641653523619
exact,pre_advance,A,no_revision,bridge,2020:Q3,1700.4719074888842,2284.3360728412463
exact,pre_advance,A,no_revision,bridge,2020:Q4,15.421963922740805,2299.758036763987
exact,pre_advance,A,no_revision,bridge,2021:Q1,40.78673656791285,2340.5447733319
exact,pre_advance,A,no_revision,bridge,2021:Q2,39.12920568822841,2379.6739790201286
exact,pre_advance,A,no_revision,bridge,2021:Q3,0.0036412283532811784,2379.677620248482
exact,pre_advance,A,no_revision,bridge,2021:Q4,-4.309556315401213,2375.368063933081
exact,pre_advance,A,no_revision,bridge,2022:Q1,-26.71709323163731,2348.650970701444
exact,pre_advance,A,no_revision,bridge,2022:Q2,4.302320761912444,2352.9532914633564
exact,pre_advance,A,no_revision,bridge,2022:Q3,-3.0320521275153913,2349.921239335841
exact,pre_advance,A,no_revision,bridge,2022:Q4,-17.62049701398003,2332.300742321861
exact,pre_advance,A,no_revision,bridge,2023:Q1,1.3756908668791987,2333.6764331887402
exact,pre_advance,A,no_revision,bridge,2023:Q2,-1.4016490347085375,2332.2747841540317
exact,pre_advance,A,no_revision,bridge,2023:Q3,0.9167463176544635,2333.1915304716863
exact,pre_advance,A,no_revision,bridge,2023:Q4,-6.150838688551263,2327.040691783135
exact,pre_advance,A,no_revision,bridge,2024:Q1,1.0977588391882465,2328.1384506223235
exact,pre_advance,A,no_revision,bridge,2024:Q2,-0.7539944374101389,2327.3844561849132
exact,pre_advance,A,no_revision,bridge,2024:Q3,-0.007619718001529829,2327.3768364669118
exact,pre_advance,A,no_revision,bridge,2024:Q4,-0.026589665500670635,2327.3502468014112
exact,pre_advance,A,no_revision,indicator_revision_only_dfm_kalman_em,2005:Q1,-5.014914925439987,-5.014914925439987
exact,pre_advance,A,no_revision,indicator_revision_only_dfm_kalman_em,2005:Q2,-0.06730320193863631,-5.082218127378623
exact,pre_advance,A,no_revision,indicator_revision_only_dfm_kalman_em,2005:Q3,0.40689609880272815,-4.675322028575895
exact,pre_advance,A,no_revision,indicator_revision_only_dfm_kalman_em,2005:Q4,-9.071743714738682,-13.747065743314577
exact,pre_advance,A,no_revision,indicator_revision_only_dfm_kalman_em,2006:Q1,7.6559745260511605,-6.091091217263417
exact,pre_advance,A,no_revision,indicator_revision_only_dfm_kalman_em,2006:Q2,-5.541995573657351,-11.633086790920768
exact,pre_advance,A,no_revision,indicator_revision_only_dfm_kalman_em,2006:Q3,0.9594889775460929,-10.673597813374675
exact,pre_advance,A,no_revision,indicator_revision_only_dfm_kalman_em,2006:Q4,-12.639787499795979,-23.313385313170656
exact,pre_advance,A,no_revision,indicator_revision_only_dfm_kalman_em,2007:Q1,-6.626202442935346,-29.939587756106
exact,pre_advance,A,no_revision,indicator_revision_only_dfm_kalman_em,2007:Q2,-4.173955408867802,-34.113543164973805
exact,pre_advance,A,no_revision,indicator_revision_only_dfm_kalman_em,2007:Q3,-8.892112054026235,-43.00565521900004
exact,pre_advance,A,no_revision,indicator_revision_only_dfm_kalman_em,2007:Q4,-1.740090603058417,-44.74574582205846
exact,pre_advance,A,no_revision,indicator_revision_only_dfm_kalman_em,2008:Q1,-2.921312988765755,-47.667058810824216
exact,pre_advance,A,no_revision,indicator_revision_only_dfm_kalman_em,2008:Q2,-0.3258052572256808,-47.9928640680499
exact,pre_advance,A,no_revision,indicator_revision_only_dfm_kalman_em,2008:Q3,-8.159660543378909,-56.1525246114288
exact,pre_advance,A,no_revision,indicator_revision_only_dfm_kalman_em,2008:Q4,-12.882133357476391,-69.0346579689052
exact,pre_advance,A,no_revision,indicator_revision_only_dfm_kalman_em,2009:Q1,30.57851386532924,-38.45614410357595
exact,pre_advance,A,no_revision,indicator_revision_only_dfm_kalman_em,2009:Q2,-4.905531065867822,-43.36167516944377
exact,pre_advance,A,no_revision,indicator_revision_only_dfm_kalman_em,2009:Q3,6.202441908157245,-37.15923326128652
exact,pre_advance,A,no_revision,indicator_revision_only_dfm_kalman_em,2009:Q4,-12.073197292467515,-49.23243055375404
exact,pre_advance,A,no_revision,indicator_revision_only_dfm_kalman_em,2010:Q1,-1.4177033205862983,-50.65013387434034
exact,pre_advance,A,no_revision,indicator_revision_only_dfm_kalman_em,2010:Q2,-1.1573751218963841,-51.80750899623673
exact,pre_advance,A,no_revision,indicator_revision_only_dfm_kalman_em,2010:Q3,0.19107427020633005,-51.6164347260304
exact,pre_advance,A,no_revision,indicator_revision_only_dfm_kalman_em,2010:Q4,0.570788688265752,-51.04564603776465
exact,pre_advance,A,no_revision,indicator_revision_only_dfm_kalman_em,2011:Q1,-16.580470157088214,-67.62611619485287
exact,pre_advance,A,no_revision,indicator_revision_only_dfm_kalman_em,2011:Q2,-3.072942627485896,-70.69905882233877
exact,pre_advance,A,no_revision,indicator_revision_only_dfm_kalman_em,2011:Q3,-3.300966221954528,-74.0000250442933
exact,pre_advance,A,no_revision,indicator_revision_only_dfm_kalman_em,2011:Q4,-4.076836504487943,-78.07686154878124
exact,pre_advance,A,no_revision,indicator_revision_only_dfm_kalman_em,2012:Q1,-6.9397846669476255,-85.01664621572887
exact,pre_advance,A,no_revision,indicator_revision_only_dfm_kalman_em,2012:Q2,-2.115311807982701,-87.13195802371158
exact,pre_advance,A,no_revision,indicator_revision_only_dfm_kalman_em,2012:Q3,-1.3440492271551219,-88.4760072508667
exact,pre_advance,A,no_revision,indicator_revision_only_dfm_kalman_em,2012:Q4,-16.612934154515884,-105.08894140538258
exact,pre_advance,A,no_revision,indicator_revision_only_dfm_kalman_em,2013:Q1,0.18841475797270957,-104.90052664740988
exact,pre_advance,A,no_revision,indicator_revision_only_dfm_kalman_em,2013:Q2,0.4402563808795593,-104.46027026653032
exact,pre_advance,A,no_revision,indicator_revision_only_dfm_kalman_em,2013:Q3,0.4520349860425902,-104.00823528048772
exact,pre_advance,A,no_revision,indicator_revision_only_dfm_kalman_em,2013:Q4,-4.066956892470874,-108.0751921729586
exact,pre_advance,A,no_revision,indicator_revision_only_dfm_kalman_em,2014:Q1,5.005694227298443,-103.06949794566015
exact,pre_advance,A,no_revision,indicator_revision_only_dfm_kalman_em,2014:Q2,6.985084853255048,-96.0844130924051
exact,pre_advance,A,no_revision,indicator_revision_only_dfm_kalman_em,2014:Q3,0.09582184034687331,-95.98859125205823
exact,pre_advance,A,no_revision,indicator_revision_only_dfm_kalman_em,2014:Q4,-0.2270133283257054,-96.21560458038394
exact,pre_advance,A,no_revision,indicator_revision_only_dfm_kalman_em,2015:Q1,4.422990045924109,-91.79261453445983
exact,pre_advance,A,no_revision,indicator_revision_only_dfm_kalman_em,2015:Q2,-2.0905534365005685,-93.8831679709604
exact,pre_advance,A,no_revision,indicator_revision_only_dfm_kalman_em,2015:Q3,0.26546619020473683,-93.61770178075567
exact,pre_advance,A,no_revision,indicator_revision_only_dfm_kalman_em,2015:Q4,1.047855133935406,-92.56984664682027
exact,pre_advance,A,no_revision,indicator_revision_only_dfm_kalman_em,2016:Q1,-0.028995029280245332,-92.5988416761005
exact,pre_advance,A,no_revision,indicator_revision_only_dfm_kalman_em,2016:Q2,-1.1680386755970757,-93.76688035169758
exact,pre_advance,A,no_revision,indicator_revision_only_dfm_kalman_em,2016:Q3,0.9260500599346756,-92.8408302917629
exact,pre_advance,A,no_revision,indicator_revision_only_dfm_kalman_em,2016:Q4,-2.906139773078829,-95.74697006484173
exact,pre_advance,A,no_revision,indicator_revision_only_dfm_kalman_em,2017:Q1,-3.478688768086383,-99.22565883292812
exact,pre_advance,A,no_revision,indicator_revision_only_dfm_kalman_em,2017:Q2,1.1146199493208861,-98.11103888360724
exact,pre_advance,A,no_revision,indicator_revision_only_dfm_kalman_em,2017:Q3,-0.4951987309033766,-98.60623761451062
exact,pre_advance,A,no_revision,indicator_revision_only_dfm_kalman_em,2017:Q4,-12.291689218854396,-110.89792683336502
exact,pre_advance,A,no_revision,indicator_revision_only_dfm_kalman_em,2018:Q1,-1.1739228364847092,-112.07184966984973
exact,pre_advance,A,no_revision,indicator_revision_only_dfm_kalman_em,2018:Q2,0.7883190620454505,-111.28353060780428
exact,pre_advance,A,no_revision,indicator_revision_only_dfm_kalman_em,2018:Q3,-0.10133420797131276,-111.3848648157756
exact,pre_advance,A,no_revision,indicator_revision_only_dfm_kalman_em,2018:Q4,-0.10416237555541819,-111.48902719133102
exact,pre_advance,A,no_revision,indicator_revision_only_dfm_kalman_em,2019:Q1,-2.0201033572499196,-113.50913054858094
exact,pre_advance,A,no_revision,indicator_revision_only_dfm_kalman_em,2019:Q2,0.37373228820335824,-113.13539826037758
exact,pre_advance,A,no_revision,indicator_revision_only_dfm_kalman_em,2019:Q3,-1.2542069794394641,-114.38960523981704
exact,pre_advance,A,no_revision,indicator_revision_only_dfm_kalman_em,2019:Q4,-0.01577908744950927,-114.40538432726656
exact,pre_advance,A,no_revision,indicator_revision_only_dfm_kalman_em,2020:Q1,32.04650106878114,-82.35888325848542
exact,pre_advance,A,no_revision,indicator_revision_only_dfm_kalman_em,2020:Q2,773.6047874984475,691.2459042399621
exact,pre_advance,A,no_revision,indicator_revision_only_dfm_kalman_em,2020:Q3,2100.2873386340593,2791.533242874021
exact,pre_advance,A,no_revision,indicator_revision_only_dfm_kalman_em,2020:Q4,40.874196069347505,2832.4074389433686
exact,pre_advance,A,no_revision,indicator_revision_only_dfm_kalman_em,2021:Q1,27.27840013649353,2859.685839079862
exact,pre_advance,A,no_revision,indicator_revision_only_dfm_kalman_em,2021:Q2,31.21633319713067,2890.9021722769926
exact,pre_advance,A,no_revision,indicator_revision_only_dfm_kalman_em,2021:Q3,-7.844265480435624,2883.057906796557
exact,pre_advance,A,no_revision,indicator_revision_only_dfm_kalman_em,2021:Q4,9.937398602860537,2892.9953053994172
exact,pre_advance,A,no_revision,indicator_revision_only_dfm_kalman_em,2022:Q1,-26.847288335935605,2866.148017063482
exact,pre_advance,A,no_revision,indicator_revision_only_dfm_kalman_em,2022:Q2,-6.692500761436346,2859.4555163020455
exact,pre_advance,A,no_revision,indicator_revision_only_dfm_kalman_em,2022:Q3,0.08062444291721123,2859.5361407449627
exact,pre_advance,A,no_revision,indicator_revision_only_dfm_kalman_em,2022:Q4,0.2348968889921329,2859.771037633955
exact,pre_advance,A,no_revision,indicator_revision_only_dfm_kalman_em,2023:Q1,-2.2334882166645054,2857.5375494172904
exact,pre_advance,A,no_revision,indicator_revision_only_dfm_kalman_em,2023:Q2,-0.004028783258790245,2857.5335206340314
exact,pre_advance,A,no_revision,indicator_revision_only_dfm_kalman_em,2023:Q3,1.1843706976207722,2858.717891331652
exact,pre_advance,A,no_revision,indicator_revision_only_dfm_kalman_em,2023:Q4,-0.5583575567410552,2858.159533774911
exact,pre_advance,A,no_revision,indicator_revision_only_dfm_kalman_em,2024:Q1,1.0886441232263286,2859.2481778981373
exact,pre_advance,A,no_revision,indicator_revision_only_dfm_kalman_em,2024:Q2,-0.02451110060814083,2859.2236667975294
exact,pre_advance,A,no_revision,indicator_revision_only_dfm_kalman_em,2024:Q3,-0.6390573521956591,2858.5846094453336
exact,pre_advance,A,no_revision,indicator_revision_only_dfm_kalman_em,2024:Q4,0.0009485818982334915,2858.585558027232
exact,pre_advance,A,no_revision,joint_indicator_revision_dfm_full_kalman_em,2005:Q1,-2.3251138353390353,-2.3251138353390353
exact,pre_advance,A,no_revision,joint_indicator_revision_dfm_full_kalman_em,2005:Q2,0.26785239024216917,-2.057261445096866
exact,pre_advance,A,no_revision,joint_indicator_revision_dfm_full_kalman_em,2005:Q3,0.5043777907402264,-1.5528836543566396
exact,pre_advance,A,no_revision,joint_indicator_revision_dfm_full_kalman_em,2005:Q4,-5.717421499210484,-7.270305153567124
exact,pre_advance,A,no_revision,joint_indicator_revision_dfm_full_kalman_em,2006:Q1,6.094502263219066,-1.1758028903480575
exact,pre_advance,A,no_revision,joint_indicator_revision_dfm_full_kalman_em,2006:Q2,-4.349892526703855,-5.525695417051913
exact,pre_advance,A,no_revision,joint_indicator_revision_dfm_full_kalman_em,2006:Q3,0.8930454377939352,-4.632649979257978
exact,pre_advance,A,no_revision,joint_indicator_revision_dfm_full_kalman_em,2006:Q4,-4.9307747968499545,-9.563424776107933
exact,pre_advance,A,no_revision,joint_indicator_revision_dfm_full_kalman_em,2007:Q1,-18.384486397379078,-27.94791117348701
exact,pre_advance,A,no_revision,joint_indicator_revision_dfm_full_kalman_em,2007:Q2,-1.0173205423169094,-28.96523171580392
exact,pre_advance,A,no_revision,joint_indicator_revision_dfm_full_kalman_em,2007:Q3,-8.307147887915304,-37.27237960371922
exact,pre_advance,A,no_revision,joint_indicator_revision_dfm_full_kalman_em,2007:Q4,-0.25805705435283954,-37.53043665807206
exact,pre_advance,A,no_revision,joint_indicator_revision_dfm_full_kalman_em,2008:Q1,-2.43494260793615,-39.96537926600821
exact,pre_advance,A,no_revision,joint_indicator_revision_dfm_full_kalman_em,2008:Q2,-0.011737458152414525,-39.97711672416063
exact,pre_advance,A,no_revision,joint_indicator_revision_dfm_full_kalman_em,2008:Q3,-3.6234386650655486,-43.60055538922618
exact,pre_advance,A,no_revision,joint_indicator_revision_dfm_full_kalman_em,2008:Q4,-3.6398316165124207,-47.2403870057386
exact,pre_advance,A,no_revision,joint_indicator_revision_dfm_full_kalman_em,2009:Q1,13.627611035351922,-33.61277597038668
exact,pre_advance,A,no_revision,joint_indicator_revision_dfm_full_kalman_em,2009:Q2,0.049467452370735576,-33.563308518015944
exact,pre_advance,A,no_revision,joint_indicator_revision_dfm_full_kalman_em,2009:Q3,8.34539875816059,-25.217909759855353
exact,pre_advance,A,no_revision,joint_indicator_revision_dfm_full_kalman_em,2009:Q4,-8.117369861974378,-33.33527962182973
exact,pre_advance,A,no_revision,joint_indicator_revision_dfm_full_kalman_em,2010:Q1,-0.207968718918571,-33.5432483407483
exact,pre_advance,A,no_revision,joint_indicator_revision_dfm_full_kalman_em,2010:Q2,-1.2532926383963954,-34.796540979144694
exact,pre_advance,A,no_revision,joint_indicator_revision_dfm_full_kalman_em,2010:Q3,0.18922460759782347,-34.60731637154687
exact,pre_advance,A,no_revision,joint_indicator_revision_dfm_full_kalman_em,2010:Q4,0.4017439120682954,-34.205572459478574
exact,pre_advance,A,no_revision,joint_indicator_revision_dfm_full_kalman_em,2011:Q1,-13.623054223161855,-47.82862668264043
exact,pre_advance,A,no_revision,joint_indicator_revision_dfm_full_kalman_em,2011:Q2,-2.1331093021000833,-49.961735984740514
exact,pre_advance,A,no_revision,joint_indicator_revision_dfm_full_kalman_em,2011:Q3,-1.995978352451413,-51.95771433719193
exact,pre_advance,A,no_revision,joint_indicator_revision_dfm_full_kalman_em,2011:Q4,-2.6854867592906713,-54.6432010964826
exact,pre_advance,A,no_revision,joint_indicator_revision_dfm_full_kalman_em,2012:Q1,-6.17547857454551,-60.81867967102811
exact,pre_advance,A,no_revision,joint_indicator_revision_dfm_full_kalman_em,2012:Q2,-1.7043126527404486,-62.522992323768555
exact,pre_advance,A,no_revision,joint_indicator_revision_dfm_full_kalman_em,2012:Q3,-0.926911087505061,-63.44990341127362
exact,pre_advance,A,no_revision,joint_indicator_revision_dfm_full_kalman_em,2012:Q4,-11.824540640756117,-75.27444405202974
exact,pre_advance,A,no_revision,joint_indicator_revision_dfm_full_kalman_em,2013:Q1,0.3160609355713804,-74.95838311645835
exact,pre_advance,A,no_revision,joint_indicator_revision_dfm_full_kalman_em,2013:Q2,0.02270085479285955,-74.93568226166549
exact,pre_advance,A,no_revision,joint_indicator_revision_dfm_full_kalman_em,2013:Q3,0.489161606236065,-74.44652065542942
exact,pre_advance,A,no_revision,joint_indicator_revision_dfm_full_kalman_em,2013:Q4,-1.2818559175029307,-75.72837657293235
exact,pre_advance,A,no_revision,joint_indicator_revision_dfm_full_kalman_em,2014:Q1,2.7426697609906183,-72.98570681194172
exact,pre_advance,A,no_revision,joint_indicator_revision_dfm_full_kalman_em,2014:Q2,7.184685766741571,-65.80102104520016
exact,pre_advance,A,no_revision,joint_indicator_revision_dfm_full_kalman_em,2014:Q3,0.06023993165356233,-65.7407811135466
exact,pre_advance,A,no_revision,joint_indicator_revision_dfm_full_kalman_em,2014:Q4,-0.1602331440484028,-65.90101425759501
exact,pre_advance,A,no_revision,joint_indicator_revision_dfm_full_kalman_em,2015:Q1,3.1990343093497513,-62.70197994824526
exact,pre_advance,A,no_revision,joint_indicator_revision_dfm_full_kalman_em,2015:Q2,-0.474706221236572,-63.17668616948183
exact,pre_advance,A,no_revision,joint_indicator_revision_dfm_full_kalman_em,2015:Q3,-1.133721646564024,-64.31040781604585
exact,pre_advance,A,no_revision,joint_indicator_revision_dfm_full_kalman_em,2015:Q4,0.8059691422175241,-63.50443867382833
exact,pre_advance,A,no_revision,joint_indicator_revision_dfm_full_kalman_em,2016:Q1,-0.6915611240306402,-64.19599979785897
exact,pre_advance,A,no_revision,joint_indicator_revision_dfm_full_kalman_em,2016:Q2,-0.7425974525714659,-64.93859725043043
