haminh109/Revision-Aware-DFM/outputs/full_state_space_release_revision_dfm/sensitivity_k2_max_iter100_journal_evidence/density_point_records.csv
model_id,timing_mode,checkpoint_id,outcome_id,forecast_origin,forecast_origin_date,target_quarter,forecast_value,realized_value,forecast_error,calibration_n,predictive_variance,predictive_sd,log_score,crps,pit,prob_below_zero,prob_large_positive_revision_gt_0p2,prob_large_negative_revision_lt_minus_0p2,realized_below_zero,realized_large_positive_revision_gt_0p2,realized_large_negative_revision_lt_minus_0p2,lower_68,upper_68,covered_68,lower_90,upper_90,covered_90,density_method
ar,exact,pre_advance,A,2008:Q1:pre_advance:exact,2008-04-29,2008:Q1,1.6969903269109072,0.5974,1.0995903269109073,12,2.829429303501242,1.6820907536459626,-1.6526408481297332,0.6700671558747763,0.2566510956583118,0.1565214252697116,0.8132558132591579,0.1297111904165388,False,True,False,0.014899573264944621,3.37908108055687,True,-1.0698027500851897,4.463783403907004,True,expanding_residual_calibrated_gaussian
ar,exact,pre_advance,A,2008:Q2:pre_advance:exact,2008-07-30,2008:Q2,1.668900406211416,1.8886,-0.2196995937885841,13,2.6738313958798288,1.6351854316498262,-1.4197207276138615,0.39389304119297536,0.5534400969459938,0.1537176244744469,0.8154893566405967,0.12653409179197983,False,True,False,0.033714974561589894,3.3040858378612423,True,-1.020740281776009,4.358541094198841,True,expanding_residual_calibrated_gaussian
ar,exact,pre_advance,A,2008:Q3:pre_advance:exact,2008-10-29,2008:Q3,2.293316691295042,-0.2522,2.5455166912950418,14,2.4782948572836694,1.5742600983584858,-2.680004849100822,1.727636785892968,0.05294338351872543,0.07259153532756624,0.9081938443966169,0.05661936317008903,True,False,True,0.7190565929365562,3.867576789653528,False,-0.2961107412548949,4.882744123844979,True,expanding_residual_calibrated_gaussian
ar,exact,pre_advance,A,2008:Q4:pre_advance:exact,2009-01-29,2008:Q4,1.242601576815071,-3.8037,5.046301576815071,15,2.6901869327167622,1.6401789331401504,-6.1467160139720445,4.121883393843465,0.001046608268083486,0.22434487187304947,0.7375020537910766,0.18955450905191978,True,False,True,-0.3975773563250793,2.8827805099552215,False,-1.4552526902099017,3.940455843840044,False,expanding_residual_calibrated_gaussian
ar,exact,pre_advance,A,2009:Q1:pre_advance:exact,2009-04-28,2009:Q1,-0.560711208882571,-6.1437,5.582988791117429,16,3.924008903077622,1.9809111295254065,-5.57416887395641,4.4682136654335,0.0024132243738730075,0.6114335149675817,0.3504814908360179,0.572245358448585,True,False,True,-2.5416223384079775,1.4201999206428355,False,-3.8190200649509736,2.697597647185831,False,expanding_residual_calibrated_gaussian
ar,exact,pre_advance,A,2009:Q2:pre_advance:exact,2009-07-30,2009:Q2,-1.9285959860780209,-1.0173,-0.9112959860780208,17,5.146151086414406,2.268512968094828,-1.8187505934827937,0.6742526668857097,0.6560531565304171,0.802381564000159,0.17403943769516772,0.7769685646238651,True,False,True,-4.197108954172849,0.3399169820168073,True,-5.659967769435248,1.8027757972792064,True,expanding_residual_calibrated_gaussian
ar,exact,pre_advance,A,2009:Q3:pre_advance:exact,2009-10-28,2009:Q3,0.7230708989235709,3.5339,-2.810829101076429,18,5.0221422503761275,2.24101366581646,-2.5124594634153206,1.7711912491026247,0.8951274815164041,0.3734788364976675,0.5922777652306724,0.3402067905136493,False,True,False,-1.5179427668928889,2.964084564740031,False,-2.9630685573424476,4.40921035518959,True,expanding_residual_calibrated_gaussian
ar,exact,pre_advance,A,2009:Q4:pre_advance:exact,2010-01-28,2009:Q4,3.0489331608262917,5.7309,-2.6819668391737084,19,5.422745096170093,2.3286788306183603,-2.4274596256394245,1.656393194857255,0.8752802348643967,0.09521681337502315,0.8894129007216784,0.08148032820727358,False,True,False,0.7202543302079314,5.3776119914446525,False,-0.7814026597214312,6.879268981374015,True,expanding_residual_calibrated_gaussian
ar,exact,pre_advance,A,2010:Q1:pre_advance:exact,2010-04-29,2010:Q1,4.173936693115149,3.2387,0.9352366931151486,20,5.673756941570443,2.3819649329010795,-1.8639443970674208,0.7012932101264326,0.34729548971003016,0.039860413073026076,0.952376262175863,0.03315868268696324,False,True,False,1.7919717602140692,6.555901626016228,True,0.2559530339615881,8.091920352268708,True,expanding_residual_calibrated_gaussian
ar,exact,pre_advance,A,2010:Q2:pre_advance:exact,2010-07-29,2010:Q2,2.910267276883183,2.3866,0.5236672768831832,21,5.402239733102709,2.3242718715982233,-1.7877262500584905,0.590041455838554,0.41087147318856,0.10526307199143031,0.8782072385538616,0.0904207664263379,False,True,False,0.5859954052849599,5.234539148481407,True,-0.9128197411364409,6.733354294902807,True,expanding_residual_calibrated_gaussian
ar,exact,pre_advance,A,2010:Q3:pre_advance:exact,2010-10-28,2010:Q3,2.4788331064407743,2.0097,0.4691331064407742,22,5.145212372029453,2.268306057839077,-1.7593592989959748,0.568662329226631,0.4180748655497855,0.13723807650046188,0.8424651093522149,0.11880454455172332,False,True,False,0.21052704860169724,4.747139164279851,True,-1.2521983398318275,6.209864552713376,True,expanding_residual_calibrated_gaussian
ar,exact,pre_advance,A,2010:Q4:pre_advance:exact,2011-01-27,2010:Q4,2.286700159857185,3.173,-0.886299840142815,23,4.911345550904534,2.2161555791289866,-1.79468319900927,0.6574564927239761,0.6553947557702134,0.1510754216947209,0.826797575064664,0.13091456752773534,False,True,False,0.07054458072819836,4.502855738986172,True,-1.3585513823618691,5.931951702076239,True,expanding_residual_calibrated_gaussian
ar,exact,pre_advance,A,2011:Q1:pre_advance:exact,2011-04-27,2011:Q1,2.8763506867146234,1.7482,1.1281506867146234,24,4.773046570750931,2.184730319913863,-1.833754998838643,0.737936313103927,0.3027945726679424,0.09399137790151954,0.8897172223856256,0.07954856747274214,False,True,False,0.6916203668007603,5.061081006628486,True,-0.7172109039065444,6.469912277335791,True,expanding_residual_calibrated_gaussian
ar,exact,pre_advance,A,2011:Q2:pre_advance:exact,2011-07-28,2011:Q2,2.154458004406833,1.2822,0.8722580044068331,25,4.595291885203722,2.1436631930421632,-1.7642387517275309,0.6406351201771276,0.3420404693791701,0.15743983366954648,0.819046526585752,0.13602935207709108,False,True,False,0.010794811364669865,4.298121197448996,True,-1.3715541736309431,5.680470182444609,True,expanding_residual_calibrated_gaussian
ar,exact,pre_advance,A,2011:Q3:pre_advance:exact,2011-10-26,2011:Q3,1.9151305097337552,2.4637,-0.5485694902662444,26,4.418984529604549,2.1021380852847296,-1.6959430024169126,0.5480472065667407,0.6029375040748441,0.18113732097820526,0.7927207959792087,0.1571643570034843,False,True,False,-0.18700757555097436,4.017268595018485,True,-1.5425789441996556,5.372839963667166,True,expanding_residual_calibrated_gaussian
ar,exact,pre_advance,A,2011:Q4:pre_advance:exact,2012-01-26,2011:Q4,2.5119444400984148,2.7523,-0.2403555599015852,27,4.2857723968040355,2.0702107131410648,-1.6533287638059562,0.49491814279778223,0.5462141396352196,0.11249300779426127,0.8679531669295842,0.09510049922129159,False,True,False,0.44173372695735,4.58215515323948,True,-0.8932491599654595,5.917138040162289,True,expanding_residual_calibrated_gaussian
ar,exact,pre_advance,A,2012:Q1:pre_advance:exact,2012-04-26,2012:Q1,2.6581713872564583,2.2043,0.4538713872564583,28,4.142175592674255,2.0352335474520498,-1.654415178395364,0.5158368846089488,0.41176501785393643,0.09576321511571655,0.886439440745257,0.0801079727950203,False,True,False,0.6229378398044085,4.693404934708508,True,-0.6894898949633568,6.005832669476273,True,expanding_residual_calibrated_gaussian
ar,exact,pre_advance,A,2012:Q2:pre_advance:exact,2012-07-26,2012:Q2,2.3805589828766736,1.5369,0.8436589828766736,29,3.9943931588679438,1.998597798174496,-1.7004793121901358,0.6070648549913724,0.3364667284999201,0.11680430286616006,0.8623733321535366,0.09831981227035383,False,True,False,0.38196118470217755,4.37915678105117,True,-0.9068418542678724,5.66795982002122,True,expanding_residual_calibrated_gaussian
ar,exact,pre_advance,A,2012:Q3:pre_advance:exact,2012-10-25,2012:Q3,2.040732580983052,2.0138,0.0269325809830522,30,3.8635253040521036,1.9655852319480078,-1.5948224354704246,0.45949461625137844,0.49453383709819,0.149581136251762,0.8254871205608332,0.12714681566548908,False,True,False,0.07514734903504428,4.00631781293106,True,-1.1923674168688794,5.273832578834984,True,expanding_residual_calibrated_gaussian
ar,exact,pre_advance,A,2012:Q4:pre_advance:exact,2013-01-29,2012:Q4,2.280117534260134,-0.1435,2.423617534260134,31,3.739347408132118,1.9337392296098557,-2.3638148177852303,1.526908035209273,0.10504242749957485,0.11917448406286721,0.8589686105539172,0.09982486264134657,True,False,False,0.3463783046502784,4.213856763869989,False,-0.9006004511419827,5.4608355196622504,True,expanding_residual_calibrated_gaussian
ar,exact,pre_advance,A,2013:Q1:pre_advance:exact,2013-04-25,2013:Q1,1.1815766684837352,2.5024,-1.320823331516265,32,3.74762741821742,1.9358789781950265,-1.81225717469567,0.7986002116617693,0.7524709718821673,0.2708127785616874,0.6939381805648832,0.23771596322339858,False,True,False,-0.7543023097112913,3.1174556466787617,True,-2.002660890139464,4.3658142271069345,True,expanding_residual_calibrated_gaussian
ar,exact,pre_advance,A,2013:Q2:pre_advance:exact,2013-07-30,2013:Q2,2.519701700428011,1.6737,0.8460017004280111,33,3.726193834025757,1.9303351610603163,-1.672671047838425,0.5967042885542035,0.33059646622757055,0.0958922523430145,0.8852619101812513,0.07942834886606241,False,True,False,0.5893665393676948,4.450036861488328,True,-0.6554170904740046,5.694820491330027,True,expanding_residual_calibrated_gaussian
ar,exact,pre_advance,A,2013:Q3:pre_advance:exact,2013-11-06,2013:Q3,2.099963301346884,2.8463,-0.7463366986531157,34,3.619070574771359,1.9023854958370974,-1.6390031666911005,0.5599127707559671,0.6525877120719669,0.13482738700520033,0.8410364629786178,0.1133335192476088,False,True,False,0.19757780550978676,4.0023487971839815,True,-1.0291823813406404,5.229108984034409,True,expanding_residual_calibrated_gaussian
ar,exact,pre_advance,A,2013:Q4:pre_advance:exact,2014-01-29,2013:Q4,2.6913894106754146,3.2279,-0.5365105893245854,35,3.551181528945583,1.8844578872836568,-1.5931065849671762,0.5009169300671015,0.6120641083180209,0.07661664214213856,0.9069279473024235,0.06247364812217492,False,True,False,0.8069315233917578,4.575847297959071,True,-0.40826798006041676,5.791046801411246,True,expanding_residual_calibrated_gaussian
ar,exact,pre_advance,A,2014:Q1:pre_advance:exact,2014-04-29,2014:Q1,2.885331400078016,0.1079,2.777431400078016,36,3.4731598242871895,1.8636415493026521,-2.652005078463341,1.8376508626830148,0.06806941460128653,0.0607843924542647,0.9251943121301559,0.04890759885509846,False,False,False,1.0216898507753638,4.7489729493806685,False,-0.1800861616299123,5.950748961785944,True,expanding_residual_calibrated_gaussian
ar,exact,pre_advance,A,2014:Q2:pre_advance:exact,2014-07-29,2014:Q2,1.3107508272494848,3.9481,-2.6373491727505156,37,3.5350740553719597,1.8801792614992752,-2.5341055085191497,1.7136356201154326,0.9196485646651974,0.24285714966000443,0.7226622540474898,0.21083878216077442,False,True,False,-0.5694284342497904,3.19093008874876,False,-1.7818688503465385,4.403370504845508,True,expanding_residual_calibrated_gaussian
ar,exact,pre_advance,A,2014:Q3:pre_advance:exact,2014-10-29,2014:Q3,3.238982377191952,3.549,-0.310017622808048,38,3.6858404803339364,1.9198542862243313,-1.5842256813476125,0.4685886969608865,0.5641422270902825,0.04579225225123222,0.9432805438351485,0.036624780490621164,False,True,False,1.3191280909676206,5.158836663416283,True,0.08110309127753057,6.396861663106373,True,expanding_residual_calibrated_gaussian
ar,exact,pre_advance,A,2014:Q4:pre_advance:exact,2015-01-29,2014:Q4,3.0427097178889815,2.6422,0.4005097178889816,39,3.5997290070443126,1.8972951818429078,-1.581648387425036,0.47699249082991924,0.4164065314990455,0.05438908470346993,0.932971814190394,0.04371413843262606,False,True,False,1.1454145360460737,4.940004899731889,True,-0.07806314336287823,6.163482579140841,True,expanding_residual_calibrated_gaussian
ar,exact,pre_advance,A,2015:Q1:pre_advance:exact,2015-04-28,2015:Q1,2.5903488271467494,0.2482,2.342148827146749,40,3.507571544903898,1.8728511806611592,-2.328374730227443,1.4747599377025873,0.10554401226193219,0.08331641866441371,0.8990779779678513,0.06812611859704128,False,True,False,0.7174976464855902,4.463200007807909,False,-0.490217230104105,5.670914884397604,True,expanding_residual_calibrated_gaussian
ar,exact,pre_advance,A,2015:Q2:pre_advance:exact,2015-07-29,2015:Q2,1.390376751447678,2.3219,-0.9315232485523216,41,3.5189565284060045,1.8758881972031287,-1.6713152275552443,0.6192250112054197,0.6902563714140427,0.2292911947210578,0.7371445727793251,0.19827486893403465,False,True,False,-0.4855114457554508,3.2662649486508064,True,-1.6951847534773468,4.475938256372703,True,expanding_residual_calibrated_gaussian
ar,exact,pre_advance,A,2015:Q3:pre_advance:exact,2015-10-28,2015:Q3,2.424470362325405,1.4923,0.9321703623254052,42,3.4738244344866067,1.8638198503306607,-1.666636474247424,0.6177762207137745,0.30848834529639546,0.09666222093927929,0.8836633378720952,0.07954869479124402,False,True,False,0.5606505119947445,4.288290212656066,True,-0.6412404784751322,5.4901812031259425,True,expanding_residual_calibrated_gaussian
ar,exact,pre_advance,A,2015:Q4:pre_advance:exact,2016-01-28,2015:Q4,2.008917859431345,0.6914,1.317517859431345,43,3.399139683467734,1.8436755906253501,-1.7860368704974947,0.7912648831264038,0.23742354919319733,0.13793884305953785,0.8367400170959116,0.11543797459910118,False,True,False,0.1652422688059949,3.852593450056695,True,-1.0236586227306597,5.041494341593349,True,expanding_residual_calibrated_gaussian
ar,exact,pre_advance,A,2016:Q1:pre_advance:exact,2016-04-27,2016:Q1,1.6043088567904404,0.5378,1.0665088567904406,44,3.3409974243810843,1.8278395510495675,-1.6922980152004081,0.6686030405015256,0.2797849178043524,0.1900511811270287,0.7788422191879213,0.16179031428089874,False,True,False,-0.22353069425912708,3.4321484078400077,True,-1.4022196582387911,4.610837371819672,True,expanding_residual_calibrated_gaussian
ar,exact,pre_advance,A,2016:Q2:pre_advance:exact,2016-07-28,2016:Q2,1.5206972524992943,1.2182,0.3024972524992946,45,3.2755331864287247,1.8098434148922178,-1.5261467556596404,0.4430747707418095,0.433629941363141,0.2003877814509133,0.7672224168776001,0.17086724543539525,False,True,False,-0.28914616239292346,3.330540667391512,True,-1.456230252700408,4.497624757698997,True,expanding_residual_calibrated_gaussian
ar,exact,pre_advance,A,2016:Q3:pre_advance:exact,2016-10-27,2016:Q3,1.8569616370497055,2.9014,-1.0444383629502945,46,3.2029313424448143,1.7896735295703556,-1.671261303835078,0.6547298349688274,0.7202524292905872,0.14972862964537245,0.8227369270276683,0.1252058021163509,False,True,False,0.06728810747934988,3.646635166620061,True,-1.0867893591231366,4.800712633222547,True,expanding_residual_calibrated_gaussian
ar,exact,pre_advance,A,2016:Q4:pre_advance:exact,2017-01-26,2016:Q4,2.6989919946313323,1.8735,0.8254919946313324,47,3.177290266796356,1.7824955166272807,-1.6041884561882587,0.5664049740492015,0.32164266153594856,0.0649920215270691,0.919536787814859,0.05193579680144015,False,True,False,0.9164964780040517,4.481487511258613,True,-0.23295222091778855,5.630936210180453,True,expanding_residual_calibrated_gaussian
ar,exact,pre_advance,A,2017:Q1:pre_advance:exact,2017-04-27,2017:Q1,2.1845658852730665,0.6941,1.4904658852730663,48,3.1141479469536635,1.7646948594455822,-1.8435931094280051,0.8867561846127601,0.19916637548483132,0.10787130521371498,0.8696195175157968,0.0883056892727169,False,True,False,0.41987102582748426,3.9492607447186487,True,-0.718098854748618,5.087230625294751,True,expanding_residual_calibrated_gaussian
ar,exact,pre_advance,A,2017:Q2:pre_advance:exact,2017-07-27,2017:Q2,1.5908183564986205,2.5683,-0.9774816435013792,49,3.074778612776107,1.7535046657411857,-1.635927205466058,0.6217066601340524,0.7113881374537253,0.18214465375628752,0.7861591232975742,0.15356101961621402,False,True,False,-0.16268630924256522,3.344323022239806,True,-1.2934401528220976,4.4750768658193385,True,expanding_residual_calibrated_gaussian
ar,exact,pre_advance,A,2017:Q3:pre_advance:exact,2017-10-26,2017:Q3,2.526955126171118,2.9875,-0.4605448738288817,50,3.0497175289210317,1.7463440465501154,-1.5112369911262125,0.45628634327400797,0.6040019425998696,0.07394883941082436,0.9086474864983897,0.05920028632670478,False,True,False,0.7806110796210026,4.2732991727212335,True,-0.3455252127019497,5.399435465044186,True,expanding_residual_calibrated_gaussian
ar,exact,pre_advance,A,2017:Q4:pre_advance:exact,2018-01-25,2017:Q4,2.737122590012239,2.555,0.1821225900122387,51,3.0021780125077275,1.7326794315474885,-1.474131643698803,0.41254839871949467,0.45814411223304885,0.05708720491261084,0.9284408566457395,0.04502506891006198,False,True,False,1.0044431584647504,4.469802021559728,True,-0.11288145731286248,5.58712663733734,True,expanding_residual_calibrated_gaussian
ar,exact,pre_advance,A,2018:Q1:pre_advance:exact,2018-04-26,2018:Q1,2.521705903866155,2.3176,0.204105903866155,52,2.943864019740854,1.715769221002887,-1.4658756405805415,0.41064164076393145,0.4526539853970882,0.07081836250172979,0.9119973323067445,0.05633687912244569,False,True,False,0.8059366828632681,4.237475124869042,True,-0.3004833223121457,5.343895130044456,True,expanding_residual_calibrated_gaussian
ar,exact,pre_advance,A,2018:Q2:pre_advance:exact,2018-07-26,2018:Q2,2.402980205987432,4.0595,-1.656519794012568,53,2.8876436789811963,1.6993068230844,-1.9242968362727393,0.9947853267204563,0.8351754441421827,0.07866709845943698,0.9025810264817616,0.06278720436213236,False,True,False,0.7036733829030319,4.102287029071832,True,-0.39213078526632694,5.19809119724119,True,expanding_residual_calibrated_gaussian
ar,exact,pre_advance,A,2018:Q3:pre_advance:exact,2018-10-25,2018:Q3,3.274571011217704,3.5002,-0.2256289887822959,54,2.907391197543999,1.7051073859273493,-1.4613216284670016,0.4103686792647279,0.5526365346163433,0.027400632864448552,0.9643179749282076,0.020787809829446623,False,True,False,1.5694636252903547,4.979678397145054,True,0.4699189431333597,6.079223079302048,True,expanding_residual_calibrated_gaussian
ar,exact,pre_advance,A,2018:Q4:pre_advance:exact,2019-02-27,2018:Q4,2.9985102945576747,2.5878,0.4107102945576746,55,2.8587382867840057,1.6907803780455952,-1.4736317587680454,0.43473332780624346,0.40403691033591765,0.03807728906528913,0.9510538713423635,0.02926307481686971,False,True,False,1.3077299165120795,4.68929067260327,True,0.21742405735099624,5.779596531764353,True,expanding_residual_calibrated_gaussian
ar,exact,pre_advance,A,2019:Q1:pre_advance:exact,2019-04-25,2019:Q1,2.544004133182678,3.1705,-0.6264958668173222,56,2.8069848115477334,1.6754058647228538,-1.5049083324872687,0.4839200868205297,0.6457743224968071,0.06445169312501288,0.9191034711239144,0.05073019079962248,False,True,False,0.8685982684598241,4.219409997905531,True,-0.21179328002247555,5.299801546387831,True,expanding_residual_calibrated_gaussian
ar,exact,pre_advance,A,2019:Q2:pre_advance:exact,2019-07-25,2019:Q2,2.835856491574643,2.055,0.7808564915746428,57,2.771946057165722,1.6649162312758328,-1.5386968802758738,0.5325655085620905,0.3195325041558791,0.04425570770700167,0.943309395839188,0.03411922283744698,False,True,False,1.1709402602988102,4.500772722850476,True,0.09731298999021343,5.574399993159073,True,expanding_residual_calibrated_gaussian
ar,exact,pre_advance,A,2019:Q3:pre_advance:exact,2019-10-29,2019:Q3,2.279256097331871,1.9188,0.3604560973318711,58,2.7275624297015812,1.6515333571265163,-1.4444604098954321,0.4172164388608401,0.4136150555658086,0.08378026701560848,0.8959821659278492,0.06665393798195067,False,True,False,0.6277227402053549,3.9307894544583872,True,-0.43727453516902015,4.995786729832762,True,expanding_residual_calibrated_gaussian
ar,exact,pre_advance,A,2019:Q4:pre_advance:exact,2020-01-29,2019:Q4,2.2100311607376257,2.0808,0.1292311607376257,59,2.680612384847237,1.6372575804824472,-1.4150762574308364,0.38668613504341154,0.4685435627484572,0.08853410739511282,0.890216759598166,0.07051142821411967,False,True,False,0.5727735802551785,3.8472887412200727,True,-0.48301790877271955,4.903080230247971,True,expanding_residual_calibrated_gaussian
ar,exact,pre_advance,A,2020:Q1:pre_advance:exact,2020-04-28,2020:Q1,2.28970723879245,-4.7832,7.0729072387924505,60,2.635632089106794,1.6234629928356217,-10.893826302224351,6.156970831523464,6.6025333201394534e-06,0.07921307189566448,0.9009861689377962,0.0625667437412033,True,False,True,0.6662442459568285,3.913170231628072,False,-0.380651753194714,4.960066230779614,False,expanding_residual_calibrated_gaussian
ar,exact,pre_advance,A,2020:Q2:pre_advance:exact,2020-07-29,2020:Q2,-1.1573964624978357,-32.9038,31.74640353750216,61,3.345599775455977,1.8290980770467113,-152.14360759215634,30.714445455145174,8.835279884833756e-68,0.7365577306964207,0.22900960241422919,0.6996608871588548,True,False,True,-2.9864945395445472,0.6717016145488757,False,-4.165995068578082,1.8512021435824109,False,expanding_residual_calibrated_gaussian
ar,exact,pre_advance,A,2020:Q3:pre_advance:exact,2020-10-28,2020:Q3,-19.53626137751003,33.0826,-52.61886137751003,62,19.136400114571018,4.374517129303647,-74.73709154843264,50.150804380105676,1.0,0.9999960138059631,3.2163633963966376e-06,0.9999950696285658,False,True,False,-23.910778506813678,-15.161744248206382,False,-26.731701743806475,-12.340821011213585,False,expanding_residual_calibrated_gaussian
ar,exact,pre_advance,A,2020:Q4:pre_advance:exact,2021-01-27,2020:Q4,3.457490434452062,4.0124,-0.5549095655479386,63,64.30627354376193,8.019119249877878,-3.0031613334562524,1.8893406891711202,0.5275841191092588,0.333177515082121,0.6577078622428261,0.32416037363878014,False,True,False,-4.561628815425816,11.47660968432994,True,-9.732786948665936,16.64776781757006,True,expanding_residual_calibrated_gaussian
ar,exact,pre_advance,A,2021:Q1:pre_advance:exact,2021-04-28,2021:Q1,2.517835158921702,6.3877,-3.869864841078298,64,63.29141964807377,7.955590465080123,-3.1111221394514055,2.59569820769875,0.686670039273614,0.37581672215212425,0.6146069191038054,0.3663162497343696,False,True,False,-5.4377553061584205,10.473425624001825,True,-10.567946672105887,15.603616989949291,True,expanding_residual_calibrated_gaussian
ar,exact,pre_advance,A,2021:Q2:pre_advance:exact,2021-07-28,2021:Q2,2.6283318293943756,6.5026,-3.874268170605625,65,62.53875873814217,7.908145088334063,-3.106836996230824,2.5905121314016797,0.6879007061185308,0.3698096393745658,0.6206038817546385,0.36030339720398075,False,True,False,-5.279813258939687,10.53647691772844,True,-10.379409301610377,15.63607296039913,True,expanding_residual_calibrated_gaussian
ar,exact,pre_advance,A,2021:Q3:pre_advance:exact,2021-10-27,2021:Q3,2.66483833767749,2.0163,0.6485383376774898,66,61.80272230940047,7.861470747220298,-2.9843150188187564,1.858518217275356,0.46712622806191967,0.3673144594503881,0.6230625016584899,0.3577740454523747,False,True,False,-5.196632409542808,10.526309084897788,True,-10.266130334060716,15.595807009415697,True,expanding_residual_calibrated_gaussian
ar,exact,pre_advance,A,2021:Q4:pre_advance:exact,2022-01-26,2021:Q4,2.4744193783887756,6.8881,-4.413680621611224,67,60.874019799342555,7.802180451600857,-3.1333490855042707,2.7936771204692015,0.7142005720568398,0.37556694315197503,0.6146696335562817,0.36588256690233667,False,True,False,-5.3277610732120815,10.276599829989632,True,-10.35902543555677,15.307864192334321,True,expanding_residual_calibrated_gaussian
ar,exact,pre_advance,A,2022:Q1:pre_advance:exact,2022-04-27,2022:Q1,2.6927488969272595,-1.4142,4.10694889692726,68,60.2443091992003,7.761720762769059,-3.1081311593611467,2.6611437997305147,0.2983581009958107,0.3643231584705007,0.6259551676101248,0.3546879987169389,True,False,True,-5.0689718658417995,10.454469659696318,True,-10.074145651097975,15.459643444952494,True,expanding_residual_calibrated_gaussian
ar,exact,pre_advance,A,2022:Q2:pre_advance:exact,2022-07-27,2022:Q2,2.353392101797345,-0.9335,3.286892101797345,69,59.61769298487255,7.721249444544099,-3.053522560190814,2.35434247456258,0.3351652974299796,0.3802614469250219,0.6098360168047401,0.3704367784967097,True,False,True,-5.3678573427467535,10.074641546341443,True,-10.346933051658056,15.053717255252746,True,expanding_residual_calibrated_gaussian
ar,exact,pre_advance,A,2022:Q3:pre_advance:exact,2022-10-26,2022:Q3,2.3457353292059593,2.5656,-0.2198646707940406,70,58.913868942021246,7.67553704583733,-2.957387061581452,1.7962468189844694,0.5114260824871596,0.3799500859128036,0.6100905606347926,0.37006972208982414,False,True,False,-5.329801716631371,10.021272375043289,True,-10.27939961943996,14.97087027785188,True,expanding_residual_calibrated_gaussian
ar,exact,pre_advance,A,2022:Q4:pre_advance:exact,2023-01-25,2022:Q4,2.4849107524452863,2.891,-0.4060892475547137,71,58.07283911857936,7.620553727819217,-2.9512074096536622,1.7895161826807402,0.5212490502037153,0.3721818847943007,0.6178485930161306,0.3622973119925461,False,True,False,-5.13564297537393,10.105464480264503,True,-10.049784686136714,15.019606191027286,True,expanding_residual_calibrated_gaussian
ar,exact,pre_advance,A,2023:Q1:pre_advance:exact,2023-04-26,2023:Q1,2.49948989929296,1.0626,1.4368898992929602,72,57.257015484409756,7.566836557268153,-2.960743312179586,1.876859348323867,0.4246964576069971,0.37057846979924697,0.6193943499569937,0.36063844847537374,False,True,False,-5.067346657975193,10.066326456561113,True,-9.946848656478553,14.945828455064474,True,expanding_residual_calibrated_gaussian
ar,exact,pre_advance,A,2023:Q2:pre_advance:exact,2023-07-26,2023:Q2,2.421500795288499,2.4137,0.007800795288499,73,56.49094715662066,7.516045978878832,-2.9359792708069383,1.7564654240514936,0.49958594365822656,0.37365911988538314,0.6162198970581647,0.3636245286543548,False,True,False,-5.094545183590333,9.93754677416733,True,-9.941294693404377,14.784296283981373,True,expanding_residual_calibrated_gaussian
ar,exact,pre_advance,A,2023:Q3:pre_advance:exact,2023-10-25,2023:Q3,2.474420689104078,4.8777,-2.403279310895922,74,55.71709994984977,7.464388786086223,-2.9809131323000986,2.0504421678884057,0.6262607693884414,0.37013464440846133,0.6197037683852111,0.3600629083063793,False,True,False,-4.989968096982145,9.9388094751903,True,-9.803406278665744,14.752247656873898,True,expanding_residual_calibrated_gaussian
ar,exact,pre_advance,A,2023:Q4:pre_advance:exact,2024-01-24,2023:Q4,2.581299805571821,3.28,-0.698700194428179,75,55.04103628103194,7.418964636728763,-2.9274127528529807,1.7600065461640173,0.5375159560630252,0.36394539330005304,0.6258852108054381,0.3538709300695516,False,True,False,-4.837664831156943,10.000264442300583,True,-9.621811085376196,14.784410696519837,True,expanding_residual_calibrated_gaussian
ar,exact,pre_advance,A,2024:Q1:pre_advance:exact,2024-04-24,2024:Q1,2.5220660619756323,1.5897,0.9323660619756324,76,54.31296582795085,7.369733090685907,-2.924322775855939,1.769264698780078,0.4496629822634348,0.36609287157183,0.6236500872469276,0.35593064240710726,False,True,False,-4.8476670287102746,9.89179915266154,True,-9.600066141903364,14.644198265854628,True,expanding_residual_calibrated_gaussian
ar,exact,pre_advance,A,2024:Q2:pre_advance:exact,2024-07-24,2024:Q2,2.451373639880469,2.8401,-0.3887263601195312,77,53.61067512455052,7.321931106241749,-2.9112219492912583,1.7193298610216334,0.5211701745658994,0.36888843846708985,0.6207623429741119,0.35863342721567004,False,True,False,-4.87055746636128,9.773304746122218,True,-9.592131296510077,14.494878576271015,True,expanding_residual_calibrated_gaussian
ar,exact,pre_advance,A,2024:Q3:pre_advance:exact,2024-10-29,2024:Q3,2.5022415996938236,2.8248,-0.3225584003061765,78,52.916079857816854,7.274343946901112,-2.9042752661503264,1.7056827239719232,0.5176840726628267,0.36543000347403526,0.6241838835097416,0.3551416468936842,False,True,False,-4.772102347207289,9.776585546594935,True,-9.462989425058959,14.467472624446605,True,expanding_residual_calibrated_gaussian
ar,exact,pre_advance,A,2024:Q4:pre_advance:exact,2025-01-29,2024:Q4,2.5030214835002664,2.2512,0.2518214835002665,79,52.2387162218325,7.227635589999851,-2.8974574524118184,1.692562033266057,0.48610307428043215,0.36455388925355237,0.6250006440628074,0.3542080371899503,False,True,False,-4.724614106499585,9.730657073500117,True,-9.385381130994533,14.391424097995065,True,expanding_residual_calibrated_gaussian
ar,exact,pre_second,S,2008:Q1:pre_second:exact,2008-05-28,2008:Q1,1.8381016040495,0.9006,0.9375016040495002,12,3.304209763653857,1.8177485424705633,-1.6495356090558262,0.6135287131880816,0.3030149380733223,0.15596111107507582,0.816251198638606,0.1310964607091682,False,True,False,0.020353061578936682,3.6558501465200632,True,-1.1518286789189582,4.828031887017958,True,expanding_residual_calibrated_gaussian
ar,exact,pre_second,S,2008:Q2:pre_second:exact,2008-08-27,2008:Q2,1.951269978145791,3.2784,-1.327130021854209,13,3.091534138638345,1.7582758994646843,-1.768126641864077,0.7925786636148766,0.7748126656162908,0.13355052947403034,0.840378683119631,0.11056836807234625,False,True,False,0.19299407868110663,3.7095458776104753,True,-0.940836512270057,4.8433764685616385,True,expanding_residual_calibrated_gaussian
ar,exact,pre_second,S,2008:Q3:pre_second:exact,2008-11-24,2008:Q3,3.007448730230653,-0.514,3.521448730230653,14,3.000077522209144,1.732073186158467,-3.534971052282944,2.571136968195867,0.021022063832782743,0.04125284799808429,0.9474762027140398,0.03202745611899163,True,False,True,1.275375544072186,4.73952191638912,False,0.15844186783250613,5.8564555926288,False,expanding_residual_calibrated_gaussian
ar,exact,pre_second,S,2008:Q4:pre_second:exact,2009-02-26,2008:Q4,1.3219071833182274,-6.2481,7.570007183318228,15,3.6115345203047347,1.9004037782283887,-9.494614355690125,6.497848398924705,3.397274018822046e-05,0.24334193855524613,0.7225226601607225,0.2116139946515808,True,False,True,-0.5784965949101613,3.222310961546616,False,-1.803978863973019,4.447793230609474,False,expanding_residual_calibrated_gaussian
ar,exact,pre_second,S,2009:Q1:pre_second:exact,2009-05-28,2009:Q1,-1.3611884143013386,-5.7192,4.358011585698661,16,6.7318810049917435,2.5945868659560705,-3.2829867999140325,2.993878269992456,0.0465122005856159,0.700078487435909,0.2736836537534737,0.6727583681059592,True,False,True,-3.9557752802574093,1.2333984516547318,False,-5.628904031209834,2.9065272026071574,False,expanding_residual_calibrated_gaussian
ar,exact,pre_second,S,2009:Q2:pre_second:exact,2009-08-26,2009:Q2,-1.3183165422304222,-1.0143,-0.3040165422304222,17,7.10041101755131,2.6646596438478425,-1.9055233698331482,0.6365402470339186,0.5454175969333341,0.6896085437691045,0.2844075080140356,0.6626420514577412,True,False,True,-3.9829761860782646,1.3463431016174203,True,-5.701291622004764,3.0646585375439197,True,expanding_residual_calibrated_gaussian
ar,exact,pre_second,S,2009:Q3:pre_second:exact,2009-11-23,2009:Q3,0.9119092400929604,2.7817,-1.8697907599070396,18,6.76468349879822,2.600900516897603,-2.133205809698762,1.122118672439822,0.7638991319515009,0.3629393934196308,0.6078487300545188,0.334504195102956,False,True,False,-1.688991276804643,3.5128097569905634,True,-3.3661914084660207,5.190009888651941,True,expanding_residual_calibrated_gaussian
ar,exact,pre_second,S,2009:Q4:pre_second:exact,2010-02-25,2009:Q4,2.711577306657434,5.9271,-3.2155226933425665,19,6.776196456341641,2.6031128397250933,-2.638580866536344,2.0184513419153145,0.8916332314154084,0.1487829966192342,0.832686550767816,0.13167711438839202,False,True,False,0.10846446693234046,5.314690146382527,False,-1.5701622891283327,6.9933169024432,True,expanding_residual_calibrated_gaussian
ar,exact,pre_second,S,2010:Q1:pre_second:exact,2010-05-26,2010:Q1,4.202287844515274,3.0364,1.1658878445152738,20,7.186207984586933,2.6807103507441705,-1.9995969648456877,0.8256288874626185,0.3318111557357625,0.05848698171601686,0.932280786043051,0.05027330348123008,False,True,False,1.5215774937711033,6.882998195259445,True,-0.20708829871262857,8.611663987743176,True,expanding_residual_calibrated_gaussian
ar,exact,pre_second,S,2010:Q2:pre_second:exact,2010-08-26,2010:Q2,2.8418836545517863,1.6141,1.2277836545517862,21,6.847731784414786,2.6168171094699733,-1.9909667596229628,0.8372281427840318,0.3194670208260475,0.13873778230512107,0.8436514874696357,0.12252910735060951,False,True,False,0.225066545081813,5.45870076402176,True,-1.4623974590285673,7.14616476813214,True,expanding_residual_calibrated_gaussian
ar,exact,pre_second,S,2010:Q3:pre_second:exact,2010-11-22,2010:Q3,2.172028370130922,2.5245,-0.3524716298690782,22,6.543406408902784,2.558008289451538,-1.8676607165687649,0.6171387484643684,0.5547973726905152,0.1979102660304069,0.7796238228817705,0.17688668738372462,False,True,False,-0.3859799193206159,4.73003665958246,True,-2.0355208425453717,6.379577582807215,True,expanding_residual_calibrated_gaussian
ar,exact,pre_second,S,2010:Q4:pre_second:exact,2011-02-24,2010:Q4,2.59833864390331,2.788,-0.18966135609669,23,6.282767110652642,2.5065448551048597,-1.8407064922627001,0.5914894342884839,0.5301577665835604,0.1499561115155933,0.8306736002302579,0.1321227484035657,False,True,False,0.09179378879845013,5.104883499008169,True,-1.5245607521324707,6.72123803993909,True,expanding_residual_calibrated_gaussian
ar,exact,pre_second,S,2011:Q1:pre_second:exact,2011-05-25,2011:Q1,2.7221507081709753,1.8421,0.8800507081709752,24,6.031026650863947,2.4558148649407485,-1.8816059003081482,0.698396547751081,0.36003926240729234,0.1338335215679235,0.8477925330144012,0.11704472197251883,False,True,False,0.26633584323022674,5.177965573111724,True,-1.3173052795481546,6.761606695890105,True,expanding_residual_calibrated_gaussian
ar,exact,pre_second,S,2011:Q2:pre_second:exact,2011-08-25,2011:Q2,2.276660175704502,0.9894,1.2872601757045028,25,5.785587338887749,2.4053247886486657,-1.9398274974900003,0.8305690396786081,0.2962657939518107,0.17194466374833167,0.806030099491287,0.15158545844792234,False,True,False,-0.12866461294416354,4.681984964353168,True,-1.679747026900539,6.233067378309544,True,expanding_residual_calibrated_gaussian
ar,exact,pre_second,S,2011:Q3:pre_second:exact,2011-11-21,2011:Q3,1.871466338894683,2.0041,-0.1326336611053171,26,5.577231886335411,2.3616163715420444,-1.779861919496489,0.5548688257112117,0.5223937183798117,0.2140487423420943,0.7604539936205733,0.19020551251329043,False,True,False,-0.49015003264736134,4.233082710436728,True,-2.0130469153042245,5.75597959309359,True,expanding_residual_calibrated_gaussian
ar,exact,pre_second,S,2011:Q4:pre_second:exact,2012-02-28,2011:Q4,2.345482674811921,2.9822,-0.6367173251880791,27,5.379609604375541,2.3193985436693585,-1.797926582999094,0.6113284949291508,0.6081568255617524,0.1559493341009236,0.8225214219341361,0.13621683033142226,False,True,False,0.026084131142562583,4.66488121848128,True,-1.4695884320885857,6.160553781712428,True,expanding_residual_calibrated_gaussian
ar,exact,pre_second,S,2012:Q1:pre_second:exact,2012-05-30,2012:Q1,2.8049197978622873,1.8596,0.9453197978622874,28,5.2279514599243715,2.2864713993235015,-1.831414797672409,0.6880732747746164,0.33964196648981193,0.10995902357866849,0.8727057724823324,0.09438657878851808,False,True,False,0.5184483985387858,5.091391197185789,True,-0.9559909762357819,6.5658305719603565,True,expanding_residual_calibrated_gaussian
ar,exact,pre_second,S,2012:Q2:pre_second:exact,2012-08-28,2012:Q2,2.2767467137588673,1.7318,0.5449467137588673,29,5.048822303375428,2.246958456085788,-1.7579255615672302,0.5775717677993946,0.404186156990201,0.15546867535228673,0.8223213783306255,0.13517294528723536,False,True,False,0.029788257673079244,4.523705169844655,True,-1.4191710523431214,5.972664479860856,True,expanding_residual_calibrated_gaussian
ar,exact,pre_second,S,2012:Q3:pre_second:exact,2012-11-28,2012:Q3,2.2140696912034468,2.6717,-0.4576303087965532,30,4.874816545370914,2.207898671898444,-1.7324601159717619,0.5536807529096986,0.5821003489048078,0.1579798971780051,0.8191712008791655,0.1371137498215743,False,True,False,0.006171019305002634,4.421968363101891,True,-1.4176004472100474,5.8457398296169405,True,expanding_residual_calibrated_gaussian
ar,exact,pre_second,S,2012:Q4:pre_second:exact,2013-02-27,2012:Q4,2.654621351243617,0.126,2.528621351243617,31,4.741552949974671,2.1775107232743243,-2.3713647486981646,1.5644866661644716,0.12277133464181722,0.1114015489339953,0.870183774990696,0.09493626790940463,False,False,False,0.4771106279692927,4.832132074517942,False,-0.9270650596598786,6.236307762147113,True,expanding_residual_calibrated_gaussian
ar,exact,pre_second,S,2013:Q1:pre_second:exact,2013-05-29,2013:Q1,1.4551150027422275,2.3862,-0.9310849972577724,32,4.721862496428029,2.172984697697623,-1.786838637730395,0.6645838111918736,0.665849910278892,0.2515440167263198,0.7182327475678572,0.22312605439748065,False,True,False,-0.7178696949553953,3.6280997004398503,True,-2.1191267585757556,5.029356764060211,True,expanding_residual_calibrated_gaussian
ar,exact,pre_second,S,2013:Q2:pre_second:exact,2013-08-28,2013:Q2,2.51339167169826,2.5157,-0.0023083283017397,33,4.638826915345217,2.1537936102015944,-1.6861698646812564,0.5033317357117632,0.5004275663071676,0.12161319797992541,0.8586112711048209,0.10386720139444013,False,True,False,0.3595980614966656,4.6671852818998545,True,-1.0292835597467378,6.0560669031432575,True,expanding_residual_calibrated_gaussian
ar,exact,pre_second,S,2013:Q3:pre_second:exact,2013-12-04,2013:Q3,2.573589762776343,3.6013,-1.027710237223657,34,4.505209037868773,2.122547770456244,-1.7887742499304786,0.6907548133202747,0.685873452374759,0.11266046802728602,0.86827498370715,0.09565278014007982,False,True,False,0.451041992320099,4.696137533232587,True,-0.917690635836371,6.064870161389058,True,expanding_residual_calibrated_gaussian
ar,exact,pre_second,S,2013:Q4:pre_second:exact,2014-02-27,2013:Q4,3.0834435760592567,2.3848,0.6986435760592569,35,4.436757474751733,2.1063611928517227,-1.718907146856658,0.5838538312348015,0.370064431121617,0.07161443636187545,0.9144881264106942,0.0595191786605194,False,True,False,0.9770823832075339,5.18980476891098,True,-0.38121227167272886,6.548099423791243,True,expanding_residual_calibrated_gaussian
ar,exact,pre_second,S,2014:Q1:pre_second:exact,2014-05-28,2014:Q1,2.5146017998112873,-0.9849,3.4995017998112874,36,4.312045560472793,2.0765465466665547,-3.0696799198787934,2.406659448948207,0.04597009357174046,0.11295656797228519,0.8674976345395449,0.09556094001197446,True,False,True,0.4380552531447326,4.591148346477842,False,-0.9010133190067497,5.930216918629324,False,expanding_residual_calibrated_gaussian
ar,exact,pre_second,S,2014:Q2:pre_second:exact,2014-08-27,2014:Q2,0.9300038699429224,4.1719,-3.2418961300570777,37,4.446187700577616,2.1085985157392138,-2.846861153346982,2.1656602211857767,0.9379102435542813,0.32958728505139867,0.6354050513559468,0.2960128611257576,False,True,False,-1.1785946457962915,3.038602385682136,False,-2.5383320464552144,4.398339786341059,True,expanding_residual_calibrated_gaussian
ar,exact,pre_second,S,2014:Q3:pre_second:exact,2014-11-24,2014:Q3,3.3350213277312344,3.8957,-0.5606786722687658,38,4.697884380167008,2.1674603526170917,-1.725952345525121,0.5640652328318094,0.6020589289596718,0.06194158869533467,0.9259679106234446,0.05145034428533876,False,True,False,1.1675609751141427,5.5024816803483265,True,-0.23013369454450583,6.900176350006975,True,expanding_residual_calibrated_gaussian
ar,exact,pre_second,S,2014:Q4:pre_second:exact,2015-02-26,2014:Q4,3.211600451818803,2.1924,1.019200451818803,39,4.598829162275808,2.144488088629967,-1.7947778848978437,0.6908430168119273,0.31729899802115114,0.06711768872126206,0.9198918831729551,0.05581948660752427,False,True,False,1.0671123631888362,5.35608854044877,True,-0.31576855871842824,6.738969462356034,True,expanding_residual_calibrated_gaussian
ar,exact,pre_second,S,2015:Q1:pre_second:exact,2015-05-28,2015:Q1,2.423930070614614,-0.7491,3.173030070614614,40,4.490708063381359,2.1191290813401054,-2.7909384214975375,2.1024079696925364,0.06715404232341965,0.1263464216811609,0.8530155634573665,0.10781881795899194,True,False,True,0.3048009892745087,4.543059151954719,False,-1.0617270848059994,5.909587226035228,True,expanding_residual_calibrated_gaussian
ar,exact,pre_second,S,2015:Q2:pre_second:exact,2015-08-26,2015:Q2,1.0554677852074028,3.6846,-2.6291322147925973,41,4.564801559163634,2.136539622652394,-2.4352604134988303,1.6488071143342147,0.8907555641685575,0.3106502450969455,0.655568576058495,0.27839457604061857,False,True,False,-1.0810718374449912,3.192007407859797,False,-2.458827162237917,4.569762732652723,True,expanding_residual_calibrated_gaussian
ar,exact,pre_second,S,2015:Q3:pre_second:exact,2015-11-23,2015:Q3,3.102158083063307,2.078,1.0241580830633072,42,4.683069410560816,2.164040066764203,-1.802903902937237,0.6955608231104463,0.3180131094246248,0.0758570608540916,0.9100533023172414,0.0635145455848868,False,True,False,0.9381180162991041,5.26619814982751,True,-0.45737106962209806,6.661687235748712,True,expanding_residual_calibrated_gaussian
ar,exact,pre_second,S,2015:Q4:pre_second:exact,2016-02-25,2015:Q4,2.365714589122175,1.0054,1.360314589122175,43,4.580560647368721,2.1402244385504807,-1.881839331831264,0.83392916882239,0.2625204222115026,0.1345022086945368,0.844209464917196,0.11530163172777716,False,True,False,0.22549015057169441,4.505939027672656,True,-1.1546413411177614,5.886070519362112,True,expanding_residual_calibrated_gaussian
ar,exact,pre_second,S,2016:Q1:pre_second:exact,2016-05-26,2016:Q1,1.870448790921132,0.8405,1.0299487909211318,44,4.494269440907831,2.1199692075376544,-1.7883564427262229,0.6912139930376896,0.31354315692459295,0.18880730344162014,0.7846396522318246,0.16437346338508352,False,True,False,-0.24952041661652236,3.9904179984587866,True,-1.616590249122617,5.357487830964881,True,expanding_residual_calibrated_gaussian
ar,exact,pre_second,S,2016:Q2:pre_second:exact,2016-08-25,2016:Q2,1.7888264267252798,1.0986,0.6902264267252798,45,4.3999080042970045,2.097595767610386,-1.7138692678237022,0.5799978040087006,0.37105668872202435,0.19688554084313897,0.7756102034681831,0.17152764058814313,False,True,False,-0.3087693408851062,3.886422194335666,True,-1.661411579506721,5.239064432957281,True,expanding_residual_calibrated_gaussian
ar,exact,pre_second,S,2016:Q3:pre_second:exact,2016-11-28,2016:Q3,1.9022122759722675,3.158,-1.2557877240277322,46,4.303372582222437,2.0744571777268472,-1.831866760875682,0.7791333523536569,0.7275291803021188,0.17957952422622672,0.7940509387676212,0.15543947537969,False,True,False,-0.17224490175457974,3.976669453699115,True,-1.5099661367672519,5.314390688711787,True,expanding_residual_calibrated_gaussian
ar,exact,pre_second,S,2016:Q4:pre_second:exact,2017-02-27,2016:Q4,2.8482294021316426,1.8565,0.9917294021316424,47,4.272206746110465,2.0669317226532824,-1.7601114136274463,0.669304239637303,0.3156821294343067,0.0841018316622873,0.8999447833638409,0.0701384629185083,False,True,False,0.7812976794783602,4.915161124784925,True,-0.5515707385356632,6.248029542798948,True,expanding_residual_calibrated_gaussian
ar,exact,pre_second,S,2017:Q1:pre_second:exact,2017-05-25,2017:Q1,2.250478790944618,1.1541,1.096378790944618,48,4.188115622234386,2.0464886078926474,-1.7785708206721924,0.7071331655567779,0.2960703121353436,0.13573619071920826,0.8418160735032209,0.11557407286366635,False,True,False,0.20399018305197059,4.296967398837266,True,-1.1156954182624723,5.616653000151708,True,expanding_residual_calibrated_gaussian
ar,exact,pre_second,S,2017:Q2:pre_second:exact,2017-08-29,2017:Q2,1.9246569674918943,3.0345,-1.1098430325081057,49,4.109870435507081,2.0272815382938507,-1.7754871303647581,0.7102808075021261,0.7079665073939452,0.17121413813803335,0.802538643409361,0.1473118134455629,False,True,False,-0.10262457080195642,3.951938505785745,True,-1.4099244236225057,5.259238358606295,True,expanding_residual_calibrated_gaussian
ar,exact,pre_second,S,2017:Q3:pre_second:exact,2017-11-28,2017:Q3,2.786856758565769,3.2952,-0.5083432414342308,50,4.0743831005089906,2.018510119000891,-1.6530101066774427,0.5225206609776694,0.5994179475205015,0.08369324277926693,0.9000027783258043,0.06947220967695282,False,True,False,0.7683466395648781,4.8053668775666605,True,-0.533296931711094,6.107010448842632,True,expanding_residual_calibrated_gaussian
ar,exact,pre_second,S,2017:Q4:pre_second:exact,2018-02-27,2017:Q4,2.908019031958297,2.536,0.3720190319582968,51,4.009593655895593,2.0023969775984964,-1.63054186223363,0.49544446945462106,0.42630595760177864,0.07321341347470067,0.9118744977297604,0.060313254122304795,False,True,False,0.9056220543598004,4.910416009556793,True,-0.38563089924125604,6.20166896315785,True,expanding_residual_calibrated_gaussian
ar,exact,pre_second,S,2018:Q1:pre_second:exact,2018-05-29,2018:Q1,2.5606774389034572,2.1741,0.3865774389034571,52,3.930985593324341,1.98267132760938,-1.6223918488511127,0.49331535435702767,0.42270505589321866,0.09826015975270581,0.8831054657614674,0.08190020327860563,False,True,False,0.5780061112940773,4.543348766512837,True,-0.7005266853675218,5.821881563174436,True,expanding_residual_calibrated_gaussian
ar,exact,pre_second,S,2018:Q2:pre_second:exact,2018-08-28,2018:Q2,2.3941416563330473,4.226,-1.8318583436669529,53,3.855391363440568,1.9635150530211292,-2.028871208554938,1.0952058082641445,0.824576709872539,0.11136249306342832,0.8681002964180127,0.09322196367811121,False,True,False,0.43062660331191815,4.357656709354177,True,-0.8355532002025692,5.623836512868664,True,expanding_residual_calibrated_gaussian
ar,exact,pre_second,S,2018:Q3:pre_second:exact,2018-11-27,2018:Q3,3.335983562584259,3.5046,-0.168616437415741,54,3.8745409383128675,1.9683853632642332,-1.599821143019535,0.4657606032295795,0.5341325679375231,0.04505841674096447,0.9444396000484798,0.03621642693730483,False,True,False,1.3675981993200257,5.304368925848492,True,0.0982777585808936,6.573689366587624,True,expanding_residual_calibrated_gaussian
ar,exact,pre_second,S,2019:Q1:pre_second:exact,2019-05-29,2019:Q1,3.0088930533858775,3.0658,-0.0569069466141223,55,3.8077654968763914,1.951349660331636,-1.5878850362158432,0.4566826400493124,0.5116326509474242,0.0615422840344879,0.924990119714276,0.050041848175002866,False,True,False,1.0575433930542415,4.960242713717514,True,-0.20079151286113728,6.218577619632892,True,expanding_residual_calibrated_gaussian
ar,exact,pre_second,S,2019:Q2:pre_second:exact,2019-08-28,2019:Q2,2.809602293515929,2.0379,0.7717022935159288,56,3.7414175729404975,1.9342744306174595,-1.6582562183236456,0.5732529427257962,0.3449605453110442,0.0731763816848352,0.9113536076778674,0.05986195878465245,False,True,False,0.8753278628984693,4.743876724133388,True,-0.37199601920469316,5.991200606236551,True,expanding_residual_calibrated_gaussian
ar,exact,pre_second,S,2019:Q3:pre_second:exact,2019-11-26,2019:Q3,2.3385524286308836,2.1238,0.2147524286308835,57,3.6779094821424123,1.9177876530373252,-1.5763804673760504,0.4577610203843489,0.45541992843570833,0.11134599088473904,0.8675992769847535,0.09280334915139779,False,True,False,0.4207647755935584,4.256340081668209,True,-0.8159275481903121,5.493032405452079,True,expanding_residual_calibrated_gaussian
ar,exact,pre_second,S,2019:Q4:pre_second:exact,2020-02-26,2019:Q4,2.3765756189143223,2.0956,0.2809756189143222,58,3.613679118596389,1.900967942548319,-1.5722251294286016,0.46078465639924393,0.44124769804997377,0.10561464154007846,0.8738918611176965,0.08764476747721364,False,True,False,0.4756076763660033,4.277543561462641,True,-0.7502383961047578,5.503389633933402,True,expanding_residual_calibrated_gaussian
ar,exact,pre_second,S,2020:Q1:pre_second:exact,2020-05-27,2020:Q1,2.362411208093053,-5.0477,7.410111208093053,59,3.5514398547727297,1.8845264271887328,-9.28324694126197,6.346917342106434,4.210677881977807e-05,0.10499671834802637,0.8744034016553013,0.0869607066962485,True,False,True,0.4778847809043201,4.246937635281785,False,-0.7373589207542337,5.46218133694034,False,expanding_residual_calibrated_gaussian
ar,exact,pre_second,S,2020:Q2:pre_second:exact,2020-08-26,2020:Q2,-0.9346260921233108,-31.7041,30.76947390787669,60,4.323856707721545,2.079388541788558,-111.1320369437496,29.596304552451027,7.616571842576773e-50,0.6734542541419196,0.29265199521764007,0.6380642834630101,True,False,True,-3.0140146339118687,1.1447624496652469,False,-4.354915876925553,2.4856636926789313,False,expanding_residual_calibrated_gaussian
ar,exact,pre_second,S,2020:Q3:pre_second:exact,2020-11-24,2020:Q3,-16.980873036800336,33.0683,-50.04917303680034,61,19.311951106301517,4.39453650642494,-67.25343439155115,47.569821315355036,1.0,0.9999442473472571,4.622483928906629e-05,0.999932887969733,False,True,False,-21.375409543225274,-12.586336530375396,False,-24.20924234816405,-9.752503725436622,False,expanding_residual_calibrated_gaussian
ar,exact,pre_second,S,2020:Q4:pre_second:exact,2021-02-24,2020:Q4,4.13378390817175,4.0922,0.0415839081717495,62,60.956781845770685,7.807482426862752,-2.9740352765704916,1.8246577867254665,0.49787517924321006,0.29824167099219545,0.6928158804845046,0.28941968355008396,False,True,False,-3.673698518691002,11.941266335034502,True,-8.70838187901333,16.975949695356828,True,expanding_residual_calibrated_gaussian
ar,exact,pre_second,S,2021:Q1:pre_second:exact,2021-05-26,2021:Q1,2.632024537193422,6.3989,-3.766875462806578,63,59.97374383828154,7.744271679007752,-3.0841883214869292,2.526676995688069,0.686661029387566,0.3669782397809168,0.6232553305868875,0.35729715277414675,False,True,False,-5.112247141814329,10.376296216201174,True,-10.106168822120045,15.370217896506889,True,expanding_residual_calibrated_gaussian
ar,exact,pre_second,S,2021:Q2:pre_second:exact,2021-08-25,2021:Q2,2.773123588016036,6.5554,-3.782276411983964,64,59.25937714105557,7.6980112458384715,-3.080603934186248,2.5257997722150383,0.6884040438775718,0.35933421984289404,0.6309076452073886,0.3496669828011003,False,True,False,-4.924887657822436,10.471134833854506,True,-9.888978130014594,15.435225306046666,True,expanding_residual_calibrated_gaussian
ar,exact,pre_second,S,2021:Q3:pre_second:exact,2021-11-23,2021:Q3,2.8119056295927063,2.1044,0.7075056295927062,65,58.56196060193394,7.65257868969238,-2.9582550078756187,1.81444591706497,0.46316897391086886,0.3566433674324423,0.6335650863246172,0.34694539583081113,False,True,False,-4.8406730600996735,10.464484319285086,True,-9.775466183679349,15.399277442864761,True,expanding_residual_calibrated_gaussian
ar,exact,pre_second,S,2021:Q4:pre_second:exact,2022-02-23,2021:Q4,2.558768980923291,6.9874,-4.428631019076709,66,57.66832772018534,7.593966534044336,-3.1163406324916445,2.776773952815337,0.7201131185414078,0.3680781917466355,0.6219517901673521,0.3581962519985478,False,True,False,-5.035197553121044,10.152735514967627,True,-9.932194415547634,15.049732377394218,True,expanding_residual_calibrated_gaussian
ar,exact,pre_second,S,2022:Q1:pre_second:exact,2022-05-25,2022:Q1,2.8477678735606102,-1.5101,4.35786787356061,67,57.09033518273931,7.555814660428041,-3.107580186586022,2.741571425020779,0.2820518607499102,0.3531248789872678,0.6369911850928891,0.3433390528112832,True,False,True,-4.708046786867431,10.40358253398865,True,-9.58044127521756,15.275977022338779,True,expanding_residual_calibrated_gaussian
ar,exact,pre_second,S,2022:Q2:pre_second:exact,2022-08-24,2022:Q2,2.3786224080862364,-0.5746,2.953222408086236,68,56.523122218283795,7.518186098939278,-3.01341347457855,2.2138978039644717,0.34722972605164926,0.3758561044536892,0.6140078494781693,0.36580500500514457,True,False,True,-5.139563690853041,9.896808507025515,True,-9.987693264850174,14.744938081022648,True,expanding_residual_calibrated_gaussian
ar,exact,pre_second,S,2022:Q3:pre_second:exact,2022-11-29,2022:Q3,2.40397293190773,2.9288,-0.5248270680922698,69,55.81648741557375,7.471043261524708,-2.9324405850084077,1.7606474984364289,0.5280019299496176,0.3738126936641708,0.6160038356969916,0.36371655995648344,False,True,False,-5.067070329616978,9.875016193432439,True,-9.884799673922544,14.692745537738002,True,expanding_residual_calibrated_gaussian
ar,exact,pre_second,S,2022:Q4:pre_second:exact,2023-02-22,2022:Q4,2.593443487540139,2.6752,-0.0817565124598607,70,55.01250135730697,7.417041280544889,-2.922779512594992,1.7336848105688265,0.5043973692216946,0.3632968959639617,0.6265369494230744,0.3532261373442823,False,True,False,-4.823597793004749,10.010484768085028,True,-9.606503764012913,14.79339073909319,True,expanding_residual_calibrated_gaussian
ar,exact,pre_second,S,2023:Q1:pre_second:exact,2023-05-24,2023:Q1,2.5803446686297553,1.2725,1.3078446686297551,71,54.22687313132436,7.363889809830424,-2.931298143329381,1.8133261225927166,0.42951761098909574,0.36301734345129055,0.62674535942822,0.3528770050732153,False,True,False,-4.783545141200669,9.94423447846018,True,-9.532176193540806,14.692865530800315,True,expanding_residual_calibrated_gaussian
ar,exact,pre_second,S,2023:Q2:pre_second:exact,2023-08-29,2023:Q2,2.5001869441568183,2.0608,0.4393869441568183,72,53.48497069073034,7.313341964569299,-2.9104436939521725,1.7196195748669703,0.47604588544035065,0.366225664074732,0.6234366567696992,0.3559841767678642,False,True,False,-4.813155020412481,9.813528908726118,True,-9.5291901114014,14.529563999715036,True,expanding_residual_calibrated_gaussian
ar,exact,pre_second,S,2023:Q3:pre_second:exact,2023-11-28,2023:Q3,2.54002161309456,5.154,-2.61397838690544,73,52.74398478887117,7.262505407149186,-2.966437449830733,2.0685532158458217,0.6405494773616173,0.3632652119963525,0.626351617532529,0.3529815608365722,False,True,False,-4.722483794054627,9.802527020243746,True,-9.405736746609458,14.485779972798577,True,expanding_residual_calibrated_gaussian
ar,exact,pre_second,S,2023:Q4:pre_second:exact,2024-02-27,2023:Q4,2.715098728108144,3.209,-0.4939012718918558,74,52.1192379854214,7.219365483574121,-2.8980457951038527,1.700604241792368,0.5272717187411733,0.35342666424418795,0.6362234312213522,0.343184026634103,False,True,False,-4.504266755465977,9.934464211682265,True,-9.159700771837018,14.589898228053306,True,expanding_residual_calibrated_gaussian
ar,exact,pre_second,S,2024:Q1:pre_second:exact,2024-05-29,2024:Q1,2.6145769497952154,1.2492,1.3653769497952153,75,51.41871770058703,7.170684604735243,-2.907067832208979,1.7791588445034805,0.4244935544084376,0.35769744125877745,0.6318393734139011,0.3473401178175098,False,True,False,-4.5561076549400275,9.785261554530457,True,-9.180149630028634,14.409303529619063,True,expanding_residual_calibrated_gaussian
ar,exact,pre_second,S,2024:Q2:pre_second:exact,2024-08-28,2024:Q2,2.5047589741330625,2.9514,-0.4466410258669375,76,50.75651408376563,7.124360608768034,-2.8844236650172377,1.6760943591041237,0.5249941501541715,0.36257788232350663,0.6268432010721867,0.352102856149621,False,True,False,-4.6196016346349715,9.629119582901096,True,-9.213771412909235,14.223289361175361,True,expanding_residual_calibrated_gaussian
ar,exact,pre_second,S,2024:Q3:pre_second:exact,2024-11-26,2024:Q3,2.596794812492885,2.8336,-0.2368051875071155,77,50.091867715045325,7.077560859155174,-2.8764276086641547,1.6571510154783378,0.5133455550420505,0.35684481725638073,0.6325621674192969,0.34636105705001174,False,True,False,-4.480766046662289,9.674355671648058,True,-9.04475683665828,14.23834646164405,True,expanding_residual_calibrated_gaussian
ar,exact,pre_second,S,2024:Q4:pre_second:exact,2025-02-26,2024:Q4,2.5915876882913262,2.3451,0.2464876882913262,78,49.44233123244555,7.031524104519983,-2.8699564302049363,1.6466785903222874,0.48601807753874837,0.35622525129930804,0.6331182962761741,0.3456799224133551,False,True,False,-4.439936416228656,9.62311179281131,True,-8.97424023802507,14.157415614607723,True,expanding_residual_calibrated_gaussian
ar,exact,pre_third,T,2008:Q1:pre_third:exact,2008-06-25,2008:Q1,1.8981267139453208,0.9593,0.9388267139453208,12,3.5100702088074716,1.8735181367703573,-1.6723089703412373,0.6216830826374289,0.30814910087672487,0.15549785190528742,0.8176336597104648,0.13138117454280887,False,True,False,0.024608577174963564,3.771644850715678,True,-1.1835363884807657,4.979789816371407,True,expanding_residual_calibrated_gaussian
ar,exact,pre_third,T,2008:Q2:pre_third:exact,2008-09-25,2008:Q2,2.052042151374732,2.8253,-0.7732578486252679,13,3.2745566748105346,1.8095736168530239,-1.603328810585356,0.5527388147609634,0.6654250251784833,0.12839893490689974,0.8469568795516274,0.10665497590868843,False,True,False,0.24246853452170813,3.8616157682277557,True,-0.9244415755416582,5.028525878291122,True,expanding_residual_calibrated_gaussian
ar,exact,pre_third,T,2008:Q3:pre_third:exact,2008-12-22,2008:Q3,2.8491060294311596,-0.5106,3.35970602943116,14,3.0828020887903356,1.7557910151240481,-3.3125990494311477,2.4065847633272144,0.027842039596292518,0.05232775328721063,0.9343227598508047,0.041228932333648355,True,False,True,1.0933150143071115,4.604897044555208,False,-0.03891318996443793,5.737125248826757,False,expanding_residual_calibrated_gaussian
ar,exact,pre_third,T,2008:Q4:pre_third:exact,2009-03-25,2008:Q4,1.4150183712702842,-6.3424,7.757418371270283,15,3.5802491821516464,1.8921546401263418,-9.960754103421419,6.68990172872797,2.0677124025036713e-05,0.22728001840406165,0.7396071739837926,0.196681612898675,True,False,True,-0.47713626885605764,3.307173011396626,False,-1.697299051294587,4.527335793835155,False,expanding_residual_calibrated_gaussian
ar,exact,pre_third,T,2009:Q1:pre_third:exact,2009-06-24,2009:Q1,-1.2286206115619414,-5.4932,4.264579388438058,16,6.819737857474113,2.611462781177268,-3.212231486522856,2.9034690640415244,0.05123205543964443,0.6809911504204096,0.2921695736987586,0.6531676767769508,True,False,True,-3.8400833927392095,1.3828421696153268,False,-5.5240946388301495,3.0668534157062672,True,expanding_residual_calibrated_gaussian
ar,exact,pre_third,T,2009:Q2:pre_third:exact,2009-09-29,2009:Q2,-1.0433342002787118,-0.7376,-0.3057342002787118,17,7.114445685047148,2.6672918260001377,-1.906571461523741,0.6372980724719013,0.5456282054397161,0.6521600050136939,0.320557272522046,0.624065615171524,True,False,True,-3.7106260262788497,1.6239576257214259,True,-5.430638834413053,3.34397043385563,True,expanding_residual_calibrated_gaussian
ar,exact,pre_third,T,2009:Q3:pre_third:exact,2009-12-21,2009:Q3,1.13678560027087,2.2353,-1.09851439972913,18,6.786316455284148,2.6050559409126226,-1.965302026469288,0.7908990833034436,0.6633727168294787,0.33128173653704684,0.6404279325514891,0.303923045542454,False,True,False,-1.4682703406417525,3.7418415411834927,True,-3.148150112550737,5.421721313092477,True,expanding_residual_calibrated_gaussian
ar,exact,pre_third,T,2009:Q4:pre_third:exact,2010-03-25,2009:Q4,2.499469013049021,5.5541,-3.054630986950979,19,6.619260091719193,2.5727922752758707,-2.568750079262573,1.899379603998328,0.882441876003728,0.16564954911006188,0.8142759021466145,0.14703451200043202,False,True,False,-0.07332326222684982,5.072261288324892,False,-1.7323976923312259,6.731335718429268,True,expanding_residual_calibrated_gaussian
ar,exact,pre_third,T,2010:Q1:pre_third:exact,2010-06-24,2010:Q1,4.021714241679925,2.738,1.2837142416799252,20,7.011352003903093,2.6478957690783624,-2.0102219598929416,0.8623313147674009,0.31390718599324796,0.06440213700892596,0.925532343911764,0.055427072963214294,False,True,False,1.3738184726015628,6.669610010758287,True,-0.33368671787807713,8.377115201237928,True,expanding_residual_calibrated_gaussian
ar,exact,pre_third,T,2010:Q2:pre_third:exact,2010-09-29,2010:Q2,2.737857123658494,1.7189,1.018957123658494,21,6.682962526680541,2.585142651127891,-1.9463998643936335,0.7623198259219486,0.3467318437896306,0.14478306145349382,0.8368783197453381,0.12788642499675726,False,True,False,0.1527144725306031,5.3229997747863855,True,-1.5143241422361617,6.99003838955315,True,expanding_residual_calibrated_gaussian
ar,exact,pre_third,T,2010:Q3:pre_third:exact,2010-12-21,2010:Q3,2.271873694291353,2.5585,-0.2866263057086469,22,6.371470614860341,2.5241772154229465,-1.8513007579447693,0.6028580158637105,0.5452036769587973,0.18404808719588128,0.7941231773355545,0.16372107624570412,False,True,False,-0.2523035211315934,4.7960509097143,True,-1.8800283535653484,6.423775742148054,True,expanding_residual_calibrated_gaussian
ar,exact,pre_third,T,2010:Q4:pre_third:exact,2011-03-24,2010:Q4,2.6527118479510037,3.1144,-0.4616881520489961,23,6.1201038636700895,2.4738843674816513,-1.8421424732219276,0.6124087768638727,0.574022585929623,0.14179577153704664,0.8392649994901513,0.12442838486174328,False,True,False,0.17882748046935237,5.126596215432655,True,-1.4164658265597394,6.721889522461747,True,expanding_residual_calibrated_gaussian
ar,exact,pre_third,T,2011:Q1:pre_third:exact,2011-06-23,2011:Q1,2.906247560295678,1.9148,0.9914475602956778,24,5.901911060052949,2.4293849139345847,-1.8898520583866198,0.7269499248601123,0.3415977764341106,0.11579181073949113,0.8673527042307965,0.10051636386077874,False,True,False,0.4768626463610932,5.3356324742302625,True,-1.0897350266508137,6.90223014724217,True,expanding_residual_calibrated_gaussian
ar,exact,pre_third,T,2011:Q2:pre_third:exact,2011-09-28,2011:Q2,2.3593494542516096,1.3341,1.0252494542516095,25,5.663244559935649,2.37975724811075,-1.8787403964087128,0.7296739733183275,0.33329925577811825,0.16073918996826386,0.8178976501556364,0.14108293734609084,False,True,False,-0.020407793859140266,4.73910670236236,True,-1.555002886567412,6.273701795070631,True,expanding_residual_calibrated_gaussian
ar,exact,pre_third,T,2011:Q3:pre_third:exact,2011-12-21,2011:Q3,2.09108483688628,1.8145,0.2765848368862798,26,5.444242635329422,2.3332900881222254,-1.7732435543423493,0.558342588362473,0.4528204737335851,0.18507409239728778,0.7911678083799666,0.16307167562463723,False,True,False,-0.24220525123594516,4.424374925008506,True,-1.7468358272914823,5.929005501064043,True,expanding_residual_calibrated_gaussian
ar,exact,pre_third,T,2011:Q4:pre_third:exact,2012-03-28,2011:Q4,2.306414624086505,2.9546,-0.6481853759134952,27,5.238719256806519,2.2888248637251647,-1.7870769633988772,0.6076325124473816,0.6114865905561137,0.15680283932355166,0.8212930342305856,0.13674382926051734,False,True,False,0.01758976036134019,4.59523948781167,True,-1.4583672544685413,6.071196502641551,True,expanding_residual_calibrated_gaussian
ar,exact,pre_third,T,2012:Q1:pre_third:exact,2012-06-27,2012:Q1,2.8250791799918424,1.8717,0.9533791799918424,28,5.099259372337919,2.2581539744530086,-1.822610096664184,0.6859545219519676,0.3364416907662265,0.10545685377162858,0.8774815570407558,0.09018367027297262,False,True,False,0.5669252055388339,5.0832331544448515,True,-0.8892535751020709,6.539411935085756,True,expanding_residual_calibrated_gaussian
ar,exact,pre_third,T,2012:Q2:pre_third:exact,2012-09-26,2012:Q2,2.3309751359762823,1.2527,1.0782751359762823,29,4.922929339662395,2.218767527178635,-1.8339783571341235,0.723549039908501,0.3134909138436274,0.14672759319118558,0.8315810579344538,0.12699485878375938,False,True,False,0.11220760879764713,4.549742663154918,True,-1.318572678465645,5.98052295041821,True,expanding_residual_calibrated_gaussian
ar,exact,pre_third,T,2012:Q3:pre_third:exact,2012-12-19,2012:Q3,2.0450497447838485,3.106,-1.0609502552161514,30,4.762200718992449,2.1822467135941457,-1.8174757583448091,0.7117974499459017,0.6865778773909198,0.17434574177652631,0.8010790377407985,0.1517917520287884,False,True,False,-0.1371969688102972,4.227296458377994,True,-1.5444266769744126,5.634526166542109,True,expanding_residual_calibrated_gaussian
ar,exact,pre_third,T,2012:Q4:pre_third:exact,2013-03-27,2012:Q4,2.8880566086924917,0.3785,2.509556608692492,31,4.689816383749614,2.1655983893025073,-2.363076714360832,1.5519834946230657,0.12326309835466341,0.09116638640658883,0.8927439440966065,0.07693994895662035,False,True,False,0.7224582193899844,5.0536549979949985,False,-0.6740357564720036,6.450148973856987,True,expanding_residual_calibrated_gaussian
ar,exact,pre_third,T,2013:Q1:pre_third:exact,2013-06-25,2013:Q1,1.6450998607309542,1.7768,-0.1317001392690457,32,4.661927690877912,2.1591497611045676,-1.690513322390713,0.5077862524582363,0.5243189207814516,0.22305381061754564,0.7483451194786308,0.19640036000566996,False,True,False,-0.5140499003736134,3.8042496218355217,True,-1.9063854549532984,5.196585176415207,True,expanding_residual_calibrated_gaussian
ar,exact,pre_third,T,2013:Q2:pre_third:exact,2013-09-25,2013:Q2,2.2762634985802976,2.4817,-0.2054365014197023,33,4.531787470563653,2.1287995374303454,-1.679153214602705,0.5053927899592519,0.538439633310394,0.14247379884862155,0.8352995420282493,0.12237000308605035,False,True,False,0.1474639611499522,4.4050630360106435,True,-1.2253001416146225,5.777827138775217,True,expanding_residual_calibrated_gaussian
ar,exact,pre_third,T,2013:Q3:pre_third:exact,2013-12-19,2013:Q3,2.595015599395164,4.1341,-1.5390844006048363,34,4.411820207166881,2.100433337948834,-1.9295406538796382,0.9216718569769972,0.7681433586834443,0.10832841746138497,0.8729085705465134,0.09164630405555306,False,True,False,0.4945822614463298,4.695448937343998,True,-0.8598897946997632,6.04992099349009,True,expanding_residual_calibrated_gaussian
ar,exact,pre_third,T,2013:Q4:pre_third:exact,2014-03-26,2013:Q4,3.3472719765858563,2.6266,0.7206719765858565,35,4.405590758447082,2.098949918041658,-1.7193199197770754,0.5882706117522313,0.36566802891065764,0.055385589812589335,0.9331216286572207,0.04551185294165584,False,True,False,1.2483220585441983,5.446221894627515,True,-0.10519340889445994,6.799737362066173,True,expanding_residual_calibrated_gaussian
ar,exact,pre_third,T,2014:Q1:pre_third:exact,2014-06-24,2014:Q1,2.664644157211491,-2.9304,5.5950441572114915,36,4.281314748495994,2.0691338159954746,-5.302015548078992,4.431989638088186,0.0034249847897914335,0.09890664942336666,0.8832022127995006,0.08310799916190109,True,False,True,0.5955103412160163,4.733777973206966,False,-0.7387781046766055,6.068066419099587,False,expanding_residual_calibrated_gaussian
ar,exact,pre_third,T,2014:Q2:pre_third:exact,2014-09-25,2014:Q2,0.134288803462875,4.592,-4.457711196537124,37,4.867448099885098,2.206229385146771,-3.7514561985741937,3.248434869845545,0.9783348055381291,0.47573216123658185,0.48811950409173854,0.4397826019113293,False,True,False,-2.071940581683896,2.340518188609646,False,-3.4946356025827074,3.7632132095084576,False,expanding_residual_calibrated_gaussian
ar,exact,pre_third,T,2014:Q3:pre_third:exact,2014-12-22,2014:Q3,3.5211831147590145,4.9667,-1.445516885240986,38,5.415876995791614,2.327203685926871,-1.9565127512136407,0.8909658851304996,0.7327459026054068,0.06513306586160234,0.9232263668080902,0.05491104503153834,False,True,False,1.1939794288321433,5.848386800685885,True,-0.3067263086926344,7.349092538210663,True,expanding_residual_calibrated_gaussian
ar,exact,pre_third,T,2014:Q4:pre_third:exact,2015-03-26,2014:Q4,3.695722785247861,2.2174,1.4783227852478604,39,5.369585403186454,2.3172365876592003,-1.9628154657499297,0.9055178431039205,0.261747256303424,0.05536912638176289,0.9342961541042978,0.04636268055856155,False,True,False,1.3784861975886606,6.012959372907061,True,-0.11579222046802773,7.5072377909637495,True,expanding_residual_calibrated_gaussian
ar,exact,pre_third,T,2015:Q1:pre_third:exact,2015-06-23,2015:Q1,2.480038693598676,-0.1717,2.651738693598676,40,5.258748560327921,2.293196145192975,-2.4174584067456086,1.6391486477213504,0.12376889352694992,0.13974251194055634,0.8399524310201281,0.12126398701349624,True,False,False,0.1868425484057008,4.773234838791651,False,-1.2919333031331242,6.252010690330476,True,expanding_residual_calibrated_gaussian
ar,exact,pre_third,T,2015:Q2:pre_third:exact,2015-09-24,2015:Q2,1.418017293536895,3.921,-2.5029827064631047,41,5.24359115657014,2.289888896119229,-2.3448303628980094,1.5296502951393975,0.8628159599505523,0.2678753218413823,0.7026062112256187,0.239910014839037,False,True,False,-0.8718716025823339,3.707906189656124,False,-2.3485147625607214,5.184549349634512,True,expanding_residual_calibrated_gaussian
ar,exact,pre_third,T,2015:Q3:pre_third:exact,2015-12-21,2015:Q3,3.2223911292758194,1.9835,1.2388911292758191,42,5.333460339351721,2.30942857420439,-1.8998275329778163,0.7986597444050771,0.2958240652610835,0.0814597306688356,0.9046850821357074,0.06918063369824506,False,True,False,0.9129625550714295,5.53181970348021,True,-0.5762808371896382,7.021063095741277,True,expanding_residual_calibrated_gaussian
ar,exact,pre_third,T,2015:Q4:pre_third:exact,2016-03-24,2015:Q4,2.3729717949290334,1.3865,0.9864717949290334,43,5.220974127375303,2.2849451037990614,-1.8384745016894104,0.7012935845551799,0.33297003201684183,0.14951293461649917,0.8291965902893051,0.1300713110709324,False,True,False,0.08802669112997208,4.657916898728095,True,-1.3854284464398607,6.131372036297927,True,expanding_residual_calibrated_gaussian
ar,exact,pre_third,T,2016:Q1:pre_third:exact,2016-06-27,2016:Q1,2.1080726681434068,1.0729,1.0351726681434068,44,5.1056747229272785,2.259574013597979,-1.8390551762422487,0.7140049934290335,0.32343047322061047,0.17542253908497452,0.8007879622150236,0.15351741663505325,False,True,False,-0.15150134545457217,4.367646681741386,True,-1.6085958434885241,5.824741179775337,True,expanding_residual_calibrated_gaussian
ar,exact,pre_third,T,2016:Q2:pre_third:exact,2016-09-28,2016:Q2,1.9654855548003072,1.4138,0.5516855548003075,45,4.996500694278218,2.2352853720002326,-1.7537644471569522,0.5764209661500032,0.4025285405465698,0.18961942377966157,0.7851851796426764,0.16632906972242206,False,True,False,-0.2697998171999254,4.20077092680054,True,-1.711231696605846,5.642202806206461,True,expanding_residual_calibrated_gaussian
ar,exact,pre_third,T,2016:Q3:pre_third:exact,2016-12-21,2016:Q3,2.1107849396014986,3.5164,-1.4056150603985014,46,4.885545433004395,2.2103269968501027,-1.9142830043144516,0.8615976259418302,0.7375892433407156,0.16979769626757749,0.8063380497948278,0.14790766733681493,False,True,False,-0.0995420572486041,4.321111936451601,True,-1.524879437916148,5.746449317119145,True,expanding_residual_calibrated_gaussian
ar,exact,pre_third,T,2016:Q4:pre_third:exact,2017-03-29,2016:Q4,3.034014951742882,2.0798,0.9542149517428816,47,4.856038941340007,2.203642199028691,-1.8028020128902054,0.6772914901034442,0.3325011409598912,0.08428421256663296,0.9007888488444395,0.07110955844594784,False,True,False,0.8303727527141906,5.2376571507715735,True,-0.5906539118327787,6.658683815318542,True,expanding_residual_calibrated_gaussian
ar,exact,pre_third,T,2017:Q1:pre_third:exact,2017-06-28,2017:Q1,2.4042031026748187,1.4231,0.9811031026748188,48,4.757959789996335,2.1812748084540687,-1.8000009594713724,0.6828911370641799,0.3264329996706731,0.13518716585717347,0.8438748344040751,0.11626041722095268,False,True,False,0.22292829422075,4.585477911128887,True,-1.1836746773887339,5.992080882738371,True,expanding_residual_calibrated_gaussian
ar,exact,pre_third,T,2017:Q2:pre_third:exact,2017-09-27,2017:Q2,2.1134647180693005,3.0612,-0.9477352819306994,49,4.664311548870563,2.1597017268295553,-1.78519319387839,0.6680161218345819,0.6696065277940954,0.1638910487805239,0.8121873674954839,0.14204056465276055,False,True,False,-0.04623700876025483,4.273166444898855,True,-1.4389285004396513,5.665857936578252,True,expanding_residual_calibrated_gaussian
ar,exact,pre_third,T,2017:Q3:pre_third:exact,2017-12-20,2017:Q3,2.8307739828235228,3.1557,-0.3249260171764772,50,4.6095298420726465,2.146981565377925,-1.694453492430911,0.5213192687737523,0.5601465770269587,0.09366981506119637,0.8897756908633128,0.07902738177398333,False,True,False,0.6837924174455976,4.977755548201448,True,-0.7006964319863069,6.3622443976333525,True,expanding_residual_calibrated_gaussian
ar,exact,pre_third,T,2017:Q4:pre_third:exact,2018-03-27,2017:Q4,2.873440670811494,2.8879,-0.0144593291885062,51,4.52897004848068,2.128137694906201,-1.674208890493354,0.49737428288681357,0.5027105357853325,0.08847372248947248,0.8954845768233086,0.07434240558524893,False,True,False,0.7453029759052927,5.001578365717695,True,-0.6270343353071168,6.373915676930105,True,expanding_residual_calibrated_gaussian
ar,exact,pre_third,T,2018:Q1:pre_third:exact,2018-06-27,2018:Q1,2.7570883014971956,1.9908,0.7662883014971957,52,4.443968176805424,2.108072146964004,-1.7307792164626237,0.6025625335059587,0.3581149843972107,0.09545838278900758,0.8874347984029651,0.08034640146519106,False,True,False,0.6490161545331916,4.8651604484612,True,-0.7103818153119232,6.224558418306314,True,expanding_residual_calibrated_gaussian
ar,exact,pre_third,T,2018:Q2:pre_third:exact,2018-09-26,2018:Q2,2.3634855046998378,4.1585,-1.7950144953001623,53,4.360748971334592,2.088240640188432,-2.024701229802046,1.0682884470050769,0.8049903062994819,0.1288577789425986,0.8499065469459512,0.1098020615796593,False,True,False,0.27524486451140584,4.451726144888269,True,-1.0713646862615689,5.798335695661244,True,expanding_residual_calibrated_gaussian
ar,exact,pre_third,T,2018:Q3:pre_third:exact,2018-12-20,2018:Q3,3.313377781878944,3.3561,-0.0427222181210562,54,4.369993769182069,2.090453005733941,-1.6565281567173693,0.4888766745676549,0.5081525452742033,0.05648263632108132,0.9317999686803455,0.046412765692597426,False,True,False,1.2229247761450028,5.403830787612884,True,-0.12511142657413554,6.751866990332023,True,expanding_residual_calibrated_gaussian
ar,exact,pre_third,T,2018:Q4:pre_third:exact,2019-04-25,2018:Q4,2.965277970332166,2.1669,0.7983779703321661,55,4.292424388482044,2.0718166879533633,-1.721612328052538,0.6054136745129787,0.3499884512832395,0.07617995732604699,0.9090146383517245,0.06328371239544389,False,True,False,0.8934612823788028,5.037094658285529,True,-0.44255722322651003,6.373113163890842,True,expanding_residual_calibrated_gaussian
ar,exact,pre_third,T,2019:Q1:pre_third:exact,2019-06-26,2019:Q1,2.445392866771208,3.1268,-0.6814071332287917,56,4.2175191712086875,2.053659945367949,-1.693608140198229,0.5693091116808787,0.6299803659158357,0.11687613081609048,0.8628824606673167,0.09884935014996583,False,True,False,0.3917329214032592,4.499052812139157,True,-0.9325771428922249,5.823362876434642,True,expanding_residual_calibrated_gaussian
ar,exact,pre_third,T,2019:Q2:pre_third:exact,2019-09-25,2019:Q2,2.86498901665629,2.0143,0.8506890166562902,57,4.162217837940147,2.040151425247682,-1.7188960032088443,0.6162686193549579,0.3383489069437411,0.0801144483455507,0.9042696568407039,0.06650542556214907,False,True,False,0.8248375914086084,4.905140441903972,True,-0.4907614546925747,6.2207394880051545,True,expanding_residual_calibrated_gaussian
ar,exact,pre_third,T,2019:Q3:pre_third:exact,2019-12-19,2019:Q3,2.3786343473599274,2.1024,0.2762343473599276,58,4.093215670253815,2.0231697087129925,-1.6329249394023713,0.48782768555955086,0.4456990086137052,0.1198580096478075,0.8592245964982231,0.10123398510238582,False,True,False,0.3554646386469349,4.40180405607292,True,-0.949183685954992,5.706452380674847,True,expanding_residual_calibrated_gaussian
ar,exact,pre_third,T,2019:Q4:pre_third:exact,2020-03-25,2019:Q4,2.41550164741769,2.1275,0.2880016474176901,59,4.022812345145267,2.0056949780924485,-1.6252384800455792,0.48519069842017387,0.4429113499747658,0.11423266387320517,0.8653347104497263,0.09611038289706604,False,True,False,0.40980666932524157,4.421196625510138,True,-0.8835730118560274,5.7145763066914075,True,expanding_residual_calibrated_gaussian
ar,exact,pre_third,T,2020:Q1:pre_third:exact,2020-06-24,2020:Q1,2.4250162204474304,-4.9937,7.41871622044743,60,3.9547537872195884,1.9886562767908356,-8.564776573726187,6.2968278343176145,9.554359130617185e-05,0.11134155454626683,0.8683988054388562,0.0934183538921169,True,False,True,0.4363599436565948,4.413672497238266,False,-0.8460322691917863,5.696064710086647,False,expanding_residual_calibrated_gaussian
ar,exact,pre_third,T,2020:Q2:pre_third:exact,2020-09-29,2020:Q2,-0.7119618796649088,-31.3827,30.67073812033509,61,4.7026327238388355,2.1685554463372236,-101.71082300223779,29.447261726165873,1.0257063781170885e-45,0.6286619578572439,0.3370459162057433,0.5933163691255972,True,False,True,-2.880517326002132,1.4565935666723149,False,-4.278918170818059,2.854994411488242,False,expanding_residual_calibrated_gaussian
ar,exact,pre_third,T,2020:Q3:pre_third:exact,2020-12-21,2020:Q3,-15.911115669469648,33.441,-49.352115669469654,62,19.318504307338547,4.395282050942641,-65.43828738172031,46.872343319573396,1.0,0.9998527237006261,0.00012340493832652122,0.9998245785479102,False,True,False,-20.30639772041229,-11.515833618527008,False,-23.140711292437356,-8.68152004650194,False,expanding_residual_calibrated_gaussian
ar,exact,pre_third,T,2020:Q4:pre_third:exact,2021-03-24,2020:Q4,4.071816148283844,4.3251,-0.2532838517161559,63,59.21097792426901,7.6948669854825305,-2.960033744368695,1.8015774779652545,0.5131291930150919,0.29834721601239494,0.6925771623611464,0.2893955553348468,False,True,False,-3.6230508371986865,11.766683133766374,True,-8.585113721696237,16.728746018263926,True,expanding_residual_calibrated_gaussian
ar,exact,pre_third,T,2021:Q1:pre_third:exact,2021-06-23,2021:Q1,2.7061439933308957,6.361,-3.654856006669104,64,58.27400758827736,7.633741388616552,-3.0661300805932057,2.469024221995508,0.6839511828459423,0.3614829524791223,0.6286569190892054,0.35171397235907165,False,True,False,-4.927597395285656,10.339885381947447,True,-9.850243216944607,15.262531203606398,True,expanding_residual_calibrated_gaussian
ar,exact,pre_third,T,2021:Q2:pre_third:exact,2021-09-29,2021:Q2,2.8273408220621876,6.7251,-3.8977591779378127,65,57.588523033367075,7.5887102351695495,-3.077506034565766,2.555016284863299,0.6962432645493739,0.35473351402309783,0.6354101965178005,0.3449735254328019,False,True,False,-4.761369413107362,10.416051057231737,True,-9.654976732140206,15.30965837626458,True,expanding_residual_calibrated_gaussian
ar,exact,pre_third,T,2021:Q3:pre_third:exact,2021-12-21,2021:Q3,2.8766186327823062,2.3038,0.5728186327823064,66,56.94602868677811,7.546259251230248,-2.942871494191188,1.7808610899238757,0.46974629443482496,0.3515281813395871,0.6385908624548158,0.34174654372264207,False,True,False,-4.669640618447942,10.422877884012554,True,-9.535873266519868,15.289110532084482,True,expanding_residual_calibrated_gaussian
ar,exact,pre_third,T,2021:Q4:pre_third:exact,2022-03-29,2021:Q4,2.6373593646155387,6.8946,-4.257240635384461,67,56.08728621613248,7.489144558367964,-3.0939635780321133,2.6904535561124496,0.7151369264361316,0.36236002694142416,0.6275806130336298,0.35239482096183883,False,True,False,-4.851785193752425,10.126503922983503,True,-9.681187224979887,14.955905954210966,True,expanding_residual_calibrated_gaussian
ar,exact,pre_third,T,2022:Q1:pre_third:exact,2022-06-28,2022:Q1,2.898318076296747,-1.574,4.472318076296747,68,55.524008654167,7.451443394012129,-3.107463230136718,2.78120560517515,0.2741881870914371,0.3486526371716022,0.6413688906139796,0.33877779085971643,True,False,True,-4.5531253177153825,10.349761470308875,True,-9.358215616367692,15.154851768961185,True,expanding_residual_calibrated_gaussian
ar,exact,pre_third,T,2022:Q2:pre_third:exact,2022-09-28,2022:Q2,2.450535669555063,-0.5769,3.0274356695550626,69,54.99806247948431,7.416067858338697,-3.0059119627692494,2.219407740565499,0.3415536851872439,0.3705352784042459,0.6192331991544084,0.36039452214157375,True,False,True,-4.965532188783634,9.86660352789376,True,-9.74781044495158,14.648881784061706,True,expanding_residual_calibrated_gaussian
ar,exact,pre_third,T,2022:Q3:pre_third:exact,2022-12-21,2022:Q3,2.476014724582227,3.2435,-0.7674852754177732,70,54.32683005832647,7.37067365023893,-2.9218688435216325,1.7543424472892566,0.5414656715071777,0.3684626286677416,0.6212606213449929,0.35827912254612826,False,True,False,-4.894658925656703,9.846688374821158,True,-9.647664562088925,14.599694011253378,True,expanding_residual_calibrated_gaussian
ar,exact,pre_third,T,2022:Q4:pre_third:exact,2023-03-29,2022:Q4,2.6751335642985263,2.5735,0.1016335642985262,71,53.561377055316086,7.318563865630749,-2.9094490743614827,1.7108746720431418,0.49446003020999274,0.3573589836213174,0.6323935183063197,0.3472133323510901,False,True,False,-4.643430301332222,9.993697429929275,True,-9.362832754160197,14.71309988275725,True,expanding_residual_calibrated_gaussian
ar,exact,pre_third,T,2023:Q1:pre_third:exact,2023-06-28,2023:Q1,2.640678980319079,2.0027,0.6379789803190792,72,52.80699346833937,7.2668420561024565,-2.906114169104707,1.720554979471644,0.46502053972238244,0.35815774921989174,0.6315137200041269,0.3479319953404878,False,True,False,-4.626163075783378,9.907521036421535,True,-9.31221253214454,14.593570492782698,True,expanding_residual_calibrated_gaussian
ar,exact,pre_third,T,2023:Q2:pre_third:exact,2023-09-27,2023:Q2,2.60892873043342,2.0617,0.54722873043342,73,52.07767967867264,7.216486657555229,-2.8981818763637808,1.7030034844517887,0.46977703373209384,0.3588541109666497,0.6307381822161352,0.3485501555846253,False,True,False,-4.607557927121809,9.825415387988649,True,-9.261135522093205,14.478992982960044,True,expanding_residual_calibrated_gaussian
ar,exact,pre_third,T,2023:Q3:pre_third:exact,2023-12-20,2023:Q3,2.6095068723951225,4.8609,-2.2513931276048775,74,51.36702250000952,7.167079077281729,-2.9377754897648085,1.9547567911303547,0.6232887719939141,0.3578930551154975,0.6316365482782117,0.3475284948315992,False,True,False,-4.557572204886606,9.776585949676852,True,-9.179289142519739,14.398302887309985,True,expanding_residual_calibrated_gaussian
ar,exact,pre_third,T,2023:Q4:pre_third:exact,2024-03-27,2023:Q4,2.7608681404490913,3.3967,-0.6358318595509087,75,50.74680593144402,7.123679241195804,-2.886346198624538,1.6873937617306878,0.5355608108873174,0.3491700575194498,0.6403844975822779,0.33883764552691986,False,True,False,-4.362811100746713,9.884547381644895,True,-8.956541496670738,14.47827777756892,True,expanding_residual_calibrated_gaussian
ar,exact,pre_third,T,2024:Q1:pre_third:exact,2024-06-26,2024:Q1,2.689824280806622,1.4095,1.2803242808066222,76,50.07677387477602,7.07649446228682,-2.8920843570635513,1.7459026883764683,0.4282126947586752,0.3519330368634753,0.6375224853745771,0.3415012225922427,False,True,False,-4.386670181480198,9.766318743093443,True,-8.94997330158786,14.329621863201105,True,expanding_residual_calibrated_gaussian
ar,exact,pre_third,T,2024:Q2:pre_third:exact,2024-09-25,2024:Q2,2.5835523848256576,2.9895,-0.4059476151743424,77,49.437124756423536,7.031153870910773,-2.8709560583413043,1.652493002405783,0.5230203664376907,0.3566440828445758,0.632694664704654,0.3460936726971656,False,True,False,-4.447601486085115,9.61470625573643,True,-8.981666561395809,14.148771331047126,True,expanding_residual_calibrated_gaussian
ar,exact,pre_third,T,2024:Q3:pre_third:exact,2024-12-18,2024:Q3,2.66526432629407,3.073,-0.4077356737059299,78,48.798092738068,6.985563165419665,-2.8644875787549933,1.6419826985169412,0.5232723806315209,0.3514016933093358,0.6379214652004659,0.3408408392277208,False,True,False,-4.320298839125595,9.650827491713734,True,-8.824964582645073,14.155493235233212,True,expanding_residual_calibrated_gaussian
ar,exact,pre_third,T,2024:Q4:pre_third:exact,2025-03-26,2024:Q4,2.6712239159811935,2.4495,0.2217239159811934,79,48.1753926543836,6.940849562869347,-2.856872950131845,1.6248671174459384,0.4872580435736761,0.3501722498837464,0.6390949021896861,0.33955775904575625,False,True,False,-4.269625646888153,9.61207347885054,True,-8.745457661628993,14.087905493591379,True,expanding_residual_calibrated_gaussian
ar,pseudo,pre_advance,A,2008:Q1:pre_advance:pseudo,2008-04-30,2008:Q1,1.6969903269109072,0.5974,1.0995903269109073,12,2.829429303501242,1.6820907536459626,-1.6526408481297332,0.6700671558747763,0.2566510956583118,0.1565214252697116,0.8132558132591579,0.1297111904165388,False,True,False,0.014899573264944621,3.37908108055687,True,-1.0698027500851897,4.463783403907004,True,expanding_residual_calibrated_gaussian
ar,pseudo,pre_advance,A,2008:Q2:pre_advance:pseudo,2008-07-31,2008:Q2,1.668900406211416,1.8886,-0.2196995937885841,13,2.6738313958798288,1.6351854316498262,-1.4197207276138615,0.39389304119297536,0.5534400969459938,0.1537176244744469,0.8154893566405967,0.12653409179197983,False,True,False,0.033714974561589894,3.3040858378612423,True,-1.020740281776009,4.358541094198841,True,expanding_residual_calibrated_gaussian
ar,pseudo,pre_advance,A,2008:Q3:pre_advance:pseudo,2008-10-31,2008:Q3,2.293316691295042,-0.2522,2.5455166912950418,14,2.4782948572836694,1.5742600983584858,-2.680004849100822,1.727636785892968,0.05294338351872543,0.07259153532756624,0.9081938443966169,0.05661936317008903,True,False,True,0.7190565929365562,3.867576789653528,False,-0.2961107412548949,4.882744123844979,True,expanding_residual_calibrated_gaussian
ar,pseudo,pre_advance,A,2008:Q4:pre_advance:pseudo,2009-01-31,2008:Q4,1.242601576815071,-3.8037,5.046301576815071,15,2.6901869327167622,1.6401789331401504,-6.1467160139720445,4.121883393843465,0.001046608268083486,0.22434487187304947,0.7375020537910766,0.18955450905191978,True,False,True,-0.3975773563250793,2.8827805099552215,False,-1.4552526902099017,3.940455843840044,False,expanding_residual_calibrated_gaussian
ar,pseudo,pre_advance,A,2009:Q1:pre_advance:pseudo,2009-04-30,2009:Q1,-0.560711208882571,-6.1437,5.582988791117429,16,3.924008903077622,1.9809111295254065,-5.57416887395641,4.4682136654335,0.0024132243738730075,0.6114335149675817,0.3504814908360179,0.572245358448585,True,False,True,-2.5416223384079775,1.4201999206428355,False,-3.8190200649509736,2.697597647185831,False,expanding_residual_calibrated_gaussian
ar,pseudo,pre_advance,A,2009:Q2:pre_advance:pseudo,2009-07-31,2009:Q2,-1.9285959860780209,-1.0173,-0.9112959860780208,17,5.146151086414406,2.268512968094828,-1.8187505934827937,0.6742526668857097,0.6560531565304171,0.802381564000159,0.17403943769516772,0.7769685646238651,True,False,True,-4.197108954172849,0.3399169820168073,True,-5.659967769435248,1.8027757972792064,True,expanding_residual_calibrated_gaussian
ar,pseudo,pre_advance,A,2009:Q3:pre_advance:pseudo,2009-10-31,2009:Q3,0.7230708989235709,3.5339,-2.810829101076429,18,5.0221422503761275,2.24101366581646,-2.5124594634153206,1.7711912491026247,0.8951274815164041,0.3734788364976675,0.5922777652306724,0.3402067905136493,False,True,False,-1.5179427668928889,2.964084564740031,False,-2.9630685573424476,4.40921035518959,True,expanding_residual_calibrated_gaussian
ar,pseudo,pre_advance,A,2009:Q4:pre_advance:pseudo,2010-01-31,2009:Q4,3.0489331608262917,5.7309,-2.6819668391737084,19,5.422745096170093,2.3286788306183603,-2.4274596256394245,1.656393194857255,0.8752802348643967,0.09521681337502315,0.8894129007216784,0.08148032820727358,False,True,False,0.7202543302079314,5.3776119914446525,False,-0.7814026597214312,6.879268981374015,True,expanding_residual_calibrated_gaussian
ar,pseudo,pre_advance,A,2010:Q1:pre_advance:pseudo,2010-04-30,2010:Q1,4.173936693115149,3.2387,0.9352366931151486,20,5.673756941570443,2.3819649329010795,-1.8639443970674208,0.7012932101264326,0.34729548971003016,0.039860413073026076,0.952376262175863,0.03315868268696324,False,True,False,1.7919717602140692,6.555901626016228,True,0.2559530339615881,8.091920352268708,True,expanding_residual_calibrated_gaussian
ar,pseudo,pre_advance,A,2010:Q2:pre_advance:pseudo,2010-07-31,2010:Q2,2.910267276883183,2.3866,0.5236672768831832,21,5.402239733102709,2.3242718715982233,-1.7877262500584905,0.590041455838554,0.41087147318856,0.10526307199143031,0.8782072385538616,0.0904207664263379,False,True,False,0.5859954052849599,5.234539148481407,True,-0.9128197411364409,6.733354294902807,True,expanding_residual_calibrated_gaussian
ar,pseudo,pre_advance,A,2010:Q3:pre_advance:pseudo,2010-10-31,2010:Q3,2.4788331064407743,2.0097,0.4691331064407742,22,5.145212372029453,2.268306057839077,-1.7593592989959748,0.568662329226631,0.4180748655497855,0.13723807650046188,0.8424651093522149,0.11880454455172332,False,True,False,0.21052704860169724,4.747139164279851,True,-1.2521983398318275,6.209864552713376,True,expanding_residual_calibrated_gaussian
ar,pseudo,pre_advance,A,2010:Q4:pre_advance:pseudo,2011-01-31,2010:Q4,2.286700159857185,3.173,-0.886299840142815,23,4.911345550904534,2.2161555791289866,-1.79468319900927,0.6574564927239761,0.6553947557702134,0.1510754216947209,0.826797575064664,0.13091456752773534,False,True,False,0.07054458072819836,4.502855738986172,True,-1.3585513823618691,5.931951702076239,True,expanding_residual_calibrated_gaussian
ar,pseudo,pre_advance,A,2011:Q1:pre_advance:pseudo,2011-04-30,2011:Q1,2.8763506867146234,1.7482,1.1281506867146234,24,4.773046570750931,2.184730319913863,-1.833754998838643,0.737936313103927,0.3027945726679424,0.09399137790151954,0.8897172223856256,0.07954856747274214,False,True,False,0.6916203668007603,5.061081006628486,True,-0.7172109039065444,6.469912277335791,True,expanding_residual_calibrated_gaussian
ar,pseudo,pre_advance,A,2011:Q2:pre_advance:pseudo,2011-07-31,2011:Q2,2.154458004406833,1.2822,0.8722580044068331,25,4.595291885203722,2.1436631930421632,-1.7642387517275309,0.6406351201771276,0.3420404693791701,0.15743983366954648,0.819046526585752,0.13602935207709108,False,True,False,0.010794811364669865,4.298121197448996,True,-1.3715541736309431,5.680470182444609,True,expanding_residual_calibrated_gaussian
ar,pseudo,pre_advance,A,2011:Q3:pre_advance:pseudo,2011-10-31,2011:Q3,1.9151305097337552,2.4637,-0.5485694902662444,26,4.418984529604549,2.1021380852847296,-1.6959430024169126,0.5480472065667407,0.6029375040748441,0.18113732097820526,0.7927207959792087,0.1571643570034843,False,True,False,-0.18700757555097436,4.017268595018485,True,-1.5425789441996556,5.372839963667166,True,expanding_residual_calibrated_gaussian
ar,pseudo,pre_advance,A,2011:Q4:pre_advance:pseudo,2012-01-31,2011:Q4,2.5119444400984148,2.7523,-0.2403555599015852,27,4.2857723968040355,2.0702107131410648,-1.6533287638059562,0.49491814279778223,0.5462141396352196,0.11249300779426127,0.8679531669295842,0.09510049922129159,False,True,False,0.44173372695735,4.58215515323948,True,-0.8932491599654595,5.917138040162289,True,expanding_residual_calibrated_gaussian
ar,pseudo,pre_advance,A,2012:Q1:pre_advance:pseudo,2012-04-30,2012:Q1,2.6581713872564583,2.2043,0.4538713872564583,28,4.142175592674255,2.0352335474520498,-1.654415178395364,0.5158368846089488,0.41176501785393643,0.09576321511571655,0.886439440745257,0.0801079727950203,False,True,False,0.6229378398044085,4.693404934708508,True,-0.6894898949633568,6.005832669476273,True,expanding_residual_calibrated_gaussian
ar,pseudo,pre_advance,A,2012:Q2:pre_advance:pseudo,2012-07-31,2012:Q2,2.3805589828766736,1.5369,0.8436589828766736,29,3.9943931588679438,1.998597798174496,-1.7004793121901358,0.6070648549913724,0.3364667284999201,0.11680430286616006,0.8623733321535366,0.09831981227035383,False,True,False,0.38196118470217755,4.37915678105117,True,-0.9068418542678724,5.66795982002122,True,expanding_residual_calibrated_gaussian
ar,pseudo,pre_advance,A,2012:Q3:pre_advance:pseudo,2012-10-31,2012:Q3,2.040732580983052,2.0138,0.0269325809830522,30,3.8635253040521036,1.9655852319480078,-1.5948224354704246,0.45949461625137844,0.49453383709819,0.149581136251762,0.8254871205608332,0.12714681566548908,False,True,False,0.07514734903504428,4.00631781293106,True,-1.1923674168688794,5.273832578834984,True,expanding_residual_calibrated_gaussian
ar,pseudo,pre_advance,A,2012:Q4:pre_advance:pseudo,2013-01-31,2012:Q4,2.280117534260134,-0.1435,2.423617534260134,31,3.739347408132118,1.9337392296098557,-2.3638148177852303,1.526908035209273,0.10504242749957485,0.11917448406286721,0.8589686105539172,0.09982486264134657,True,False,False,0.3463783046502784,4.213856763869989,False,-0.9006004511419827,5.4608355196622504,True,expanding_residual_calibrated_gaussian
ar,pseudo,pre_advance,A,2013:Q1:pre_advance:pseudo,2013-04-30,2013:Q1,1.1815766684837352,2.5024,-1.320823331516265,32,3.74762741821742,1.9358789781950265,-1.81225717469567,0.7986002116617693,0.7524709718821673,0.2708127785616874,0.6939381805648832,0.23771596322339858,False,True,False,-0.7543023097112913,3.1174556466787617,True,-2.002660890139464,4.3658142271069345,True,expanding_residual_calibrated_gaussian
ar,pseudo,pre_advance,A,2013:Q2:pre_advance:pseudo,2013-07-31,2013:Q2,2.519701700428011,1.6737,0.8460017004280111,33,3.726193834025757,1.9303351610603163,-1.672671047838425,0.5967042885542035,0.33059646622757055,0.0958922523430145,0.8852619101812513,0.07942834886606241,False,True,False,0.5893665393676948,4.450036861488328,True,-0.6554170904740046,5.694820491330027,True,expanding_residual_calibrated_gaussian
ar,pseudo,pre_advance,A,2013:Q3:pre_advance:pseudo,2013-10-31,2013:Q3,2.099963301346884,2.8463,-0.7463366986531157,34,3.619070574771359,1.9023854958370974,-1.6390031666911005,0.5599127707559671,0.6525877120719669,0.13482738700520033,0.8410364629786178,0.1133335192476088,False,True,False,0.19757780550978676,4.0023487971839815,True,-1.0291823813406404,5.229108984034409,True,expanding_residual_calibrated_gaussian
ar,pseudo,pre_advance,A,2013:Q4:pre_advance:pseudo,2014-01-31,2013:Q4,2.6913894106754146,3.2279,-0.5365105893245854,35,3.551181528945583,1.8844578872836568,-1.5931065849671762,0.5009169300671015,0.6120641083180209,0.07661664214213856,0.9069279473024235,0.06247364812217492,False,True,False,0.8069315233917578,4.575847297959071,True,-0.40826798006041676,5.791046801411246,True,expanding_residual_calibrated_gaussian
ar,pseudo,pre_advance,A,2014:Q1:pre_advance:pseudo,2014-04-30,2014:Q1,2.885331400078016,0.1079,2.777431400078016,36,3.4731598242871895,1.8636415493026521,-2.652005078463341,1.8376508626830148,0.06806941460128653,0.0607843924542647,0.9251943121301559,0.04890759885509846,False,False,False,1.0216898507753638,4.7489729493806685,False,-0.1800861616299123,5.950748961785944,True,expanding_residual_calibrated_gaussian
ar,pseudo,pre_advance,A,2014:Q2:pre_advance:pseudo,2014-07-31,2014:Q2,1.3107508272494848,3.9481,-2.6373491727505156,37,3.5350740553719597,1.8801792614992752,-2.5341055085191497,1.7136356201154326,0.9196485646651974,0.24285714966000443,0.7226622540474898,0.21083878216077442,False,True,False,-0.5694284342497904,3.19093008874876,False,-1.7818688503465385,4.403370504845508,True,expanding_residual_calibrated_gaussian
ar,pseudo,pre_advance,A,2014:Q3:pre_advance:pseudo,2014-10-31,2014:Q3,3.238982377191952,3.549,-0.310017622808048,38,3.6858404803339364,1.9198542862243313,-1.5842256813476125,0.4685886969608865,0.5641422270902825,0.04579225225123222,0.9432805438351485,0.036624780490621164,False,True,False,1.3191280909676206,5.158836663416283,True,0.08110309127753057,6.396861663106373,True,expanding_residual_calibrated_gaussian
ar,pseudo,pre_advance,A,2014:Q4:pre_advance:pseudo,2015-01-31,2014:Q4,3.0427097178889815,2.6422,0.4005097178889816,39,3.5997290070443126,1.8972951818429078,-1.581648387425036,0.47699249082991924,0.4164065314990455,0.05438908470346993,0.932971814190394,0.04371413843262606,False,True,False,1.1454145360460737,4.940004899731889,True,-0.07806314336287823,6.163482579140841,True,expanding_residual_calibrated_gaussian
ar,pseudo,pre_advance,A,2015:Q1:pre_advance:pseudo,2015-04-30,2015:Q1,2.5903488271467494,0.2482,2.342148827146749,40,3.507571544903898,1.8728511806611592,-2.328374730227443,1.4747599377025873,0.10554401226193219,0.08331641866441371,0.8990779779678513,0.06812611859704128,False,True,False,0.7174976464855902,4.463200007807909,False,-0.490217230104105,5.670914884397604,True,expanding_residual_calibrated_gaussian
ar,pseudo,pre_advance,A,2015:Q2:pre_advance:pseudo,2015-07-31,2015:Q2,1.390376751447678,2.3219,-0.9315232485523216,41,3.5189565284060045,1.8758881972031287,-1.6713152275552443,0.6192250112054197,0.6902563714140427,0.2292911947210578,0.7371445727793251,0.19827486893403465,False,True,False,-0.4855114457554508,3.2662649486508064,True,-1.6951847534773468,4.475938256372703,True,expanding_residual_calibrated_gaussian
ar,pseudo,pre_advance,A,2015:Q3:pre_advance:pseudo,2015-10-31,2015:Q3,2.424470362325405,1.4923,0.9321703623254052,42,3.4738244344866067,1.8638198503306607,-1.666636474247424,0.6177762207137745,0.30848834529639546,0.09666222093927929,0.8836633378720952,0.07954869479124402,False,True,False,0.5606505119947445,4.288290212656066,True,-0.6412404784751322,5.4901812031259425,True,expanding_residual_calibrated_gaussian
ar,pseudo,pre_advance,A,2015:Q4:pre_advance:pseudo,2016-01-31,2015:Q4,2.008917859431345,0.6914,1.317517859431345,43,3.399139683467734,1.8436755906253501,-1.7860368704974947,0.7912648831264038,0.23742354919319733,0.13793884305953785,0.8367400170959116,0.11543797459910118,False,True,False,0.1652422688059949,3.852593450056695,True,-1.0236586227306597,5.041494341593349,True,expanding_residual_calibrated_gaussian
ar,pseudo,pre_advance,A,2016:Q1:pre_advance:pseudo,2016-04-30,2016:Q1,1.6043088567904404,0.5378,1.0665088567904406,44,3.3409974243810843,1.8278395510495675,-1.6922980152004081,0.6686030405015256,0.2797849178043524,0.1900511811270287,0.7788422191879213,0.16179031428089874,False,True,False,-0.22353069425912708,3.4321484078400077,True,-1.4022196582387911,4.610837371819672,True,expanding_residual_calibrated_gaussian
ar,pseudo,pre_advance,A,2016:Q2:pre_advance:pseudo,2016-07-31,2016:Q2,1.5206972524992943,1.2182,0.3024972524992946,45,3.2755331864287247,1.8098434148922178,-1.5261467556596404,0.4430747707418095,0.433629941363141,0.2003877814509133,0.7672224168776001,0.17086724543539525,False,True,False,-0.28914616239292346,3.330540667391512,True,-1.456230252700408,4.497624757698997,True,expanding_residual_calibrated_gaussian
ar,pseudo,pre_advance,A,2016:Q3:pre_advance:pseudo,2016-10-31,2016:Q3,1.8569616370497055,2.9014,-1.0444383629502945,46,3.2029313424448143,1.7896735295703556,-1.671261303835078,0.6547298349688274,0.7202524292905872,0.14972862964537245,0.8227369270276683,0.1252058021163509,False,True,False,0.06728810747934988,3.646635166620061,True,-1.0867893591231366,4.800712633222547,True,expanding_residual_calibrated_gaussian
ar,pseudo,pre_advance,A,2016:Q4:pre_advance:pseudo,2017-01-31,2016:Q4,2.6989919946313323,1.8735,0.8254919946313324,47,3.177290266796356,1.7824955166272807,-1.6041884561882587,0.5664049740492015,0.32164266153594856,0.0649920215270691,0.919536787814859,0.05193579680144015,False,True,False,0.9164964780040517,4.481487511258613,True,-0.23295222091778855,5.630936210180453,True,expanding_residual_calibrated_gaussian
ar,pseudo,pre_advance,A,2017:Q1:pre_advance:pseudo,2017-04-30,2017:Q1,2.1845658852730665,0.6941,1.4904658852730663,48,3.1141479469536635,1.7646948594455822,-1.8435931094280051,0.8867561846127601,0.19916637548483132,0.10787130521371498,0.8696195175157968,0.0883056892727169,False,True,False,0.41987102582748426,3.9492607447186487,True,-0.718098854748618,5.087230625294751,True,expanding_residual_calibrated_gaussian
ar,pseudo,pre_advance,A,2017:Q2:pre_advance:pseudo,2017-07-31,2017:Q2,1.5908183564986205,2.5683,-0.9774816435013792,49,3.074778612776107,1.7535046657411857,-1.635927205466058,0.6217066601340524,0.7113881374537253,0.18214465375628752,0.7861591232975742,0.15356101961621402,False,True,False,-0.16268630924256522,3.344323022239806,True,-1.2934401528220976,4.4750768658193385,True,expanding_residual_calibrated_gaussian
ar,pseudo,pre_advance,A,2017:Q3:pre_advance:pseudo,2017-10-31,2017:Q3,2.526955126171118,2.9875,-0.4605448738288817,50,3.0497175289210317,1.7463440465501154,-1.5112369911262125,0.45628634327400797,0.6040019425998696,0.07394883941082436,0.9086474864983897,0.05920028632670478,False,True,False,0.7806110796210026,4.2732991727212335,True,-0.3455252127019497,5.399435465044186,True,expanding_residual_calibrated_gaussian
ar,pseudo,pre_advance,A,2017:Q4:pre_advance:pseudo,2018-01-31,2017:Q4,2.737122590012239,2.555,0.1821225900122387,51,3.0021780125077275,1.7326794315474885,-1.474131643698803,0.41254839871949467,0.45814411223304885,0.05708720491261084,0.9284408566457395,0.04502506891006198,False,True,False,1.0044431584647504,4.469802021559728,True,-0.11288145731286248,5.58712663733734,True,expanding_residual_calibrated_gaussian
